P3
320 320
255
0 156 255 0 156 255 0 156 255 0 156 255 0 156 255 0 156 255 0 156 255 0 156 255 0 156 255 0 156 255 0 152 255 0 152 255 0 152 255 0 152 255 0 152 255 0 152 255 0 152 255 0 152 255 0 152 255 0 152 255 0 172 255 0 172 255 0 172 255 0 172 255 0 172 255 0 172 255 0 172 255 0 172 255 0 172 255 0 172 255 0 148 255 0 148 255 0 148 255 0 148 255 0 148 255 0 148 255 0 148 255 0 148 255 0 148 255 0 148 255 0 173 255 0 173 255 0 173 255 0 173 255 0 173 255 0 173 255 0 173 255 0 173 255 0 173 255 0 173 255 0 170 255 0 170 255 0 170 255 0 170 255 0 170 255 0 170 255 0 170 255 0 170 255 0 170 255 0 170 255 0 152 255 0 152 255 0 152 255 0 152 255 0 152 255 0 152 255 0 152 255 0 152 255 0 152 255 0 152 255 0 164 255 0 164 255 0 164 255 0 164 255 0 164 255 0 164 255 0 164 255 0 164 255 0 164 255 0 164 255 0 152 255 0 152 255 0 152 255 0 152 255 0 152 255 0 152 255 0 152 255 0 152 255 0 152 255 0 152 255 0 168 255 0 168 255 0 168 255 0 168 255 0 168 255 0 168 255 0 168 255 0 168 255 0 168 255 0 168 255 0 161 255 0 161 255 0 161 255 0 161 255 0 161 255 0 161 255 0 161 255 0 161 255 0 161 255 0 161 255 0 156 255 0 156 255 0 156 255 0 156 255 0 156 255 0 156 255 0 156 255 0 156 255 0 156 255 0 156 255 0 154 255 0 154 255 0 154 255 0 154 255 0 154 255 0 154 255 0 154 255 0 154 255 0 154 255 0 154 255 0 144 255 0 144 255 0 144 255 0 144 255 0 144 255 0 144 255 0 144 255 0 144 255 0 144 255 0 144 255 0 167 255 0 167 255 0 167 255 0 167 255 0 167 255 0 167 255 0 167 255 0 167 255 0 167 255 0 167 255 0 167 255 0 167 255 0 167 255 0 167 255 0 167 255 0 167 255 0 167 255 0 167 255 0 167 255 0 167 255 0 169 255 0 169 255 0 169 255 0 169 255 0 169 255 0 169 255 0 169 255 0 169 255 0 169 255 0 169 255 0 156 255 0 156 255 0 156 255 0 156 255 0 156 255 0 156 255 0 156 255 0 156 255 0 156 255 0 156 255 0 148 255 0 148 255 0 148 255 0 148 255 0 148 255 0 148 255 0 148 255 0 148 255 0 148 255 0 148 255 0 158 255 0 158 255 0 158 255 0 158 255 0 158 255 0 158 255 0 158 255 0 158 255 0 158 255 0 158 255 0 156 255 0 156 255 0 156 255 0 156 255 0 156 255 0 156 255 0 156 255 0 156 255 0 156 255 0 156 255 0 147 255 0 147 255 0 147 255 0 147 255 0 147 255 0 147 255 0 147 255 0 147 255 0 147 255 0 147 255 0 157 255 0 157 255 0 157 255 0 157 255 0 157 255 0 157 255 0 157 255 0 157 255 0 157 255 0 157 255 0 162 255 0 162 255 0 162 255 0 162 255 0 162 255 0 162 255 0 162 255 0 162 255 0 162 255 0 162 255 0 154 255 0 154 255 0 154 255 0 154 255 0 154 255 0 154 255 0 154 255 0 154 255 0 154 255 0 154 255 0 145 255 0 145 255 0 145 255 0 145 255 0 145 255 0 145 255 0 145 255 0 145 255 0 145 255 0 145 255 0 171 255 0 171 255 0 171 255 0 171 255 0 171 255 0 171 255 0 171 255 0 171 255 0 171 255 0 171 255 0 170 255 0 170 255 0 170 255 0 170 255 0 170 255 0 170 255 0 170 255 0 170 255 0 170 255 0 170 255 0 0 0 0 0 0 0 0 0 0 0 0 0 0 0 0 0 0 0 0 0 0 0 0 0 0 0 0 0 0 255 254 0 255 254 0 255 254 0 255 254 0 255 254 0 255 254 0 255 254 0 255 254 0 255 254 0 255 254 0 255 254 0 255 254 0 255 254 0 255 254 0 255 254 0 255 254 0 255 254 0 255 254 0 255 254 0 255 254 0 255 254 0 255 254 0 255 254 0 255 254 0 255 254 0 255 254 0 255 254 0 255 254 0 255 254 0 255 254 0 
0 156 255 0 156 255 0 156 255 0 156 255 0 156 255 0 156 255 0 156 255 0 156 255 0 156 255 0 156 255 0 152 255 0 152 255 0 152 255 0 152 255 0 152 255 0 152 255 0 152 255 0 152 255 0 152 255 0 152 255 0 172 255 0 172 255 0 172 255 0 172 255 0 172 255 0 172 255 0 172 255 0 172 255 0 172 255 0 172 255 0 148 255 0 148 255 0 148 255 0 148 255 0 148 255 0 148 255 0 148 255 0 148 255 0 148 255 0 148 255 0 173 255 0 173 255 0 173 255 0 173 255 0 173 255 0 173 255 0 173 255 0 173 255 0 173 255 0 173 255 0 170 255 0 170 255 0 170 255 0 170 255 0 170 255 0 170 255 0 170 255 0 170 255 0 170 255 0 170 255 0 152 255 0 152 255 0 152 255 0 152 255 0 152 255 0 152 255 0 152 255 0 152 255 0 152 255 0 152 255 0 164 255 0 164 255 0 164 255 0 164 255 0 164 255 0 164 255 0 164 255 0 164 255 0 164 255 0 164 255 0 152 255 0 152 255 0 152 255 0 152 255 0 152 255 0 152 255 0 152 255 0 152 255 0 152 255 0 152 255 0 168 255 0 168 255 0 168 255 0 168 255 0 168 255 0 168 255 0 168 255 0 168 255 0 168 255 0 168 255 0 161 255 0 161 255 0 161 255 0 161 255 0 161 255 0 161 255 0 161 255 0 161 255 0 161 255 0 161 255 0 156 255 0 156 255 0 156 255 0 156 255 0 156 255 0 156 255 0 156 255 0 156 255 0 156 255 0 156 255 0 154 255 0 154 255 0 154 255 0 154 255 0 154 255 0 154 255 0 154 255 0 154 255 0 154 255 0 154 255 0 144 255 0 144 255 0 144 255 0 144 255 0 144 255 0 144 255 0 144 255 0 144 255 0 144 255 0 144 255 0 167 255 0 167 255 0 167 255 0 167 255 0 167 255 0 167 255 0 167 255 0 167 255 0 167 255 0 167 255 0 167 255 0 167 255 0 167 255 0 167 255 0 167 255 0 167 255 0 167 255 0 167 255 0 167 255 0 167 255 0 169 255 0 169 255 0 169 255 0 169 255 0 169 255 0 169 255 0 169 255 0 169 255 0 169 255 0 169 255 0 156 255 0 156 255 0 156 255 0 156 255 0 156 255 0 156 255 0 156 255 0 156 255 0 156 255 0 156 255 0 148 255 0 148 255 0 148 255 0 148 255 0 148 255 0 148 255 0 148 255 0 148 255 0 148 255 0 148 255 0 158 255 0 158 255 0 158 255 0 158 255 0 158 255 0 158 255 0 158 255 0 158 255 0 158 255 0 158 255 0 156 255 0 156 255 0 156 255 0 156 255 0 156 255 0 156 255 0 156 255 0 156 255 0 156 255 0 156 255 0 147 255 0 147 255 0 147 255 0 147 255 0 147 255 0 147 255 0 147 255 0 147 255 0 147 255 0 147 255 0 157 255 0 157 255 0 157 255 0 157 255 0 157 255 0 157 255 0 157 255 0 157 255 0 157 255 0 157 255 0 162 255 0 162 255 0 162 255 0 162 255 0 162 255 0 162 255 0 162 255 0 162 255 0 162 255 0 162 255 0 154 255 0 154 255 0 154 255 0 154 255 0 154 255 0 154 255 0 154 255 0 154 255 0 154 255 0 154 255 0 145 255 0 145 255 0 145 255 0 145 255 0 145 255 0 145 255 0 145 255 0 145 255 0 145 255 0 145 255 0 171 255 0 171 255 0 171 255 0 171 255 0 171 255 0 171 255 0 171 255 0 171 255 0 171 255 0 171 255 0 170 255 0 170 255 0 170 255 0 170 255 0 170 255 0 170 255 0 170 255 0 170 255 0 170 255 0 170 255 0 0 0 0 0 0 0 0 0 0 0 0 0 0 0 0 0 0 0 0 0 0 0 0 0 0 0 0 0 0 255 251 0 255 251 0 255 251 0 255 251 0 255 251 0 255 251 0 255 251 0 255 251 0 255 251 0 255 251 0 255 251 0 255 251 0 255 251 0 255 251 0 255 251 0 255 251 0 255 251 0 255 251 0 255 251 0 255 251 0 255 251 0 255 251 0 255 251 0 255 251 0 255 251 0 255 251 0 255 251 0 255 251 0 255 251 0 255 251 0 
0 156 255 0 156 255 0 156 255 0 156 255 0 156 255 0 156 255 0 156 255 0 156 255 0 156 255 0 156 255 0 152 255 0 152 255 0 152 255 0 152 255 0 152 255 0 152 255 0 152 255 0 152 255 0 152 255 0 152 255 0 172 255 0 172 255 0 172 255 0 172 255 0 172 255 0 172 255 0 172 255 0 172 255 0 172 255 0 172 255 0 148 255 0 148 255 0 148 255 0 148 255 0 148 255 0 148 255 0 148 255 0 148 255 0 148 255 0 148 255 0 173 255 0 173 255 0 173 255 0 173 255 0 173 255 0 173 255 0 173 255 0 173 255 0 173 255 0 173 255 0 170 255 0 170 255 0 170 255 0 170 255 0 170 255 0 170 255 0 170 255 0 170 255 0 170 255 0 170 255 0 152 255 0 152 255 0 152 255 0 152 255 0 152 255 0 152 255 0 152 255 0 152 255 0 152 255 0 152 255 0 164 255 0 164 255 0 164 255 0 164 255 0 164 255 0 164 255 0 164 255 0 164 255 0 164 255 0 164 255 0 152 255 0 152 255 0 152 255 0 152 255 0 152 255 0 152 255 0 152 255 0 152 255 0 152 255 0 152 255 0 168 255 0 168 255 0 168 255 0 168 255 0 168 255 0 168 255 0 168 255 0 168 255 0 168 255 0 168 255 0 161 255 0 161 255 0 161 255 0 161 255 0 161 255 0 161 255 0 161 255 0 161 255 0 161 255 0 161 255 0 156 255 0 156 255 0 156 255 0 156 255 0 156 255 0 156 255 0 156 255 0 156 255 0 156 255 0 156 255 0 154 255 0 154 255 0 154 255 0 154 255 0 154 255 0 154 255 0 154 255 0 154 255 0 154 255 0 154 255 0 144 255 0 144 255 0 144 255 0 144 255 0 144 255 0 144 255 0 144 255 0 144 255 0 144 255 0 144 255 0 167 255 0 167 255 0 167 255 0 167 255 0 167 255 0 167 255 0 167 255 0 167 255 0 167 255 0 167 255 0 167 255 0 167 255 0 167 255 0 167 255 0 167 255 0 167 255 0 167 255 0 167 255 0 167 255 0 167 255 0 169 255 0 169 255 0 169 255 0 169 255 0 169 255 0 169 255 0 169 255 0 169 255 0 169 255 0 169 255 0 156 255 0 156 255 0 156 255 0 156 255 0 156 255 0 156 255 0 156 255 0 156 255 0 156 255 0 156 255 0 148 255 0 148 255 0 148 255 0 148 255 0 148 255 0 148 255 0 148 255 0 148 255 0 148 255 0 148 255 0 158 255 0 158 255 0 158 255 0 158 255 0 158 255 0 158 255 0 158 255 0 158 255 0 158 255 0 158 255 0 156 255 0 156 255 0 156 255 0 156 255 0 156 255 0 156 255 0 156 255 0 156 255 0 156 255 0 156 255 0 147 255 0 147 255 0 147 255 0 147 255 0 147 255 0 147 255 0 147 255 0 147 255 0 147 255 0 147 255 0 157 255 0 157 255 0 157 255 0 157 255 0 157 255 0 157 255 0 157 255 0 157 255 0 157 255 0 157 255 0 162 255 0 162 255 0 162 255 0 162 255 0 162 255 0 162 255 0 162 255 0 162 255 0 162 255 0 162 255 0 154 255 0 154 255 0 154 255 0 154 255 0 154 255 0 154 255 0 154 255 0 154 255 0 154 255 0 154 255 0 145 255 0 145 255 0 145 255 0 145 255 0 145 255 0 145 255 0 145 255 0 145 255 0 145 255 0 145 255 0 171 255 0 171 255 0 171 255 0 171 255 0 171 255 0 171 255 0 171 255 0 171 255 0 171 255 0 171 255 0 170 255 0 170 255 0 170 255 0 170 255 0 170 255 0 170 255 0 170 255 0 170 255 0 170 255 0 170 255 0 0 0 0 0 0 0 0 0 0 0 0 0 0 0 0 0 0 0 0 0 0 0 0 0 0 0 0 0 0 255 247 0 255 247 0 255 247 0 255 247 0 255 247 0 255 247 0 255 247 0 255 247 0 255 247 0 255 247 0 255 247 0 255 247 0 255 247 0 255 247 0 255 247 0 255 247 0 255 247 0 255 247 0 255 247 0 255 247 0 255 247 0 255 247 0 255 247 0 255 247 0 255 247 0 255 247 0 255 247 0 255 247 0 255 247 0 255 247 0 
0 156 255 0 156 255 0 156 255 0 156 255 0 156 255 0 156 255 0 156 255 0 156 255 0 156 255 0 156 255 0 152 255 0 152 255 0 152 255 0 152 255 0 152 255 0 152 255 0 152 255 0 152 255 0 152 255 0 152 255 0 172 255 0 172 255 0 172 255 0 172 255 0 172 255 0 172 255 0 172 255 0 172 255 0 172 255 0 172 255 0 148 255 0 148 255 0 148 255 0 148 255 0 148 255 0 148 255 0 148 255 0 148 255 0 148 255 0 148 255 0 173 255 0 173 255 0 173 255 0 173 255 0 173 255 0 173 255 0 173 255 0 173 255 0 173 255 0 173 255 0 170 255 0 170 255 0 170 255 0 170 255 0 170 255 0 170 255 0 170 255 0 170 255 0 170 255 0 170 255 0 152 255 0 152 255 0 152 255 0 152 255 0 152 255 0 152 255 0 152 255 0 152 255 0 152 255 0 152 255 0 164 255 0 164 255 0 164 255 0 164 255 0 164 255 0 164 255 0 164 255 0 164 255 0 164 255 0 164 255 0 152 255 0 152 255 0 152 255 0 152 255 0 152 255 0 152 255 0 152 255 0 152 255 0 152 255 0 152 255 0 168 255 0 168 255 0 168 255 0 168 255 0 168 255 0 168 255 0 168 255 0 168 255 0 168 255 0 168 255 0 161 255 0 161 255 0 161 255 0 161 255 0 161 255 0 161 255 0 161 255 0 161 255 0 161 255 0 161 255 0 156 255 0 156 255 0 156 255 0 156 255 0 156 255 0 156 255 0 156 255 0 156 255 0 156 255 0 156 255 0 154 255 0 154 255 0 154 255 0 154 255 0 154 255 0 154 255 0 154 255 0 154 255 0 154 255 0 154 255 0 144 255 0 144 255 0 144 255 0 144 255 0 144 255 0 144 255 0 144 255 0 144 255 0 144 255 0 144 255 0 167 255 0 167 255 0 167 255 0 167 255 0 167 255 0 167 255 0 167 255 0 167 255 0 167 255 0 167 255 0 167 255 0 167 255 0 167 255 0 167 255 0 167 255 0 167 255 0 167 255 0 167 255 0 167 255 0 167 255 0 169 255 0 169 255 0 169 255 0 169 255 0 169 255 0 169 255 0 169 255 0 169 255 0 169 255 0 169 255 0 156 255 0 156 255 0 156 255 0 156 255 0 156 255 0 156 255 0 156 255 0 156 255 0 156 255 0 156 255 0 148 255 0 148 255 0 148 255 0 148 255 0 148 255 0 148 255 0 148 255 0 148 255 0 148 255 0 148 255 0 158 255 0 158 255 0 158 255 0 158 255 0 158 255 0 158 255 0 158 255 0 158 255 0 158 255 0 158 255 0 156 255 0 156 255 0 156 255 0 156 255 0 156 255 0 156 255 0 156 255 0 156 255 0 156 255 0 156 255 0 147 255 0 147 255 0 147 255 0 147 255 0 147 255 0 147 255 0 147 255 0 147 255 0 147 255 0 147 255 0 157 255 0 157 255 0 157 255 0 157 255 0 157 255 0 157 255 0 157 255 0 157 255 0 157 255 0 157 255 0 162 255 0 162 255 0 162 255 0 162 255 0 162 255 0 162 255 0 162 255 0 162 255 0 162 255 0 162 255 0 154 255 0 154 255 0 154 255 0 154 255 0 154 255 0 154 255 0 154 255 0 154 255 0 154 255 0 154 255 0 145 255 0 145 255 0 145 255 0 145 255 0 145 255 0 145 255 0 145 255 0 145 255 0 145 255 0 145 255 0 171 255 0 171 255 0 171 255 0 171 255 0 171 255 0 171 255 0 171 255 0 171 255 0 171 255 0 171 255 0 170 255 0 170 255 0 170 255 0 170 255 0 170 255 0 170 255 0 170 255 0 170 255 0 170 255 0 170 255 0 0 0 0 0 0 0 0 0 0 0 0 0 0 0 0 0 0 0 0 0 0 0 0 0 0 0 0 0 0 255 244 0 255 244 0 255 244 0 255 244 0 255 244 0 255 244 0 255 244 0 255 244 0 255 244 0 255 244 0 255 244 0 255 244 0 255 244 0 255 244 0 255 244 0 255 244 0 255 244 0 255 244 0 255 244 0 255 244 0 255 244 0 255 244 0 255 244 0 255 244 0 255 244 0 255 244 0 255 244 0 255 244 0 255 244 0 255 244 0 
0 156 255 0 156 255 0 156 255 0 156 255 0 156 255 0 156 255 0 156 255 0 156 255 0 156 255 0 156 255 0 152 255 0 152 255 0 152 255 0 152 255 0 152 255 0 152 255 0 152 255 0 152 255 0 152 255 0 152 255 0 172 255 0 172 255 0 172 255 0 172 255 0 172 255 0 172 255 0 172 255 0 172 255 0 172 255 0 172 255 0 148 255 0 148 255 0 148 255 0 148 255 0 148 255 0 148 255 0 148 255 0 148 255 0 148 255 0 148 255 0 173 255 0 173 255 0 173 255 0 173 255 0 173 255 0 173 255 0 173 255 0 173 255 0 173 255 0 173 255 0 170 255 0 170 255 0 170 255 0 170 255 0 170 255 0 170 255 0 170 255 0 170 255 0 170 255 0 170 255 0 152 255 0 152 255 0 152 255 0 152 255 0 152 255 0 152 255 0 152 255 0 152 255 0 152 255 0 152 255 0 164 255 0 164 255 0 164 255 0 164 255 0 164 255 0 164 255 0 164 255 0 164 255 0 164 255 0 164 255 0 152 255 0 152 255 0 152 255 0 152 255 0 152 255 0 152 255 0 152 255 0 152 255 0 152 255 0 152 255 0 168 255 0 168 255 0 168 255 0 168 255 0 168 255 0 168 255 0 168 255 0 168 255 0 168 255 0 168 255 0 161 255 0 161 255 0 161 255 0 161 255 0 161 255 0 161 255 0 161 255 0 161 255 0 161 255 0 161 255 0 156 255 0 156 255 0 156 255 0 156 255 0 156 255 0 156 255 0 156 255 0 156 255 0 156 255 0 156 255 0 154 255 0 154 255 0 154 255 0 154 255 0 154 255 0 154 255 0 154 255 0 154 255 0 154 255 0 154 255 0 144 255 0 144 255 0 144 255 0 144 255 0 144 255 0 144 255 0 144 255 0 144 255 0 144 255 0 144 255 0 167 255 0 167 255 0 167 255 0 167 255 0 167 255 0 167 255 0 167 255 0 167 255 0 167 255 0 167 255 0 167 255 0 167 255 0 167 255 0 167 255 0 167 255 0 167 255 0 167 255 0 167 255 0 167 255 0 167 255 0 169 255 0 169 255 0 169 255 0 169 255 0 169 255 0 169 255 0 169 255 0 169 255 0 169 255 0 169 255 0 156 255 0 156 255 0 156 255 0 156 255 0 156 255 0 156 255 0 156 255 0 156 255 0 156 255 0 156 255 0 148 255 0 148 255 0 148 255 0 148 255 0 148 255 0 148 255 0 148 255 0 148 255 0 148 255 0 148 255 0 158 255 0 158 255 0 158 255 0 158 255 0 158 255 0 158 255 0 158 255 0 158 255 0 158 255 0 158 255 0 156 255 0 156 255 0 156 255 0 156 255 0 156 255 0 156 255 0 156 255 0 156 255 0 156 255 0 156 255 0 147 255 0 147 255 0 147 255 0 147 255 0 147 255 0 147 255 0 147 255 0 147 255 0 147 255 0 147 255 0 157 255 0 157 255 0 157 255 0 157 255 0 157 255 0 157 255 0 157 255 0 157 255 0 157 255 0 157 255 0 162 255 0 162 255 0 162 255 0 162 255 0 162 255 0 162 255 0 162 255 0 162 255 0 162 255 0 162 255 0 154 255 0 154 255 0 154 255 0 154 255 0 154 255 0 154 255 0 154 255 0 154 255 0 154 255 0 154 255 0 145 255 0 145 255 0 145 255 0 145 255 0 145 255 0 145 255 0 145 255 0 145 255 0 145 255 0 145 255 0 171 255 0 171 255 0 171 255 0 171 255 0 171 255 0 171 255 0 171 255 0 171 255 0 171 255 0 171 255 0 170 255 0 170 255 0 170 255 0 170 255 0 170 255 0 170 255 0 170 255 0 170 255 0 170 255 0 170 255 0 0 0 0 0 0 0 0 0 0 0 0 0 0 0 0 0 0 0 0 0 0 0 0 0 0 0 0 0 0 255 240 0 255 240 0 255 240 0 255 240 0 255 240 0 255 240 0 255 240 0 255 240 0 255 240 0 255 240 0 255 240 0 255 240 0 255 240 0 255 240 0 255 240 0 255 240 0 255 240 0 255 240 0 255 240 0 255 240 0 255 240 0 255 240 0 255 240 0 255 240 0 255 240 0 255 240 0 255 240 0 255 240 0 255 240 0 255 240 0 
0 156 255 0 156 255 0 156 255 0 156 255 0 156 255 0 156 255 0 156 255 0 156 255 0 156 255 0 156 255 0 152 255 0 152 255 0 152 255 0 152 255 0 152 255 0 152 255 0 152 255 0 152 255 0 152 255 0 152 255 0 172 255 0 172 255 0 172 255 0 172 255 0 172 255 0 172 255 0 172 255 0 172 255 0 172 255 0 172 255 0 148 255 0 148 255 0 148 255 0 148 255 0 148 255 0 148 255 0 148 255 0 148 255 0 148 255 0 148 255 0 173 255 0 173 255 0 173 255 0 173 255 0 173 255 0 173 255 0 173 255 0 173 255 0 173 255 0 173 255 0 170 255 0 170 255 0 170 255 0 170 255 0 170 255 0 170 255 0 170 255 0 170 255 0 170 255 0 170 255 0 152 255 0 152 255 0 152 255 0 152 255 0 152 255 0 152 255 0 152 255 0 152 255 0 152 255 0 152 255 0 164 255 0 164 255 0 164 255 0 164 255 0 164 255 0 164 255 0 164 255 0 164 255 0 164 255 0 164 255 0 152 255 0 152 255 0 152 255 0 152 255 0 152 255 0 152 255 0 152 255 0 152 255 0 152 255 0 152 255 0 168 255 0 168 255 0 168 255 0 168 255 0 168 255 0 168 255 0 168 255 0 168 255 0 168 255 0 168 255 0 161 255 0 161 255 0 161 255 0 161 255 0 161 255 0 161 255 0 161 255 0 161 255 0 161 255 0 161 255 0 156 255 0 156 255 0 156 255 0 156 255 0 156 255 0 156 255 0 156 255 0 156 255 0 156 255 0 156 255 0 154 255 0 154 255 0 154 255 0 154 255 0 154 255 0 154 255 0 154 255 0 154 255 0 154 255 0 154 255 0 144 255 0 144 255 0 144 255 0 144 255 0 144 255 0 144 255 0 144 255 0 144 255 0 144 255 0 144 255 0 167 255 0 167 255 0 167 255 0 167 255 0 167 255 0 167 255 0 167 255 0 167 255 0 167 255 0 167 255 0 167 255 0 167 255 0 167 255 0 167 255 0 167 255 0 167 255 0 167 255 0 167 255 0 167 255 0 167 255 0 169 255 0 169 255 0 169 255 0 169 255 0 169 255 0 169 255 0 169 255 0 169 255 0 169 255 0 169 255 0 156 255 0 156 255 0 156 255 0 156 255 0 156 255 0 156 255 0 156 255 0 156 255 0 156 255 0 156 255 0 148 255 0 148 255 0 148 255 0 148 255 0 148 255 0 148 255 0 148 255 0 148 255 0 148 255 0 148 255 0 158 255 0 158 255 0 158 255 0 158 255 0 158 255 0 158 255 0 158 255 0 158 255 0 158 255 0 158 255 0 156 255 0 156 255 0 156 255 0 156 255 0 156 255 0 156 255 0 156 255 0 156 255 0 156 255 0 156 255 0 147 255 0 147 255 0 147 255 0 147 255 0 147 255 0 147 255 0 147 255 0 147 255 0 147 255 0 147 255 0 157 255 0 157 255 0 157 255 0 157 255 0 157 255 0 157 255 0 157 255 0 157 255 0 157 255 0 157 255 0 162 255 0 162 255 0 162 255 0 162 255 0 162 255 0 162 255 0 162 255 0 162 255 0 162 255 0 162 255 0 154 255 0 154 255 0 154 255 0 154 255 0 154 255 0 154 255 0 154 255 0 154 255 0 154 255 0 154 255 0 145 255 0 145 255 0 145 255 0 145 255 0 145 255 0 145 255 0 145 255 0 145 255 0 145 255 0 145 255 0 171 255 0 171 255 0 171 255 0 171 255 0 171 255 0 171 255 0 171 255 0 171 255 0 171 255 0 171 255 0 170 255 0 170 255 0 170 255 0 170 255 0 170 255 0 170 255 0 170 255 0 170 255 0 170 255 0 170 255 0 0 0 0 0 0 0 0 0 0 0 0 0 0 0 0 0 0 0 0 0 0 0 0 0 0 0 0 0 0 255 236 0 255 236 0 255 236 0 255 236 0 255 236 0 255 236 0 255 236 0 255 236 0 255 236 0 255 236 0 255 236 0 255 236 0 255 236 0 255 236 0 255 236 0 255 236 0 255 236 0 255 236 0 255 236 0 255 236 0 255 236 0 255 236 0 255 236 0 255 236 0 255 236 0 255 236 0 255 236 0 255 236 0 255 236 0 255 236 0 
0 156 255 0 156 255 0 156 255 0 156 255 0 156 255 0 156 255 0 156 255 0 156 255 0 156 255 0 156 255 0 152 255 0 152 255 0 152 255 0 152 255 0 152 255 0 152 255 0 152 255 0 152 255 0 152 255 0 152 255 0 172 255 0 172 255 0 172 255 0 172 255 0 172 255 0 172 255 0 172 255 0 172 255 0 172 255 0 172 255 0 148 255 0 148 255 0 148 255 0 148 255 0 148 255 0 148 255 0 148 255 0 148 255 0 148 255 0 148 255 0 173 255 0 173 255 0 173 255 0 173 255 0 173 255 0 173 255 0 173 255 0 173 255 0 173 255 0 173 255 0 170 255 0 170 255 0 170 255 0 170 255 0 170 255 0 170 255 0 170 255 0 170 255 0 170 255 0 170 255 0 152 255 0 152 255 0 152 255 0 152 255 0 152 255 0 152 255 0 152 255 0 152 255 0 152 255 0 152 255 0 164 255 0 164 255 0 164 255 0 164 255 0 164 255 0 164 255 0 164 255 0 164 255 0 164 255 0 164 255 0 152 255 0 152 255 0 152 255 0 152 255 0 152 255 0 152 255 0 152 255 0 152 255 0 152 255 0 152 255 0 168 255 0 168 255 0 168 255 0 168 255 0 168 255 0 168 255 0 168 255 0 168 255 0 168 255 0 168 255 0 161 255 0 161 255 0 161 255 0 161 255 0 161 255 0 161 255 0 161 255 0 161 255 0 161 255 0 161 255 0 156 255 0 156 255 0 156 255 0 156 255 0 156 255 0 156 255 0 156 255 0 156 255 0 156 255 0 156 255 0 154 255 0 154 255 0 154 255 0 154 255 0 154 255 0 154 255 0 154 255 0 154 255 0 154 255 0 154 255 0 144 255 0 144 255 0 144 255 0 144 255 0 144 255 0 144 255 0 144 255 0 144 255 0 144 255 0 144 255 0 167 255 0 167 255 0 167 255 0 167 255 0 167 255 0 167 255 0 167 255 0 167 255 0 167 255 0 167 255 0 167 255 0 167 255 0 167 255 0 167 255 0 167 255 0 167 255 0 167 255 0 167 255 0 167 255 0 167 255 0 169 255 0 169 255 0 169 255 0 169 255 0 169 255 0 169 255 0 169 255 0 169 255 0 169 255 0 169 255 0 156 255 0 156 255 0 156 255 0 156 255 0 156 255 0 156 255 0 156 255 0 156 255 0 156 255 0 156 255 0 148 255 0 148 255 0 148 255 0 148 255 0 148 255 0 148 255 0 148 255 0 148 255 0 148 255 0 148 255 0 158 255 0 158 255 0 158 255 0 158 255 0 158 255 0 158 255 0 158 255 0 158 255 0 158 255 0 158 255 0 156 255 0 156 255 0 156 255 0 156 255 0 156 255 0 156 255 0 156 255 0 156 255 0 156 255 0 156 255 0 147 255 0 147 255 0 147 255 0 147 255 0 147 255 0 147 255 0 147 255 0 147 255 0 147 255 0 147 255 0 157 255 0 157 255 0 157 255 0 157 255 0 157 255 0 157 255 0 157 255 0 157 255 0 157 255 0 157 255 0 162 255 0 162 255 0 162 255 0 162 255 0 162 255 0 162 255 0 162 255 0 162 255 0 162 255 0 162 255 0 154 255 0 154 255 0 154 255 0 154 255 0 154 255 0 154 255 0 154 255 0 154 255 0 154 255 0 154 255 0 145 255 0 145 255 0 145 255 0 145 255 0 145 255 0 145 255 0 145 255 0 145 255 0 145 255 0 145 255 0 171 255 0 171 255 0 171 255 0 171 255 0 171 255 0 171 255 0 171 255 0 171 255 0 171 255 0 171 255 0 170 255 0 170 255 0 170 255 0 170 255 0 170 255 0 170 255 0 170 255 0 170 255 0 170 255 0 170 255 0 0 0 0 0 0 0 0 0 0 0 0 0 0 0 0 0 0 0 0 0 0 0 0 0 0 0 0 0 0 255 233 0 255 233 0 255 233 0 255 233 0 255 233 0 255 233 0 255 233 0 255 233 0 255 233 0 255 233 0 255 233 0 255 233 0 255 233 0 255 233 0 255 233 0 255 233 0 255 233 0 255 233 0 255 233 0 255 233 0 255 233 0 255 233 0 255 233 0 255 233 0 255 233 0 255 233 0 255 233 0 255 233 0 255 233 0 255 233 0 
0 156 255 0 156 255 0 156 255 0 156 255 0 156 255 0 156 255 0 156 255 0 156 255 0 156 255 0 156 255 0 152 255 0 152 255 0 152 255 0 152 255 0 152 255 0 152 255 0 152 255 0 152 255 0 152 255 0 152 255 0 172 255 0 172 255 0 172 255 0 172 255 0 172 255 0 172 255 0 172 255 0 172 255 0 172 255 0 172 255 0 148 255 0 148 255 0 148 255 0 148 255 0 148 255 0 148 255 0 148 255 0 148 255 0 148 255 0 148 255 0 173 255 0 173 255 0 173 255 0 173 255 0 173 255 0 173 255 0 173 255 0 173 255 0 173 255 0 173 255 0 170 255 0 170 255 0 170 255 0 170 255 0 170 255 0 170 255 0 170 255 0 170 255 0 170 255 0 170 255 0 152 255 0 152 255 0 152 255 0 152 255 0 152 255 0 152 255 0 152 255 0 152 255 0 152 255 0 152 255 0 164 255 0 164 255 0 164 255 0 164 255 0 164 255 0 164 255 0 164 255 0 164 255 0 164 255 0 164 255 0 152 255 0 152 255 0 152 255 0 152 255 0 152 255 0 152 255 0 152 255 0 152 255 0 152 255 0 152 255 0 168 255 0 168 255 0 168 255 0 168 255 0 168 255 0 168 255 0 168 255 0 168 255 0 168 255 0 168 255 0 161 255 0 161 255 0 161 255 0 161 255 0 161 255 0 161 255 0 161 255 0 161 255 0 161 255 0 161 255 0 156 255 0 156 255 0 156 255 0 156 255 0 156 255 0 156 255 0 156 255 0 156 255 0 156 255 0 156 255 0 154 255 0 154 255 0 154 255 0 154 255 0 154 255 0 154 255 0 154 255 0 154 255 0 154 255 0 154 255 0 144 255 0 144 255 0 144 255 0 144 255 0 144 255 0 144 255 0 144 255 0 144 255 0 144 255 0 144 255 0 167 255 0 167 255 0 167 255 0 167 255 0 167 255 0 167 255 0 167 255 0 167 255 0 167 255 0 167 255 0 167 255 0 167 255 0 167 255 0 167 255 0 167 255 0 167 255 0 167 255 0 167 255 0 167 255 0 167 255 0 169 255 0 169 255 0 169 255 0 169 255 0 169 255 0 169 255 0 169 255 0 169 255 0 169 255 0 169 255 0 156 255 0 156 255 0 156 255 0 156 255 0 156 255 0 156 255 0 156 255 0 156 255 0 156 255 0 156 255 0 148 255 0 148 255 0 148 255 0 148 255 0 148 255 0 148 255 0 148 255 0 148 255 0 148 255 0 148 255 0 158 255 0 158 255 0 158 255 0 158 255 0 158 255 0 158 255 0 158 255 0 158 255 0 158 255 0 158 255 0 156 255 0 156 255 0 156 255 0 156 255 0 156 255 0 156 255 0 156 255 0 156 255 0 156 255 0 156 255 0 147 255 0 147 255 0 147 255 0 147 255 0 147 255 0 147 255 0 147 255 0 147 255 0 147 255 0 147 255 0 157 255 0 157 255 0 157 255 0 157 255 0 157 255 0 157 255 0 157 255 0 157 255 0 157 255 0 157 255 0 162 255 0 162 255 0 162 255 0 162 255 0 162 255 0 162 255 0 162 255 0 162 255 0 162 255 0 162 255 0 154 255 0 154 255 0 154 255 0 154 255 0 154 255 0 154 255 0 154 255 0 154 255 0 154 255 0 154 255 0 145 255 0 145 255 0 145 255 0 145 255 0 145 255 0 145 255 0 145 255 0 145 255 0 145 255 0 145 255 0 171 255 0 171 255 0 171 255 0 171 255 0 171 255 0 171 255 0 171 255 0 171 255 0 171 255 0 171 255 0 170 255 0 170 255 0 170 255 0 170 255 0 170 255 0 170 255 0 170 255 0 170 255 0 170 255 0 170 255 0 0 0 0 0 0 0 0 0 0 0 0 0 0 0 0 0 0 0 0 0 0 0 0 0 0 0 0 0 0 255 229 0 255 229 0 255 229 0 255 229 0 255 229 0 255 229 0 255 229 0 255 229 0 255 229 0 255 229 0 255 229 0 255 229 0 255 229 0 255 229 0 255 229 0 255 229 0 255 229 0 255 229 0 255 229 0 255 229 0 255 229 0 255 229 0 255 229 0 255 229 0 255 229 0 255 229 0 255 229 0 255 229 0 255 229 0 255 229 0 
0 156 255 0 156 255 0 156 255 0 156 255 0 156 255 0 156 255 0 156 255 0 156 255 0 156 255 0 156 255 0 152 255 0 152 255 0 152 255 0 152 255 0 152 255 0 152 255 0 152 255 0 152 255 0 152 255 0 152 255 0 172 255 0 172 255 0 172 255 0 172 255 0 172 255 0 172 255 0 172 255 0 172 255 0 172 255 0 172 255 0 148 255 0 148 255 0 148 255 0 148 255 0 148 255 0 148 255 0 148 255 0 148 255 0 148 255 0 148 255 0 173 255 0 173 255 0 173 255 0 173 255 0 173 255 0 173 255 0 173 255 0 173 255 0 173 255 0 173 255 0 170 255 0 170 255 0 170 255 0 170 255 0 170 255 0 170 255 0 170 255 0 170 255 0 170 255 0 170 255 0 152 255 0 152 255 0 152 255 0 152 255 0 152 255 0 152 255 0 152 255 0 152 255 0 152 255 0 152 255 0 164 255 0 164 255 0 164 255 0 164 255 0 164 255 0 164 255 0 164 255 0 164 255 0 164 255 0 164 255 0 152 255 0 152 255 0 152 255 0 152 255 0 152 255 0 152 255 0 152 255 0 152 255 0 152 255 0 152 255 0 168 255 0 168 255 0 168 255 0 168 255 0 168 255 0 168 255 0 168 255 0 168 255 0 168 255 0 168 255 0 161 255 0 161 255 0 161 255 0 161 255 0 161 255 0 161 255 0 161 255 0 161 255 0 161 255 0 161 255 0 156 255 0 156 255 0 156 255 0 156 255 0 156 255 0 156 255 0 156 255 0 156 255 0 156 255 0 156 255 0 154 255 0 154 255 0 154 255 0 154 255 0 154 255 0 154 255 0 154 255 0 154 255 0 154 255 0 154 255 0 144 255 0 144 255 0 144 255 0 144 255 0 144 255 0 144 255 0 144 255 0 144 255 0 144 255 0 144 255 0 167 255 0 167 255 0 167 255 0 167 255 0 167 255 0 167 255 0 167 255 0 167 255 0 167 255 0 167 255 0 167 255 0 167 255 0 167 255 0 167 255 0 167 255 0 167 255 0 167 255 0 167 255 0 167 255 0 167 255 0 169 255 0 169 255 0 169 255 0 169 255 0 169 255 0 169 255 0 169 255 0 169 255 0 169 255 0 169 255 0 156 255 0 156 255 0 156 255 0 156 255 0 156 255 0 156 255 0 156 255 0 156 255 0 156 255 0 156 255 0 148 255 0 148 255 0 148 255 0 148 255 0 148 255 0 148 255 0 148 255 0 148 255 0 148 255 0 148 255 0 158 255 0 158 255 0 158 255 0 158 255 0 158 255 0 158 255 0 158 255 0 158 255 0 158 255 0 158 255 0 156 255 0 156 255 0 156 255 0 156 255 0 156 255 0 156 255 0 156 255 0 156 255 0 156 255 0 156 255 0 147 255 0 147 255 0 147 255 0 147 255 0 147 255 0 147 255 0 147 255 0 147 255 0 147 255 0 147 255 0 157 255 0 157 255 0 157 255 0 157 255 0 157 255 0 157 255 0 157 255 0 157 255 0 157 255 0 157 255 0 162 255 0 162 255 0 162 255 0 162 255 0 162 255 0 162 255 0 162 255 0 162 255 0 162 255 0 162 255 0 154 255 0 154 255 0 154 255 0 154 255 0 154 255 0 154 255 0 154 255 0 154 255 0 154 255 0 154 255 0 145 255 0 145 255 0 145 255 0 145 255 0 145 255 0 145 255 0 145 255 0 145 255 0 145 255 0 145 255 0 171 255 0 171 255 0 171 255 0 171 255 0 171 255 0 171 255 0 171 255 0 171 255 0 171 255 0 171 255 0 170 255 0 170 255 0 170 255 0 170 255 0 170 255 0 170 255 0 170 255 0 170 255 0 170 255 0 170 255 0 0 0 0 0 0 0 0 0 0 0 0 0 0 0 0 0 0 0 0 0 0 0 0 0 0 0 0 0 0 255 225 0 255 225 0 255 225 0 255 225 0 255 225 0 255 225 0 255 225 0 255 225 0 255 225 0 255 225 0 255 225 0 255 225 0 255 225 0 255 225 0 255 225 0 255 225 0 255 225 0 255 225 0 255 225 0 255 225 0 255 225 0 255 225 0 255 225 0 255 225 0 255 225 0 255 225 0 255 225 0 255 225 0 255 225 0 255 225 0 
0 156 255 0 156 255 0 156 255 0 156 255 0 156 255 0 156 255 0 156 255 0 156 255 0 156 255 0 156 255 0 152 255 0 152 255 0 152 255 0 152 255 0 152 255 0 152 255 0 152 255 0 152 255 0 152 255 0 152 255 0 172 255 0 172 255 0 172 255 0 172 255 0 172 255 0 172 255 0 172 255 0 172 255 0 172 255 0 172 255 0 148 255 0 148 255 0 148 255 0 148 255 0 148 255 0 148 255 0 148 255 0 148 255 0 148 255 0 148 255 0 173 255 0 173 255 0 173 255 0 173 255 0 173 255 0 173 255 0 173 255 0 173 255 0 173 255 0 173 255 0 170 255 0 170 255 0 170 255 0 170 255 0 170 255 0 170 255 0 170 255 0 170 255 0 170 255 0 170 255 0 152 255 0 152 255 0 152 255 0 152 255 0 152 255 0 152 255 0 152 255 0 152 255 0 152 255 0 152 255 0 164 255 0 164 255 0 164 255 0 164 255 0 164 255 0 164 255 0 164 255 0 164 255 0 164 255 0 164 255 0 152 255 0 152 255 0 152 255 0 152 255 0 152 255 0 152 255 0 152 255 0 152 255 0 152 255 0 152 255 0 168 255 0 168 255 0 168 255 0 168 255 0 168 255 0 168 255 0 168 255 0 168 255 0 168 255 0 168 255 0 161 255 0 161 255 0 161 255 0 161 255 0 161 255 0 161 255 0 161 255 0 161 255 0 161 255 0 161 255 0 156 255 0 156 255 0 156 255 0 156 255 0 156 255 0 156 255 0 156 255 0 156 255 0 156 255 0 156 255 0 154 255 0 154 255 0 154 255 0 154 255 0 154 255 0 154 255 0 154 255 0 154 255 0 154 255 0 154 255 0 144 255 0 144 255 0 144 255 0 144 255 0 144 255 0 144 255 0 144 255 0 144 255 0 144 255 0 144 255 0 167 255 0 167 255 0 167 255 0 167 255 0 167 255 0 167 255 0 167 255 0 167 255 0 167 255 0 167 255 0 167 255 0 167 255 0 167 255 0 167 255 0 167 255 0 167 255 0 167 255 0 167 255 0 167 255 0 167 255 0 169 255 0 169 255 0 169 255 0 169 255 0 169 255 0 169 255 0 169 255 0 169 255 0 169 255 0 169 255 0 156 255 0 156 255 0 156 255 0 156 255 0 156 255 0 156 255 0 156 255 0 156 255 0 156 255 0 156 255 0 148 255 0 148 255 0 148 255 0 148 255 0 148 255 0 148 255 0 148 255 0 148 255 0 148 255 0 148 255 0 158 255 0 158 255 0 158 255 0 158 255 0 158 255 0 158 255 0 158 255 0 158 255 0 158 255 0 158 255 0 156 255 0 156 255 0 156 255 0 156 255 0 156 255 0 156 255 0 156 255 0 156 255 0 156 255 0 156 255 0 147 255 0 147 255 0 147 255 0 147 255 0 147 255 0 147 255 0 147 255 0 147 255 0 147 255 0 147 255 0 157 255 0 157 255 0 157 255 0 157 255 0 157 255 0 157 255 0 157 255 0 157 255 0 157 255 0 157 255 0 162 255 0 162 255 0 162 255 0 162 255 0 162 255 0 162 255 0 162 255 0 162 255 0 162 255 0 162 255 0 154 255 0 154 255 0 154 255 0 154 255 0 154 255 0 154 255 0 154 255 0 154 255 0 154 255 0 154 255 0 145 255 0 145 255 0 145 255 0 145 255 0 145 255 0 145 255 0 145 255 0 145 255 0 145 255 0 145 255 0 171 255 0 171 255 0 171 255 0 171 255 0 171 255 0 171 255 0 171 255 0 171 255 0 171 255 0 171 255 0 170 255 0 170 255 0 170 255 0 170 255 0 170 255 0 170 255 0 170 255 0 170 255 0 170 255 0 170 255 0 0 0 0 0 0 0 0 0 0 0 0 0 0 0 0 0 0 0 0 0 0 0 0 0 0 0 0 0 0 255 222 0 255 222 0 255 222 0 255 222 0 255 222 0 255 222 0 255 222 0 255 222 0 255 222 0 255 222 0 255 222 0 255 222 0 255 222 0 255 222 0 255 222 0 255 222 0 255 222 0 255 222 0 255 222 0 255 222 0 255 222 0 255 222 0 255 222 0 255 222 0 255 222 0 255 222 0 255 222 0 255 222 0 255 222 0 255 222 0 
0 167 255 0 167 255 0 167 255 0 167 255 0 167 255 0 167 255 0 167 255 0 167 255 0 167 255 0 167 255 0 170 255 0 170 255 0 170 255 0 170 255 0 170 255 0 170 255 0 170 255 0 170 255 0 170 255 0 170 255 0 154 255 0 154 255 0 154 255 0 154 255 0 154 255 0 154 255 0 154 255 0 154 255 0 154 255 0 154 255 0 165 255 0 165 255 0 165 255 0 165 255 0 165 255 0 165 255 0 165 255 0 165 255 0 165 255 0 165 255 0 144 255 0 144 255 0 144 255 0 144 255 0 144 255 0 144 255 0 144 255 0 144 255 0 144 255 0 144 255 0 165 255 0 165 255 0 165 255 0 165 255 0 165 255 0 165 255 0 165 255 0 165 255 0 165 255 0 165 255 0 171 255 0 171 255 0 171 255 0 171 255 0 171 255 0 171 255 0 171 255 0 171 255 0 171 255 0 171 255 0 159 255 0 159 255 0 159 255 0 159 255 0 159 255 0 159 255 0 159 255 0 159 255 0 159 255 0 159 255 0 147 255 0 147 255 0 147 255 0 147 255 0 147 255 0 147 255 0 147 255 0 147 255 0 147 255 0 147 255 0 165 255 0 165 255 0 165 255 0 165 255 0 165 255 0 165 255 0 165 255 0 165 255 0 165 255 0 165 255 0 160 255 0 160 255 0 160 255 0 160 255 0 160 255 0 160 255 0 160 255 0 160 255 0 160 255 0 160 255 0 161 255 0 161 255 0 161 255 0 161 255 0 161 255 0 161 255 0 161 255 0 161 255 0 161 255 0 161 255 0 162 255 0 162 255 0 162 255 0 162 255 0 162 255 0 162 255 0 162 255 0 162 255 0 162 255 0 162 255 0 160 255 0 160 255 0 160 255 0 160 255 0 160 255 0 160 255 0 160 255 0 160 255 0 160 255 0 160 255 0 164 255 0 164 255 0 164 255 0 164 255 0 164 255 0 164 255 0 164 255 0 164 255 0 164 255 0 164 255 0 147 255 0 147 255 0 147 255 0 147 255 0 147 255 0 147 255 0 147 255 0 147 255 0 147 255 0 147 255 0 155 255 0 155 255 0 155 255 0 155 255 0 155 255 0 155 255 0 155 255 0 155 255 0 155 255 0 155 255 0 157 255 0 157 255 0 157 255 0 157 255 0 157 255 0 157 255 0 157 255 0 157 255 0 157 255 0 157 255 0 160 255 0 160 255 0 160 255 0 160 255 0 160 255 0 160 255 0 160 255 0 160 255 0 160 255 0 160 255 0 144 255 0 144 255 0 144 255 0 144 255 0 144 255 0 144 255 0 144 255 0 144 255 0 144 255 0 144 255 0 149 255 0 149 255 0 149 255 0 149 255 0 149 255 0 149 255 0 149 255 0 149 255 0 149 255 0 149 255 0 165 255 0 165 255 0 165 255 0 165 255 0 165 255 0 165 255 0 165 255 0 165 255 0 165 255 0 165 255 0 156 255 0 156 255 0 156 255 0 156 255 0 156 255 0 156 255 0 156 255 0 156 255 0 156 255 0 156 255 0 163 255 0 163 255 0 163 255 0 163 255 0 163 255 0 163 255 0 163 255 0 163 255 0 163 255 0 163 255 0 160 255 0 160 255 0 160 255 0 160 255 0 160 255 0 160 255 0 160 255 0 160 255 0 160 255 0 160 255 0 172 255 0 172 255 0 172 255 0 172 255 0 172 255 0 172 255 0 172 255 0 172 255 0 172 255 0 172 255 0 168 255 0 168 255 0 168 255 0 168 255 0 168 255 0 168 255 0 168 255 0 168 255 0 168 255 0 168 255 0 146 255 0 146 255 0 146 255 0 146 255 0 146 255 0 146 255 0 146 255 0 146 255 0 146 255 0 146 255 0 0 0 0 0 0 0 0 0 0 0 0 0 0 0 0 0 0 0 0 0 0 0 0 0 0 0 0 0 0 255 218 0 255 218 0 255 218 0 255 218 0 255 218 0 255 218 0 255 218 0 255 218 0 255 218 0 255 218 0 255 218 0 255 218 0 255 218 0 255 218 0 255 218 0 255 218 0 255 218 0 255 218 0 255 218 0 255 218 0 255 218 0 255 218 0 255 218 0 255 218 0 255 218 0 255 218 0 255 218 0 255 218 0 255 218 0 255 218 0 
0 167 255 0 167 255 0 167 255 0 167 255 0 167 255 0 167 255 0 167 255 0 167 255 0 167 255 0 167 255 0 170 255 0 170 255 0 170 255 0 170 255 0 170 255 0 170 255 0 170 255 0 170 255 0 170 255 0 170 255 0 154 255 0 154 255 0 154 255 0 154 255 0 154 255 0 154 255 0 154 255 0 154 255 0 154 255 0 154 255 0 165 255 0 165 255 0 165 255 0 165 255 0 165 255 0 165 255 0 165 255 0 165 255 0 165 255 0 165 255 0 144 255 0 144 255 0 144 255 0 144 255 0 144 255 0 144 255 0 144 255 0 144 255 0 144 255 0 144 255 0 165 255 0 165 255 0 165 255 0 165 255 0 165 255 0 165 255 0 165 255 0 165 255 0 165 255 0 165 255 0 171 255 0 171 255 0 171 255 0 171 255 0 171 255 0 171 255 0 171 255 0 171 255 0 171 255 0 171 255 0 159 255 0 159 255 0 159 255 0 159 255 0 159 255 0 159 255 0 159 255 0 159 255 0 159 255 0 159 255 0 147 255 0 147 255 0 147 255 0 147 255 0 147 255 0 147 255 0 147 255 0 147 255 0 147 255 0 147 255 0 165 255 0 165 255 0 165 255 0 165 255 0 165 255 0 165 255 0 165 255 0 165 255 0 165 255 0 165 255 0 160 255 0 160 255 0 160 255 0 160 255 0 160 255 0 160 255 0 160 255 0 160 255 0 160 255 0 160 255 0 161 255 0 161 255 0 161 255 0 161 255 0 161 255 0 161 255 0 161 255 0 161 255 0 161 255 0 161 255 0 162 255 0 162 255 0 162 255 0 162 255 0 162 255 0 162 255 0 162 255 0 162 255 0 162 255 0 162 255 0 160 255 0 160 255 0 160 255 0 160 255 0 160 255 0 160 255 0 160 255 0 160 255 0 160 255 0 160 255 0 164 255 0 164 255 0 164 255 0 164 255 0 164 255 0 164 255 0 164 255 0 164 255 0 164 255 0 164 255 0 147 255 0 147 255 0 147 255 0 147 255 0 147 255 0 147 255 0 147 255 0 147 255 0 147 255 0 147 255 0 155 255 0 155 255 0 155 255 0 155 255 0 155 255 0 155 255 0 155 255 0 155 255 0 155 255 0 155 255 0 157 255 0 157 255 0 157 255 0 157 255 0 157 255 0 157 255 0 157 255 0 157 255 0 157 255 0 157 255 0 160 255 0 160 255 0 160 255 0 160 255 0 160 255 0 160 255 0 160 255 0 160 255 0 160 255 0 160 255 0 144 255 0 144 255 0 144 255 0 144 255 0 144 255 0 144 255 0 144 255 0 144 255 0 144 255 0 144 255 0 149 255 0 149 255 0 149 255 0 149 255 0 149 255 0 149 255 0 149 255 0 149 255 0 149 255 0 149 255 0 165 255 0 165 255 0 165 255 0 165 255 0 165 255 0 165 255 0 165 255 0 165 255 0 165 255 0 165 255 0 156 255 0 156 255 0 156 255 0 156 255 0 156 255 0 156 255 0 156 255 0 156 255 0 156 255 0 156 255 0 163 255 0 163 255 0 163 255 0 163 255 0 163 255 0 163 255 0 163 255 0 163 255 0 163 255 0 163 255 0 160 255 0 160 255 0 160 255 0 160 255 0 160 255 0 160 255 0 160 255 0 160 255 0 160 255 0 160 255 0 172 255 0 172 255 0 172 255 0 172 255 0 172 255 0 172 255 0 172 255 0 172 255 0 172 255 0 172 255 0 168 255 0 168 255 0 168 255 0 168 255 0 168 255 0 168 255 0 168 255 0 168 255 0 168 255 0 168 255 0 146 255 0 146 255 0 146 255 0 146 255 0 146 255 0 146 255 0 146 255 0 146 255 0 146 255 0 146 255 0 0 0 0 0 0 0 0 0 0 0 0 0 0 0 0 0 0 0 0 0 0 0 0 0 0 0 0 0 0 255 214 0 255 214 0 255 214 0 255 214 0 255 214 0 255 214 0 255 214 0 255 214 0 255 214 0 255 214 0 255 214 0 255 214 0 255 214 0 255 214 0 255 214 0 255 214 0 255 214 0 255 214 0 255 214 0 255 214 0 255 214 0 255 214 0 255 214 0 255 214 0 255 214 0 255 214 0 255 214 0 255 214 0 255 214 0 255 214 0 
0 167 255 0 167 255 0 167 255 0 167 255 0 167 255 0 167 255 0 167 255 0 167 255 0 167 255 0 167 255 0 170 255 0 170 255 0 170 255 0 170 255 0 170 255 0 170 255 0 170 255 0 170 255 0 170 255 0 170 255 0 154 255 0 154 255 0 154 255 0 154 255 0 154 255 0 154 255 0 154 255 0 154 255 0 154 255 0 154 255 0 165 255 0 165 255 0 165 255 0 165 255 0 165 255 0 165 255 0 165 255 0 165 255 0 165 255 0 165 255 0 144 255 0 144 255 0 144 255 0 144 255 0 144 255 0 144 255 0 144 255 0 144 255 0 144 255 0 144 255 0 165 255 0 165 255 0 165 255 0 165 255 0 165 255 0 165 255 0 165 255 0 165 255 0 165 255 0 165 255 0 171 255 0 171 255 0 171 255 0 171 255 0 171 255 0 171 255 0 171 255 0 171 255 0 171 255 0 171 255 0 159 255 0 159 255 0 159 255 0 159 255 0 159 255 0 159 255 0 159 255 0 159 255 0 159 255 0 159 255 0 147 255 0 147 255 0 147 255 0 147 255 0 147 255 0 147 255 0 147 255 0 147 255 0 147 255 0 147 255 0 165 255 0 165 255 0 165 255 0 165 255 0 165 255 0 165 255 0 165 255 0 165 255 0 165 255 0 165 255 0 160 255 0 160 255 0 160 255 0 160 255 0 160 255 0 160 255 0 160 255 0 160 255 0 160 255 0 160 255 0 161 255 0 161 255 0 161 255 0 161 255 0 161 255 0 161 255 0 161 255 0 161 255 0 161 255 0 161 255 0 162 255 0 162 255 0 162 255 0 162 255 0 162 255 0 162 255 0 162 255 0 162 255 0 162 255 0 162 255 0 160 255 0 160 255 0 160 255 0 160 255 0 160 255 0 160 255 0 160 255 0 160 255 0 160 255 0 160 255 0 164 255 0 164 255 0 164 255 0 164 255 0 164 255 0 164 255 0 164 255 0 164 255 0 164 255 0 164 255 0 147 255 0 147 255 0 147 255 0 147 255 0 147 255 0 147 255 0 147 255 0 147 255 0 147 255 0 147 255 0 155 255 0 155 255 0 155 255 0 155 255 0 155 255 0 155 255 0 155 255 0 155 255 0 155 255 0 155 255 0 157 255 0 157 255 0 157 255 0 157 255 0 157 255 0 157 255 0 157 255 0 157 255 0 157 255 0 157 255 0 160 255 0 160 255 0 160 255 0 160 255 0 160 255 0 160 255 0 160 255 0 160 255 0 160 255 0 160 255 0 144 255 0 144 255 0 144 255 0 144 255 0 144 255 0 144 255 0 144 255 0 144 255 0 144 255 0 144 255 0 149 255 0 149 255 0 149 255 0 149 255 0 149 255 0 149 255 0 149 255 0 149 255 0 149 255 0 149 255 0 165 255 0 165 255 0 165 255 0 165 255 0 165 255 0 165 255 0 165 255 0 165 255 0 165 255 0 165 255 0 156 255 0 156 255 0 156 255 0 156 255 0 156 255 0 156 255 0 156 255 0 156 255 0 156 255 0 156 255 0 163 255 0 163 255 0 163 255 0 163 255 0 163 255 0 163 255 0 163 255 0 163 255 0 163 255 0 163 255 0 160 255 0 160 255 0 160 255 0 160 255 0 160 255 0 160 255 0 160 255 0 160 255 0 160 255 0 160 255 0 172 255 0 172 255 0 172 255 0 172 255 0 172 255 0 172 255 0 172 255 0 172 255 0 172 255 0 172 255 0 168 255 0 168 255 0 168 255 0 168 255 0 168 255 0 168 255 0 168 255 0 168 255 0 168 255 0 168 255 0 146 255 0 146 255 0 146 255 0 146 255 0 146 255 0 146 255 0 146 255 0 146 255 0 146 255 0 146 255 0 0 0 0 0 0 0 0 0 0 0 0 0 0 0 0 0 0 0 0 0 0 0 0 0 0 0 0 0 0 255 211 0 255 211 0 255 211 0 255 211 0 255 211 0 255 211 0 255 211 0 255 211 0 255 211 0 255 211 0 255 211 0 255 211 0 255 211 0 255 211 0 255 211 0 255 211 0 255 211 0 255 211 0 255 211 0 255 211 0 255 211 0 255 211 0 255 211 0 255 211 0 255 211 0 255 211 0 255 211 0 255 211 0 255 211 0 255 211 0 
0 167 255 0 167 255 0 167 255 0 167 255 0 167 255 0 167 255 0 167 255 0 167 255 0 167 255 0 167 255 0 170 255 0 170 255 0 170 255 0 170 255 0 170 255 0 170 255 0 170 255 0 170 255 0 170 255 0 170 255 0 154 255 0 154 255 0 154 255 0 154 255 0 154 255 0 154 255 0 154 255 0 154 255 0 154 255 0 154 255 0 165 255 0 165 255 0 165 255 0 165 255 0 165 255 0 165 255 0 165 255 0 165 255 0 165 255 0 165 255 0 144 255 0 144 255 0 144 255 0 144 255 0 144 255 0 144 255 0 144 255 0 144 255 0 144 255 0 144 255 0 165 255 0 165 255 0 165 255 0 165 255 0 165 255 0 165 255 0 165 255 0 165 255 0 165 255 0 165 255 0 171 255 0 171 255 0 171 255 0 171 255 0 171 255 0 171 255 0 171 255 0 171 255 0 171 255 0 171 255 0 159 255 0 159 255 0 159 255 0 159 255 0 159 255 0 159 255 0 159 255 0 159 255 0 159 255 0 159 255 0 147 255 0 147 255 0 147 255 0 147 255 0 147 255 0 147 255 0 147 255 0 147 255 0 147 255 0 147 255 0 165 255 0 165 255 0 165 255 0 165 255 0 165 255 0 165 255 0 165 255 0 165 255 0 165 255 0 165 255 0 160 255 0 160 255 0 160 255 0 160 255 0 160 255 0 160 255 0 160 255 0 160 255 0 160 255 0 160 255 0 161 255 0 161 255 0 161 255 0 161 255 0 161 255 0 161 255 0 161 255 0 161 255 0 161 255 0 161 255 0 162 255 0 162 255 0 162 255 0 162 255 0 162 255 0 162 255 0 162 255 0 162 255 0 162 255 0 162 255 0 160 255 0 160 255 0 160 255 0 160 255 0 160 255 0 160 255 0 160 255 0 160 255 0 160 255 0 160 255 0 164 255 0 164 255 0 164 255 0 164 255 0 164 255 0 164 255 0 164 255 0 164 255 0 164 255 0 164 255 0 147 255 0 147 255 0 147 255 0 147 255 0 147 255 0 147 255 0 147 255 0 147 255 0 147 255 0 147 255 0 155 255 0 155 255 0 155 255 0 155 255 0 155 255 0 155 255 0 155 255 0 155 255 0 155 255 0 155 255 0 157 255 0 157 255 0 157 255 0 157 255 0 157 255 0 157 255 0 157 255 0 157 255 0 157 255 0 157 255 0 160 255 0 160 255 0 160 255 0 160 255 0 160 255 0 160 255 0 160 255 0 160 255 0 160 255 0 160 255 0 144 255 0 144 255 0 144 255 0 144 255 0 144 255 0 144 255 0 144 255 0 144 255 0 144 255 0 144 255 0 149 255 0 149 255 0 149 255 0 149 255 0 149 255 0 149 255 0 149 255 0 149 255 0 149 255 0 149 255 0 165 255 0 165 255 0 165 255 0 165 255 0 165 255 0 165 255 0 165 255 0 165 255 0 165 255 0 165 255 0 156 255 0 156 255 0 156 255 0 156 255 0 156 255 0 156 255 0 156 255 0 156 255 0 156 255 0 156 255 0 163 255 0 163 255 0 163 255 0 163 255 0 163 255 0 163 255 0 163 255 0 163 255 0 163 255 0 163 255 0 160 255 0 160 255 0 160 255 0 160 255 0 160 255 0 160 255 0 160 255 0 160 255 0 160 255 0 160 255 0 172 255 0 172 255 0 172 255 0 172 255 0 172 255 0 172 255 0 172 255 0 172 255 0 172 255 0 172 255 0 168 255 0 168 255 0 168 255 0 168 255 0 168 255 0 168 255 0 168 255 0 168 255 0 168 255 0 168 255 0 146 255 0 146 255 0 146 255 0 146 255 0 146 255 0 146 255 0 146 255 0 146 255 0 146 255 0 146 255 0 0 0 0 0 0 0 0 0 0 0 0 0 0 0 0 0 0 0 0 0 0 0 0 0 0 0 0 0 0 255 207 0 255 207 0 255 207 0 255 207 0 255 207 0 255 207 0 255 207 0 255 207 0 255 207 0 255 207 0 255 207 0 255 207 0 255 207 0 255 207 0 255 207 0 255 207 0 255 207 0 255 207 0 255 207 0 255 207 0 255 207 0 255 207 0 255 207 0 255 207 0 255 207 0 255 207 0 255 207 0 255 207 0 255 207 0 255 207 0 
0 167 255 0 167 255 0 167 255 0 167 255 0 167 255 0 167 255 0 167 255 0 167 255 0 167 255 0 167 255 0 170 255 0 170 255 0 170 255 0 170 255 0 170 255 0 170 255 0 170 255 0 170 255 0 170 255 0 170 255 0 154 255 0 154 255 0 154 255 0 154 255 0 154 255 0 154 255 0 154 255 0 154 255 0 154 255 0 154 255 0 165 255 0 165 255 0 165 255 0 165 255 0 165 255 0 165 255 0 165 255 0 165 255 0 165 255 0 165 255 0 144 255 0 144 255 0 144 255 0 144 255 0 144 255 0 144 255 0 144 255 0 144 255 0 144 255 0 144 255 0 165 255 0 165 255 0 165 255 0 165 255 0 165 255 0 165 255 0 165 255 0 165 255 0 165 255 0 165 255 0 171 255 0 171 255 0 171 255 0 171 255 0 171 255 0 171 255 0 171 255 0 171 255 0 171 255 0 171 255 0 159 255 0 159 255 0 159 255 0 159 255 0 159 255 0 159 255 0 159 255 0 159 255 0 159 255 0 159 255 0 147 255 0 147 255 0 147 255 0 147 255 0 147 255 0 147 255 0 147 255 0 147 255 0 147 255 0 147 255 0 165 255 0 165 255 0 165 255 0 165 255 0 165 255 0 165 255 0 165 255 0 165 255 0 165 255 0 165 255 0 160 255 0 160 255 0 160 255 0 160 255 0 160 255 0 160 255 0 160 255 0 160 255 0 160 255 0 160 255 0 161 255 0 161 255 0 161 255 0 161 255 0 161 255 0 161 255 0 161 255 0 161 255 0 161 255 0 161 255 0 162 255 0 162 255 0 162 255 0 162 255 0 162 255 0 162 255 0 162 255 0 162 255 0 162 255 0 162 255 0 160 255 0 160 255 0 160 255 0 160 255 0 160 255 0 160 255 0 160 255 0 160 255 0 160 255 0 160 255 0 164 255 0 164 255 0 164 255 0 164 255 0 164 255 0 164 255 0 164 255 0 164 255 0 164 255 0 164 255 0 147 255 0 147 255 0 147 255 0 147 255 0 147 255 0 147 255 0 147 255 0 147 255 0 147 255 0 147 255 0 155 255 0 155 255 0 155 255 0 155 255 0 155 255 0 155 255 0 155 255 0 155 255 0 155 255 0 155 255 0 157 255 0 157 255 0 157 255 0 157 255 0 157 255 0 157 255 0 157 255 0 157 255 0 157 255 0 157 255 0 160 255 0 160 255 0 160 255 0 160 255 0 160 255 0 160 255 0 160 255 0 160 255 0 160 255 0 160 255 0 144 255 0 144 255 0 144 255 0 144 255 0 144 255 0 144 255 0 144 255 0 144 255 0 144 255 0 144 255 0 149 255 0 149 255 0 149 255 0 149 255 0 149 255 0 149 255 0 149 255 0 149 255 0 149 255 0 149 255 0 165 255 0 165 255 0 165 255 0 165 255 0 165 255 0 165 255 0 165 255 0 165 255 0 165 255 0 165 255 0 156 255 0 156 255 0 156 255 0 156 255 0 156 255 0 156 255 0 156 255 0 156 255 0 156 255 0 156 255 0 163 255 0 163 255 0 163 255 0 163 255 0 163 255 0 163 255 0 163 255 0 163 255 0 163 255 0 163 255 0 160 255 0 160 255 0 160 255 0 160 255 0 160 255 0 160 255 0 160 255 0 160 255 0 160 255 0 160 255 0 172 255 0 172 255 0 172 255 0 172 255 0 172 255 0 172 255 0 172 255 0 172 255 0 172 255 0 172 255 0 168 255 0 168 255 0 168 255 0 168 255 0 168 255 0 168 255 0 168 255 0 168 255 0 168 255 0 168 255 0 146 255 0 146 255 0 146 255 0 146 255 0 146 255 0 146 255 0 146 255 0 146 255 0 146 255 0 146 255 0 0 0 0 0 0 0 0 0 0 0 0 0 0 0 0 0 0 0 0 0 0 0 0 0 0 0 0 0 0 255 203 0 255 203 0 255 203 0 255 203 0 255 203 0 255 203 0 255 203 0 255 203 0 255 203 0 255 203 0 255 203 0 255 203 0 255 203 0 255 203 0 255 203 0 255 203 0 255 203 0 255 203 0 255 203 0 255 203 0 255 203 0 255 203 0 255 203 0 255 203 0 255 203 0 255 203 0 255 203 0 255 203 0 255 203 0 255 203 0 
0 167 255 0 167 255 0 167 255 0 167 255 0 167 255 0 167 255 0 167 255 0 167 255 0 167 255 0 167 255 0 170 255 0 170 255 0 170 255 0 170 255 0 170 255 0 170 255 0 170 255 0 170 255 0 170 255 0 170 255 0 154 255 0 154 255 0 154 255 0 154 255 0 154 255 0 154 255 0 154 255 0 154 255 0 154 255 0 154 255 0 165 255 0 165 255 0 165 255 0 165 255 0 165 255 0 165 255 0 165 255 0 165 255 0 165 255 0 165 255 0 144 255 0 144 255 0 144 255 0 144 255 0 144 255 0 144 255 0 144 255 0 144 255 0 144 255 0 144 255 0 165 255 0 165 255 0 165 255 0 165 255 0 165 255 0 165 255 0 165 255 0 165 255 0 165 255 0 165 255 0 171 255 0 171 255 0 171 255 0 171 255 0 171 255 0 171 255 0 171 255 0 171 255 0 171 255 0 171 255 0 159 255 0 159 255 0 159 255 0 159 255 0 159 255 0 159 255 0 159 255 0 159 255 0 159 255 0 159 255 0 147 255 0 147 255 0 147 255 0 147 255 0 147 255 0 147 255 0 147 255 0 147 255 0 147 255 0 147 255 0 165 255 0 165 255 0 165 255 0 165 255 0 165 255 0 165 255 0 165 255 0 165 255 0 165 255 0 165 255 0 160 255 0 160 255 0 160 255 0 160 255 0 160 255 0 160 255 0 160 255 0 160 255 0 160 255 0 160 255 0 161 255 0 161 255 0 161 255 0 161 255 0 161 255 0 161 255 0 161 255 0 161 255 0 161 255 0 161 255 0 162 255 0 162 255 0 162 255 0 162 255 0 162 255 0 162 255 0 162 255 0 162 255 0 162 255 0 162 255 0 160 255 0 160 255 0 160 255 0 160 255 0 160 255 0 160 255 0 160 255 0 160 255 0 160 255 0 160 255 0 164 255 0 164 255 0 164 255 0 164 255 0 164 255 0 164 255 0 164 255 0 164 255 0 164 255 0 164 255 0 147 255 0 147 255 0 147 255 0 147 255 0 147 255 0 147 255 0 147 255 0 147 255 0 147 255 0 147 255 0 155 255 0 155 255 0 155 255 0 155 255 0 155 255 0 155 255 0 155 255 0 155 255 0 155 255 0 155 255 0 157 255 0 157 255 0 157 255 0 157 255 0 157 255 0 157 255 0 157 255 0 157 255 0 157 255 0 157 255 0 160 255 0 160 255 0 160 255 0 160 255 0 160 255 0 160 255 0 160 255 0 160 255 0 160 255 0 160 255 0 144 255 0 144 255 0 144 255 0 144 255 0 144 255 0 144 255 0 144 255 0 144 255 0 144 255 0 144 255 0 149 255 0 149 255 0 149 255 0 149 255 0 149 255 0 149 255 0 149 255 0 149 255 0 149 255 0 149 255 0 165 255 0 165 255 0 165 255 0 165 255 0 165 255 0 165 255 0 165 255 0 165 255 0 165 255 0 165 255 0 156 255 0 156 255 0 156 255 0 156 255 0 156 255 0 156 255 0 156 255 0 156 255 0 156 255 0 156 255 0 163 255 0 163 255 0 163 255 0 163 255 0 163 255 0 163 255 0 163 255 0 163 255 0 163 255 0 163 255 0 160 255 0 160 255 0 160 255 0 160 255 0 160 255 0 160 255 0 160 255 0 160 255 0 160 255 0 160 255 0 172 255 0 172 255 0 172 255 0 172 255 0 172 255 0 172 255 0 172 255 0 172 255 0 172 255 0 172 255 0 168 255 0 168 255 0 168 255 0 168 255 0 168 255 0 168 255 0 168 255 0 168 255 0 168 255 0 168 255 0 146 255 0 146 255 0 146 255 0 146 255 0 146 255 0 146 255 0 146 255 0 146 255 0 146 255 0 146 255 0 0 0 0 0 0 0 0 0 0 0 0 0 0 0 0 0 0 0 0 0 0 0 0 0 0 0 0 0 0 255 200 0 255 200 0 255 200 0 255 200 0 255 200 0 255 200 0 255 200 0 255 200 0 255 200 0 255 200 0 255 200 0 255 200 0 255 200 0 255 200 0 255 200 0 255 200 0 255 200 0 255 200 0 255 200 0 255 200 0 255 200 0 255 200 0 255 200 0 255 200 0 255 200 0 255 200 0 255 200 0 255 200 0 255 200 0 255 200 0 
0 167 255 0 167 255 0 167 255 0 167 255 0 167 255 0 167 255 0 167 255 0 167 255 0 167 255 0 167 255 0 170 255 0 170 255 0 170 255 0 170 255 0 170 255 0 170 255 0 170 255 0 170 255 0 170 255 0 170 255 0 154 255 0 154 255 0 154 255 0 154 255 0 154 255 0 154 255 0 154 255 0 154 255 0 154 255 0 154 255 0 165 255 0 165 255 0 165 255 0 165 255 0 165 255 0 165 255 0 165 255 0 165 255 0 165 255 0 165 255 0 144 255 0 144 255 0 144 255 0 144 255 0 144 255 0 144 255 0 144 255 0 144 255 0 144 255 0 144 255 0 165 255 0 165 255 0 165 255 0 165 255 0 165 255 0 165 255 0 165 255 0 165 255 0 165 255 0 165 255 0 171 255 0 171 255 0 171 255 0 171 255 0 171 255 0 171 255 0 171 255 0 171 255 0 171 255 0 171 255 0 159 255 0 159 255 0 159 255 0 159 255 0 159 255 0 159 255 0 159 255 0 159 255 0 159 255 0 159 255 0 147 255 0 147 255 0 147 255 0 147 255 0 147 255 0 147 255 0 147 255 0 147 255 0 147 255 0 147 255 0 165 255 0 165 255 0 165 255 0 165 255 0 165 255 0 165 255 0 165 255 0 165 255 0 165 255 0 165 255 0 160 255 0 160 255 0 160 255 0 160 255 0 160 255 0 160 255 0 160 255 0 160 255 0 160 255 0 160 255 0 161 255 0 161 255 0 161 255 0 161 255 0 161 255 0 161 255 0 161 255 0 161 255 0 161 255 0 161 255 0 162 255 0 162 255 0 162 255 0 162 255 0 162 255 0 162 255 0 162 255 0 162 255 0 162 255 0 162 255 0 160 255 0 160 255 0 160 255 0 160 255 0 160 255 0 160 255 0 160 255 0 160 255 0 160 255 0 160 255 0 164 255 0 164 255 0 164 255 0 164 255 0 164 255 0 164 255 0 164 255 0 164 255 0 164 255 0 164 255 0 147 255 0 147 255 0 147 255 0 147 255 0 147 255 0 147 255 0 147 255 0 147 255 0 147 255 0 147 255 0 155 255 0 155 255 0 155 255 0 155 255 0 155 255 0 155 255 0 155 255 0 155 255 0 155 255 0 155 255 0 157 255 0 157 255 0 157 255 0 157 255 0 157 255 0 157 255 0 157 255 0 157 255 0 157 255 0 157 255 0 160 255 0 160 255 0 160 255 0 160 255 0 160 255 0 160 255 0 160 255 0 160 255 0 160 255 0 160 255 0 144 255 0 144 255 0 144 255 0 144 255 0 144 255 0 144 255 0 144 255 0 144 255 0 144 255 0 144 255 0 149 255 0 149 255 0 149 255 0 149 255 0 149 255 0 149 255 0 149 255 0 149 255 0 149 255 0 149 255 0 165 255 0 165 255 0 165 255 0 165 255 0 165 255 0 165 255 0 165 255 0 165 255 0 165 255 0 165 255 0 156 255 0 156 255 0 156 255 0 156 255 0 156 255 0 156 255 0 156 255 0 156 255 0 156 255 0 156 255 0 163 255 0 163 255 0 163 255 0 163 255 0 163 255 0 163 255 0 163 255 0 163 255 0 163 255 0 163 255 0 160 255 0 160 255 0 160 255 0 160 255 0 160 255 0 160 255 0 160 255 0 160 255 0 160 255 0 160 255 0 172 255 0 172 255 0 172 255 0 172 255 0 172 255 0 172 255 0 172 255 0 172 255 0 172 255 0 172 255 0 168 255 0 168 255 0 168 255 0 168 255 0 168 255 0 168 255 0 168 255 0 168 255 0 168 255 0 168 255 0 146 255 0 146 255 0 146 255 0 146 255 0 146 255 0 146 255 0 146 255 0 146 255 0 146 255 0 146 255 0 0 0 0 0 0 0 0 0 0 0 0 0 0 0 0 0 0 0 0 0 0 0 0 0 0 0 0 0 0 255 196 0 255 196 0 255 196 0 255 196 0 255 196 0 255 196 0 255 196 0 255 196 0 255 196 0 255 196 0 255 196 0 255 196 0 255 196 0 255 196 0 255 196 0 255 196 0 255 196 0 255 196 0 255 196 0 255 196 0 255 196 0 255 196 0 255 196 0 255 196 0 255 196 0 255 196 0 255 196 0 255 196 0 255 196 0 255 196 0 
0 167 255 0 167 255 0 167 255 0 167 255 0 167 255 0 167 255 0 167 255 0 167 255 0 167 255 0 167 255 0 170 255 0 170 255 0 170 255 0 170 255 0 170 255 0 170 255 0 170 255 0 170 255 0 170 255 0 170 255 0 154 255 0 154 255 0 154 255 0 154 255 0 154 255 0 154 255 0 154 255 0 154 255 0 154 255 0 154 255 0 165 255 0 165 255 0 165 255 0 165 255 0 165 255 0 165 255 0 165 255 0 165 255 0 165 255 0 165 255 0 144 255 0 144 255 0 144 255 0 144 255 0 144 255 0 144 255 0 144 255 0 144 255 0 144 255 0 144 255 0 165 255 0 165 255 0 165 255 0 165 255 0 165 255 0 165 255 0 165 255 0 165 255 0 165 255 0 165 255 0 171 255 0 171 255 0 171 255 0 171 255 0 171 255 0 171 255 0 171 255 0 171 255 0 171 255 0 171 255 0 159 255 0 159 255 0 159 255 0 159 255 0 159 255 0 159 255 0 159 255 0 159 255 0 159 255 0 159 255 0 147 255 0 147 255 0 147 255 0 147 255 0 147 255 0 147 255 0 147 255 0 147 255 0 147 255 0 147 255 0 165 255 0 165 255 0 165 255 0 165 255 0 165 255 0 165 255 0 165 255 0 165 255 0 165 255 0 165 255 0 160 255 0 160 255 0 160 255 0 160 255 0 160 255 0 160 255 0 160 255 0 160 255 0 160 255 0 160 255 0 161 255 0 161 255 0 161 255 0 161 255 0 161 255 0 161 255 0 161 255 0 161 255 0 161 255 0 161 255 0 162 255 0 162 255 0 162 255 0 162 255 0 162 255 0 162 255 0 162 255 0 162 255 0 162 255 0 162 255 0 160 255 0 160 255 0 160 255 0 160 255 0 160 255 0 160 255 0 160 255 0 160 255 0 160 255 0 160 255 0 164 255 0 164 255 0 164 255 0 164 255 0 164 255 0 164 255 0 164 255 0 164 255 0 164 255 0 164 255 0 147 255 0 147 255 0 147 255 0 147 255 0 147 255 0 147 255 0 147 255 0 147 255 0 147 255 0 147 255 0 155 255 0 155 255 0 155 255 0 155 255 0 155 255 0 155 255 0 155 255 0 155 255 0 155 255 0 155 255 0 157 255 0 157 255 0 157 255 0 157 255 0 157 255 0 157 255 0 157 255 0 157 255 0 157 255 0 157 255 0 160 255 0 160 255 0 160 255 0 160 255 0 160 255 0 160 255 0 160 255 0 160 255 0 160 255 0 160 255 0 144 255 0 144 255 0 144 255 0 144 255 0 144 255 0 144 255 0 144 255 0 144 255 0 144 255 0 144 255 0 149 255 0 149 255 0 149 255 0 149 255 0 149 255 0 149 255 0 149 255 0 149 255 0 149 255 0 149 255 0 165 255 0 165 255 0 165 255 0 165 255 0 165 255 0 165 255 0 165 255 0 165 255 0 165 255 0 165 255 0 156 255 0 156 255 0 156 255 0 156 255 0 156 255 0 156 255 0 156 255 0 156 255 0 156 255 0 156 255 0 163 255 0 163 255 0 163 255 0 163 255 0 163 255 0 163 255 0 163 255 0 163 255 0 163 255 0 163 255 0 160 255 0 160 255 0 160 255 0 160 255 0 160 255 0 160 255 0 160 255 0 160 255 0 160 255 0 160 255 0 172 255 0 172 255 0 172 255 0 172 255 0 172 255 0 172 255 0 172 255 0 172 255 0 172 255 0 172 255 0 168 255 0 168 255 0 168 255 0 168 255 0 168 255 0 168 255 0 168 255 0 168 255 0 168 255 0 168 255 0 146 255 0 146 255 0 146 255 0 146 255 0 146 255 0 146 255 0 146 255 0 146 255 0 146 255 0 146 255 0 0 0 0 0 0 0 0 0 0 0 0 0 0 0 0 0 0 0 0 0 0 0 0 0 0 0 0 0 0 255 192 0 255 192 0 255 192 0 255 192 0 255 192 0 255 192 0 255 192 0 255 192 0 255 192 0 255 192 0 255 192 0 255 192 0 255 192 0 255 192 0 255 192 0 255 192 0 255 192 0 255 192 0 255 192 0 255 192 0 255 192 0 255 192 0 255 192 0 255 192 0 255 192 0 255 192 0 255 192 0 255 192 0 255 192 0 255 192 0 
0 167 255 0 167 255 0 167 255 0 167 255 0 167 255 0 167 255 0 167 255 0 167 255 0 167 255 0 167 255 0 170 255 0 170 255 0 170 255 0 170 255 0 170 255 0 170 255 0 170 255 0 170 255 0 170 255 0 170 255 0 154 255 0 154 255 0 154 255 0 154 255 0 154 255 0 154 255 0 154 255 0 154 255 0 154 255 0 154 255 0 165 255 0 165 255 0 165 255 0 165 255 0 165 255 0 165 255 0 165 255 0 165 255 0 165 255 0 165 255 0 144 255 0 144 255 0 144 255 0 144 255 0 144 255 0 144 255 0 144 255 0 144 255 0 144 255 0 144 255 0 165 255 0 165 255 0 165 255 0 165 255 0 165 255 0 165 255 0 165 255 0 165 255 0 165 255 0 165 255 0 171 255 0 171 255 0 171 255 0 171 255 0 171 255 0 171 255 0 171 255 0 171 255 0 171 255 0 171 255 0 159 255 0 159 255 0 159 255 0 159 255 0 159 255 0 159 255 0 159 255 0 159 255 0 159 255 0 159 255 0 147 255 0 147 255 0 147 255 0 147 255 0 147 255 0 147 255 0 147 255 0 147 255 0 147 255 0 147 255 0 165 255 0 165 255 0 165 255 0 165 255 0 165 255 0 165 255 0 165 255 0 165 255 0 165 255 0 165 255 0 160 255 0 160 255 0 160 255 0 160 255 0 160 255 0 160 255 0 160 255 0 160 255 0 160 255 0 160 255 0 161 255 0 161 255 0 161 255 0 161 255 0 161 255 0 161 255 0 161 255 0 161 255 0 161 255 0 161 255 0 162 255 0 162 255 0 162 255 0 162 255 0 162 255 0 162 255 0 162 255 0 162 255 0 162 255 0 162 255 0 160 255 0 160 255 0 160 255 0 160 255 0 160 255 0 160 255 0 160 255 0 160 255 0 160 255 0 160 255 0 164 255 0 164 255 0 164 255 0 164 255 0 164 255 0 164 255 0 164 255 0 164 255 0 164 255 0 164 255 0 147 255 0 147 255 0 147 255 0 147 255 0 147 255 0 147 255 0 147 255 0 147 255 0 147 255 0 147 255 0 155 255 0 155 255 0 155 255 0 155 255 0 155 255 0 155 255 0 155 255 0 155 255 0 155 255 0 155 255 0 157 255 0 157 255 0 157 255 0 157 255 0 157 255 0 157 255 0 157 255 0 157 255 0 157 255 0 157 255 0 160 255 0 160 255 0 160 255 0 160 255 0 160 255 0 160 255 0 160 255 0 160 255 0 160 255 0 160 255 0 144 255 0 144 255 0 144 255 0 144 255 0 144 255 0 144 255 0 144 255 0 144 255 0 144 255 0 144 255 0 149 255 0 149 255 0 149 255 0 149 255 0 149 255 0 149 255 0 149 255 0 149 255 0 149 255 0 149 255 0 165 255 0 165 255 0 165 255 0 165 255 0 165 255 0 165 255 0 165 255 0 165 255 0 165 255 0 165 255 0 156 255 0 156 255 0 156 255 0 156 255 0 156 255 0 156 255 0 156 255 0 156 255 0 156 255 0 156 255 0 163 255 0 163 255 0 163 255 0 163 255 0 163 255 0 163 255 0 163 255 0 163 255 0 163 255 0 163 255 0 160 255 0 160 255 0 160 255 0 160 255 0 160 255 0 160 255 0 160 255 0 160 255 0 160 255 0 160 255 0 172 255 0 172 255 0 172 255 0 172 255 0 172 255 0 172 255 0 172 255 0 172 255 0 172 255 0 172 255 0 168 255 0 168 255 0 168 255 0 168 255 0 168 255 0 168 255 0 168 255 0 168 255 0 168 255 0 168 255 0 146 255 0 146 255 0 146 255 0 146 255 0 146 255 0 146 255 0 146 255 0 146 255 0 146 255 0 146 255 0 0 0 0 0 0 0 0 0 0 0 0 0 0 0 0 0 0 0 0 0 0 0 0 0 0 0 0 0 0 255 189 0 255 189 0 255 189 0 255 189 0 255 189 0 255 189 0 255 189 0 255 189 0 255 189 0 255 189 0 255 189 0 255 189 0 255 189 0 255 189 0 255 189 0 255 189 0 255 189 0 255 189 0 255 189 0 255 189 0 255 189 0 255 189 0 255 189 0 255 189 0 255 189 0 255 189 0 255 189 0 255 189 0 255 189 0 255 189 0 
0 167 255 0 167 255 0 167 255 0 167 255 0 167 255 0 167 255 0 167 255 0 167 255 0 167 255 0 167 255 0 170 255 0 170 255 0 170 255 0 170 255 0 170 255 0 170 255 0 170 255 0 170 255 0 170 255 0 170 255 0 154 255 0 154 255 0 154 255 0 154 255 0 154 255 0 154 255 0 154 255 0 154 255 0 154 255 0 154 255 0 165 255 0 165 255 0 165 255 0 165 255 0 165 255 0 165 255 0 165 255 0 165 255 0 165 255 0 165 255 0 144 255 0 144 255 0 144 255 0 144 255 0 144 255 0 144 255 0 144 255 0 144 255 0 144 255 0 144 255 0 165 255 0 165 255 0 165 255 0 165 255 0 165 255 0 165 255 0 165 255 0 165 255 0 165 255 0 165 255 0 171 255 0 171 255 0 171 255 0 171 255 0 171 255 0 171 255 0 171 255 0 171 255 0 171 255 0 171 255 0 159 255 0 159 255 0 159 255 0 159 255 0 159 255 0 159 255 0 159 255 0 159 255 0 159 255 0 159 255 0 147 255 0 147 255 0 147 255 0 147 255 0 147 255 0 147 255 0 147 255 0 147 255 0 147 255 0 147 255 0 165 255 0 165 255 0 165 255 0 165 255 0 165 255 0 165 255 0 165 255 0 165 255 0 165 255 0 165 255 0 160 255 0 160 255 0 160 255 0 160 255 0 160 255 0 160 255 0 160 255 0 160 255 0 160 255 0 160 255 0 161 255 0 161 255 0 161 255 0 161 255 0 161 255 0 161 255 0 161 255 0 161 255 0 161 255 0 161 255 0 162 255 0 162 255 0 162 255 0 162 255 0 162 255 0 162 255 0 162 255 0 162 255 0 162 255 0 162 255 0 160 255 0 160 255 0 160 255 0 160 255 0 160 255 0 160 255 0 160 255 0 160 255 0 160 255 0 160 255 0 164 255 0 164 255 0 164 255 0 164 255 0 164 255 0 164 255 0 164 255 0 164 255 0 164 255 0 164 255 0 147 255 0 147 255 0 147 255 0 147 255 0 147 255 0 147 255 0 147 255 0 147 255 0 147 255 0 147 255 0 155 255 0 155 255 0 155 255 0 155 255 0 155 255 0 155 255 0 155 255 0 155 255 0 155 255 0 155 255 0 157 255 0 157 255 0 157 255 0 157 255 0 157 255 0 157 255 0 157 255 0 157 255 0 157 255 0 157 255 0 160 255 0 160 255 0 160 255 0 160 255 0 160 255 0 160 255 0 160 255 0 160 255 0 160 255 0 160 255 0 144 255 0 144 255 0 144 255 0 144 255 0 144 255 0 144 255 0 144 255 0 144 255 0 144 255 0 144 255 0 149 255 0 149 255 0 149 255 0 149 255 0 149 255 0 149 255 0 149 255 0 149 255 0 149 255 0 149 255 0 165 255 0 165 255 0 165 255 0 165 255 0 165 255 0 165 255 0 165 255 0 165 255 0 165 255 0 165 255 0 156 255 0 156 255 0 156 255 0 156 255 0 156 255 0 156 255 0 156 255 0 156 255 0 156 255 0 156 255 0 163 255 0 163 255 0 163 255 0 163 255 0 163 255 0 163 255 0 163 255 0 163 255 0 163 255 0 163 255 0 160 255 0 160 255 0 160 255 0 160 255 0 160 255 0 160 255 0 160 255 0 160 255 0 160 255 0 160 255 0 172 255 0 172 255 0 172 255 0 172 255 0 172 255 0 172 255 0 172 255 0 172 255 0 172 255 0 172 255 0 168 255 0 168 255 0 168 255 0 168 255 0 168 255 0 168 255 0 168 255 0 168 255 0 168 255 0 168 255 0 146 255 0 146 255 0 146 255 0 146 255 0 146 255 0 146 255 0 146 255 0 146 255 0 146 255 0 146 255 0 0 0 0 0 0 0 0 0 0 0 0 0 0 0 0 0 0 0 0 0 0 0 0 0 0 0 0 0 0 255 185 0 255 185 0 255 185 0 255 185 0 255 185 0 255 185 0 255 185 0 255 185 0 255 185 0 255 185 0 255 185 0 255 185 0 255 185 0 255 185 0 255 185 0 255 185 0 255 185 0 255 185 0 255 185 0 255 185 0 255 185 0 255 185 0 255 185 0 255 185 0 255 185 0 255 185 0 255 185 0 255 185 0 255 185 0 255 185 0 
0 156 255 0 156 255 0 156 255 0 156 255 0 156 255 0 156 255 0 156 255 0 156 255 0 156 255 0 156 255 0 151 255 0 151 255 0 151 255 0 151 255 0 151 255 0 151 255 0 151 255 0 151 255 0 151 255 0 151 255 0 162 255 0 162 255 0 162 255 0 162 255 0 162 255 0 162 255 0 162 255 0 162 255 0 162 255 0 162 255 0 161 255 0 161 255 0 161 255 0 161 255 0 161 255 0 161 255 0 161 255 0 161 255 0 161 255 0 161 255 0 144 255 0 144 255 0 144 255 0 144 255 0 144 255 0 144 255 0 144 255 0 144 255 0 144 255 0 144 255 0 162 255 0 162 255 0 162 255 0 162 255 0 162 255 0 162 255 0 162 255 0 162 255 0 162 255 0 162 255 0 170 255 0 170 255 0 170 255 0 170 255 0 170 255 0 170 255 0 170 255 0 170 255 0 170 255 0 170 255 0 153 255 0 153 255 0 153 255 0 153 255 0 153 255 0 153 255 0 153 255 0 153 255 0 153 255 0 153 255 0 149 255 0 149 255 0 149 255 0 149 255 0 149 255 0 149 255 0 149 255 0 149 255 0 149 255 0 149 255 0 169 255 0 169 255 0 169 255 0 169 255 0 169 255 0 169 255 0 169 255 0 169 255 0 169 255 0 169 255 0 148 255 0 148 255 0 148 255 0 148 255 0 148 255 0 148 255 0 148 255 0 148 255 0 148 255 0 148 255 0 153 255 0 153 255 0 153 255 0 153 255 0 153 255 0 153 255 0 153 255 0 153 255 0 153 255 0 153 255 0 176 255 0 176 255 0 176 255 0 176 255 0 176 255 0 176 255 0 176 255 0 176 255 0 176 255 0 176 255 0 173 255 0 173 255 0 173 255 0 173 255 0 173 255 0 173 255 0 173 255 0 173 255 0 173 255 0 173 255 0 171 255 0 171 255 0 171 255 0 171 255 0 171 255 0 171 255 0 171 255 0 171 255 0 171 255 0 171 255 0 158 255 0 158 255 0 158 255 0 158 255 0 158 255 0 158 255 0 158 255 0 158 255 0 158 255 0 158 255 0 168 255 0 168 255 0 168 255 0 168 255 0 168 255 0 168 255 0 168 255 0 168 255 0 168 255 0 168 255 0 150 255 0 150 255 0 150 255 0 150 255 0 150 255 0 150 255 0 150 255 0 150 255 0 150 255 0 150 255 0 148 255 0 148 255 0 148 255 0 148 255 0 148 255 0 148 255 0 148 255 0 148 255 0 148 255 0 148 255 0 159 255 0 159 255 0 159 255 0 159 255 0 159 255 0 159 255 0 159 255 0 159 255 0 159 255 0 159 255 0 149 255 0 149 255 0 149 255 0 149 255 0 149 255 0 149 255 0 149 255 0 149 255 0 149 255 0 149 255 0 171 255 0 171 255 0 171 255 0 171 255 0 171 255 0 171 255 0 171 255 0 171 255 0 171 255 0 171 255 0 154 255 0 154 255 0 154 255 0 154 255 0 154 255 0 154 255 0 154 255 0 154 255 0 154 255 0 154 255 0 154 255 0 154 255 0 154 255 0 154 255 0 154 255 0 154 255 0 154 255 0 154 255 0 154 255 0 154 255 0 174 255 0 174 255 0 174 255 0 174 255 0 174 255 0 174 255 0 174 255 0 174 255 0 174 255 0 174 255 0 149 255 0 149 255 0 149 255 0 149 255 0 149 255 0 149 255 0 149 255 0 149 255 0 149 255 0 149 255 0 146 255 0 146 255 0 146 255 0 146 255 0 146 255 0 146 255 0 146 255 0 146 255 0 146 255 0 146 255 0 163 255 0 163 255 0 163 255 0 163 255 0 163 255 0 163 255 0 163 255 0 163 255 0 163 255 0 163 255 0 0 0 0 0 0 0 0 0 0 0 0 0 0 0 0 0 0 0 0 0 0 0 0 0 0 0 0 0 0 255 181 0 255 181 0 255 181 0 255 181 0 255 181 0 255 181 0 255 181 0 255 181 0 255 181 0 255 181 0 255 181 0 255 181 0 255 181 0 255 181 0 255 181 0 255 181 0 255 181 0 255 181 0 255 181 0 255 181 0 255 181 0 255 181 0 255 181 0 255 181 0 255 181 0 255 181 0 255 181 0 255 181 0 255 181 0 255 181 0 
0 156 255 0 156 255 0 156 255 0 156 255 0 156 255 0 156 255 0 156 255 0 156 255 0 156 255 0 156 255 0 151 255 0 151 255 0 151 255 0 151 255 0 151 255 0 151 255 0 151 255 0 151 255 0 151 255 0 151 255 0 162 255 0 162 255 0 162 255 0 162 255 0 162 255 0 162 255 0 162 255 0 162 255 0 162 255 0 162 255 0 161 255 0 161 255 0 161 255 0 161 255 0 161 255 0 161 255 0 161 255 0 161 255 0 161 255 0 161 255 0 144 255 0 144 255 0 144 255 0 144 255 0 144 255 0 144 255 0 144 255 0 144 255 0 144 255 0 144 255 0 162 255 0 162 255 0 162 255 0 162 255 0 162 255 0 162 255 0 162 255 0 162 255 0 162 255 0 162 255 0 170 255 0 170 255 0 170 255 0 170 255 0 170 255 0 170 255 0 170 255 0 170 255 0 170 255 0 170 255 0 153 255 0 153 255 0 153 255 0 153 255 0 153 255 0 153 255 0 153 255 0 153 255 0 153 255 0 153 255 0 149 255 0 149 255 0 149 255 0 149 255 0 149 255 0 149 255 0 149 255 0 149 255 0 149 255 0 149 255 0 169 255 0 169 255 0 169 255 0 169 255 0 169 255 0 169 255 0 169 255 0 169 255 0 169 255 0 169 255 0 148 255 0 148 255 0 148 255 0 148 255 0 148 255 0 148 255 0 148 255 0 148 255 0 148 255 0 148 255 0 153 255 0 153 255 0 153 255 0 153 255 0 153 255 0 153 255 0 153 255 0 153 255 0 153 255 0 153 255 0 176 255 0 176 255 0 176 255 0 176 255 0 176 255 0 176 255 0 176 255 0 176 255 0 176 255 0 176 255 0 173 255 0 173 255 0 173 255 0 173 255 0 173 255 0 173 255 0 173 255 0 173 255 0 173 255 0 173 255 0 171 255 0 171 255 0 171 255 0 171 255 0 171 255 0 171 255 0 171 255 0 171 255 0 171 255 0 171 255 0 158 255 0 158 255 0 158 255 0 158 255 0 158 255 0 158 255 0 158 255 0 158 255 0 158 255 0 158 255 0 168 255 0 168 255 0 168 255 0 168 255 0 168 255 0 168 255 0 168 255 0 168 255 0 168 255 0 168 255 0 150 255 0 150 255 0 150 255 0 150 255 0 150 255 0 150 255 0 150 255 0 150 255 0 150 255 0 150 255 0 148 255 0 148 255 0 148 255 0 148 255 0 148 255 0 148 255 0 148 255 0 148 255 0 148 255 0 148 255 0 159 255 0 159 255 0 159 255 0 159 255 0 159 255 0 159 255 0 159 255 0 159 255 0 159 255 0 159 255 0 149 255 0 149 255 0 149 255 0 149 255 0 149 255 0 149 255 0 149 255 0 149 255 0 149 255 0 149 255 0 171 255 0 171 255 0 171 255 0 171 255 0 171 255 0 171 255 0 171 255 0 171 255 0 171 255 0 171 255 0 154 255 0 154 255 0 154 255 0 154 255 0 154 255 0 154 255 0 154 255 0 154 255 0 154 255 0 154 255 0 154 255 0 154 255 0 154 255 0 154 255 0 154 255 0 154 255 0 154 255 0 154 255 0 154 255 0 154 255 0 174 255 0 174 255 0 174 255 0 174 255 0 174 255 0 174 255 0 174 255 0 174 255 0 174 255 0 174 255 0 149 255 0 149 255 0 149 255 0 149 255 0 149 255 0 149 255 0 149 255 0 149 255 0 149 255 0 149 255 0 146 255 0 146 255 0 146 255 0 146 255 0 146 255 0 146 255 0 146 255 0 146 255 0 146 255 0 146 255 0 163 255 0 163 255 0 163 255 0 163 255 0 163 255 0 163 255 0 163 255 0 163 255 0 163 255 0 163 255 0 0 0 0 0 0 0 0 0 0 0 0 0 0 0 0 0 0 0 0 0 0 0 0 0 0 0 0 0 0 255 178 0 255 178 0 255 178 0 255 178 0 255 178 0 255 178 0 255 178 0 255 178 0 255 178 0 255 178 0 255 178 0 255 178 0 255 178 0 255 178 0 255 178 0 255 178 0 255 178 0 255 178 0 255 178 0 255 178 0 255 178 0 255 178 0 255 178 0 255 178 0 255 178 0 255 178 0 255 178 0 255 178 0 255 178 0 255 178 0 
0 156 255 0 156 255 0 156 255 0 156 255 0 156 255 0 156 255 0 156 255 0 156 255 0 156 255 0 156 255 0 151 255 0 151 255 0 151 255 0 151 255 0 151 255 0 151 255 0 151 255 0 151 255 0 151 255 0 151 255 0 162 255 0 162 255 0 162 255 0 162 255 0 162 255 0 162 255 0 162 255 0 162 255 0 162 255 0 162 255 0 161 255 0 161 255 0 161 255 0 161 255 0 161 255 0 161 255 0 161 255 0 161 255 0 161 255 0 161 255 0 144 255 0 144 255 0 144 255 0 144 255 0 144 255 0 144 255 0 144 255 0 144 255 0 144 255 0 144 255 0 162 255 0 162 255 0 162 255 0 162 255 0 162 255 0 162 255 0 162 255 0 162 255 0 162 255 0 162 255 0 170 255 0 170 255 0 170 255 0 170 255 0 170 255 0 170 255 0 170 255 0 170 255 0 170 255 0 170 255 0 153 255 0 153 255 0 153 255 0 153 255 0 153 255 0 153 255 0 153 255 0 153 255 0 153 255 0 153 255 0 149 255 0 149 255 0 149 255 0 149 255 0 149 255 0 149 255 0 149 255 0 149 255 0 149 255 0 149 255 0 169 255 0 169 255 0 169 255 0 169 255 0 169 255 0 169 255 0 169 255 0 169 255 0 169 255 0 169 255 0 148 255 0 148 255 0 148 255 0 148 255 0 148 255 0 148 255 0 148 255 0 148 255 0 148 255 0 148 255 0 153 255 0 153 255 0 153 255 0 153 255 0 153 255 0 153 255 0 153 255 0 153 255 0 153 255 0 153 255 0 176 255 0 176 255 0 176 255 0 176 255 0 176 255 0 176 255 0 176 255 0 176 255 0 176 255 0 176 255 0 173 255 0 173 255 0 173 255 0 173 255 0 173 255 0 173 255 0 173 255 0 173 255 0 173 255 0 173 255 0 171 255 0 171 255 0 171 255 0 171 255 0 171 255 0 171 255 0 171 255 0 171 255 0 171 255 0 171 255 0 158 255 0 158 255 0 158 255 0 158 255 0 158 255 0 158 255 0 158 255 0 158 255 0 158 255 0 158 255 0 168 255 0 168 255 0 168 255 0 168 255 0 168 255 0 168 255 0 168 255 0 168 255 0 168 255 0 168 255 0 150 255 0 150 255 0 150 255 0 150 255 0 150 255 0 150 255 0 150 255 0 150 255 0 150 255 0 150 255 0 148 255 0 148 255 0 148 255 0 148 255 0 148 255 0 148 255 0 148 255 0 148 255 0 148 255 0 148 255 0 159 255 0 159 255 0 159 255 0 159 255 0 159 255 0 159 255 0 159 255 0 159 255 0 159 255 0 159 255 0 149 255 0 149 255 0 149 255 0 149 255 0 149 255 0 149 255 0 149 255 0 149 255 0 149 255 0 149 255 0 171 255 0 171 255 0 171 255 0 171 255 0 171 255 0 171 255 0 171 255 0 171 255 0 171 255 0 171 255 0 154 255 0 154 255 0 154 255 0 154 255 0 154 255 0 154 255 0 154 255 0 154 255 0 154 255 0 154 255 0 154 255 0 154 255 0 154 255 0 154 255 0 154 255 0 154 255 0 154 255 0 154 255 0 154 255 0 154 255 0 174 255 0 174 255 0 174 255 0 174 255 0 174 255 0 174 255 0 174 255 0 174 255 0 174 255 0 174 255 0 149 255 0 149 255 0 149 255 0 149 255 0 149 255 0 149 255 0 149 255 0 149 255 0 149 255 0 149 255 0 146 255 0 146 255 0 146 255 0 146 255 0 146 255 0 146 255 0 146 255 0 146 255 0 146 255 0 146 255 0 163 255 0 163 255 0 163 255 0 163 255 0 163 255 0 163 255 0 163 255 0 163 255 0 163 255 0 163 255 0 0 0 0 0 0 0 0 0 0 0 0 0 0 0 0 0 0 0 0 0 0 0 0 0 0 0 0 0 0 255 174 0 255 174 0 255 174 0 255 174 0 255 174 0 255 174 0 255 174 0 255 174 0 255 174 0 255 174 0 255 174 0 255 174 0 255 174 0 255 174 0 255 174 0 255 174 0 255 174 0 255 174 0 255 174 0 255 174 0 255 174 0 255 174 0 255 174 0 255 174 0 255 174 0 255 174 0 255 174 0 255 174 0 255 174 0 255 174 0 
0 156 255 0 156 255 0 156 255 0 156 255 0 156 255 0 156 255 0 156 255 0 156 255 0 156 255 0 156 255 0 151 255 0 151 255 0 151 255 0 151 255 0 151 255 0 151 255 0 151 255 0 151 255 0 151 255 0 151 255 0 162 255 0 162 255 0 162 255 0 162 255 0 162 255 0 162 255 0 162 255 0 162 255 0 162 255 0 162 255 0 161 255 0 161 255 0 161 255 0 161 255 0 161 255 0 161 255 0 161 255 0 161 255 0 161 255 0 161 255 0 144 255 0 144 255 0 144 255 0 144 255 0 144 255 0 144 255 0 144 255 0 144 255 0 144 255 0 144 255 0 162 255 0 162 255 0 162 255 0 162 255 0 162 255 0 162 255 0 162 255 0 162 255 0 162 255 0 162 255 0 170 255 0 170 255 0 170 255 0 170 255 0 170 255 0 170 255 0 170 255 0 170 255 0 170 255 0 170 255 0 153 255 0 153 255 0 153 255 0 153 255 0 153 255 0 153 255 0 153 255 0 153 255 0 153 255 0 153 255 0 149 255 0 149 255 0 149 255 0 149 255 0 149 255 0 149 255 0 149 255 0 149 255 0 149 255 0 149 255 0 169 255 0 169 255 0 169 255 0 169 255 0 169 255 0 169 255 0 169 255 0 169 255 0 169 255 0 169 255 0 148 255 0 148 255 0 148 255 0 148 255 0 148 255 0 148 255 0 148 255 0 148 255 0 148 255 0 148 255 0 153 255 0 153 255 0 153 255 0 153 255 0 153 255 0 153 255 0 153 255 0 153 255 0 153 255 0 153 255 0 176 255 0 176 255 0 176 255 0 176 255 0 176 255 0 176 255 0 176 255 0 176 255 0 176 255 0 176 255 0 173 255 0 173 255 0 173 255 0 173 255 0 173 255 0 173 255 0 173 255 0 173 255 0 173 255 0 173 255 0 171 255 0 171 255 0 171 255 0 171 255 0 171 255 0 171 255 0 171 255 0 171 255 0 171 255 0 171 255 0 158 255 0 158 255 0 158 255 0 158 255 0 158 255 0 158 255 0 158 255 0 158 255 0 158 255 0 158 255 0 168 255 0 168 255 0 168 255 0 168 255 0 168 255 0 168 255 0 168 255 0 168 255 0 168 255 0 168 255 0 150 255 0 150 255 0 150 255 0 150 255 0 150 255 0 150 255 0 150 255 0 150 255 0 150 255 0 150 255 0 148 255 0 148 255 0 148 255 0 148 255 0 148 255 0 148 255 0 148 255 0 148 255 0 148 255 0 148 255 0 159 255 0 159 255 0 159 255 0 159 255 0 159 255 0 159 255 0 159 255 0 159 255 0 159 255 0 159 255 0 149 255 0 149 255 0 149 255 0 149 255 0 149 255 0 149 255 0 149 255 0 149 255 0 149 255 0 149 255 0 171 255 0 171 255 0 171 255 0 171 255 0 171 255 0 171 255 0 171 255 0 171 255 0 171 255 0 171 255 0 154 255 0 154 255 0 154 255 0 154 255 0 154 255 0 154 255 0 154 255 0 154 255 0 154 255 0 154 255 0 154 255 0 154 255 0 154 255 0 154 255 0 154 255 0 154 255 0 154 255 0 154 255 0 154 255 0 154 255 0 174 255 0 174 255 0 174 255 0 174 255 0 174 255 0 174 255 0 174 255 0 174 255 0 174 255 0 174 255 0 149 255 0 149 255 0 149 255 0 149 255 0 149 255 0 149 255 0 149 255 0 149 255 0 149 255 0 149 255 0 146 255 0 146 255 0 146 255 0 146 255 0 146 255 0 146 255 0 146 255 0 146 255 0 146 255 0 146 255 0 163 255 0 163 255 0 163 255 0 163 255 0 163 255 0 163 255 0 163 255 0 163 255 0 163 255 0 163 255 0 0 0 0 0 0 0 0 0 0 0 0 0 0 0 0 0 0 0 0 0 0 0 0 0 0 0 0 0 0 255 170 0 255 170 0 255 170 0 255 170 0 255 170 0 255 170 0 255 170 0 255 170 0 255 170 0 255 170 0 255 170 0 255 170 0 255 170 0 255 170 0 255 170 0 255 170 0 255 170 0 255 170 0 255 170 0 255 170 0 255 170 0 255 170 0 255 170 0 255 170 0 255 170 0 255 170 0 255 170 0 255 170 0 255 170 0 255 170 0 
0 156 255 0 156 255 0 156 255 0 156 255 0 156 255 0 156 255 0 156 255 0 156 255 0 156 255 0 156 255 0 151 255 0 151 255 0 151 255 0 151 255 0 151 255 0 151 255 0 151 255 0 151 255 0 151 255 0 151 255 0 162 255 0 162 255 0 162 255 0 162 255 0 162 255 0 162 255 0 162 255 0 162 255 0 162 255 0 162 255 0 161 255 0 161 255 0 161 255 0 161 255 0 161 255 0 161 255 0 161 255 0 161 255 0 161 255 0 161 255 0 144 255 0 144 255 0 144 255 0 144 255 0 144 255 0 144 255 0 144 255 0 144 255 0 144 255 0 144 255 0 162 255 0 162 255 0 162 255 0 162 255 0 162 255 0 162 255 0 162 255 0 162 255 0 162 255 0 162 255 0 170 255 0 170 255 0 170 255 0 170 255 0 170 255 0 170 255 0 170 255 0 170 255 0 170 255 0 170 255 0 153 255 0 153 255 0 153 255 0 153 255 0 153 255 0 153 255 0 153 255 0 153 255 0 153 255 0 153 255 0 149 255 0 149 255 0 149 255 0 149 255 0 149 255 0 149 255 0 149 255 0 149 255 0 149 255 0 149 255 0 169 255 0 169 255 0 169 255 0 169 255 0 169 255 0 169 255 0 169 255 0 169 255 0 169 255 0 169 255 0 148 255 0 148 255 0 148 255 0 148 255 0 148 255 0 148 255 0 148 255 0 148 255 0 148 255 0 148 255 0 153 255 0 153 255 0 153 255 0 153 255 0 153 255 0 153 255 0 153 255 0 153 255 0 153 255 0 153 255 0 176 255 0 176 255 0 176 255 0 176 255 0 176 255 0 176 255 0 176 255 0 176 255 0 176 255 0 176 255 0 173 255 0 173 255 0 173 255 0 173 255 0 173 255 0 173 255 0 173 255 0 173 255 0 173 255 0 173 255 0 171 255 0 171 255 0 171 255 0 171 255 0 171 255 0 171 255 0 171 255 0 171 255 0 171 255 0 171 255 0 158 255 0 158 255 0 158 255 0 158 255 0 158 255 0 158 255 0 158 255 0 158 255 0 158 255 0 158 255 0 168 255 0 168 255 0 168 255 0 168 255 0 168 255 0 168 255 0 168 255 0 168 255 0 168 255 0 168 255 0 150 255 0 150 255 0 150 255 0 150 255 0 150 255 0 150 255 0 150 255 0 150 255 0 150 255 0 150 255 0 148 255 0 148 255 0 148 255 0 148 255 0 148 255 0 148 255 0 148 255 0 148 255 0 148 255 0 148 255 0 159 255 0 159 255 0 159 255 0 159 255 0 159 255 0 159 255 0 159 255 0 159 255 0 159 255 0 159 255 0 149 255 0 149 255 0 149 255 0 149 255 0 149 255 0 149 255 0 149 255 0 149 255 0 149 255 0 149 255 0 171 255 0 171 255 0 171 255 0 171 255 0 171 255 0 171 255 0 171 255 0 171 255 0 171 255 0 171 255 0 154 255 0 154 255 0 154 255 0 154 255 0 154 255 0 154 255 0 154 255 0 154 255 0 154 255 0 154 255 0 154 255 0 154 255 0 154 255 0 154 255 0 154 255 0 154 255 0 154 255 0 154 255 0 154 255 0 154 255 0 174 255 0 174 255 0 174 255 0 174 255 0 174 255 0 174 255 0 174 255 0 174 255 0 174 255 0 174 255 0 149 255 0 149 255 0 149 255 0 149 255 0 149 255 0 149 255 0 149 255 0 149 255 0 149 255 0 149 255 0 146 255 0 146 255 0 146 255 0 146 255 0 146 255 0 146 255 0 146 255 0 146 255 0 146 255 0 146 255 0 163 255 0 163 255 0 163 255 0 163 255 0 163 255 0 163 255 0 163 255 0 163 255 0 163 255 0 163 255 0 0 0 0 0 0 0 0 0 0 0 0 0 0 0 0 0 0 0 0 0 0 0 0 0 0 0 0 0 0 255 167 0 255 167 0 255 167 0 255 167 0 255 167 0 255 167 0 255 167 0 255 167 0 255 167 0 255 167 0 255 167 0 255 167 0 255 167 0 255 167 0 255 167 0 255 167 0 255 167 0 255 167 0 255 167 0 255 167 0 255 167 0 255 167 0 255 167 0 255 167 0 255 167 0 255 167 0 255 167 0 255 167 0 255 167 0 255 167 0 
0 156 255 0 156 255 0 156 255 0 156 255 0 156 255 0 156 255 0 156 255 0 156 255 0 156 255 0 156 255 0 151 255 0 151 255 0 151 255 0 151 255 0 151 255 0 151 255 0 151 255 0 151 255 0 151 255 0 151 255 0 162 255 0 162 255 0 162 255 0 162 255 0 162 255 0 162 255 0 162 255 0 162 255 0 162 255 0 162 255 0 161 255 0 161 255 0 161 255 0 161 255 0 161 255 0 161 255 0 161 255 0 161 255 0 161 255 0 161 255 0 144 255 0 144 255 0 144 255 0 144 255 0 144 255 0 144 255 0 144 255 0 144 255 0 144 255 0 144 255 0 162 255 0 162 255 0 162 255 0 162 255 0 162 255 0 162 255 0 162 255 0 162 255 0 162 255 0 162 255 0 170 255 0 170 255 0 170 255 0 170 255 0 170 255 0 170 255 0 170 255 0 170 255 0 170 255 0 170 255 0 153 255 0 153 255 0 153 255 0 153 255 0 153 255 0 153 255 0 153 255 0 153 255 0 153 255 0 153 255 0 149 255 0 149 255 0 149 255 0 149 255 0 149 255 0 149 255 0 149 255 0 149 255 0 149 255 0 149 255 0 169 255 0 169 255 0 169 255 0 169 255 0 169 255 0 169 255 0 169 255 0 169 255 0 169 255 0 169 255 0 148 255 0 148 255 0 148 255 0 148 255 0 148 255 0 148 255 0 148 255 0 148 255 0 148 255 0 148 255 0 153 255 0 153 255 0 153 255 0 153 255 0 153 255 0 153 255 0 153 255 0 153 255 0 153 255 0 153 255 0 176 255 0 176 255 0 176 255 0 176 255 0 176 255 0 176 255 0 176 255 0 176 255 0 176 255 0 176 255 0 173 255 0 173 255 0 173 255 0 173 255 0 173 255 0 173 255 0 173 255 0 173 255 0 173 255 0 173 255 0 171 255 0 171 255 0 171 255 0 171 255 0 171 255 0 171 255 0 171 255 0 171 255 0 171 255 0 171 255 0 158 255 0 158 255 0 158 255 0 158 255 0 158 255 0 158 255 0 158 255 0 158 255 0 158 255 0 158 255 0 168 255 0 168 255 0 168 255 0 168 255 0 168 255 0 168 255 0 168 255 0 168 255 0 168 255 0 168 255 0 150 255 0 150 255 0 150 255 0 150 255 0 150 255 0 150 255 0 150 255 0 150 255 0 150 255 0 150 255 0 148 255 0 148 255 0 148 255 0 148 255 0 148 255 0 148 255 0 148 255 0 148 255 0 148 255 0 148 255 0 159 255 0 159 255 0 159 255 0 159 255 0 159 255 0 159 255 0 159 255 0 159 255 0 159 255 0 159 255 0 149 255 0 149 255 0 149 255 0 149 255 0 149 255 0 149 255 0 149 255 0 149 255 0 149 255 0 149 255 0 171 255 0 171 255 0 171 255 0 171 255 0 171 255 0 171 255 0 171 255 0 171 255 0 171 255 0 171 255 0 154 255 0 154 255 0 154 255 0 154 255 0 154 255 0 154 255 0 154 255 0 154 255 0 154 255 0 154 255 0 154 255 0 154 255 0 154 255 0 154 255 0 154 255 0 154 255 0 154 255 0 154 255 0 154 255 0 154 255 0 174 255 0 174 255 0 174 255 0 174 255 0 174 255 0 174 255 0 174 255 0 174 255 0 174 255 0 174 255 0 149 255 0 149 255 0 149 255 0 149 255 0 149 255 0 149 255 0 149 255 0 149 255 0 149 255 0 149 255 0 146 255 0 146 255 0 146 255 0 146 255 0 146 255 0 146 255 0 146 255 0 146 255 0 146 255 0 146 255 0 163 255 0 163 255 0 163 255 0 163 255 0 163 255 0 163 255 0 163 255 0 163 255 0 163 255 0 163 255 0 0 0 0 0 0 0 0 0 0 0 0 0 0 0 0 0 0 0 0 0 0 0 0 0 0 0 0 0 0 255 163 0 255 163 0 255 163 0 255 163 0 255 163 0 255 163 0 255 163 0 255 163 0 255 163 0 255 163 0 255 163 0 255 163 0 255 163 0 255 163 0 255 163 0 255 163 0 255 163 0 255 163 0 255 163 0 255 163 0 255 163 0 255 163 0 255 163 0 255 163 0 255 163 0 255 163 0 255 163 0 255 163 0 255 163 0 255 163 0 
0 156 255 0 156 255 0 156 255 0 156 255 0 156 255 0 156 255 0 156 255 0 156 255 0 156 255 0 156 255 0 151 255 0 151 255 0 151 255 0 151 255 0 151 255 0 151 255 0 151 255 0 151 255 0 151 255 0 151 255 0 162 255 0 162 255 0 162 255 0 162 255 0 162 255 0 162 255 0 162 255 0 162 255 0 162 255 0 162 255 0 161 255 0 161 255 0 161 255 0 161 255 0 161 255 0 161 255 0 161 255 0 161 255 0 161 255 0 161 255 0 144 255 0 144 255 0 144 255 0 144 255 0 144 255 0 144 255 0 144 255 0 144 255 0 144 255 0 144 255 0 162 255 0 162 255 0 162 255 0 162 255 0 162 255 0 162 255 0 162 255 0 162 255 0 162 255 0 162 255 0 170 255 0 170 255 0 170 255 0 170 255 0 170 255 0 170 255 0 170 255 0 170 255 0 170 255 0 170 255 0 153 255 0 153 255 0 153 255 0 153 255 0 153 255 0 153 255 0 153 255 0 153 255 0 153 255 0 153 255 0 149 255 0 149 255 0 149 255 0 149 255 0 149 255 0 149 255 0 149 255 0 149 255 0 149 255 0 149 255 0 169 255 0 169 255 0 169 255 0 169 255 0 169 255 0 169 255 0 169 255 0 169 255 0 169 255 0 169 255 0 148 255 0 148 255 0 148 255 0 148 255 0 148 255 0 148 255 0 148 255 0 148 255 0 148 255 0 148 255 0 153 255 0 153 255 0 153 255 0 153 255 0 153 255 0 153 255 0 153 255 0 153 255 0 153 255 0 153 255 0 176 255 0 176 255 0 176 255 0 176 255 0 176 255 0 176 255 0 176 255 0 176 255 0 176 255 0 176 255 0 173 255 0 173 255 0 173 255 0 173 255 0 173 255 0 173 255 0 173 255 0 173 255 0 173 255 0 173 255 0 171 255 0 171 255 0 171 255 0 171 255 0 171 255 0 171 255 0 171 255 0 171 255 0 171 255 0 171 255 0 158 255 0 158 255 0 158 255 0 158 255 0 158 255 0 158 255 0 158 255 0 158 255 0 158 255 0 158 255 0 168 255 0 168 255 0 168 255 0 168 255 0 168 255 0 168 255 0 168 255 0 168 255 0 168 255 0 168 255 0 150 255 0 150 255 0 150 255 0 150 255 0 150 255 0 150 255 0 150 255 0 150 255 0 150 255 0 150 255 0 148 255 0 148 255 0 148 255 0 148 255 0 148 255 0 148 255 0 148 255 0 148 255 0 148 255 0 148 255 0 159 255 0 159 255 0 159 255 0 159 255 0 159 255 0 159 255 0 159 255 0 159 255 0 159 255 0 159 255 0 149 255 0 149 255 0 149 255 0 149 255 0 149 255 0 149 255 0 149 255 0 149 255 0 149 255 0 149 255 0 171 255 0 171 255 0 171 255 0 171 255 0 171 255 0 171 255 0 171 255 0 171 255 0 171 255 0 171 255 0 154 255 0 154 255 0 154 255 0 154 255 0 154 255 0 154 255 0 154 255 0 154 255 0 154 255 0 154 255 0 154 255 0 154 255 0 154 255 0 154 255 0 154 255 0 154 255 0 154 255 0 154 255 0 154 255 0 154 255 0 174 255 0 174 255 0 174 255 0 174 255 0 174 255 0 174 255 0 174 255 0 174 255 0 174 255 0 174 255 0 149 255 0 149 255 0 149 255 0 149 255 0 149 255 0 149 255 0 149 255 0 149 255 0 149 255 0 149 255 0 146 255 0 146 255 0 146 255 0 146 255 0 146 255 0 146 255 0 146 255 0 146 255 0 146 255 0 146 255 0 163 255 0 163 255 0 163 255 0 163 255 0 163 255 0 163 255 0 163 255 0 163 255 0 163 255 0 163 255 0 0 0 0 0 0 0 0 0 0 0 0 0 0 0 0 0 0 0 0 0 0 0 0 0 0 0 0 0 0 255 159 0 255 159 0 255 159 0 255 159 0 255 159 0 255 159 0 255 159 0 255 159 0 255 159 0 255 159 0 255 159 0 255 159 0 255 159 0 255 159 0 255 159 0 255 159 0 255 159 0 255 159 0 255 159 0 255 159 0 255 159 0 255 159 0 255 159 0 255 159 0 255 159 0 255 159 0 255 159 0 255 159 0 255 159 0 255 159 0 
0 156 255 0 156 255 0 156 255 0 156 255 0 156 255 0 156 255 0 156 255 0 156 255 0 156 255 0 156 255 0 151 255 0 151 255 0 151 255 0 151 255 0 151 255 0 151 255 0 151 255 0 151 255 0 151 255 0 151 255 0 162 255 0 162 255 0 162 255 0 162 255 0 162 255 0 162 255 0 162 255 0 162 255 0 162 255 0 162 255 0 161 255 0 161 255 0 161 255 0 161 255 0 161 255 0 161 255 0 161 255 0 161 255 0 161 255 0 161 255 0 144 255 0 144 255 0 144 255 0 144 255 0 144 255 0 144 255 0 144 255 0 144 255 0 144 255 0 144 255 0 162 255 0 162 255 0 162 255 0 162 255 0 162 255 0 162 255 0 162 255 0 162 255 0 162 255 0 162 255 0 170 255 0 170 255 0 170 255 0 170 255 0 170 255 0 170 255 0 170 255 0 170 255 0 170 255 0 170 255 0 153 255 0 153 255 0 153 255 0 153 255 0 153 255 0 153 255 0 153 255 0 153 255 0 153 255 0 153 255 0 149 255 0 149 255 0 149 255 0 149 255 0 149 255 0 149 255 0 149 255 0 149 255 0 149 255 0 149 255 0 169 255 0 169 255 0 169 255 0 169 255 0 169 255 0 169 255 0 169 255 0 169 255 0 169 255 0 169 255 0 148 255 0 148 255 0 148 255 0 148 255 0 148 255 0 148 255 0 148 255 0 148 255 0 148 255 0 148 255 0 153 255 0 153 255 0 153 255 0 153 255 0 153 255 0 153 255 0 153 255 0 153 255 0 153 255 0 153 255 0 176 255 0 176 255 0 176 255 0 176 255 0 176 255 0 176 255 0 176 255 0 176 255 0 176 255 0 176 255 0 173 255 0 173 255 0 173 255 0 173 255 0 173 255 0 173 255 0 173 255 0 173 255 0 173 255 0 173 255 0 171 255 0 171 255 0 171 255 0 171 255 0 171 255 0 171 255 0 171 255 0 171 255 0 171 255 0 171 255 0 158 255 0 158 255 0 158 255 0 158 255 0 158 255 0 158 255 0 158 255 0 158 255 0 158 255 0 158 255 0 168 255 0 168 255 0 168 255 0 168 255 0 168 255 0 168 255 0 168 255 0 168 255 0 168 255 0 168 255 0 150 255 0 150 255 0 150 255 0 150 255 0 150 255 0 150 255 0 150 255 0 150 255 0 150 255 0 150 255 0 148 255 0 148 255 0 148 255 0 148 255 0 148 255 0 148 255 0 148 255 0 148 255 0 148 255 0 148 255 0 159 255 0 159 255 0 159 255 0 159 255 0 159 255 0 159 255 0 159 255 0 159 255 0 159 255 0 159 255 0 149 255 0 149 255 0 149 255 0 149 255 0 149 255 0 149 255 0 149 255 0 149 255 0 149 255 0 149 255 0 171 255 0 171 255 0 171 255 0 171 255 0 171 255 0 171 255 0 171 255 0 171 255 0 171 255 0 171 255 0 154 255 0 154 255 0 154 255 0 154 255 0 154 255 0 154 255 0 154 255 0 154 255 0 154 255 0 154 255 0 154 255 0 154 255 0 154 255 0 154 255 0 154 255 0 154 255 0 154 255 0 154 255 0 154 255 0 154 255 0 174 255 0 174 255 0 174 255 0 174 255 0 174 255 0 174 255 0 174 255 0 174 255 0 174 255 0 174 255 0 149 255 0 149 255 0 149 255 0 149 255 0 149 255 0 149 255 0 149 255 0 149 255 0 149 255 0 149 255 0 146 255 0 146 255 0 146 255 0 146 255 0 146 255 0 146 255 0 146 255 0 146 255 0 146 255 0 146 255 0 163 255 0 163 255 0 163 255 0 163 255 0 163 255 0 163 255 0 163 255 0 163 255 0 163 255 0 163 255 0 0 0 0 0 0 0 0 0 0 0 0 0 0 0 0 0 0 0 0 0 0 0 0 0 0 0 0 0 0 255 156 0 255 156 0 255 156 0 255 156 0 255 156 0 255 156 0 255 156 0 255 156 0 255 156 0 255 156 0 255 156 0 255 156 0 255 156 0 255 156 0 255 156 0 255 156 0 255 156 0 255 156 0 255 156 0 255 156 0 255 156 0 255 156 0 255 156 0 255 156 0 255 156 0 255 156 0 255 156 0 255 156 0 255 156 0 255 156 0 
0 156 255 0 156 255 0 156 255 0 156 255 0 156 255 0 156 255 0 156 255 0 156 255 0 156 255 0 156 255 0 151 255 0 151 255 0 151 255 0 151 255 0 151 255 0 151 255 0 151 255 0 151 255 0 151 255 0 151 255 0 162 255 0 162 255 0 162 255 0 162 255 0 162 255 0 162 255 0 162 255 0 162 255 0 162 255 0 162 255 0 161 255 0 161 255 0 161 255 0 161 255 0 161 255 0 161 255 0 161 255 0 161 255 0 161 255 0 161 255 0 144 255 0 144 255 0 144 255 0 144 255 0 144 255 0 144 255 0 144 255 0 144 255 0 144 255 0 144 255 0 162 255 0 162 255 0 162 255 0 162 255 0 162 255 0 162 255 0 162 255 0 162 255 0 162 255 0 162 255 0 170 255 0 170 255 0 170 255 0 170 255 0 170 255 0 170 255 0 170 255 0 170 255 0 170 255 0 170 255 0 153 255 0 153 255 0 153 255 0 153 255 0 153 255 0 153 255 0 153 255 0 153 255 0 153 255 0 153 255 0 149 255 0 149 255 0 149 255 0 149 255 0 149 255 0 149 255 0 149 255 0 149 255 0 149 255 0 149 255 0 169 255 0 169 255 0 169 255 0 169 255 0 169 255 0 169 255 0 169 255 0 169 255 0 169 255 0 169 255 0 148 255 0 148 255 0 148 255 0 148 255 0 148 255 0 148 255 0 148 255 0 148 255 0 148 255 0 148 255 0 153 255 0 153 255 0 153 255 0 153 255 0 153 255 0 153 255 0 153 255 0 153 255 0 153 255 0 153 255 0 176 255 0 176 255 0 176 255 0 176 255 0 176 255 0 176 255 0 176 255 0 176 255 0 176 255 0 176 255 0 173 255 0 173 255 0 173 255 0 173 255 0 173 255 0 173 255 0 173 255 0 173 255 0 173 255 0 173 255 0 171 255 0 171 255 0 171 255 0 171 255 0 171 255 0 171 255 0 171 255 0 171 255 0 171 255 0 171 255 0 158 255 0 158 255 0 158 255 0 158 255 0 158 255 0 158 255 0 158 255 0 158 255 0 158 255 0 158 255 0 168 255 0 168 255 0 168 255 0 168 255 0 168 255 0 168 255 0 168 255 0 168 255 0 168 255 0 168 255 0 150 255 0 150 255 0 150 255 0 150 255 0 150 255 0 150 255 0 150 255 0 150 255 0 150 255 0 150 255 0 148 255 0 148 255 0 148 255 0 148 255 0 148 255 0 148 255 0 148 255 0 148 255 0 148 255 0 148 255 0 159 255 0 159 255 0 159 255 0 159 255 0 159 255 0 159 255 0 159 255 0 159 255 0 159 255 0 159 255 0 149 255 0 149 255 0 149 255 0 149 255 0 149 255 0 149 255 0 149 255 0 149 255 0 149 255 0 149 255 0 171 255 0 171 255 0 171 255 0 171 255 0 171 255 0 171 255 0 171 255 0 171 255 0 171 255 0 171 255 0 154 255 0 154 255 0 154 255 0 154 255 0 154 255 0 154 255 0 154 255 0 154 255 0 154 255 0 154 255 0 154 255 0 154 255 0 154 255 0 154 255 0 154 255 0 154 255 0 154 255 0 154 255 0 154 255 0 154 255 0 174 255 0 174 255 0 174 255 0 174 255 0 174 255 0 174 255 0 174 255 0 174 255 0 174 255 0 174 255 0 149 255 0 149 255 0 149 255 0 149 255 0 149 255 0 149 255 0 149 255 0 149 255 0 149 255 0 149 255 0 146 255 0 146 255 0 146 255 0 146 255 0 146 255 0 146 255 0 146 255 0 146 255 0 146 255 0 146 255 0 163 255 0 163 255 0 163 255 0 163 255 0 163 255 0 163 255 0 163 255 0 163 255 0 163 255 0 163 255 0 0 0 0 0 0 0 0 0 0 0 0 0 0 0 0 0 0 0 0 0 0 0 0 0 0 0 0 0 0 255 152 0 255 152 0 255 152 0 255 152 0 255 152 0 255 152 0 255 152 0 255 152 0 255 152 0 255 152 0 255 152 0 255 152 0 255 152 0 255 152 0 255 152 0 255 152 0 255 152 0 255 152 0 255 152 0 255 152 0 255 152 0 255 152 0 255 152 0 255 152 0 255 152 0 255 152 0 255 152 0 255 152 0 255 152 0 255 152 0 
0 156 255 0 156 255 0 156 255 0 156 255 0 156 255 0 156 255 0 156 255 0 156 255 0 156 255 0 156 255 0 151 255 0 151 255 0 151 255 0 151 255 0 151 255 0 151 255 0 151 255 0 151 255 0 151 255 0 151 255 0 162 255 0 162 255 0 162 255 0 162 255 0 162 255 0 162 255 0 162 255 0 162 255 0 162 255 0 162 255 0 161 255 0 161 255 0 161 255 0 161 255 0 161 255 0 161 255 0 161 255 0 161 255 0 161 255 0 161 255 0 144 255 0 144 255 0 144 255 0 144 255 0 144 255 0 144 255 0 144 255 0 144 255 0 144 255 0 144 255 0 162 255 0 162 255 0 162 255 0 162 255 0 162 255 0 162 255 0 162 255 0 162 255 0 162 255 0 162 255 0 170 255 0 170 255 0 170 255 0 170 255 0 170 255 0 170 255 0 170 255 0 170 255 0 170 255 0 170 255 0 153 255 0 153 255 0 153 255 0 153 255 0 153 255 0 153 255 0 153 255 0 153 255 0 153 255 0 153 255 0 149 255 0 149 255 0 149 255 0 149 255 0 149 255 0 149 255 0 149 255 0 149 255 0 149 255 0 149 255 0 169 255 0 169 255 0 169 255 0 169 255 0 169 255 0 169 255 0 169 255 0 169 255 0 169 255 0 169 255 0 148 255 0 148 255 0 148 255 0 148 255 0 148 255 0 148 255 0 148 255 0 148 255 0 148 255 0 148 255 0 153 255 0 153 255 0 153 255 0 153 255 0 153 255 0 153 255 0 153 255 0 153 255 0 153 255 0 153 255 0 176 255 0 176 255 0 176 255 0 176 255 0 176 255 0 176 255 0 176 255 0 176 255 0 176 255 0 176 255 0 173 255 0 173 255 0 173 255 0 173 255 0 173 255 0 173 255 0 173 255 0 173 255 0 173 255 0 173 255 0 171 255 0 171 255 0 171 255 0 171 255 0 171 255 0 171 255 0 171 255 0 171 255 0 171 255 0 171 255 0 158 255 0 158 255 0 158 255 0 158 255 0 158 255 0 158 255 0 158 255 0 158 255 0 158 255 0 158 255 0 168 255 0 168 255 0 168 255 0 168 255 0 168 255 0 168 255 0 168 255 0 168 255 0 168 255 0 168 255 0 150 255 0 150 255 0 150 255 0 150 255 0 150 255 0 150 255 0 150 255 0 150 255 0 150 255 0 150 255 0 148 255 0 148 255 0 148 255 0 148 255 0 148 255 0 148 255 0 148 255 0 148 255 0 148 255 0 148 255 0 159 255 0 159 255 0 159 255 0 159 255 0 159 255 0 159 255 0 159 255 0 159 255 0 159 255 0 159 255 0 149 255 0 149 255 0 149 255 0 149 255 0 149 255 0 149 255 0 149 255 0 149 255 0 149 255 0 149 255 0 171 255 0 171 255 0 171 255 0 171 255 0 171 255 0 171 255 0 171 255 0 171 255 0 171 255 0 171 255 0 154 255 0 154 255 0 154 255 0 154 255 0 154 255 0 154 255 0 154 255 0 154 255 0 154 255 0 154 255 0 154 255 0 154 255 0 154 255 0 154 255 0 154 255 0 154 255 0 154 255 0 154 255 0 154 255 0 154 255 0 174 255 0 174 255 0 174 255 0 174 255 0 174 255 0 174 255 0 174 255 0 174 255 0 174 255 0 174 255 0 149 255 0 149 255 0 149 255 0 149 255 0 149 255 0 149 255 0 149 255 0 149 255 0 149 255 0 149 255 0 146 255 0 146 255 0 146 255 0 146 255 0 146 255 0 146 255 0 146 255 0 146 255 0 146 255 0 146 255 0 163 255 0 163 255 0 163 255 0 163 255 0 163 255 0 163 255 0 163 255 0 163 255 0 163 255 0 163 255 0 0 0 0 0 0 0 0 0 0 0 0 0 0 0 0 0 0 0 0 0 0 0 0 0 0 0 0 0 0 255 148 0 255 148 0 255 148 0 255 148 0 255 148 0 255 148 0 255 148 0 255 148 0 255 148 0 255 148 0 255 148 0 255 148 0 255 148 0 255 148 0 255 148 0 255 148 0 255 148 0 255 148 0 255 148 0 255 148 0 255 148 0 255 148 0 255 148 0 255 148 0 255 148 0 255 148 0 255 148 0 255 148 0 255 148 0 255 148 0 
0 162 255 0 162 255 0 162 255 0 162 255 0 162 255 0 162 255 0 162 255 0 162 255 0 162 255 0 162 255 0 162 255 0 162 255 0 162 255 0 162 255 0 162 255 0 162 255 0 162 255 0 162 255 0 162 255 0 162 255 0 146 255 0 146 255 0 146 255 0 146 255 0 146 255 0 146 255 0 146 255 0 146 255 0 146 255 0 146 255 0 158 255 0 158 255 0 158 255 0 158 255 0 158 255 0 158 255 0 158 255 0 158 255 0 158 255 0 158 255 0 158 255 0 158 255 0 158 255 0 158 255 0 158 255 0 158 255 0 158 255 0 158 255 0 158 255 0 158 255 0 154 255 0 154 255 0 154 255 0 154 255 0 154 255 0 154 255 0 154 255 0 154 255 0 154 255 0 154 255 0 146 255 0 146 255 0 146 255 0 146 255 0 146 255 0 146 255 0 146 255 0 146 255 0 146 255 0 146 255 0 172 255 0 172 255 0 172 255 0 172 255 0 172 255 0 172 255 0 172 255 0 172 255 0 172 255 0 172 255 0 176 255 0 176 255 0 176 255 0 176 255 0 176 255 0 176 255 0 176 255 0 176 255 0 176 255 0 176 255 0 180 255 0 180 255 0 180 255 0 180 255 0 180 255 0 180 255 0 180 255 0 180 255 0 180 255 0 180 255 0 163 255 0 163 255 0 163 255 0 163 255 0 163 255 0 163 255 0 163 255 0 163 255 0 163 255 0 163 255 0 173 255 0 173 255 0 173 255 0 173 255 0 173 255 0 173 255 0 173 255 0 173 255 0 173 255 0 173 255 0 161 255 0 161 255 0 161 255 0 161 255 0 161 255 0 161 255 0 161 255 0 161 255 0 161 255 0 161 255 0 181 255 0 181 255 0 181 255 0 181 255 0 181 255 0 181 255 0 181 255 0 181 255 0 181 255 0 181 255 0 189 255 0 189 255 0 189 255 0 189 255 0 189 255 0 189 255 0 189 255 0 189 255 0 189 255 0 189 255 0 170 255 0 170 255 0 170 255 0 170 255 0 170 255 0 170 255 0 170 255 0 170 255 0 170 255 0 170 255 0 188 255 0 188 255 0 188 255 0 188 255 0 188 255 0 188 255 0 188 255 0 188 255 0 188 255 0 188 255 0 176 255 0 176 255 0 176 255 0 176 255 0 176 255 0 176 255 0 176 255 0 176 255 0 176 255 0 176 255 0 187 255 0 187 255 0 187 255 0 187 255 0 187 255 0 187 255 0 187 255 0 187 255 0 187 255 0 187 255 0 180 255 0 180 255 0 180 255 0 180 255 0 180 255 0 180 255 0 180 255 0 180 255 0 180 255 0 180 255 0 185 255 0 185 255 0 185 255 0 185 255 0 185 255 0 185 255 0 185 255 0 185 255 0 185 255 0 185 255 0 162 255 0 162 255 0 162 255 0 162 255 0 162 255 0 162 255 0 162 255 0 162 255 0 162 255 0 162 255 0 150 255 0 150 255 0 150 255 0 150 255 0 150 255 0 150 255 0 150 255 0 150 255 0 150 255 0 150 255 0 165 255 0 165 255 0 165 255 0 165 255 0 165 255 0 165 255 0 165 255 0 165 255 0 165 255 0 165 255 0 172 255 0 172 255 0 172 255 0 172 255 0 172 255 0 172 255 0 172 255 0 172 255 0 172 255 0 172 255 0 151 255 0 151 255 0 151 255 0 151 255 0 151 255 0 151 255 0 151 255 0 151 255 0 151 255 0 151 255 0 168 255 0 168 255 0 168 255 0 168 255 0 168 255 0 168 255 0 168 255 0 168 255 0 168 255 0 168 255 0 150 255 0 150 255 0 150 255 0 150 255 0 150 255 0 150 255 0 150 255 0 150 255 0 150 255 0 150 255 0 0 0 0 0 0 0 0 0 0 0 0 0 0 0 0 0 0 0 0 0 0 0 0 0 0 0 0 0 0 255 145 0 255 145 0 255 145 0 255 145 0 255 145 0 255 145 0 255 145 0 255 145 0 255 145 0 255 145 0 255 145 0 255 145 0 255 145 0 255 145 0 255 145 0 255 145 0 255 145 0 255 145 0 255 145 0 255 145 0 255 145 0 255 145 0 255 145 0 255 145 0 255 145 0 255 145 0 255 145 0 255 145 0 255 145 0 255 145 0 
0 162 255 0 162 255 0 162 255 0 162 255 0 162 255 0 162 255 0 162 255 0 162 255 0 162 255 0 162 255 0 162 255 0 162 255 0 162 255 0 162 255 0 162 255 0 162 255 0 162 255 0 162 255 0 162 255 0 162 255 0 146 255 0 146 255 0 146 255 0 146 255 0 146 255 0 146 255 0 146 255 0 146 255 0 146 255 0 146 255 0 158 255 0 158 255 0 158 255 0 158 255 0 158 255 0 158 255 0 158 255 0 158 255 0 158 255 0 158 255 0 158 255 0 158 255 0 158 255 0 158 255 0 158 255 0 158 255 0 158 255 0 158 255 0 158 255 0 158 255 0 154 255 0 154 255 0 154 255 0 154 255 0 154 255 0 154 255 0 154 255 0 154 255 0 154 255 0 154 255 0 146 255 0 146 255 0 146 255 0 146 255 0 146 255 0 146 255 0 146 255 0 146 255 0 146 255 0 146 255 0 172 255 0 172 255 0 172 255 0 172 255 0 172 255 0 172 255 0 172 255 0 172 255 0 172 255 0 172 255 0 176 255 0 176 255 0 176 255 0 176 255 0 176 255 0 176 255 0 176 255 0 176 255 0 176 255 0 176 255 0 180 255 0 180 255 0 180 255 0 180 255 0 180 255 0 180 255 0 180 255 0 180 255 0 180 255 0 180 255 0 163 255 0 163 255 0 163 255 0 163 255 0 163 255 0 163 255 0 163 255 0 163 255 0 163 255 0 163 255 0 173 255 0 173 255 0 173 255 0 173 255 0 173 255 0 173 255 0 173 255 0 173 255 0 173 255 0 173 255 0 161 255 0 161 255 0 161 255 0 161 255 0 161 255 0 161 255 0 161 255 0 161 255 0 161 255 0 161 255 0 181 255 0 181 255 0 181 255 0 181 255 0 181 255 0 181 255 0 181 255 0 181 255 0 181 255 0 181 255 0 189 255 0 189 255 0 189 255 0 189 255 0 189 255 0 189 255 0 189 255 0 189 255 0 189 255 0 189 255 0 170 255 0 170 255 0 170 255 0 170 255 0 170 255 0 170 255 0 170 255 0 170 255 0 170 255 0 170 255 0 188 255 0 188 255 0 188 255 0 188 255 0 188 255 0 188 255 0 188 255 0 188 255 0 188 255 0 188 255 0 176 255 0 176 255 0 176 255 0 176 255 0 176 255 0 176 255 0 176 255 0 176 255 0 176 255 0 176 255 0 187 255 0 187 255 0 187 255 0 187 255 0 187 255 0 187 255 0 187 255 0 187 255 0 187 255 0 187 255 0 180 255 0 180 255 0 180 255 0 180 255 0 180 255 0 180 255 0 180 255 0 180 255 0 180 255 0 180 255 0 185 255 0 185 255 0 185 255 0 185 255 0 185 255 0 185 255 0 185 255 0 185 255 0 185 255 0 185 255 0 162 255 0 162 255 0 162 255 0 162 255 0 162 255 0 162 255 0 162 255 0 162 255 0 162 255 0 162 255 0 150 255 0 150 255 0 150 255 0 150 255 0 150 255 0 150 255 0 150 255 0 150 255 0 150 255 0 150 255 0 165 255 0 165 255 0 165 255 0 165 255 0 165 255 0 165 255 0 165 255 0 165 255 0 165 255 0 165 255 0 172 255 0 172 255 0 172 255 0 172 255 0 172 255 0 172 255 0 172 255 0 172 255 0 172 255 0 172 255 0 151 255 0 151 255 0 151 255 0 151 255 0 151 255 0 151 255 0 151 255 0 151 255 0 151 255 0 151 255 0 168 255 0 168 255 0 168 255 0 168 255 0 168 255 0 168 255 0 168 255 0 168 255 0 168 255 0 168 255 0 150 255 0 150 255 0 150 255 0 150 255 0 150 255 0 150 255 0 150 255 0 150 255 0 150 255 0 150 255 0 0 0 0 0 0 0 0 0 0 0 0 0 0 0 0 0 0 0 0 0 0 0 0 0 0 0 0 0 0 255 141 0 255 141 0 255 141 0 255 141 0 255 141 0 255 141 0 255 141 0 255 141 0 255 141 0 255 141 0 255 141 0 255 141 0 255 141 0 255 141 0 255 141 0 255 141 0 255 141 0 255 141 0 255 141 0 255 141 0 255 141 0 255 141 0 255 141 0 255 141 0 255 141 0 255 141 0 255 141 0 255 141 0 255 141 0 255 141 0 
0 162 255 0 162 255 0 162 255 0 162 255 0 162 255 0 162 255 0 162 255 0 162 255 0 162 255 0 162 255 0 162 255 0 162 255 0 162 255 0 162 255 0 162 255 0 162 255 0 162 255 0 162 255 0 162 255 0 162 255 0 146 255 0 146 255 0 146 255 0 146 255 0 146 255 0 146 255 0 146 255 0 146 255 0 146 255 0 146 255 0 158 255 0 158 255 0 158 255 0 158 255 0 158 255 0 158 255 0 158 255 0 158 255 0 158 255 0 158 255 0 158 255 0 158 255 0 158 255 0 158 255 0 158 255 0 158 255 0 158 255 0 158 255 0 158 255 0 158 255 0 154 255 0 154 255 0 154 255 0 154 255 0 154 255 0 154 255 0 154 255 0 154 255 0 154 255 0 154 255 0 146 255 0 146 255 0 146 255 0 146 255 0 146 255 0 146 255 0 146 255 0 146 255 0 146 255 0 146 255 0 172 255 0 172 255 0 172 255 0 172 255 0 172 255 0 172 255 0 172 255 0 172 255 0 172 255 0 172 255 0 176 255 0 176 255 0 176 255 0 176 255 0 176 255 0 176 255 0 176 255 0 176 255 0 176 255 0 176 255 0 180 255 0 180 255 0 180 255 0 180 255 0 180 255 0 180 255 0 180 255 0 180 255 0 180 255 0 180 255 0 163 255 0 163 255 0 163 255 0 163 255 0 163 255 0 163 255 0 163 255 0 163 255 0 163 255 0 163 255 0 173 255 0 173 255 0 173 255 0 173 255 0 173 255 0 173 255 0 173 255 0 173 255 0 173 255 0 173 255 0 161 255 0 161 255 0 161 255 0 161 255 0 161 255 0 161 255 0 161 255 0 161 255 0 161 255 0 161 255 0 181 255 0 181 255 0 181 255 0 181 255 0 181 255 0 181 255 0 181 255 0 181 255 0 181 255 0 181 255 0 189 255 0 189 255 0 189 255 0 189 255 0 189 255 0 189 255 0 189 255 0 189 255 0 189 255 0 189 255 0 170 255 0 170 255 0 170 255 0 170 255 0 170 255 0 170 255 0 170 255 0 170 255 0 170 255 0 170 255 0 188 255 0 188 255 0 188 255 0 188 255 0 188 255 0 188 255 0 188 255 0 188 255 0 188 255 0 188 255 0 176 255 0 176 255 0 176 255 0 176 255 0 176 255 0 176 255 0 176 255 0 176 255 0 176 255 0 176 255 0 187 255 0 187 255 0 187 255 0 187 255 0 187 255 0 187 255 0 187 255 0 187 255 0 187 255 0 187 255 0 180 255 0 180 255 0 180 255 0 180 255 0 180 255 0 180 255 0 180 255 0 180 255 0 180 255 0 180 255 0 185 255 0 185 255 0 185 255 0 185 255 0 185 255 0 185 255 0 185 255 0 185 255 0 185 255 0 185 255 0 162 255 0 162 255 0 162 255 0 162 255 0 162 255 0 162 255 0 162 255 0 162 255 0 162 255 0 162 255 0 150 255 0 150 255 0 150 255 0 150 255 0 150 255 0 150 255 0 150 255 0 150 255 0 150 255 0 150 255 0 165 255 0 165 255 0 165 255 0 165 255 0 165 255 0 165 255 0 165 255 0 165 255 0 165 255 0 165 255 0 172 255 0 172 255 0 172 255 0 172 255 0 172 255 0 172 255 0 172 255 0 172 255 0 172 255 0 172 255 0 151 255 0 151 255 0 151 255 0 151 255 0 151 255 0 151 255 0 151 255 0 151 255 0 151 255 0 151 255 0 168 255 0 168 255 0 168 255 0 168 255 0 168 255 0 168 255 0 168 255 0 168 255 0 168 255 0 168 255 0 150 255 0 150 255 0 150 255 0 150 255 0 150 255 0 150 255 0 150 255 0 150 255 0 150 255 0 150 255 0 0 0 0 0 0 0 0 0 0 0 0 0 0 0 0 0 0 0 0 0 0 0 0 0 0 0 0 0 0 255 138 0 255 138 0 255 138 0 255 138 0 255 138 0 255 138 0 255 138 0 255 138 0 255 138 0 255 138 0 255 138 0 255 138 0 255 138 0 255 138 0 255 138 0 255 138 0 255 138 0 255 138 0 255 138 0 255 138 0 255 138 0 255 138 0 255 138 0 255 138 0 255 138 0 255 138 0 255 138 0 255 138 0 255 138 0 255 138 0 
0 162 255 0 162 255 0 162 255 0 162 255 0 162 255 0 162 255 0 162 255 0 162 255 0 162 255 0 162 255 0 162 255 0 162 255 0 162 255 0 162 255 0 162 255 0 162 255 0 162 255 0 162 255 0 162 255 0 162 255 0 146 255 0 146 255 0 146 255 0 146 255 0 146 255 0 146 255 0 146 255 0 146 255 0 146 255 0 146 255 0 158 255 0 158 255 0 158 255 0 158 255 0 158 255 0 158 255 0 158 255 0 158 255 0 158 255 0 158 255 0 158 255 0 158 255 0 158 255 0 158 255 0 158 255 0 158 255 0 158 255 0 158 255 0 158 255 0 158 255 0 154 255 0 154 255 0 154 255 0 154 255 0 154 255 0 154 255 0 154 255 0 154 255 0 154 255 0 154 255 0 146 255 0 146 255 0 146 255 0 146 255 0 146 255 0 146 255 0 146 255 0 146 255 0 146 255 0 146 255 0 172 255 0 172 255 0 172 255 0 172 255 0 172 255 0 172 255 0 172 255 0 172 255 0 172 255 0 172 255 0 176 255 0 176 255 0 176 255 0 176 255 0 176 255 0 176 255 0 176 255 0 176 255 0 176 255 0 176 255 0 180 255 0 180 255 0 180 255 0 180 255 0 180 255 0 180 255 0 180 255 0 180 255 0 180 255 0 180 255 0 163 255 0 163 255 0 163 255 0 163 255 0 163 255 0 163 255 0 163 255 0 163 255 0 163 255 0 163 255 0 173 255 0 173 255 0 173 255 0 173 255 0 173 255 0 173 255 0 173 255 0 173 255 0 173 255 0 173 255 0 161 255 0 161 255 0 161 255 0 161 255 0 161 255 0 161 255 0 161 255 0 161 255 0 161 255 0 161 255 0 181 255 0 181 255 0 181 255 0 181 255 0 181 255 0 181 255 0 181 255 0 181 255 0 181 255 0 181 255 0 189 255 0 189 255 0 189 255 0 189 255 0 189 255 0 189 255 0 189 255 0 189 255 0 189 255 0 189 255 0 170 255 0 170 255 0 170 255 0 170 255 0 170 255 0 170 255 0 170 255 0 170 255 0 170 255 0 170 255 0 188 255 0 188 255 0 188 255 0 188 255 0 188 255 0 188 255 0 188 255 0 188 255 0 188 255 0 188 255 0 176 255 0 176 255 0 176 255 0 176 255 0 176 255 0 176 255 0 176 255 0 176 255 0 176 255 0 176 255 0 187 255 0 187 255 0 187 255 0 187 255 0 187 255 0 187 255 0 187 255 0 187 255 0 187 255 0 187 255 0 180 255 0 180 255 0 180 255 0 180 255 0 180 255 0 180 255 0 180 255 0 180 255 0 180 255 0 180 255 0 185 255 0 185 255 0 185 255 0 185 255 0 185 255 0 185 255 0 185 255 0 185 255 0 185 255 0 185 255 0 162 255 0 162 255 0 162 255 0 162 255 0 162 255 0 162 255 0 162 255 0 162 255 0 162 255 0 162 255 0 150 255 0 150 255 0 150 255 0 150 255 0 150 255 0 150 255 0 150 255 0 150 255 0 150 255 0 150 255 0 165 255 0 165 255 0 165 255 0 165 255 0 165 255 0 165 255 0 165 255 0 165 255 0 165 255 0 165 255 0 172 255 0 172 255 0 172 255 0 172 255 0 172 255 0 172 255 0 172 255 0 172 255 0 172 255 0 172 255 0 151 255 0 151 255 0 151 255 0 151 255 0 151 255 0 151 255 0 151 255 0 151 255 0 151 255 0 151 255 0 168 255 0 168 255 0 168 255 0 168 255 0 168 255 0 168 255 0 168 255 0 168 255 0 168 255 0 168 255 0 150 255 0 150 255 0 150 255 0 150 255 0 150 255 0 150 255 0 150 255 0 150 255 0 150 255 0 150 255 0 0 0 0 0 0 0 0 0 0 0 0 0 0 0 0 0 0 0 0 0 0 0 0 0 0 0 0 0 0 255 134 0 255 134 0 255 134 0 255 134 0 255 134 0 255 134 0 255 134 0 255 134 0 255 134 0 255 134 0 255 134 0 255 134 0 255 134 0 255 134 0 255 134 0 255 134 0 255 134 0 255 134 0 255 134 0 255 134 0 255 134 0 255 134 0 255 134 0 255 134 0 255 134 0 255 134 0 255 134 0 255 134 0 255 134 0 255 134 0 
0 162 255 0 162 255 0 162 255 0 162 255 0 162 255 0 162 255 0 162 255 0 162 255 0 162 255 0 162 255 0 162 255 0 162 255 0 162 255 0 162 255 0 162 255 0 162 255 0 162 255 0 162 255 0 162 255 0 162 255 0 146 255 0 146 255 0 146 255 0 146 255 0 146 255 0 146 255 0 146 255 0 146 255 0 146 255 0 146 255 0 158 255 0 158 255 0 158 255 0 158 255 0 158 255 0 158 255 0 158 255 0 158 255 0 158 255 0 158 255 0 158 255 0 158 255 0 158 255 0 158 255 0 158 255 0 158 255 0 158 255 0 158 255 0 158 255 0 158 255 0 154 255 0 154 255 0 154 255 0 154 255 0 154 255 0 154 255 0 154 255 0 154 255 0 154 255 0 154 255 0 146 255 0 146 255 0 146 255 0 146 255 0 146 255 0 146 255 0 146 255 0 146 255 0 146 255 0 146 255 0 172 255 0 172 255 0 172 255 0 172 255 0 172 255 0 172 255 0 172 255 0 172 255 0 172 255 0 172 255 0 176 255 0 176 255 0 176 255 0 176 255 0 176 255 0 176 255 0 176 255 0 176 255 0 176 255 0 176 255 0 180 255 0 180 255 0 180 255 0 180 255 0 180 255 0 180 255 0 180 255 0 180 255 0 180 255 0 180 255 0 163 255 0 163 255 0 163 255 0 163 255 0 163 255 0 163 255 0 163 255 0 163 255 0 163 255 0 163 255 0 173 255 0 173 255 0 173 255 0 173 255 0 173 255 0 173 255 0 173 255 0 173 255 0 173 255 0 173 255 0 161 255 0 161 255 0 161 255 0 161 255 0 161 255 0 161 255 0 161 255 0 161 255 0 161 255 0 161 255 0 181 255 0 181 255 0 181 255 0 181 255 0 181 255 0 181 255 0 181 255 0 181 255 0 181 255 0 181 255 0 189 255 0 189 255 0 189 255 0 189 255 0 189 255 0 189 255 0 189 255 0 189 255 0 189 255 0 189 255 0 170 255 0 170 255 0 170 255 0 170 255 0 170 255 0 170 255 0 170 255 0 170 255 0 170 255 0 170 255 0 188 255 0 188 255 0 188 255 0 188 255 0 188 255 0 188 255 0 188 255 0 188 255 0 188 255 0 188 255 0 176 255 0 176 255 0 176 255 0 176 255 0 176 255 0 176 255 0 176 255 0 176 255 0 176 255 0 176 255 0 187 255 0 187 255 0 187 255 0 187 255 0 187 255 0 187 255 0 187 255 0 187 255 0 187 255 0 187 255 0 180 255 0 180 255 0 180 255 0 180 255 0 180 255 0 180 255 0 180 255 0 180 255 0 180 255 0 180 255 0 185 255 0 185 255 0 185 255 0 185 255 0 185 255 0 185 255 0 185 255 0 185 255 0 185 255 0 185 255 0 162 255 0 162 255 0 162 255 0 162 255 0 162 255 0 162 255 0 162 255 0 162 255 0 162 255 0 162 255 0 150 255 0 150 255 0 150 255 0 150 255 0 150 255 0 150 255 0 150 255 0 150 255 0 150 255 0 150 255 0 165 255 0 165 255 0 165 255 0 165 255 0 165 255 0 165 255 0 165 255 0 165 255 0 165 255 0 165 255 0 172 255 0 172 255 0 172 255 0 172 255 0 172 255 0 172 255 0 172 255 0 172 255 0 172 255 0 172 255 0 151 255 0 151 255 0 151 255 0 151 255 0 151 255 0 151 255 0 151 255 0 151 255 0 151 255 0 151 255 0 168 255 0 168 255 0 168 255 0 168 255 0 168 255 0 168 255 0 168 255 0 168 255 0 168 255 0 168 255 0 150 255 0 150 255 0 150 255 0 150 255 0 150 255 0 150 255 0 150 255 0 150 255 0 150 255 0 150 255 0 0 0 0 0 0 0 0 0 0 0 0 0 0 0 0 0 0 0 0 0 0 0 0 0 0 0 0 0 0 255 130 0 255 130 0 255 130 0 255 130 0 255 130 0 255 130 0 255 130 0 255 130 0 255 130 0 255 130 0 255 130 0 255 130 0 255 130 0 255 130 0 255 130 0 255 130 0 255 130 0 255 130 0 255 130 0 255 130 0 255 130 0 255 130 0 255 130 0 255 130 0 255 130 0 255 130 0 255 130 0 255 130 0 255 130 0 255 130 0 
0 162 255 0 162 255 0 162 255 0 162 255 0 162 255 0 162 255 0 162 255 0 162 255 0 162 255 0 162 255 0 162 255 0 162 255 0 162 255 0 162 255 0 162 255 0 162 255 0 162 255 0 162 255 0 162 255 0 162 255 0 146 255 0 146 255 0 146 255 0 146 255 0 146 255 0 146 255 0 146 255 0 146 255 0 146 255 0 146 255 0 158 255 0 158 255 0 158 255 0 158 255 0 158 255 0 158 255 0 158 255 0 158 255 0 158 255 0 158 255 0 158 255 0 158 255 0 158 255 0 158 255 0 158 255 0 158 255 0 158 255 0 158 255 0 158 255 0 158 255 0 154 255 0 154 255 0 154 255 0 154 255 0 154 255 0 154 255 0 154 255 0 154 255 0 154 255 0 154 255 0 146 255 0 146 255 0 146 255 0 146 255 0 146 255 0 146 255 0 146 255 0 146 255 0 146 255 0 146 255 0 172 255 0 172 255 0 172 255 0 172 255 0 172 255 0 172 255 0 172 255 0 172 255 0 172 255 0 172 255 0 176 255 0 176 255 0 176 255 0 176 255 0 176 255 0 176 255 0 176 255 0 176 255 0 176 255 0 176 255 0 180 255 0 180 255 0 180 255 0 180 255 0 180 255 0 180 255 0 180 255 0 180 255 0 180 255 0 180 255 0 163 255 0 163 255 0 163 255 0 163 255 0 163 255 0 163 255 0 163 255 0 163 255 0 163 255 0 163 255 0 173 255 0 173 255 0 173 255 0 173 255 0 173 255 0 173 255 0 173 255 0 173 255 0 173 255 0 173 255 0 161 255 0 161 255 0 161 255 0 161 255 0 161 255 0 161 255 0 161 255 0 161 255 0 161 255 0 161 255 0 181 255 0 181 255 0 181 255 0 181 255 0 181 255 0 181 255 0 181 255 0 181 255 0 181 255 0 181 255 0 189 255 0 189 255 0 189 255 0 189 255 0 189 255 0 189 255 0 189 255 0 189 255 0 189 255 0 189 255 0 170 255 0 170 255 0 170 255 0 170 255 0 170 255 0 170 255 0 170 255 0 170 255 0 170 255 0 170 255 0 188 255 0 188 255 0 188 255 0 188 255 0 188 255 0 188 255 0 188 255 0 188 255 0 188 255 0 188 255 0 176 255 0 176 255 0 176 255 0 176 255 0 176 255 0 176 255 0 176 255 0 176 255 0 176 255 0 176 255 0 187 255 0 187 255 0 187 255 0 187 255 0 187 255 0 187 255 0 187 255 0 187 255 0 187 255 0 187 255 0 180 255 0 180 255 0 180 255 0 180 255 0 180 255 0 180 255 0 180 255 0 180 255 0 180 255 0 180 255 0 185 255 0 185 255 0 185 255 0 185 255 0 185 255 0 185 255 0 185 255 0 185 255 0 185 255 0 185 255 0 162 255 0 162 255 0 162 255 0 162 255 0 162 255 0 162 255 0 162 255 0 162 255 0 162 255 0 162 255 0 150 255 0 150 255 0 150 255 0 150 255 0 150 255 0 150 255 0 150 255 0 150 255 0 150 255 0 150 255 0 165 255 0 165 255 0 165 255 0 165 255 0 165 255 0 165 255 0 165 255 0 165 255 0 165 255 0 165 255 0 172 255 0 172 255 0 172 255 0 172 255 0 172 255 0 172 255 0 172 255 0 172 255 0 172 255 0 172 255 0 151 255 0 151 255 0 151 255 0 151 255 0 151 255 0 151 255 0 151 255 0 151 255 0 151 255 0 151 255 0 168 255 0 168 255 0 168 255 0 168 255 0 168 255 0 168 255 0 168 255 0 168 255 0 168 255 0 168 255 0 150 255 0 150 255 0 150 255 0 150 255 0 150 255 0 150 255 0 150 255 0 150 255 0 150 255 0 150 255 0 0 0 0 0 0 0 0 0 0 0 0 0 0 0 0 0 0 0 0 0 0 0 0 0 0 0 0 0 0 255 127 0 255 127 0 255 127 0 255 127 0 255 127 0 255 127 0 255 127 0 255 127 0 255 127 0 255 127 0 255 127 0 255 127 0 255 127 0 255 127 0 255 127 0 255 127 0 255 127 0 255 127 0 255 127 0 255 127 0 255 127 0 255 127 0 255 127 0 255 127 0 255 127 0 255 127 0 255 127 0 255 127 0 255 127 0 255 127 0 
0 162 255 0 162 255 0 162 255 0 162 255 0 162 255 0 162 255 0 162 255 0 162 255 0 162 255 0 162 255 0 162 255 0 162 255 0 162 255 0 162 255 0 162 255 0 162 255 0 162 255 0 162 255 0 162 255 0 162 255 0 146 255 0 146 255 0 146 255 0 146 255 0 146 255 0 146 255 0 146 255 0 146 255 0 146 255 0 146 255 0 158 255 0 158 255 0 158 255 0 158 255 0 158 255 0 158 255 0 158 255 0 158 255 0 158 255 0 158 255 0 158 255 0 158 255 0 158 255 0 158 255 0 158 255 0 158 255 0 158 255 0 158 255 0 158 255 0 158 255 0 154 255 0 154 255 0 154 255 0 154 255 0 154 255 0 154 255 0 154 255 0 154 255 0 154 255 0 154 255 0 146 255 0 146 255 0 146 255 0 146 255 0 146 255 0 146 255 0 146 255 0 146 255 0 146 255 0 146 255 0 172 255 0 172 255 0 172 255 0 172 255 0 172 255 0 172 255 0 172 255 0 172 255 0 172 255 0 172 255 0 176 255 0 176 255 0 176 255 0 176 255 0 176 255 0 176 255 0 176 255 0 176 255 0 176 255 0 176 255 0 180 255 0 180 255 0 180 255 0 180 255 0 180 255 0 180 255 0 180 255 0 180 255 0 180 255 0 180 255 0 163 255 0 163 255 0 163 255 0 163 255 0 163 255 0 163 255 0 163 255 0 163 255 0 163 255 0 163 255 0 173 255 0 173 255 0 173 255 0 173 255 0 173 255 0 173 255 0 173 255 0 173 255 0 173 255 0 173 255 0 161 255 0 161 255 0 161 255 0 161 255 0 161 255 0 161 255 0 161 255 0 161 255 0 161 255 0 161 255 0 181 255 0 181 255 0 181 255 0 181 255 0 181 255 0 181 255 0 181 255 0 181 255 0 181 255 0 181 255 0 189 255 0 189 255 0 189 255 0 189 255 0 189 255 0 189 255 0 189 255 0 189 255 0 189 255 0 189 255 0 170 255 0 170 255 0 170 255 0 170 255 0 170 255 0 170 255 0 170 255 0 170 255 0 170 255 0 170 255 0 188 255 0 188 255 0 188 255 0 188 255 0 188 255 0 188 255 0 188 255 0 188 255 0 188 255 0 188 255 0 176 255 0 176 255 0 176 255 0 176 255 0 176 255 0 176 255 0 176 255 0 176 255 0 176 255 0 176 255 0 187 255 0 187 255 0 187 255 0 187 255 0 187 255 0 187 255 0 187 255 0 187 255 0 187 255 0 187 255 0 180 255 0 180 255 0 180 255 0 180 255 0 180 255 0 180 255 0 180 255 0 180 255 0 180 255 0 180 255 0 185 255 0 185 255 0 185 255 0 185 255 0 185 255 0 185 255 0 185 255 0 185 255 0 185 255 0 185 255 0 162 255 0 162 255 0 162 255 0 162 255 0 162 255 0 162 255 0 162 255 0 162 255 0 162 255 0 162 255 0 150 255 0 150 255 0 150 255 0 150 255 0 150 255 0 150 255 0 150 255 0 150 255 0 150 255 0 150 255 0 165 255 0 165 255 0 165 255 0 165 255 0 165 255 0 165 255 0 165 255 0 165 255 0 165 255 0 165 255 0 172 255 0 172 255 0 172 255 0 172 255 0 172 255 0 172 255 0 172 255 0 172 255 0 172 255 0 172 255 0 151 255 0 151 255 0 151 255 0 151 255 0 151 255 0 151 255 0 151 255 0 151 255 0 151 255 0 151 255 0 168 255 0 168 255 0 168 255 0 168 255 0 168 255 0 168 255 0 168 255 0 168 255 0 168 255 0 168 255 0 150 255 0 150 255 0 150 255 0 150 255 0 150 255 0 150 255 0 150 255 0 150 255 0 150 255 0 150 255 0 0 0 0 0 0 0 0 0 0 0 0 0 0 0 0 0 0 0 0 0 0 0 0 0 0 0 0 0 0 255 123 0 255 123 0 255 123 0 255 123 0 255 123 0 255 123 0 255 123 0 255 123 0 255 123 0 255 123 0 255 123 0 255 123 0 255 123 0 255 123 0 255 123 0 255 123 0 255 123 0 255 123 0 255 123 0 255 123 0 255 123 0 255 123 0 255 123 0 255 123 0 255 123 0 255 123 0 255 123 0 255 123 0 255 123 0 255 123 0 
0 162 255 0 162 255 0 162 255 0 162 255 0 162 255 0 162 255 0 162 255 0 162 255 0 162 255 0 162 255 0 162 255 0 162 255 0 162 255 0 162 255 0 162 255 0 162 255 0 162 255 0 162 255 0 162 255 0 162 255 0 146 255 0 146 255 0 146 255 0 146 255 0 146 255 0 146 255 0 146 255 0 146 255 0 146 255 0 146 255 0 158 255 0 158 255 0 158 255 0 158 255 0 158 255 0 158 255 0 158 255 0 158 255 0 158 255 0 158 255 0 158 255 0 158 255 0 158 255 0 158 255 0 158 255 0 158 255 0 158 255 0 158 255 0 158 255 0 158 255 0 154 255 0 154 255 0 154 255 0 154 255 0 154 255 0 154 255 0 154 255 0 154 255 0 154 255 0 154 255 0 146 255 0 146 255 0 146 255 0 146 255 0 146 255 0 146 255 0 146 255 0 146 255 0 146 255 0 146 255 0 172 255 0 172 255 0 172 255 0 172 255 0 172 255 0 172 255 0 172 255 0 172 255 0 172 255 0 172 255 0 176 255 0 176 255 0 176 255 0 176 255 0 176 255 0 176 255 0 176 255 0 176 255 0 176 255 0 176 255 0 180 255 0 180 255 0 180 255 0 180 255 0 180 255 0 180 255 0 180 255 0 180 255 0 180 255 0 180 255 0 163 255 0 163 255 0 163 255 0 163 255 0 163 255 0 163 255 0 163 255 0 163 255 0 163 255 0 163 255 0 173 255 0 173 255 0 173 255 0 173 255 0 173 255 0 173 255 0 173 255 0 173 255 0 173 255 0 173 255 0 161 255 0 161 255 0 161 255 0 161 255 0 161 255 0 161 255 0 161 255 0 161 255 0 161 255 0 161 255 0 181 255 0 181 255 0 181 255 0 181 255 0 181 255 0 181 255 0 181 255 0 181 255 0 181 255 0 181 255 0 189 255 0 189 255 0 189 255 0 189 255 0 189 255 0 189 255 0 189 255 0 189 255 0 189 255 0 189 255 0 170 255 0 170 255 0 170 255 0 170 255 0 170 255 0 170 255 0 170 255 0 170 255 0 170 255 0 170 255 0 188 255 0 188 255 0 188 255 0 188 255 0 188 255 0 188 255 0 188 255 0 188 255 0 188 255 0 188 255 0 176 255 0 176 255 0 176 255 0 176 255 0 176 255 0 176 255 0 176 255 0 176 255 0 176 255 0 176 255 0 187 255 0 187 255 0 187 255 0 187 255 0 187 255 0 187 255 0 187 255 0 187 255 0 187 255 0 187 255 0 180 255 0 180 255 0 180 255 0 180 255 0 180 255 0 180 255 0 180 255 0 180 255 0 180 255 0 180 255 0 185 255 0 185 255 0 185 255 0 185 255 0 185 255 0 185 255 0 185 255 0 185 255 0 185 255 0 185 255 0 162 255 0 162 255 0 162 255 0 162 255 0 162 255 0 162 255 0 162 255 0 162 255 0 162 255 0 162 255 0 150 255 0 150 255 0 150 255 0 150 255 0 150 255 0 150 255 0 150 255 0 150 255 0 150 255 0 150 255 0 165 255 0 165 255 0 165 255 0 165 255 0 165 255 0 165 255 0 165 255 0 165 255 0 165 255 0 165 255 0 172 255 0 172 255 0 172 255 0 172 255 0 172 255 0 172 255 0 172 255 0 172 255 0 172 255 0 172 255 0 151 255 0 151 255 0 151 255 0 151 255 0 151 255 0 151 255 0 151 255 0 151 255 0 151 255 0 151 255 0 168 255 0 168 255 0 168 255 0 168 255 0 168 255 0 168 255 0 168 255 0 168 255 0 168 255 0 168 255 0 150 255 0 150 255 0 150 255 0 150 255 0 150 255 0 150 255 0 150 255 0 150 255 0 150 255 0 150 255 0 0 0 0 0 0 0 0 0 0 0 0 0 0 0 0 0 0 0 0 0 0 0 0 0 0 0 0 0 0 255 119 0 255 119 0 255 119 0 255 119 0 255 119 0 255 119 0 255 119 0 255 119 0 255 119 0 255 119 0 255 119 0 255 119 0 255 119 0 255 119 0 255 119 0 255 119 0 255 119 0 255 119 0 255 119 0 255 119 0 255 119 0 255 119 0 255 119 0 255 119 0 255 119 0 255 119 0 255 119 0 255 119 0 255 119 0 255 119 0 
0 162 255 0 162 255 0 162 255 0 162 255 0 162 255 0 162 255 0 162 255 0 162 255 0 162 255 0 162 255 0 162 255 0 162 255 0 162 255 0 162 255 0 162 255 0 162 255 0 162 255 0 162 255 0 162 255 0 162 255 0 146 255 0 146 255 0 146 255 0 146 255 0 146 255 0 146 255 0 146 255 0 146 255 0 146 255 0 146 255 0 158 255 0 158 255 0 158 255 0 158 255 0 158 255 0 158 255 0 158 255 0 158 255 0 158 255 0 158 255 0 158 255 0 158 255 0 158 255 0 158 255 0 158 255 0 158 255 0 158 255 0 158 255 0 158 255 0 158 255 0 154 255 0 154 255 0 154 255 0 154 255 0 154 255 0 154 255 0 154 255 0 154 255 0 154 255 0 154 255 0 146 255 0 146 255 0 146 255 0 146 255 0 146 255 0 146 255 0 146 255 0 146 255 0 146 255 0 146 255 0 172 255 0 172 255 0 172 255 0 172 255 0 172 255 0 172 255 0 172 255 0 172 255 0 172 255 0 172 255 0 176 255 0 176 255 0 176 255 0 176 255 0 176 255 0 176 255 0 176 255 0 176 255 0 176 255 0 176 255 0 180 255 0 180 255 0 180 255 0 180 255 0 180 255 0 180 255 0 180 255 0 180 255 0 180 255 0 180 255 0 163 255 0 163 255 0 163 255 0 163 255 0 163 255 0 163 255 0 163 255 0 163 255 0 163 255 0 163 255 0 173 255 0 173 255 0 173 255 0 173 255 0 173 255 0 173 255 0 173 255 0 173 255 0 173 255 0 173 255 0 161 255 0 161 255 0 161 255 0 161 255 0 161 255 0 161 255 0 161 255 0 161 255 0 161 255 0 161 255 0 181 255 0 181 255 0 181 255 0 181 255 0 181 255 0 181 255 0 181 255 0 181 255 0 181 255 0 181 255 0 189 255 0 189 255 0 189 255 0 189 255 0 189 255 0 189 255 0 189 255 0 189 255 0 189 255 0 189 255 0 170 255 0 170 255 0 170 255 0 170 255 0 170 255 0 170 255 0 170 255 0 170 255 0 170 255 0 170 255 0 188 255 0 188 255 0 188 255 0 188 255 0 188 255 0 188 255 0 188 255 0 188 255 0 188 255 0 188 255 0 176 255 0 176 255 0 176 255 0 176 255 0 176 255 0 176 255 0 176 255 0 176 255 0 176 255 0 176 255 0 187 255 0 187 255 0 187 255 0 187 255 0 187 255 0 187 255 0 187 255 0 187 255 0 187 255 0 187 255 0 180 255 0 180 255 0 180 255 0 180 255 0 180 255 0 180 255 0 180 255 0 180 255 0 180 255 0 180 255 0 185 255 0 185 255 0 185 255 0 185 255 0 185 255 0 185 255 0 185 255 0 185 255 0 185 255 0 185 255 0 162 255 0 162 255 0 162 255 0 162 255 0 162 255 0 162 255 0 162 255 0 162 255 0 162 255 0 162 255 0 150 255 0 150 255 0 150 255 0 150 255 0 150 255 0 150 255 0 150 255 0 150 255 0 150 255 0 150 255 0 165 255 0 165 255 0 165 255 0 165 255 0 165 255 0 165 255 0 165 255 0 165 255 0 165 255 0 165 255 0 172 255 0 172 255 0 172 255 0 172 255 0 172 255 0 172 255 0 172 255 0 172 255 0 172 255 0 172 255 0 151 255 0 151 255 0 151 255 0 151 255 0 151 255 0 151 255 0 151 255 0 151 255 0 151 255 0 151 255 0 168 255 0 168 255 0 168 255 0 168 255 0 168 255 0 168 255 0 168 255 0 168 255 0 168 255 0 168 255 0 150 255 0 150 255 0 150 255 0 150 255 0 150 255 0 150 255 0 150 255 0 150 255 0 150 255 0 150 255 0 0 0 0 0 0 0 0 0 0 0 0 0 0 0 0 0 0 0 0 0 0 0 0 0 0 0 0 0 0 255 116 0 255 116 0 255 116 0 255 116 0 255 116 0 255 116 0 255 116 0 255 116 0 255 116 0 255 116 0 255 116 0 255 116 0 255 116 0 255 116 0 255 116 0 255 116 0 255 116 0 255 116 0 255 116 0 255 116 0 255 116 0 255 116 0 255 116 0 255 116 0 255 116 0 255 116 0 255 116 0 255 116 0 255 116 0 255 116 0 
0 162 255 0 162 255 0 162 255 0 162 255 0 162 255 0 162 255 0 162 255 0 162 255 0 162 255 0 162 255 0 162 255 0 162 255 0 162 255 0 162 255 0 162 255 0 162 255 0 162 255 0 162 255 0 162 255 0 162 255 0 146 255 0 146 255 0 146 255 0 146 255 0 146 255 0 146 255 0 146 255 0 146 255 0 146 255 0 146 255 0 158 255 0 158 255 0 158 255 0 158 255 0 158 255 0 158 255 0 158 255 0 158 255 0 158 255 0 158 255 0 158 255 0 158 255 0 158 255 0 158 255 0 158 255 0 158 255 0 158 255 0 158 255 0 158 255 0 158 255 0 154 255 0 154 255 0 154 255 0 154 255 0 154 255 0 154 255 0 154 255 0 154 255 0 154 255 0 154 255 0 146 255 0 146 255 0 146 255 0 146 255 0 146 255 0 146 255 0 146 255 0 146 255 0 146 255 0 146 255 0 172 255 0 172 255 0 172 255 0 172 255 0 172 255 0 172 255 0 172 255 0 172 255 0 172 255 0 172 255 0 176 255 0 176 255 0 176 255 0 176 255 0 176 255 0 176 255 0 176 255 0 176 255 0 176 255 0 176 255 0 180 255 0 180 255 0 180 255 0 180 255 0 180 255 0 180 255 0 180 255 0 180 255 0 180 255 0 180 255 0 163 255 0 163 255 0 163 255 0 163 255 0 163 255 0 163 255 0 163 255 0 163 255 0 163 255 0 163 255 0 173 255 0 173 255 0 173 255 0 173 255 0 173 255 0 173 255 0 173 255 0 173 255 0 173 255 0 173 255 0 161 255 0 161 255 0 161 255 0 161 255 0 161 255 0 161 255 0 161 255 0 161 255 0 161 255 0 161 255 0 181 255 0 181 255 0 181 255 0 181 255 0 181 255 0 181 255 0 181 255 0 181 255 0 181 255 0 181 255 0 189 255 0 189 255 0 189 255 0 189 255 0 189 255 0 189 255 0 189 255 0 189 255 0 189 255 0 189 255 0 170 255 0 170 255 0 170 255 0 170 255 0 170 255 0 170 255 0 170 255 0 170 255 0 170 255 0 170 255 0 188 255 0 188 255 0 188 255 0 188 255 0 188 255 0 188 255 0 188 255 0 188 255 0 188 255 0 188 255 0 176 255 0 176 255 0 176 255 0 176 255 0 176 255 0 176 255 0 176 255 0 176 255 0 176 255 0 176 255 0 187 255 0 187 255 0 187 255 0 187 255 0 187 255 0 187 255 0 187 255 0 187 255 0 187 255 0 187 255 0 180 255 0 180 255 0 180 255 0 180 255 0 180 255 0 180 255 0 180 255 0 180 255 0 180 255 0 180 255 0 185 255 0 185 255 0 185 255 0 185 255 0 185 255 0 185 255 0 185 255 0 185 255 0 185 255 0 185 255 0 162 255 0 162 255 0 162 255 0 162 255 0 162 255 0 162 255 0 162 255 0 162 255 0 162 255 0 162 255 0 150 255 0 150 255 0 150 255 0 150 255 0 150 255 0 150 255 0 150 255 0 150 255 0 150 255 0 150 255 0 165 255 0 165 255 0 165 255 0 165 255 0 165 255 0 165 255 0 165 255 0 165 255 0 165 255 0 165 255 0 172 255 0 172 255 0 172 255 0 172 255 0 172 255 0 172 255 0 172 255 0 172 255 0 172 255 0 172 255 0 151 255 0 151 255 0 151 255 0 151 255 0 151 255 0 151 255 0 151 255 0 151 255 0 151 255 0 151 255 0 168 255 0 168 255 0 168 255 0 168 255 0 168 255 0 168 255 0 168 255 0 168 255 0 168 255 0 168 255 0 150 255 0 150 255 0 150 255 0 150 255 0 150 255 0 150 255 0 150 255 0 150 255 0 150 255 0 150 255 0 0 0 0 0 0 0 0 0 0 0 0 0 0 0 0 0 0 0 0 0 0 0 0 0 0 0 0 0 0 255 112 0 255 112 0 255 112 0 255 112 0 255 112 0 255 112 0 255 112 0 255 112 0 255 112 0 255 112 0 255 112 0 255 112 0 255 112 0 255 112 0 255 112 0 255 112 0 255 112 0 255 112 0 255 112 0 255 112 0 255 112 0 255 112 0 255 112 0 255 112 0 255 112 0 255 112 0 255 112 0 255 112 0 255 112 0 255 112 0 
0 163 255 0 163 255 0 163 255 0 163 255 0 163 255 0 163 255 0 163 255 0 163 255 0 163 255 0 163 255 0 162 255 0 162 255 0 162 255 0 162 255 0 162 255 0 162 255 0 162 255 0 162 255 0 162 255 0 162 255 0 158 255 0 158 255 0 158 255 0 158 255 0 158 255 0 158 255 0 158 255 0 158 255 0 158 255 0 158 255 0 156 255 0 156 255 0 156 255 0 156 255 0 156 255 0 156 255 0 156 255 0 156 255 0 156 255 0 156 255 0 163 255 0 163 255 0 163 255 0 163 255 0 163 255 0 163 255 0 163 255 0 163 255 0 163 255 0 163 255 0 165 255 0 165 255 0 165 255 0 165 255 0 165 255 0 165 255 0 165 255 0 165 255 0 165 255 0 165 255 0 158 255 0 158 255 0 158 255 0 158 255 0 158 255 0 158 255 0 158 255 0 158 255 0 158 255 0 158 255 0 166 255 0 166 255 0 166 255 0 166 255 0 166 255 0 166 255 0 166 255 0 166 255 0 166 255 0 166 255 0 152 255 0 152 255 0 152 255 0 152 255 0 152 255 0 152 255 0 152 255 0 152 255 0 152 255 0 152 255 0 170 255 0 170 255 0 170 255 0 170 255 0 170 255 0 170 255 0 170 255 0 170 255 0 170 255 0 170 255 0 163 255 0 163 255 0 163 255 0 163 255 0 163 255 0 163 255 0 163 255 0 163 255 0 163 255 0 163 255 0 173 255 0 173 255 0 173 255 0 173 255 0 173 255 0 173 255 0 173 255 0 173 255 0 173 255 0 173 255 0 129 255 0 129 255 0 129 255 0 129 255 0 129 255 0 129 255 0 129 255 0 129 255 0 129 255 0 129 255 0 137 255 0 137 255 0 137 255 0 137 255 0 137 255 0 137 255 0 137 255 0 137 255 0 137 255 0 137 255 0 113 255 0 113 255 0 113 255 0 113 255 0 113 255 0 113 255 0 113 255 0 113 255 0 113 255 0 113 255 0 99 255 0 99 255 0 99 255 0 99 255 0 99 255 0 99 255 0 99 255 0 99 255 0 99 255 0 99 255 0 113 255 0 113 255 0 113 255 0 113 255 0 113 255 0 113 255 0 113 255 0 113 255 0 113 255 0 113 255 0 164 255 0 164 255 0 164 255 0 164 255 0 164 255 0 164 255 0 164 255 0 164 255 0 164 255 0 164 255 0 157 255 0 157 255 0 157 255 0 157 255 0 157 255 0 157 255 0 157 255 0 157 255 0 157 255 0 157 255 0 164 255 0 164 255 0 164 255 0 164 255 0 164 255 0 164 255 0 164 255 0 164 255 0 164 255 0 164 255 0 178 255 0 178 255 0 178 255 0 178 255 0 178 255 0 178 255 0 178 255 0 178 255 0 178 255 0 178 255 0 168 255 0 168 255 0 168 255 0 168 255 0 168 255 0 168 255 0 168 255 0 168 255 0 168 255 0 168 255 0 174 255 0 174 255 0 174 255 0 174 255 0 174 255 0 174 255 0 174 255 0 174 255 0 174 255 0 174 255 0 167 255 0 167 255 0 167 255 0 167 255 0 167 255 0 167 255 0 167 255 0 167 255 0 167 255 0 167 255 0 169 255 0 169 255 0 169 255 0 169 255 0 169 255 0 169 255 0 169 255 0 169 255 0 169 255 0 169 255 0 169 255 0 169 255 0 169 255 0 169 255 0 169 255 0 169 255 0 169 255 0 169 255 0 169 255 0 169 255 0 151 255 0 151 255 0 151 255 0 151 255 0 151 255 0 151 255 0 151 255 0 151 255 0 151 255 0 151 255 0 168 255 0 168 255 0 168 255 0 168 255 0 168 255 0 168 255 0 168 255 0 168 255 0 168 255 0 168 255 0 0 0 0 0 0 0 0 0 0 0 0 0 0 0 0 0 0 0 0 0 0 0 0 0 0 0 0 0 0 255 108 0 255 108 0 255 108 0 255 108 0 255 108 0 255 108 0 255 108 0 255 108 0 255 108 0 255 108 0 255 108 0 255 108 0 255 108 0 255 108 0 255 108 0 255 108 0 255 108 0 255 108 0 255 108 0 255 108 0 255 108 0 255 108 0 255 108 0 255 108 0 255 108 0 255 108 0 255 108 0 255 108 0 255 108 0 255 108 0 
0 163 255 0 163 255 0 163 255 0 163 255 0 163 255 0 163 255 0 163 255 0 163 255 0 163 255 0 163 255 0 162 255 0 162 255 0 162 255 0 162 255 0 162 255 0 162 255 0 162 255 0 162 255 0 162 255 0 162 255 0 158 255 0 158 255 0 158 255 0 158 255 0 158 255 0 158 255 0 158 255 0 158 255 0 158 255 0 158 255 0 156 255 0 156 255 0 156 255 0 156 255 0 156 255 0 156 255 0 156 255 0 156 255 0 156 255 0 156 255 0 163 255 0 163 255 0 163 255 0 163 255 0 163 255 0 163 255 0 163 255 0 163 255 0 163 255 0 163 255 0 165 255 0 165 255 0 165 255 0 165 255 0 165 255 0 165 255 0 165 255 0 165 255 0 165 255 0 165 255 0 158 255 0 158 255 0 158 255 0 158 255 0 158 255 0 158 255 0 158 255 0 158 255 0 158 255 0 158 255 0 166 255 0 166 255 0 166 255 0 166 255 0 166 255 0 166 255 0 166 255 0 166 255 0 166 255 0 166 255 0 152 255 0 152 255 0 152 255 0 152 255 0 152 255 0 152 255 0 152 255 0 152 255 0 152 255 0 152 255 0 170 255 0 170 255 0 170 255 0 170 255 0 170 255 0 170 255 0 170 255 0 170 255 0 170 255 0 170 255 0 163 255 0 163 255 0 163 255 0 163 255 0 163 255 0 163 255 0 163 255 0 163 255 0 163 255 0 163 255 0 173 255 0 173 255 0 173 255 0 173 255 0 173 255 0 173 255 0 173 255 0 173 255 0 173 255 0 173 255 0 129 255 0 129 255 0 129 255 0 129 255 0 129 255 0 129 255 0 129 255 0 129 255 0 129 255 0 129 255 0 137 255 0 137 255 0 137 255 0 137 255 0 137 255 0 137 255 0 137 255 0 137 255 0 137 255 0 137 255 0 113 255 0 113 255 0 113 255 0 113 255 0 113 255 0 113 255 0 113 255 0 113 255 0 113 255 0 113 255 0 99 255 0 99 255 0 99 255 0 99 255 0 99 255 0 99 255 0 99 255 0 99 255 0 99 255 0 99 255 0 113 255 0 113 255 0 113 255 0 113 255 0 113 255 0 113 255 0 113 255 0 113 255 0 113 255 0 113 255 0 164 255 0 164 255 0 164 255 0 164 255 0 164 255 0 164 255 0 164 255 0 164 255 0 164 255 0 164 255 0 157 255 0 157 255 0 157 255 0 157 255 0 157 255 0 157 255 0 157 255 0 157 255 0 157 255 0 157 255 0 164 255 0 164 255 0 164 255 0 164 255 0 164 255 0 164 255 0 164 255 0 164 255 0 164 255 0 164 255 0 178 255 0 178 255 0 178 255 0 178 255 0 178 255 0 178 255 0 178 255 0 178 255 0 178 255 0 178 255 0 168 255 0 168 255 0 168 255 0 168 255 0 168 255 0 168 255 0 168 255 0 168 255 0 168 255 0 168 255 0 174 255 0 174 255 0 174 255 0 174 255 0 174 255 0 174 255 0 174 255 0 174 255 0 174 255 0 174 255 0 167 255 0 167 255 0 167 255 0 167 255 0 167 255 0 167 255 0 167 255 0 167 255 0 167 255 0 167 255 0 169 255 0 169 255 0 169 255 0 169 255 0 169 255 0 169 255 0 169 255 0 169 255 0 169 255 0 169 255 0 169 255 0 169 255 0 169 255 0 169 255 0 169 255 0 169 255 0 169 255 0 169 255 0 169 255 0 169 255 0 151 255 0 151 255 0 151 255 0 151 255 0 151 255 0 151 255 0 151 255 0 151 255 0 151 255 0 151 255 0 168 255 0 168 255 0 168 255 0 168 255 0 168 255 0 168 255 0 168 255 0 168 255 0 168 255 0 168 255 0 0 0 0 0 0 0 0 0 0 0 0 0 0 0 0 0 0 0 0 0 0 0 0 0 0 0 0 0 0 255 105 0 255 105 0 255 105 0 255 105 0 255 105 0 255 105 0 255 105 0 255 105 0 255 105 0 255 105 0 255 105 0 255 105 0 255 105 0 255 105 0 255 105 0 255 105 0 255 105 0 255 105 0 255 105 0 255 105 0 255 105 0 255 105 0 255 105 0 255 105 0 255 105 0 255 105 0 255 105 0 255 105 0 255 105 0 255 105 0 
0 163 255 0 163 255 0 163 255 0 163 255 0 163 255 0 163 255 0 163 255 0 163 255 0 163 255 0 163 255 0 162 255 0 162 255 0 162 255 0 162 255 0 162 255 0 162 255 0 162 255 0 162 255 0 162 255 0 162 255 0 158 255 0 158 255 0 158 255 0 158 255 0 158 255 0 158 255 0 158 255 0 158 255 0 158 255 0 158 255 0 156 255 0 156 255 0 156 255 0 156 255 0 156 255 0 156 255 0 156 255 0 156 255 0 156 255 0 156 255 0 163 255 0 163 255 0 163 255 0 163 255 0 163 255 0 163 255 0 163 255 0 163 255 0 163 255 0 163 255 0 165 255 0 165 255 0 165 255 0 165 255 0 165 255 0 165 255 0 165 255 0 165 255 0 165 255 0 165 255 0 158 255 0 158 255 0 158 255 0 158 255 0 158 255 0 158 255 0 158 255 0 158 255 0 158 255 0 158 255 0 166 255 0 166 255 0 166 255 0 166 255 0 166 255 0 166 255 0 166 255 0 166 255 0 166 255 0 166 255 0 152 255 0 152 255 0 152 255 0 152 255 0 152 255 0 152 255 0 152 255 0 152 255 0 152 255 0 152 255 0 170 255 0 170 255 0 170 255 0 170 255 0 170 255 0 170 255 0 170 255 0 170 255 0 170 255 0 170 255 0 163 255 0 163 255 0 163 255 0 163 255 0 163 255 0 163 255 0 163 255 0 163 255 0 163 255 0 163 255 0 173 255 0 173 255 0 173 255 0 173 255 0 173 255 0 173 255 0 173 255 0 173 255 0 173 255 0 173 255 0 129 255 0 129 255 0 129 255 0 129 255 0 129 255 0 129 255 0 129 255 0 129 255 0 129 255 0 129 255 0 137 255 0 137 255 0 137 255 0 137 255 0 137 255 0 137 255 0 137 255 0 137 255 0 137 255 0 137 255 0 113 255 0 113 255 0 113 255 0 113 255 0 113 255 0 113 255 0 113 255 0 113 255 0 113 255 0 113 255 0 99 255 0 99 255 0 99 255 0 99 255 0 99 255 0 99 255 0 99 255 0 99 255 0 99 255 0 99 255 0 113 255 0 113 255 0 113 255 0 113 255 0 113 255 0 113 255 0 113 255 0 113 255 0 113 255 0 113 255 0 164 255 0 164 255 0 164 255 0 164 255 0 164 255 0 164 255 0 164 255 0 164 255 0 164 255 0 164 255 0 157 255 0 157 255 0 157 255 0 157 255 0 157 255 0 157 255 0 157 255 0 157 255 0 157 255 0 157 255 0 164 255 0 164 255 0 164 255 0 164 255 0 164 255 0 164 255 0 164 255 0 164 255 0 164 255 0 164 255 0 178 255 0 178 255 0 178 255 0 178 255 0 178 255 0 178 255 0 178 255 0 178 255 0 178 255 0 178 255 0 168 255 0 168 255 0 168 255 0 168 255 0 168 255 0 168 255 0 168 255 0 168 255 0 168 255 0 168 255 0 174 255 0 174 255 0 174 255 0 174 255 0 174 255 0 174 255 0 174 255 0 174 255 0 174 255 0 174 255 0 167 255 0 167 255 0 167 255 0 167 255 0 167 255 0 167 255 0 167 255 0 167 255 0 167 255 0 167 255 0 169 255 0 169 255 0 169 255 0 169 255 0 169 255 0 169 255 0 169 255 0 169 255 0 169 255 0 169 255 0 169 255 0 169 255 0 169 255 0 169 255 0 169 255 0 169 255 0 169 255 0 169 255 0 169 255 0 169 255 0 151 255 0 151 255 0 151 255 0 151 255 0 151 255 0 151 255 0 151 255 0 151 255 0 151 255 0 151 255 0 168 255 0 168 255 0 168 255 0 168 255 0 168 255 0 168 255 0 168 255 0 168 255 0 168 255 0 168 255 0 0 0 0 0 0 0 0 0 0 0 0 0 0 0 0 0 0 0 0 0 0 0 0 0 0 0 0 0 0 255 101 0 255 101 0 255 101 0 255 101 0 255 101 0 255 101 0 255 101 0 255 101 0 255 101 0 255 101 0 255 101 0 255 101 0 255 101 0 255 101 0 255 101 0 255 101 0 255 101 0 255 101 0 255 101 0 255 101 0 255 101 0 255 101 0 255 101 0 255 101 0 255 101 0 255 101 0 255 101 0 255 101 0 255 101 0 255 101 0 
0 163 255 0 163 255 0 163 255 0 163 255 0 163 255 0 163 255 0 163 255 0 163 255 0 163 255 0 163 255 0 162 255 0 162 255 0 162 255 0 162 255 0 162 255 0 162 255 0 162 255 0 162 255 0 162 255 0 162 255 0 158 255 0 158 255 0 158 255 0 158 255 0 158 255 0 158 255 0 158 255 0 158 255 0 158 255 0 158 255 0 156 255 0 156 255 0 156 255 0 156 255 0 156 255 0 156 255 0 156 255 0 156 255 0 156 255 0 156 255 0 163 255 0 163 255 0 163 255 0 163 255 0 163 255 0 163 255 0 163 255 0 163 255 0 163 255 0 163 255 0 165 255 0 165 255 0 165 255 0 165 255 0 165 255 0 165 255 0 165 255 0 165 255 0 165 255 0 165 255 0 158 255 0 158 255 0 158 255 0 158 255 0 158 255 0 158 255 0 158 255 0 158 255 0 158 255 0 158 255 0 166 255 0 166 255 0 166 255 0 166 255 0 166 255 0 166 255 0 166 255 0 166 255 0 166 255 0 166 255 0 152 255 0 152 255 0 152 255 0 152 255 0 152 255 0 152 255 0 152 255 0 152 255 0 152 255 0 152 255 0 170 255 0 170 255 0 170 255 0 170 255 0 170 255 0 170 255 0 170 255 0 170 255 0 170 255 0 170 255 0 163 255 0 163 255 0 163 255 0 163 255 0 163 255 0 163 255 0 163 255 0 163 255 0 163 255 0 163 255 0 173 255 0 173 255 0 173 255 0 173 255 0 173 255 0 173 255 0 173 255 0 173 255 0 173 255 0 173 255 0 129 255 0 129 255 0 129 255 0 129 255 0 129 255 0 129 255 0 129 255 0 129 255 0 129 255 0 129 255 0 137 255 0 137 255 0 137 255 0 137 255 0 137 255 0 137 255 0 137 255 0 137 255 0 137 255 0 137 255 0 113 255 0 113 255 0 113 255 0 113 255 0 113 255 0 113 255 0 113 255 0 113 255 0 113 255 0 113 255 0 99 255 0 99 255 0 99 255 0 99 255 0 99 255 0 99 255 0 99 255 0 99 255 0 99 255 0 99 255 0 113 255 0 113 255 0 113 255 0 113 255 0 113 255 0 113 255 0 113 255 0 113 255 0 113 255 0 113 255 0 164 255 0 164 255 0 164 255 0 164 255 0 164 255 0 164 255 0 164 255 0 164 255 0 164 255 0 164 255 0 157 255 0 157 255 0 157 255 0 157 255 0 157 255 0 157 255 0 157 255 0 157 255 0 157 255 0 157 255 0 164 255 0 164 255 0 164 255 0 164 255 0 164 255 0 164 255 0 164 255 0 164 255 0 164 255 0 164 255 0 178 255 0 178 255 0 178 255 0 178 255 0 178 255 0 178 255 0 178 255 0 178 255 0 178 255 0 178 255 0 168 255 0 168 255 0 168 255 0 168 255 0 168 255 0 168 255 0 168 255 0 168 255 0 168 255 0 168 255 0 174 255 0 174 255 0 174 255 0 174 255 0 174 255 0 174 255 0 174 255 0 174 255 0 174 255 0 174 255 0 167 255 0 167 255 0 167 255 0 167 255 0 167 255 0 167 255 0 167 255 0 167 255 0 167 255 0 167 255 0 169 255 0 169 255 0 169 255 0 169 255 0 169 255 0 169 255 0 169 255 0 169 255 0 169 255 0 169 255 0 169 255 0 169 255 0 169 255 0 169 255 0 169 255 0 169 255 0 169 255 0 169 255 0 169 255 0 169 255 0 151 255 0 151 255 0 151 255 0 151 255 0 151 255 0 151 255 0 151 255 0 151 255 0 151 255 0 151 255 0 168 255 0 168 255 0 168 255 0 168 255 0 168 255 0 168 255 0 168 255 0 168 255 0 168 255 0 168 255 0 0 0 0 0 0 0 0 0 0 0 0 0 0 0 0 0 0 0 0 0 0 0 0 0 0 0 0 0 0 255 97 0 255 97 0 255 97 0 255 97 0 255 97 0 255 97 0 255 97 0 255 97 0 255 97 0 255 97 0 255 97 0 255 97 0 255 97 0 255 97 0 255 97 0 255 97 0 255 97 0 255 97 0 255 97 0 255 97 0 255 97 0 255 97 0 255 97 0 255 97 0 255 97 0 255 97 0 255 97 0 255 97 0 255 97 0 255 97 0 
0 163 255 0 163 255 0 163 255 0 163 255 0 163 255 0 163 255 0 163 255 0 163 255 0 163 255 0 163 255 0 162 255 0 162 255 0 162 255 0 162 255 0 162 255 0 162 255 0 162 255 0 162 255 0 162 255 0 162 255 0 158 255 0 158 255 0 158 255 0 158 255 0 158 255 0 158 255 0 158 255 0 158 255 0 158 255 0 158 255 0 156 255 0 156 255 0 156 255 0 156 255 0 156 255 0 156 255 0 156 255 0 156 255 0 156 255 0 156 255 0 163 255 0 163 255 0 163 255 0 163 255 0 163 255 0 163 255 0 163 255 0 163 255 0 163 255 0 163 255 0 165 255 0 165 255 0 165 255 0 165 255 0 165 255 0 165 255 0 165 255 0 165 255 0 165 255 0 165 255 0 158 255 0 158 255 0 158 255 0 158 255 0 158 255 0 158 255 0 158 255 0 158 255 0 158 255 0 158 255 0 166 255 0 166 255 0 166 255 0 166 255 0 166 255 0 166 255 0 166 255 0 166 255 0 166 255 0 166 255 0 152 255 0 152 255 0 152 255 0 152 255 0 152 255 0 152 255 0 152 255 0 152 255 0 152 255 0 152 255 0 170 255 0 170 255 0 170 255 0 170 255 0 170 255 0 170 255 0 170 255 0 170 255 0 170 255 0 170 255 0 163 255 0 163 255 0 163 255 0 163 255 0 163 255 0 163 255 0 163 255 0 163 255 0 163 255 0 163 255 0 173 255 0 173 255 0 173 255 0 173 255 0 173 255 0 173 255 0 173 255 0 173 255 0 173 255 0 173 255 0 129 255 0 129 255 0 129 255 0 129 255 0 129 255 0 129 255 0 129 255 0 129 255 0 129 255 0 129 255 0 137 255 0 137 255 0 137 255 0 137 255 0 137 255 0 137 255 0 137 255 0 137 255 0 137 255 0 137 255 0 113 255 0 113 255 0 113 255 0 113 255 0 113 255 0 113 255 0 113 255 0 113 255 0 113 255 0 113 255 0 99 255 0 99 255 0 99 255 0 99 255 0 99 255 0 99 255 0 99 255 0 99 255 0 99 255 0 99 255 0 113 255 0 113 255 0 113 255 0 113 255 0 113 255 0 113 255 0 113 255 0 113 255 0 113 255 0 113 255 0 164 255 0 164 255 0 164 255 0 164 255 0 164 255 0 164 255 0 164 255 0 164 255 0 164 255 0 164 255 0 157 255 0 157 255 0 157 255 0 157 255 0 157 255 0 157 255 0 157 255 0 157 255 0 157 255 0 157 255 0 164 255 0 164 255 0 164 255 0 164 255 0 164 255 0 164 255 0 164 255 0 164 255 0 164 255 0 164 255 0 178 255 0 178 255 0 178 255 0 178 255 0 178 255 0 178 255 0 178 255 0 178 255 0 178 255 0 178 255 0 168 255 0 168 255 0 168 255 0 168 255 0 168 255 0 168 255 0 168 255 0 168 255 0 168 255 0 168 255 0 174 255 0 174 255 0 174 255 0 174 255 0 174 255 0 174 255 0 174 255 0 174 255 0 174 255 0 174 255 0 167 255 0 167 255 0 167 255 0 167 255 0 167 255 0 167 255 0 167 255 0 167 255 0 167 255 0 167 255 0 169 255 0 169 255 0 169 255 0 169 255 0 169 255 0 169 255 0 169 255 0 169 255 0 169 255 0 169 255 0 169 255 0 169 255 0 169 255 0 169 255 0 169 255 0 169 255 0 169 255 0 169 255 0 169 255 0 169 255 0 151 255 0 151 255 0 151 255 0 151 255 0 151 255 0 151 255 0 151 255 0 151 255 0 151 255 0 151 255 0 168 255 0 168 255 0 168 255 0 168 255 0 168 255 0 168 255 0 168 255 0 168 255 0 168 255 0 168 255 0 0 0 0 0 0 0 0 0 0 0 0 0 0 0 0 0 0 0 0 0 0 0 0 0 0 0 0 0 0 255 94 0 255 94 0 255 94 0 255 94 0 255 94 0 255 94 0 255 94 0 255 94 0 255 94 0 255 94 0 255 94 0 255 94 0 255 94 0 255 94 0 255 94 0 255 94 0 255 94 0 255 94 0 255 94 0 255 94 0 255 94 0 255 94 0 255 94 0 255 94 0 255 94 0 255 94 0 255 94 0 255 94 0 255 94 0 255 94 0 
0 163 255 0 163 255 0 163 255 0 163 255 0 163 255 0 163 255 0 163 255 0 163 255 0 163 255 0 163 255 0 162 255 0 162 255 0 162 255 0 162 255 0 162 255 0 162 255 0 162 255 0 162 255 0 162 255 0 162 255 0 158 255 0 158 255 0 158 255 0 158 255 0 158 255 0 158 255 0 158 255 0 158 255 0 158 255 0 158 255 0 156 255 0 156 255 0 156 255 0 156 255 0 156 255 0 156 255 0 156 255 0 156 255 0 156 255 0 156 255 0 163 255 0 163 255 0 163 255 0 163 255 0 163 255 0 163 255 0 163 255 0 163 255 0 163 255 0 163 255 0 165 255 0 165 255 0 165 255 0 165 255 0 165 255 0 165 255 0 165 255 0 165 255 0 165 255 0 165 255 0 158 255 0 158 255 0 158 255 0 158 255 0 158 255 0 158 255 0 158 255 0 158 255 0 158 255 0 158 255 0 166 255 0 166 255 0 166 255 0 166 255 0 166 255 0 166 255 0 166 255 0 166 255 0 166 255 0 166 255 0 152 255 0 152 255 0 152 255 0 152 255 0 152 255 0 152 255 0 152 255 0 152 255 0 152 255 0 152 255 0 170 255 0 170 255 0 170 255 0 170 255 0 170 255 0 170 255 0 170 255 0 170 255 0 170 255 0 170 255 0 163 255 0 163 255 0 163 255 0 163 255 0 163 255 0 163 255 0 163 255 0 163 255 0 163 255 0 163 255 0 173 255 0 173 255 0 173 255 0 173 255 0 173 255 0 173 255 0 173 255 0 173 255 0 173 255 0 173 255 0 129 255 0 129 255 0 129 255 0 129 255 0 129 255 0 129 255 0 129 255 0 129 255 0 129 255 0 129 255 0 137 255 0 137 255 0 137 255 0 137 255 0 137 255 0 137 255 0 137 255 0 137 255 0 137 255 0 137 255 0 113 255 0 113 255 0 113 255 0 113 255 0 113 255 0 113 255 0 113 255 0 113 255 0 113 255 0 113 255 0 99 255 0 99 255 0 99 255 0 99 255 0 99 255 0 99 255 0 99 255 0 99 255 0 99 255 0 99 255 0 113 255 0 113 255 0 113 255 0 113 255 0 113 255 0 113 255 0 113 255 0 113 255 0 113 255 0 113 255 0 164 255 0 164 255 0 164 255 0 164 255 0 164 255 0 164 255 0 164 255 0 164 255 0 164 255 0 164 255 0 157 255 0 157 255 0 157 255 0 157 255 0 157 255 0 157 255 0 157 255 0 157 255 0 157 255 0 157 255 0 164 255 0 164 255 0 164 255 0 164 255 0 164 255 0 164 255 0 164 255 0 164 255 0 164 255 0 164 255 0 178 255 0 178 255 0 178 255 0 178 255 0 178 255 0 178 255 0 178 255 0 178 255 0 178 255 0 178 255 0 168 255 0 168 255 0 168 255 0 168 255 0 168 255 0 168 255 0 168 255 0 168 255 0 168 255 0 168 255 0 174 255 0 174 255 0 174 255 0 174 255 0 174 255 0 174 255 0 174 255 0 174 255 0 174 255 0 174 255 0 167 255 0 167 255 0 167 255 0 167 255 0 167 255 0 167 255 0 167 255 0 167 255 0 167 255 0 167 255 0 169 255 0 169 255 0 169 255 0 169 255 0 169 255 0 169 255 0 169 255 0 169 255 0 169 255 0 169 255 0 169 255 0 169 255 0 169 255 0 169 255 0 169 255 0 169 255 0 169 255 0 169 255 0 169 255 0 169 255 0 151 255 0 151 255 0 151 255 0 151 255 0 151 255 0 151 255 0 151 255 0 151 255 0 151 255 0 151 255 0 168 255 0 168 255 0 168 255 0 168 255 0 168 255 0 168 255 0 168 255 0 168 255 0 168 255 0 168 255 0 0 0 0 0 0 0 0 0 0 0 0 0 0 0 0 0 0 0 0 0 0 0 0 0 0 0 0 0 0 255 90 0 255 90 0 255 90 0 255 90 0 255 90 0 255 90 0 255 90 0 255 90 0 255 90 0 255 90 0 255 90 0 255 90 0 255 90 0 255 90 0 255 90 0 255 90 0 255 90 0 255 90 0 255 90 0 255 90 0 255 90 0 255 90 0 255 90 0 255 90 0 255 90 0 255 90 0 255 90 0 255 90 0 255 90 0 255 90 0 
0 163 255 0 163 255 0 163 255 0 163 255 0 163 255 0 163 255 0 163 255 0 163 255 0 163 255 0 163 255 0 162 255 0 162 255 0 162 255 0 162 255 0 162 255 0 162 255 0 162 255 0 162 255 0 162 255 0 162 255 0 158 255 0 158 255 0 158 255 0 158 255 0 158 255 0 158 255 0 158 255 0 158 255 0 158 255 0 158 255 0 156 255 0 156 255 0 156 255 0 156 255 0 156 255 0 156 255 0 156 255 0 156 255 0 156 255 0 156 255 0 163 255 0 163 255 0 163 255 0 163 255 0 163 255 0 163 255 0 163 255 0 163 255 0 163 255 0 163 255 0 165 255 0 165 255 0 165 255 0 165 255 0 165 255 0 165 255 0 165 255 0 165 255 0 165 255 0 165 255 0 158 255 0 158 255 0 158 255 0 158 255 0 158 255 0 158 255 0 158 255 0 158 255 0 158 255 0 158 255 0 166 255 0 166 255 0 166 255 0 166 255 0 166 255 0 166 255 0 166 255 0 166 255 0 166 255 0 166 255 0 152 255 0 152 255 0 152 255 0 152 255 0 152 255 0 152 255 0 152 255 0 152 255 0 152 255 0 152 255 0 170 255 0 170 255 0 170 255 0 170 255 0 170 255 0 170 255 0 170 255 0 170 255 0 170 255 0 170 255 0 163 255 0 163 255 0 163 255 0 163 255 0 163 255 0 163 255 0 163 255 0 163 255 0 163 255 0 163 255 0 173 255 0 173 255 0 173 255 0 173 255 0 173 255 0 173 255 0 173 255 0 173 255 0 173 255 0 173 255 0 129 255 0 129 255 0 129 255 0 129 255 0 129 255 0 129 255 0 129 255 0 129 255 0 129 255 0 129 255 0 137 255 0 137 255 0 137 255 0 137 255 0 137 255 0 137 255 0 137 255 0 137 255 0 137 255 0 137 255 0 113 255 0 113 255 0 113 255 0 113 255 0 113 255 0 113 255 0 113 255 0 113 255 0 113 255 0 113 255 0 99 255 0 99 255 0 99 255 0 99 255 0 99 255 0 99 255 0 99 255 0 99 255 0 99 255 0 99 255 0 113 255 0 113 255 0 113 255 0 113 255 0 113 255 0 113 255 0 113 255 0 113 255 0 113 255 0 113 255 0 164 255 0 164 255 0 164 255 0 164 255 0 164 255 0 164 255 0 164 255 0 164 255 0 164 255 0 164 255 0 157 255 0 157 255 0 157 255 0 157 255 0 157 255 0 157 255 0 157 255 0 157 255 0 157 255 0 157 255 0 164 255 0 164 255 0 164 255 0 164 255 0 164 255 0 164 255 0 164 255 0 164 255 0 164 255 0 164 255 0 178 255 0 178 255 0 178 255 0 178 255 0 178 255 0 178 255 0 178 255 0 178 255 0 178 255 0 178 255 0 168 255 0 168 255 0 168 255 0 168 255 0 168 255 0 168 255 0 168 255 0 168 255 0 168 255 0 168 255 0 174 255 0 174 255 0 174 255 0 174 255 0 174 255 0 174 255 0 174 255 0 174 255 0 174 255 0 174 255 0 167 255 0 167 255 0 167 255 0 167 255 0 167 255 0 167 255 0 167 255 0 167 255 0 167 255 0 167 255 0 169 255 0 169 255 0 169 255 0 169 255 0 169 255 0 169 255 0 169 255 0 169 255 0 169 255 0 169 255 0 169 255 0 169 255 0 169 255 0 169 255 0 169 255 0 169 255 0 169 255 0 169 255 0 169 255 0 169 255 0 151 255 0 151 255 0 151 255 0 151 255 0 151 255 0 151 255 0 151 255 0 151 255 0 151 255 0 151 255 0 168 255 0 168 255 0 168 255 0 168 255 0 168 255 0 168 255 0 168 255 0 168 255 0 168 255 0 168 255 0 0 0 0 0 0 0 0 0 0 0 0 0 0 0 0 0 0 0 0 0 0 0 0 0 0 0 0 0 0 255 86 0 255 86 0 255 86 0 255 86 0 255 86 0 255 86 0 255 86 0 255 86 0 255 86 0 255 86 0 255 86 0 255 86 0 255 86 0 255 86 0 255 86 0 255 86 0 255 86 0 255 86 0 255 86 0 255 86 0 255 86 0 255 86 0 255 86 0 255 86 0 255 86 0 255 86 0 255 86 0 255 86 0 255 86 0 255 86 0 
0 163 255 0 163 255 0 163 255 0 163 255 0 163 255 0 163 255 0 163 255 0 163 255 0 163 255 0 163 255 0 162 255 0 162 255 0 162 255 0 162 255 0 162 255 0 162 255 0 162 255 0 162 255 0 162 255 0 162 255 0 158 255 0 158 255 0 158 255 0 158 255 0 158 255 0 158 255 0 158 255 0 158 255 0 158 255 0 158 255 0 156 255 0 156 255 0 156 255 0 156 255 0 156 255 0 156 255 0 156 255 0 156 255 0 156 255 0 156 255 0 163 255 0 163 255 0 163 255 0 163 255 0 163 255 0 163 255 0 163 255 0 163 255 0 163 255 0 163 255 0 165 255 0 165 255 0 165 255 0 165 255 0 165 255 0 165 255 0 165 255 0 165 255 0 165 255 0 165 255 0 158 255 0 158 255 0 158 255 0 158 255 0 158 255 0 158 255 0 158 255 0 158 255 0 158 255 0 158 255 0 166 255 0 166 255 0 166 255 0 166 255 0 166 255 0 166 255 0 166 255 0 166 255 0 166 255 0 166 255 0 152 255 0 152 255 0 152 255 0 152 255 0 152 255 0 152 255 0 152 255 0 152 255 0 152 255 0 152 255 0 170 255 0 170 255 0 170 255 0 170 255 0 170 255 0 170 255 0 170 255 0 170 255 0 170 255 0 170 255 0 163 255 0 163 255 0 163 255 0 163 255 0 163 255 0 163 255 0 163 255 0 163 255 0 163 255 0 163 255 0 173 255 0 173 255 0 173 255 0 173 255 0 173 255 0 173 255 0 173 255 0 173 255 0 173 255 0 173 255 0 129 255 0 129 255 0 129 255 0 129 255 0 129 255 0 129 255 0 129 255 0 129 255 0 129 255 0 129 255 0 137 255 0 137 255 0 137 255 0 137 255 0 137 255 0 137 255 0 137 255 0 137 255 0 137 255 0 137 255 0 113 255 0 113 255 0 113 255 0 113 255 0 113 255 0 113 255 0 113 255 0 113 255 0 113 255 0 113 255 0 99 255 0 99 255 0 99 255 0 99 255 0 99 255 0 99 255 0 99 255 0 99 255 0 99 255 0 99 255 0 113 255 0 113 255 0 113 255 0 113 255 0 113 255 0 113 255 0 113 255 0 113 255 0 113 255 0 113 255 0 164 255 0 164 255 0 164 255 0 164 255 0 164 255 0 164 255 0 164 255 0 164 255 0 164 255 0 164 255 0 157 255 0 157 255 0 157 255 0 157 255 0 157 255 0 157 255 0 157 255 0 157 255 0 157 255 0 157 255 0 164 255 0 164 255 0 164 255 0 164 255 0 164 255 0 164 255 0 164 255 0 164 255 0 164 255 0 164 255 0 178 255 0 178 255 0 178 255 0 178 255 0 178 255 0 178 255 0 178 255 0 178 255 0 178 255 0 178 255 0 168 255 0 168 255 0 168 255 0 168 255 0 168 255 0 168 255 0 168 255 0 168 255 0 168 255 0 168 255 0 174 255 0 174 255 0 174 255 0 174 255 0 174 255 0 174 255 0 174 255 0 174 255 0 174 255 0 174 255 0 167 255 0 167 255 0 167 255 0 167 255 0 167 255 0 167 255 0 167 255 0 167 255 0 167 255 0 167 255 0 169 255 0 169 255 0 169 255 0 169 255 0 169 255 0 169 255 0 169 255 0 169 255 0 169 255 0 169 255 0 169 255 0 169 255 0 169 255 0 169 255 0 169 255 0 169 255 0 169 255 0 169 255 0 169 255 0 169 255 0 151 255 0 151 255 0 151 255 0 151 255 0 151 255 0 151 255 0 151 255 0 151 255 0 151 255 0 151 255 0 168 255 0 168 255 0 168 255 0 168 255 0 168 255 0 168 255 0 168 255 0 168 255 0 168 255 0 168 255 0 0 0 0 0 0 0 0 0 0 0 0 0 0 0 0 0 0 0 0 0 0 0 0 0 0 0 0 0 0 255 83 0 255 83 0 255 83 0 255 83 0 255 83 0 255 83 0 255 83 0 255 83 0 255 83 0 255 83 0 255 83 0 255 83 0 255 83 0 255 83 0 255 83 0 255 83 0 255 83 0 255 83 0 255 83 0 255 83 0 255 83 0 255 83 0 255 83 0 255 83 0 255 83 0 255 83 0 255 83 0 255 83 0 255 83 0 255 83 0 
0 163 255 0 163 255 0 163 255 0 163 255 0 163 255 0 163 255 0 163 255 0 163 255 0 163 255 0 163 255 0 162 255 0 162 255 0 162 255 0 162 255 0 162 255 0 162 255 0 162 255 0 162 255 0 162 255 0 162 255 0 158 255 0 158 255 0 158 255 0 158 255 0 158 255 0 158 255 0 158 255 0 158 255 0 158 255 0 158 255 0 156 255 0 156 255 0 156 255 0 156 255 0 156 255 0 156 255 0 156 255 0 156 255 0 156 255 0 156 255 0 163 255 0 163 255 0 163 255 0 163 255 0 163 255 0 163 255 0 163 255 0 163 255 0 163 255 0 163 255 0 165 255 0 165 255 0 165 255 0 165 255 0 165 255 0 165 255 0 165 255 0 165 255 0 165 255 0 165 255 0 158 255 0 158 255 0 158 255 0 158 255 0 158 255 0 158 255 0 158 255 0 158 255 0 158 255 0 158 255 0 166 255 0 166 255 0 166 255 0 166 255 0 166 255 0 166 255 0 166 255 0 166 255 0 166 255 0 166 255 0 152 255 0 152 255 0 152 255 0 152 255 0 152 255 0 152 255 0 152 255 0 152 255 0 152 255 0 152 255 0 170 255 0 170 255 0 170 255 0 170 255 0 170 255 0 170 255 0 170 255 0 170 255 0 170 255 0 170 255 0 163 255 0 163 255 0 163 255 0 163 255 0 163 255 0 163 255 0 163 255 0 163 255 0 163 255 0 163 255 0 173 255 0 173 255 0 173 255 0 173 255 0 173 255 0 173 255 0 173 255 0 173 255 0 173 255 0 173 255 0 129 255 0 129 255 0 129 255 0 129 255 0 129 255 0 129 255 0 129 255 0 129 255 0 129 255 0 129 255 0 137 255 0 137 255 0 137 255 0 137 255 0 137 255 0 137 255 0 137 255 0 137 255 0 137 255 0 137 255 0 113 255 0 113 255 0 113 255 0 113 255 0 113 255 0 113 255 0 113 255 0 113 255 0 113 255 0 113 255 0 99 255 0 99 255 0 99 255 0 99 255 0 99 255 0 99 255 0 99 255 0 99 255 0 99 255 0 99 255 0 113 255 0 113 255 0 113 255 0 113 255 0 113 255 0 113 255 0 113 255 0 113 255 0 113 255 0 113 255 0 164 255 0 164 255 0 164 255 0 164 255 0 164 255 0 164 255 0 164 255 0 164 255 0 164 255 0 164 255 0 157 255 0 157 255 0 157 255 0 157 255 0 157 255 0 157 255 0 157 255 0 157 255 0 157 255 0 157 255 0 164 255 0 164 255 0 164 255 0 164 255 0 164 255 0 164 255 0 164 255 0 164 255 0 164 255 0 164 255 0 178 255 0 178 255 0 178 255 0 178 255 0 178 255 0 178 255 0 178 255 0 178 255 0 178 255 0 178 255 0 168 255 0 168 255 0 168 255 0 168 255 0 168 255 0 168 255 0 168 255 0 168 255 0 168 255 0 168 255 0 174 255 0 174 255 0 174 255 0 174 255 0 174 255 0 174 255 0 174 255 0 174 255 0 174 255 0 174 255 0 167 255 0 167 255 0 167 255 0 167 255 0 167 255 0 167 255 0 167 255 0 167 255 0 167 255 0 167 255 0 169 255 0 169 255 0 169 255 0 169 255 0 169 255 0 169 255 0 169 255 0 169 255 0 169 255 0 169 255 0 169 255 0 169 255 0 169 255 0 169 255 0 169 255 0 169 255 0 169 255 0 169 255 0 169 255 0 169 255 0 151 255 0 151 255 0 151 255 0 151 255 0 151 255 0 151 255 0 151 255 0 151 255 0 151 255 0 151 255 0 168 255 0 168 255 0 168 255 0 168 255 0 168 255 0 168 255 0 168 255 0 168 255 0 168 255 0 168 255 0 0 0 0 0 0 0 0 0 0 0 0 0 0 0 0 0 0 0 0 0 0 0 0 0 0 0 0 0 0 255 79 0 255 79 0 255 79 0 255 79 0 255 79 0 255 79 0 255 79 0 255 79 0 255 79 0 255 79 0 255 79 0 255 79 0 255 79 0 255 79 0 255 79 0 255 79 0 255 79 0 255 79 0 255 79 0 255 79 0 255 79 0 255 79 0 255 79 0 255 79 0 255 79 0 255 79 0 255 79 0 255 79 0 255 79 0 255 79 0 
0 163 255 0 163 255 0 163 255 0 163 255 0 163 255 0 163 255 0 163 255 0 163 255 0 163 255 0 163 255 0 162 255 0 162 255 0 162 255 0 162 255 0 162 255 0 162 255 0 162 255 0 162 255 0 162 255 0 162 255 0 158 255 0 158 255 0 158 255 0 158 255 0 158 255 0 158 255 0 158 255 0 158 255 0 158 255 0 158 255 0 156 255 0 156 255 0 156 255 0 156 255 0 156 255 0 156 255 0 156 255 0 156 255 0 156 255 0 156 255 0 163 255 0 163 255 0 163 255 0 163 255 0 163 255 0 163 255 0 163 255 0 163 255 0 163 255 0 163 255 0 165 255 0 165 255 0 165 255 0 165 255 0 165 255 0 165 255 0 165 255 0 165 255 0 165 255 0 165 255 0 158 255 0 158 255 0 158 255 0 158 255 0 158 255 0 158 255 0 158 255 0 158 255 0 158 255 0 158 255 0 166 255 0 166 255 0 166 255 0 166 255 0 166 255 0 166 255 0 166 255 0 166 255 0 166 255 0 166 255 0 152 255 0 152 255 0 152 255 0 152 255 0 152 255 0 152 255 0 152 255 0 152 255 0 152 255 0 152 255 0 170 255 0 170 255 0 170 255 0 170 255 0 170 255 0 170 255 0 170 255 0 170 255 0 170 255 0 170 255 0 163 255 0 163 255 0 163 255 0 163 255 0 163 255 0 163 255 0 163 255 0 163 255 0 163 255 0 163 255 0 173 255 0 173 255 0 173 255 0 173 255 0 173 255 0 173 255 0 173 255 0 173 255 0 173 255 0 173 255 0 129 255 0 129 255 0 129 255 0 129 255 0 129 255 0 129 255 0 129 255 0 129 255 0 129 255 0 129 255 0 137 255 0 137 255 0 137 255 0 137 255 0 137 255 0 137 255 0 137 255 0 137 255 0 137 255 0 137 255 0 113 255 0 113 255 0 113 255 0 113 255 0 113 255 0 113 255 0 113 255 0 113 255 0 113 255 0 113 255 0 99 255 0 99 255 0 99 255 0 99 255 0 99 255 0 99 255 0 99 255 0 99 255 0 99 255 0 99 255 0 113 255 0 113 255 0 113 255 0 113 255 0 113 255 0 113 255 0 113 255 0 113 255 0 113 255 0 113 255 0 164 255 0 164 255 0 164 255 0 164 255 0 164 255 0 164 255 0 164 255 0 164 255 0 164 255 0 164 255 0 157 255 0 157 255 0 157 255 0 157 255 0 157 255 0 157 255 0 157 255 0 157 255 0 157 255 0 157 255 0 164 255 0 164 255 0 164 255 0 164 255 0 164 255 0 164 255 0 164 255 0 164 255 0 164 255 0 164 255 0 178 255 0 178 255 0 178 255 0 178 255 0 178 255 0 178 255 0 178 255 0 178 255 0 178 255 0 178 255 0 168 255 0 168 255 0 168 255 0 168 255 0 168 255 0 168 255 0 168 255 0 168 255 0 168 255 0 168 255 0 174 255 0 174 255 0 174 255 0 174 255 0 174 255 0 174 255 0 174 255 0 174 255 0 174 255 0 174 255 0 167 255 0 167 255 0 167 255 0 167 255 0 167 255 0 167 255 0 167 255 0 167 255 0 167 255 0 167 255 0 169 255 0 169 255 0 169 255 0 169 255 0 169 255 0 169 255 0 169 255 0 169 255 0 169 255 0 169 255 0 169 255 0 169 255 0 169 255 0 169 255 0 169 255 0 169 255 0 169 255 0 169 255 0 169 255 0 169 255 0 151 255 0 151 255 0 151 255 0 151 255 0 151 255 0 151 255 0 151 255 0 151 255 0 151 255 0 151 255 0 168 255 0 168 255 0 168 255 0 168 255 0 168 255 0 168 255 0 168 255 0 168 255 0 168 255 0 168 255 0 0 0 0 0 0 0 0 0 0 0 0 0 0 0 0 0 0 0 0 0 0 0 0 0 0 0 0 0 0 255 75 0 255 75 0 255 75 0 255 75 0 255 75 0 255 75 0 255 75 0 255 75 0 255 75 0 255 75 0 255 75 0 255 75 0 255 75 0 255 75 0 255 75 0 255 75 0 255 75 0 255 75 0 255 75 0 255 75 0 255 75 0 255 75 0 255 75 0 255 75 0 255 75 0 255 75 0 255 75 0 255 75 0 255 75 0 255 75 0 
0 166 255 0 166 255 0 166 255 0 166 255 0 166 255 0 166 255 0 166 255 0 166 255 0 166 255 0 166 255 0 157 255 0 157 255 0 157 255 0 157 255 0 157 255 0 157 255 0 157 255 0 157 255 0 157 255 0 157 255 0 152 255 0 152 255 0 152 255 0 152 255 0 152 255 0 152 255 0 152 255 0 152 255 0 152 255 0 152 255 0 167 255 0 167 255 0 167 255 0 167 255 0 167 255 0 167 255 0 167 255 0 167 255 0 167 255 0 167 255 0 166 255 0 166 255 0 166 255 0 166 255 0 166 255 0 166 255 0 166 255 0 166 255 0 166 255 0 166 255 0 159 255 0 159 255 0 159 255 0 159 255 0 159 255 0 159 255 0 159 255 0 159 255 0 159 255 0 159 255 0 181 255 0 181 255 0 181 255 0 181 255 0 181 255 0 181 255 0 181 255 0 181 255 0 181 255 0 181 255 0 186 255 0 186 255 0 186 255 0 186 255 0 186 255 0 186 255 0 186 255 0 186 255 0 186 255 0 186 255 0 174 255 0 174 255 0 174 255 0 174 255 0 174 255 0 174 255 0 174 255 0 174 255 0 174 255 0 174 255 0 174 255 0 174 255 0 174 255 0 174 255 0 174 255 0 174 255 0 174 255 0 174 255 0 174 255 0 174 255 0 175 255 0 175 255 0 175 255 0 175 255 0 175 255 0 175 255 0 175 255 0 175 255 0 175 255 0 175 255 0 141 255 0 141 255 0 141 255 0 141 255 0 141 255 0 141 255 0 141 255 0 141 255 0 141 255 0 141 255 0 116 255 0 116 255 0 116 255 0 116 255 0 116 255 0 116 255 0 116 255 0 116 255 0 116 255 0 116 255 0 120 255 0 120 255 0 120 255 0 120 255 0 120 255 0 120 255 0 120 255 0 120 255 0 120 255 0 120 255 0 119 255 0 119 255 0 119 255 0 119 255 0 119 255 0 119 255 0 119 255 0 119 255 0 119 255 0 119 255 0 122 255 0 122 255 0 122 255 0 122 255 0 122 255 0 122 255 0 122 255 0 122 255 0 122 255 0 122 255 0 105 255 0 105 255 0 105 255 0 105 255 0 105 255 0 105 255 0 105 255 0 105 255 0 105 255 0 105 255 0 101 255 0 101 255 0 101 255 0 101 255 0 101 255 0 101 255 0 101 255 0 101 255 0 101 255 0 101 255 0 150 255 0 150 255 0 150 255 0 150 255 0 150 255 0 150 255 0 150 255 0 150 255 0 150 255 0 150 255 0 133 255 0 133 255 0 133 255 0 133 255 0 133 255 0 133 255 0 133 255 0 133 255 0 133 255 0 133 255 0 128 255 0 128 255 0 128 255 0 128 255 0 128 255 0 128 255 0 128 255 0 128 255 0 128 255 0 128 255 0 156 255 0 156 255 0 156 255 0 156 255 0 156 255 0 156 255 0 156 255 0 156 255 0 156 255 0 156 255 0 185 255 0 185 255 0 185 255 0 185 255 0 185 255 0 185 255 0 185 255 0 185 255 0 185 255 0 185 255 0 172 255 0 172 255 0 172 255 0 172 255 0 172 255 0 172 255 0 172 255 0 172 255 0 172 255 0 172 255 0 170 255 0 170 255 0 170 255 0 170 255 0 170 255 0 170 255 0 170 255 0 170 255 0 170 255 0 170 255 0 140 255 0 140 255 0 140 255 0 140 255 0 140 255 0 140 255 0 140 255 0 140 255 0 140 255 0 140 255 0 153 255 0 153 255 0 153 255 0 153 255 0 153 255 0 153 255 0 153 255 0 153 255 0 153 255 0 153 255 0 150 255 0 150 255 0 150 255 0 150 255 0 150 255 0 150 255 0 150 255 0 150 255 0 150 255 0 150 255 0 0 0 0 0 0 0 0 0 0 0 0 0 0 0 0 0 0 0 0 0 0 0 0 0 0 0 0 0 0 255 72 0 255 72 0 255 72 0 255 72 0 255 72 0 255 72 0 255 72 0 255 72 0 255 72 0 255 72 0 255 72 0 255 72 0 255 72 0 255 72 0 255 72 0 255 72 0 255 72 0 255 72 0 255 72 0 255 72 0 255 72 0 255 72 0 255 72 0 255 72 0 255 72 0 255 72 0 255 72 0 255 72 0 255 72 0 255 72 0 
0 166 255 0 166 255 0 166 255 0 166 255 0 166 255 0 166 255 0 166 255 0 166 255 0 166 255 0 166 255 0 157 255 0 157 255 0 157 255 0 157 255 0 157 255 0 157 255 0 157 255 0 157 255 0 157 255 0 157 255 0 152 255 0 152 255 0 152 255 0 152 255 0 152 255 0 152 255 0 152 255 0 152 255 0 152 255 0 152 255 0 167 255 0 167 255 0 167 255 0 167 255 0 167 255 0 167 255 0 167 255 0 167 255 0 167 255 0 167 255 0 166 255 0 166 255 0 166 255 0 166 255 0 166 255 0 166 255 0 166 255 0 166 255 0 166 255 0 166 255 0 159 255 0 159 255 0 159 255 0 159 255 0 159 255 0 159 255 0 159 255 0 159 255 0 159 255 0 159 255 0 181 255 0 181 255 0 181 255 0 181 255 0 181 255 0 181 255 0 181 255 0 181 255 0 181 255 0 181 255 0 186 255 0 186 255 0 186 255 0 186 255 0 186 255 0 186 255 0 186 255 0 186 255 0 186 255 0 186 255 0 174 255 0 174 255 0 174 255 0 174 255 0 174 255 0 174 255 0 174 255 0 174 255 0 174 255 0 174 255 0 174 255 0 174 255 0 174 255 0 174 255 0 174 255 0 174 255 0 174 255 0 174 255 0 174 255 0 174 255 0 175 255 0 175 255 0 175 255 0 175 255 0 175 255 0 175 255 0 175 255 0 175 255 0 175 255 0 175 255 0 141 255 0 141 255 0 141 255 0 141 255 0 141 255 0 141 255 0 141 255 0 141 255 0 141 255 0 141 255 0 116 255 0 116 255 0 116 255 0 116 255 0 116 255 0 116 255 0 116 255 0 116 255 0 116 255 0 116 255 0 120 255 0 120 255 0 120 255 0 120 255 0 120 255 0 120 255 0 120 255 0 120 255 0 120 255 0 120 255 0 119 255 0 119 255 0 119 255 0 119 255 0 119 255 0 119 255 0 119 255 0 119 255 0 119 255 0 119 255 0 122 255 0 122 255 0 122 255 0 122 255 0 122 255 0 122 255 0 122 255 0 122 255 0 122 255 0 122 255 0 105 255 0 105 255 0 105 255 0 105 255 0 105 255 0 105 255 0 105 255 0 105 255 0 105 255 0 105 255 0 101 255 0 101 255 0 101 255 0 101 255 0 101 255 0 101 255 0 101 255 0 101 255 0 101 255 0 101 255 0 150 255 0 150 255 0 150 255 0 150 255 0 150 255 0 150 255 0 150 255 0 150 255 0 150 255 0 150 255 0 133 255 0 133 255 0 133 255 0 133 255 0 133 255 0 133 255 0 133 255 0 133 255 0 133 255 0 133 255 0 128 255 0 128 255 0 128 255 0 128 255 0 128 255 0 128 255 0 128 255 0 128 255 0 128 255 0 128 255 0 156 255 0 156 255 0 156 255 0 156 255 0 156 255 0 156 255 0 156 255 0 156 255 0 156 255 0 156 255 0 185 255 0 185 255 0 185 255 0 185 255 0 185 255 0 185 255 0 185 255 0 185 255 0 185 255 0 185 255 0 172 255 0 172 255 0 172 255 0 172 255 0 172 255 0 172 255 0 172 255 0 172 255 0 172 255 0 172 255 0 170 255 0 170 255 0 170 255 0 170 255 0 170 255 0 170 255 0 170 255 0 170 255 0 170 255 0 170 255 0 140 255 0 140 255 0 140 255 0 140 255 0 140 255 0 140 255 0 140 255 0 140 255 0 140 255 0 140 255 0 153 255 0 153 255 0 153 255 0 153 255 0 153 255 0 153 255 0 153 255 0 153 255 0 153 255 0 153 255 0 150 255 0 150 255 0 150 255 0 150 255 0 150 255 0 150 255 0 150 255 0 150 255 0 150 255 0 150 255 0 0 0 0 0 0 0 0 0 0 0 0 0 0 0 0 0 0 0 0 0 0 0 0 0 0 0 0 0 0 255 68 0 255 68 0 255 68 0 255 68 0 255 68 0 255 68 0 255 68 0 255 68 0 255 68 0 255 68 0 255 68 0 255 68 0 255 68 0 255 68 0 255 68 0 255 68 0 255 68 0 255 68 0 255 68 0 255 68 0 255 68 0 255 68 0 255 68 0 255 68 0 255 68 0 255 68 0 255 68 0 255 68 0 255 68 0 255 68 0 
0 166 255 0 166 255 0 166 255 0 166 255 0 166 255 0 166 255 0 166 255 0 166 255 0 166 255 0 166 255 0 157 255 0 157 255 0 157 255 0 157 255 0 157 255 0 157 255 0 157 255 0 157 255 0 157 255 0 157 255 0 152 255 0 152 255 0 152 255 0 152 255 0 152 255 0 152 255 0 152 255 0 152 255 0 152 255 0 152 255 0 167 255 0 167 255 0 167 255 0 167 255 0 167 255 0 167 255 0 167 255 0 167 255 0 167 255 0 167 255 0 166 255 0 166 255 0 166 255 0 166 255 0 166 255 0 166 255 0 166 255 0 166 255 0 166 255 0 166 255 0 159 255 0 159 255 0 159 255 0 159 255 0 159 255 0 159 255 0 159 255 0 159 255 0 159 255 0 159 255 0 181 255 0 181 255 0 181 255 0 181 255 0 181 255 0 181 255 0 181 255 0 181 255 0 181 255 0 181 255 0 186 255 0 186 255 0 186 255 0 186 255 0 186 255 0 186 255 0 186 255 0 186 255 0 186 255 0 186 255 0 174 255 0 174 255 0 174 255 0 174 255 0 174 255 0 174 255 0 174 255 0 174 255 0 174 255 0 174 255 0 174 255 0 174 255 0 174 255 0 174 255 0 174 255 0 174 255 0 174 255 0 174 255 0 174 255 0 174 255 0 175 255 0 175 255 0 175 255 0 175 255 0 175 255 0 175 255 0 175 255 0 175 255 0 175 255 0 175 255 0 141 255 0 141 255 0 141 255 0 141 255 0 141 255 0 141 255 0 141 255 0 141 255 0 141 255 0 141 255 0 116 255 0 116 255 0 116 255 0 116 255 0 116 255 0 116 255 0 116 255 0 116 255 0 116 255 0 116 255 0 120 255 0 120 255 0 120 255 0 120 255 0 120 255 0 120 255 0 120 255 0 120 255 0 120 255 0 120 255 0 119 255 0 119 255 0 119 255 0 119 255 0 119 255 0 119 255 0 119 255 0 119 255 0 119 255 0 119 255 0 122 255 0 122 255 0 122 255 0 122 255 0 122 255 0 122 255 0 122 255 0 122 255 0 122 255 0 122 255 0 105 255 0 105 255 0 105 255 0 105 255 0 105 255 0 105 255 0 105 255 0 105 255 0 105 255 0 105 255 0 101 255 0 101 255 0 101 255 0 101 255 0 101 255 0 101 255 0 101 255 0 101 255 0 101 255 0 101 255 0 150 255 0 150 255 0 150 255 0 150 255 0 150 255 0 150 255 0 150 255 0 150 255 0 150 255 0 150 255 0 133 255 0 133 255 0 133 255 0 133 255 0 133 255 0 133 255 0 133 255 0 133 255 0 133 255 0 133 255 0 128 255 0 128 255 0 128 255 0 128 255 0 128 255 0 128 255 0 128 255 0 128 255 0 128 255 0 128 255 0 156 255 0 156 255 0 156 255 0 156 255 0 156 255 0 156 255 0 156 255 0 156 255 0 156 255 0 156 255 0 185 255 0 185 255 0 185 255 0 185 255 0 185 255 0 185 255 0 185 255 0 185 255 0 185 255 0 185 255 0 172 255 0 172 255 0 172 255 0 172 255 0 172 255 0 172 255 0 172 255 0 172 255 0 172 255 0 172 255 0 170 255 0 170 255 0 170 255 0 170 255 0 170 255 0 170 255 0 170 255 0 170 255 0 170 255 0 170 255 0 140 255 0 140 255 0 140 255 0 140 255 0 140 255 0 140 255 0 140 255 0 140 255 0 140 255 0 140 255 0 153 255 0 153 255 0 153 255 0 153 255 0 153 255 0 153 255 0 153 255 0 153 255 0 153 255 0 153 255 0 150 255 0 150 255 0 150 255 0 150 255 0 150 255 0 150 255 0 150 255 0 150 255 0 150 255 0 150 255 0 0 0 0 0 0 0 0 0 0 0 0 0 0 0 0 0 0 0 0 0 0 0 0 0 0 0 0 0 0 255 64 0 255 64 0 255 64 0 255 64 0 255 64 0 255 64 0 255 64 0 255 64 0 255 64 0 255 64 0 255 64 0 255 64 0 255 64 0 255 64 0 255 64 0 255 64 0 255 64 0 255 64 0 255 64 0 255 64 0 255 64 0 255 64 0 255 64 0 255 64 0 255 64 0 255 64 0 255 64 0 255 64 0 255 64 0 255 64 0 
0 166 255 0 166 255 0 166 255 0 166 255 0 166 255 0 166 255 0 166 255 0 166 255 0 166 255 0 166 255 0 157 255 0 157 255 0 157 255 0 157 255 0 157 255 0 157 255 0 157 255 0 157 255 0 157 255 0 157 255 0 152 255 0 152 255 0 152 255 0 152 255 0 152 255 0 152 255 0 152 255 0 152 255 0 152 255 0 152 255 0 167 255 0 167 255 0 167 255 0 167 255 0 167 255 0 167 255 0 167 255 0 167 255 0 167 255 0 167 255 0 166 255 0 166 255 0 166 255 0 166 255 0 166 255 0 166 255 0 166 255 0 166 255 0 166 255 0 166 255 0 159 255 0 159 255 0 159 255 0 159 255 0 159 255 0 159 255 0 159 255 0 159 255 0 159 255 0 159 255 0 181 255 0 181 255 0 181 255 0 181 255 0 181 255 0 181 255 0 181 255 0 181 255 0 181 255 0 181 255 0 186 255 0 186 255 0 186 255 0 186 255 0 186 255 0 186 255 0 186 255 0 186 255 0 186 255 0 186 255 0 174 255 0 174 255 0 174 255 0 174 255 0 174 255 0 174 255 0 174 255 0 174 255 0 174 255 0 174 255 0 174 255 0 174 255 0 174 255 0 174 255 0 174 255 0 174 255 0 174 255 0 174 255 0 174 255 0 174 255 0 175 255 0 175 255 0 175 255 0 175 255 0 175 255 0 175 255 0 175 255 0 175 255 0 175 255 0 175 255 0 141 255 0 141 255 0 141 255 0 141 255 0 141 255 0 141 255 0 141 255 0 141 255 0 141 255 0 141 255 0 116 255 0 116 255 0 116 255 0 116 255 0 116 255 0 116 255 0 116 255 0 116 255 0 116 255 0 116 255 0 120 255 0 120 255 0 120 255 0 120 255 0 120 255 0 120 255 0 120 255 0 120 255 0 120 255 0 120 255 0 119 255 0 119 255 0 119 255 0 119 255 0 119 255 0 119 255 0 119 255 0 119 255 0 119 255 0 119 255 0 122 255 0 122 255 0 122 255 0 122 255 0 122 255 0 122 255 0 122 255 0 122 255 0 122 255 0 122 255 0 105 255 0 105 255 0 105 255 0 105 255 0 105 255 0 105 255 0 105 255 0 105 255 0 105 255 0 105 255 0 101 255 0 101 255 0 101 255 0 101 255 0 101 255 0 101 255 0 101 255 0 101 255 0 101 255 0 101 255 0 150 255 0 150 255 0 150 255 0 150 255 0 150 255 0 150 255 0 150 255 0 150 255 0 150 255 0 150 255 0 133 255 0 133 255 0 133 255 0 133 255 0 133 255 0 133 255 0 133 255 0 133 255 0 133 255 0 133 255 0 128 255 0 128 255 0 128 255 0 128 255 0 128 255 0 128 255 0 128 255 0 128 255 0 128 255 0 128 255 0 156 255 0 156 255 0 156 255 0 156 255 0 156 255 0 156 255 0 156 255 0 156 255 0 156 255 0 156 255 0 185 255 0 185 255 0 185 255 0 185 255 0 185 255 0 185 255 0 185 255 0 185 255 0 185 255 0 185 255 0 172 255 0 172 255 0 172 255 0 172 255 0 172 255 0 172 255 0 172 255 0 172 255 0 172 255 0 172 255 0 170 255 0 170 255 0 170 255 0 170 255 0 170 255 0 170 255 0 170 255 0 170 255 0 170 255 0 170 255 0 140 255 0 140 255 0 140 255 0 140 255 0 140 255 0 140 255 0 140 255 0 140 255 0 140 255 0 140 255 0 153 255 0 153 255 0 153 255 0 153 255 0 153 255 0 153 255 0 153 255 0 153 255 0 153 255 0 153 255 0 150 255 0 150 255 0 150 255 0 150 255 0 150 255 0 150 255 0 150 255 0 150 255 0 150 255 0 150 255 0 0 0 0 0 0 0 0 0 0 0 0 0 0 0 0 0 0 0 0 0 0 0 0 0 0 0 0 0 0 255 61 0 255 61 0 255 61 0 255 61 0 255 61 0 255 61 0 255 61 0 255 61 0 255 61 0 255 61 0 255 61 0 255 61 0 255 61 0 255 61 0 255 61 0 255 61 0 255 61 0 255 61 0 255 61 0 255 61 0 255 61 0 255 61 0 255 61 0 255 61 0 255 61 0 255 61 0 255 61 0 255 61 0 255 61 0 255 61 0 
0 166 255 0 166 255 0 166 255 0 166 255 0 166 255 0 166 255 0 166 255 0 166 255 0 166 255 0 166 255 0 157 255 0 157 255 0 157 255 0 157 255 0 157 255 0 157 255 0 157 255 0 157 255 0 157 255 0 157 255 0 152 255 0 152 255 0 152 255 0 152 255 0 152 255 0 152 255 0 152 255 0 152 255 0 152 255 0 152 255 0 167 255 0 167 255 0 167 255 0 167 255 0 167 255 0 167 255 0 167 255 0 167 255 0 167 255 0 167 255 0 166 255 0 166 255 0 166 255 0 166 255 0 166 255 0 166 255 0 166 255 0 166 255 0 166 255 0 166 255 0 159 255 0 159 255 0 159 255 0 159 255 0 159 255 0 159 255 0 159 255 0 159 255 0 159 255 0 159 255 0 181 255 0 181 255 0 181 255 0 181 255 0 181 255 0 181 255 0 181 255 0 181 255 0 181 255 0 181 255 0 186 255 0 186 255 0 186 255 0 186 255 0 186 255 0 186 255 0 186 255 0 186 255 0 186 255 0 186 255 0 174 255 0 174 255 0 174 255 0 174 255 0 174 255 0 174 255 0 174 255 0 174 255 0 174 255 0 174 255 0 174 255 0 174 255 0 174 255 0 174 255 0 174 255 0 174 255 0 174 255 0 174 255 0 174 255 0 174 255 0 175 255 0 175 255 0 175 255 0 175 255 0 175 255 0 175 255 0 175 255 0 175 255 0 175 255 0 175 255 0 141 255 0 141 255 0 141 255 0 141 255 0 141 255 0 141 255 0 141 255 0 141 255 0 141 255 0 141 255 0 116 255 0 116 255 0 116 255 0 116 255 0 116 255 0 116 255 0 116 255 0 116 255 0 116 255 0 116 255 0 120 255 0 120 255 0 120 255 0 120 255 0 120 255 0 120 255 0 120 255 0 120 255 0 120 255 0 120 255 0 119 255 0 119 255 0 119 255 0 119 255 0 119 255 0 119 255 0 119 255 0 119 255 0 119 255 0 119 255 0 122 255 0 122 255 0 122 255 0 122 255 0 122 255 0 122 255 0 122 255 0 122 255 0 122 255 0 122 255 0 105 255 0 105 255 0 105 255 0 105 255 0 105 255 0 105 255 0 105 255 0 105 255 0 105 255 0 105 255 0 101 255 0 101 255 0 101 255 0 101 255 0 101 255 0 101 255 0 101 255 0 101 255 0 101 255 0 101 255 0 150 255 0 150 255 0 150 255 0 150 255 0 150 255 0 150 255 0 150 255 0 150 255 0 150 255 0 150 255 0 133 255 0 133 255 0 133 255 0 133 255 0 133 255 0 133 255 0 133 255 0 133 255 0 133 255 0 133 255 0 128 255 0 128 255 0 128 255 0 128 255 0 128 255 0 128 255 0 128 255 0 128 255 0 128 255 0 128 255 0 156 255 0 156 255 0 156 255 0 156 255 0 156 255 0 156 255 0 156 255 0 156 255 0 156 255 0 156 255 0 185 255 0 185 255 0 185 255 0 185 255 0 185 255 0 185 255 0 185 255 0 185 255 0 185 255 0 185 255 0 172 255 0 172 255 0 172 255 0 172 255 0 172 255 0 172 255 0 172 255 0 172 255 0 172 255 0 172 255 0 170 255 0 170 255 0 170 255 0 170 255 0 170 255 0 170 255 0 170 255 0 170 255 0 170 255 0 170 255 0 140 255 0 140 255 0 140 255 0 140 255 0 140 255 0 140 255 0 140 255 0 140 255 0 140 255 0 140 255 0 153 255 0 153 255 0 153 255 0 153 255 0 153 255 0 153 255 0 153 255 0 153 255 0 153 255 0 153 255 0 150 255 0 150 255 0 150 255 0 150 255 0 150 255 0 150 255 0 150 255 0 150 255 0 150 255 0 150 255 0 0 0 0 0 0 0 0 0 0 0 0 0 0 0 0 0 0 0 0 0 0 0 0 0 0 0 0 0 0 255 57 0 255 57 0 255 57 0 255 57 0 255 57 0 255 57 0 255 57 0 255 57 0 255 57 0 255 57 0 255 57 0 255 57 0 255 57 0 255 57 0 255 57 0 255 57 0 255 57 0 255 57 0 255 57 0 255 57 0 255 57 0 255 57 0 255 57 0 255 57 0 255 57 0 255 57 0 255 57 0 255 57 0 255 57 0 255 57 0 
0 166 255 0 166 255 0 166 255 0 166 255 0 166 255 0 166 255 0 166 255 0 166 255 0 166 255 0 166 255 0 157 255 0 157 255 0 157 255 0 157 255 0 157 255 0 157 255 0 157 255 0 157 255 0 157 255 0 157 255 0 152 255 0 152 255 0 152 255 0 152 255 0 152 255 0 152 255 0 152 255 0 152 255 0 152 255 0 152 255 0 167 255 0 167 255 0 167 255 0 167 255 0 167 255 0 167 255 0 167 255 0 167 255 0 167 255 0 167 255 0 166 255 0 166 255 0 166 255 0 166 255 0 166 255 0 166 255 0 166 255 0 166 255 0 166 255 0 166 255 0 159 255 0 159 255 0 159 255 0 159 255 0 159 255 0 159 255 0 159 255 0 159 255 0 159 255 0 159 255 0 181 255 0 181 255 0 181 255 0 181 255 0 181 255 0 181 255 0 181 255 0 181 255 0 181 255 0 181 255 0 186 255 0 186 255 0 186 255 0 186 255 0 186 255 0 186 255 0 186 255 0 186 255 0 186 255 0 186 255 0 174 255 0 174 255 0 174 255 0 174 255 0 174 255 0 174 255 0 174 255 0 174 255 0 174 255 0 174 255 0 174 255 0 174 255 0 174 255 0 174 255 0 174 255 0 174 255 0 174 255 0 174 255 0 174 255 0 174 255 0 175 255 0 175 255 0 175 255 0 175 255 0 175 255 0 175 255 0 175 255 0 175 255 0 175 255 0 175 255 0 141 255 0 141 255 0 141 255 0 141 255 0 141 255 0 141 255 0 141 255 0 141 255 0 141 255 0 141 255 0 116 255 0 116 255 0 116 255 0 116 255 0 116 255 0 116 255 0 116 255 0 116 255 0 116 255 0 116 255 0 120 255 0 120 255 0 120 255 0 120 255 0 120 255 0 120 255 0 120 255 0 120 255 0 120 255 0 120 255 0 119 255 0 119 255 0 119 255 0 119 255 0 119 255 0 119 255 0 119 255 0 119 255 0 119 255 0 119 255 0 122 255 0 122 255 0 122 255 0 122 255 0 122 255 0 122 255 0 122 255 0 122 255 0 122 255 0 122 255 0 105 255 0 105 255 0 105 255 0 105 255 0 105 255 0 105 255 0 105 255 0 105 255 0 105 255 0 105 255 0 101 255 0 101 255 0 101 255 0 101 255 0 101 255 0 101 255 0 101 255 0 101 255 0 101 255 0 101 255 0 150 255 0 150 255 0 150 255 0 150 255 0 150 255 0 150 255 0 150 255 0 150 255 0 150 255 0 150 255 0 133 255 0 133 255 0 133 255 0 133 255 0 133 255 0 133 255 0 133 255 0 133 255 0 133 255 0 133 255 0 128 255 0 128 255 0 128 255 0 128 255 0 128 255 0 128 255 0 128 255 0 128 255 0 128 255 0 128 255 0 156 255 0 156 255 0 156 255 0 156 255 0 156 255 0 156 255 0 156 255 0 156 255 0 156 255 0 156 255 0 185 255 0 185 255 0 185 255 0 185 255 0 185 255 0 185 255 0 185 255 0 185 255 0 185 255 0 185 255 0 172 255 0 172 255 0 172 255 0 172 255 0 172 255 0 172 255 0 172 255 0 172 255 0 172 255 0 172 255 0 170 255 0 170 255 0 170 255 0 170 255 0 170 255 0 170 255 0 170 255 0 170 255 0 170 255 0 170 255 0 140 255 0 140 255 0 140 255 0 140 255 0 140 255 0 140 255 0 140 255 0 140 255 0 140 255 0 140 255 0 153 255 0 153 255 0 153 255 0 153 255 0 153 255 0 153 255 0 153 255 0 153 255 0 153 255 0 153 255 0 150 255 0 150 255 0 150 255 0 150 255 0 150 255 0 150 255 0 150 255 0 150 255 0 150 255 0 150 255 0 0 0 0 0 0 0 0 0 0 0 0 0 0 0 0 0 0 0 0 0 0 0 0 0 0 0 0 0 0 255 53 0 255 53 0 255 53 0 255 53 0 255 53 0 255 53 0 255 53 0 255 53 0 255 53 0 255 53 0 255 53 0 255 53 0 255 53 0 255 53 0 255 53 0 255 53 0 255 53 0 255 53 0 255 53 0 255 53 0 255 53 0 255 53 0 255 53 0 255 53 0 255 53 0 255 53 0 255 53 0 255 53 0 255 53 0 255 53 0 
0 166 255 0 166 255 0 166 255 0 166 255 0 166 255 0 166 255 0 166 255 0 166 255 0 166 255 0 166 255 0 157 255 0 157 255 0 157 255 0 157 255 0 157 255 0 157 255 0 157 255 0 157 255 0 157 255 0 157 255 0 152 255 0 152 255 0 152 255 0 152 255 0 152 255 0 152 255 0 152 255 0 152 255 0 152 255 0 152 255 0 167 255 0 167 255 0 167 255 0 167 255 0 167 255 0 167 255 0 167 255 0 167 255 0 167 255 0 167 255 0 166 255 0 166 255 0 166 255 0 166 255 0 166 255 0 166 255 0 166 255 0 166 255 0 166 255 0 166 255 0 159 255 0 159 255 0 159 255 0 159 255 0 159 255 0 159 255 0 159 255 0 159 255 0 159 255 0 159 255 0 181 255 0 181 255 0 181 255 0 181 255 0 181 255 0 181 255 0 181 255 0 181 255 0 181 255 0 181 255 0 186 255 0 186 255 0 186 255 0 186 255 0 186 255 0 186 255 0 186 255 0 186 255 0 186 255 0 186 255 0 174 255 0 174 255 0 174 255 0 174 255 0 174 255 0 174 255 0 174 255 0 174 255 0 174 255 0 174 255 0 174 255 0 174 255 0 174 255 0 174 255 0 174 255 0 174 255 0 174 255 0 174 255 0 174 255 0 174 255 0 175 255 0 175 255 0 175 255 0 175 255 0 175 255 0 175 255 0 175 255 0 175 255 0 175 255 0 175 255 0 141 255 0 141 255 0 141 255 0 141 255 0 141 255 0 141 255 0 141 255 0 141 255 0 141 255 0 141 255 0 116 255 0 116 255 0 116 255 0 116 255 0 116 255 0 116 255 0 116 255 0 116 255 0 116 255 0 116 255 0 120 255 0 120 255 0 120 255 0 120 255 0 120 255 0 120 255 0 120 255 0 120 255 0 120 255 0 120 255 0 119 255 0 119 255 0 119 255 0 119 255 0 119 255 0 119 255 0 119 255 0 119 255 0 119 255 0 119 255 0 122 255 0 122 255 0 122 255 0 122 255 0 122 255 0 122 255 0 122 255 0 122 255 0 122 255 0 122 255 0 105 255 0 105 255 0 105 255 0 105 255 0 105 255 0 105 255 0 105 255 0 105 255 0 105 255 0 105 255 0 101 255 0 101 255 0 101 255 0 101 255 0 101 255 0 101 255 0 101 255 0 101 255 0 101 255 0 101 255 0 150 255 0 150 255 0 150 255 0 150 255 0 150 255 0 150 255 0 150 255 0 150 255 0 150 255 0 150 255 0 133 255 0 133 255 0 133 255 0 133 255 0 133 255 0 133 255 0 133 255 0 133 255 0 133 255 0 133 255 0 128 255 0 128 255 0 128 255 0 128 255 0 128 255 0 128 255 0 128 255 0 128 255 0 128 255 0 128 255 0 156 255 0 156 255 0 156 255 0 156 255 0 156 255 0 156 255 0 156 255 0 156 255 0 156 255 0 156 255 0 185 255 0 185 255 0 185 255 0 185 255 0 185 255 0 185 255 0 185 255 0 185 255 0 185 255 0 185 255 0 172 255 0 172 255 0 172 255 0 172 255 0 172 255 0 172 255 0 172 255 0 172 255 0 172 255 0 172 255 0 170 255 0 170 255 0 170 255 0 170 255 0 170 255 0 170 255 0 170 255 0 170 255 0 170 255 0 170 255 0 140 255 0 140 255 0 140 255 0 140 255 0 140 255 0 140 255 0 140 255 0 140 255 0 140 255 0 140 255 0 153 255 0 153 255 0 153 255 0 153 255 0 153 255 0 153 255 0 153 255 0 153 255 0 153 255 0 153 255 0 150 255 0 150 255 0 150 255 0 150 255 0 150 255 0 150 255 0 150 255 0 150 255 0 150 255 0 150 255 0 0 0 0 0 0 0 0 0 0 0 0 0 0 0 0 0 0 0 0 0 0 0 0 0 0 0 0 0 0 255 50 0 255 50 0 255 50 0 255 50 0 255 50 0 255 50 0 255 50 0 255 50 0 255 50 0 255 50 0 255 50 0 255 50 0 255 50 0 255 50 0 255 50 0 255 50 0 255 50 0 255 50 0 255 50 0 255 50 0 255 50 0 255 50 0 255 50 0 255 50 0 255 50 0 255 50 0 255 50 0 255 50 0 255 50 0 255 50 0 
0 166 255 0 166 255 0 166 255 0 166 255 0 166 255 0 166 255 0 166 255 0 166 255 0 166 255 0 166 255 0 157 255 0 157 255 0 157 255 0 157 255 0 157 255 0 157 255 0 157 255 0 157 255 0 157 255 0 157 255 0 152 255 0 152 255 0 152 255 0 152 255 0 152 255 0 152 255 0 152 255 0 152 255 0 152 255 0 152 255 0 167 255 0 167 255 0 167 255 0 167 255 0 167 255 0 167 255 0 167 255 0 167 255 0 167 255 0 167 255 0 166 255 0 166 255 0 166 255 0 166 255 0 166 255 0 166 255 0 166 255 0 166 255 0 166 255 0 166 255 0 159 255 0 159 255 0 159 255 0 159 255 0 159 255 0 159 255 0 159 255 0 159 255 0 159 255 0 159 255 0 181 255 0 181 255 0 181 255 0 181 255 0 181 255 0 181 255 0 181 255 0 181 255 0 181 255 0 181 255 0 186 255 0 186 255 0 186 255 0 186 255 0 186 255 0 186 255 0 186 255 0 186 255 0 186 255 0 186 255 0 174 255 0 174 255 0 174 255 0 174 255 0 174 255 0 174 255 0 174 255 0 174 255 0 174 255 0 174 255 0 174 255 0 174 255 0 174 255 0 174 255 0 174 255 0 174 255 0 174 255 0 174 255 0 174 255 0 174 255 0 175 255 0 175 255 0 175 255 0 175 255 0 175 255 0 175 255 0 175 255 0 175 255 0 175 255 0 175 255 0 141 255 0 141 255 0 141 255 0 141 255 0 141 255 0 141 255 0 141 255 0 141 255 0 141 255 0 141 255 0 116 255 0 116 255 0 116 255 0 116 255 0 116 255 0 116 255 0 116 255 0 116 255 0 116 255 0 116 255 0 120 255 0 120 255 0 120 255 0 120 255 0 120 255 0 120 255 0 120 255 0 120 255 0 120 255 0 120 255 0 119 255 0 119 255 0 119 255 0 119 255 0 119 255 0 119 255 0 119 255 0 119 255 0 119 255 0 119 255 0 122 255 0 122 255 0 122 255 0 122 255 0 122 255 0 122 255 0 122 255 0 122 255 0 122 255 0 122 255 0 105 255 0 105 255 0 105 255 0 105 255 0 105 255 0 105 255 0 105 255 0 105 255 0 105 255 0 105 255 0 101 255 0 101 255 0 101 255 0 101 255 0 101 255 0 101 255 0 101 255 0 101 255 0 101 255 0 101 255 0 150 255 0 150 255 0 150 255 0 150 255 0 150 255 0 150 255 0 150 255 0 150 255 0 150 255 0 150 255 0 133 255 0 133 255 0 133 255 0 133 255 0 133 255 0 133 255 0 133 255 0 133 255 0 133 255 0 133 255 0 128 255 0 128 255 0 128 255 0 128 255 0 128 255 0 128 255 0 128 255 0 128 255 0 128 255 0 128 255 0 156 255 0 156 255 0 156 255 0 156 255 0 156 255 0 156 255 0 156 255 0 156 255 0 156 255 0 156 255 0 185 255 0 185 255 0 185 255 0 185 255 0 185 255 0 185 255 0 185 255 0 185 255 0 185 255 0 185 255 0 172 255 0 172 255 0 172 255 0 172 255 0 172 255 0 172 255 0 172 255 0 172 255 0 172 255 0 172 255 0 170 255 0 170 255 0 170 255 0 170 255 0 170 255 0 170 255 0 170 255 0 170 255 0 170 255 0 170 255 0 140 255 0 140 255 0 140 255 0 140 255 0 140 255 0 140 255 0 140 255 0 140 255 0 140 255 0 140 255 0 153 255 0 153 255 0 153 255 0 153 255 0 153 255 0 153 255 0 153 255 0 153 255 0 153 255 0 153 255 0 150 255 0 150 255 0 150 255 0 150 255 0 150 255 0 150 255 0 150 255 0 150 255 0 150 255 0 150 255 0 0 0 0 0 0 0 0 0 0 0 0 0 0 0 0 0 0 0 0 0 0 0 0 0 0 0 0 0 0 255 46 0 255 46 0 255 46 0 255 46 0 255 46 0 255 46 0 255 46 0 255 46 0 255 46 0 255 46 0 255 46 0 255 46 0 255 46 0 255 46 0 255 46 0 255 46 0 255 46 0 255 46 0 255 46 0 255 46 0 255 46 0 255 46 0 255 46 0 255 46 0 255 46 0 255 46 0 255 46 0 255 46 0 255 46 0 255 46 0 
0 166 255 0 166 255 0 166 255 0 166 255 0 166 255 0 166 255 0 166 255 0 166 255 0 166 255 0 166 255 0 157 255 0 157 255 0 157 255 0 157 255 0 157 255 0 157 255 0 157 255 0 157 255 0 157 255 0 157 255 0 152 255 0 152 255 0 152 255 0 152 255 0 152 255 0 152 255 0 152 255 0 152 255 0 152 255 0 152 255 0 167 255 0 167 255 0 167 255 0 167 255 0 167 255 0 167 255 0 167 255 0 167 255 0 167 255 0 167 255 0 166 255 0 166 255 0 166 255 0 166 255 0 166 255 0 166 255 0 166 255 0 166 255 0 166 255 0 166 255 0 159 255 0 159 255 0 159 255 0 159 255 0 159 255 0 159 255 0 159 255 0 159 255 0 159 255 0 159 255 0 181 255 0 181 255 0 181 255 0 181 255 0 181 255 0 181 255 0 181 255 0 181 255 0 181 255 0 181 255 0 186 255 0 186 255 0 186 255 0 186 255 0 186 255 0 186 255 0 186 255 0 186 255 0 186 255 0 186 255 0 174 255 0 174 255 0 174 255 0 174 255 0 174 255 0 174 255 0 174 255 0 174 255 0 174 255 0 174 255 0 174 255 0 174 255 0 174 255 0 174 255 0 174 255 0 174 255 0 174 255 0 174 255 0 174 255 0 174 255 0 175 255 0 175 255 0 175 255 0 175 255 0 175 255 0 175 255 0 175 255 0 175 255 0 175 255 0 175 255 0 141 255 0 141 255 0 141 255 0 141 255 0 141 255 0 141 255 0 141 255 0 141 255 0 141 255 0 141 255 0 116 255 0 116 255 0 116 255 0 116 255 0 116 255 0 116 255 0 116 255 0 116 255 0 116 255 0 116 255 0 120 255 0 120 255 0 120 255 0 120 255 0 120 255 0 120 255 0 120 255 0 120 255 0 120 255 0 120 255 0 119 255 0 119 255 0 119 255 0 119 255 0 119 255 0 119 255 0 119 255 0 119 255 0 119 255 0 119 255 0 122 255 0 122 255 0 122 255 0 122 255 0 122 255 0 122 255 0 122 255 0 122 255 0 122 255 0 122 255 0 105 255 0 105 255 0 105 255 0 105 255 0 105 255 0 105 255 0 105 255 0 105 255 0 105 255 0 105 255 0 101 255 0 101 255 0 101 255 0 101 255 0 101 255 0 101 255 0 101 255 0 101 255 0 101 255 0 101 255 0 150 255 0 150 255 0 150 255 0 150 255 0 150 255 0 150 255 0 150 255 0 150 255 0 150 255 0 150 255 0 133 255 0 133 255 0 133 255 0 133 255 0 133 255 0 133 255 0 133 255 0 133 255 0 133 255 0 133 255 0 128 255 0 128 255 0 128 255 0 128 255 0 128 255 0 128 255 0 128 255 0 128 255 0 128 255 0 128 255 0 156 255 0 156 255 0 156 255 0 156 255 0 156 255 0 156 255 0 156 255 0 156 255 0 156 255 0 156 255 0 185 255 0 185 255 0 185 255 0 185 255 0 185 255 0 185 255 0 185 255 0 185 255 0 185 255 0 185 255 0 172 255 0 172 255 0 172 255 0 172 255 0 172 255 0 172 255 0 172 255 0 172 255 0 172 255 0 172 255 0 170 255 0 170 255 0 170 255 0 170 255 0 170 255 0 170 255 0 170 255 0 170 255 0 170 255 0 170 255 0 140 255 0 140 255 0 140 255 0 140 255 0 140 255 0 140 255 0 140 255 0 140 255 0 140 255 0 140 255 0 153 255 0 153 255 0 153 255 0 153 255 0 153 255 0 153 255 0 153 255 0 153 255 0 153 255 0 153 255 0 150 255 0 150 255 0 150 255 0 150 255 0 150 255 0 150 255 0 150 255 0 150 255 0 150 255 0 150 255 0 0 0 0 0 0 0 0 0 0 0 0 0 0 0 0 0 0 0 0 0 0 0 0 0 0 0 0 0 0 255 42 0 255 42 0 255 42 0 255 42 0 255 42 0 255 42 0 255 42 0 255 42 0 255 42 0 255 42 0 255 42 0 255 42 0 255 42 0 255 42 0 255 42 0 255 42 0 255 42 0 255 42 0 255 42 0 255 42 0 255 42 0 255 42 0 255 42 0 255 42 0 255 42 0 255 42 0 255 42 0 255 42 0 255 42 0 255 42 0 
0 166 255 0 166 255 0 166 255 0 166 255 0 166 255 0 166 255 0 166 255 0 166 255 0 166 255 0 166 255 0 157 255 0 157 255 0 157 255 0 157 255 0 157 255 0 157 255 0 157 255 0 157 255 0 157 255 0 157 255 0 152 255 0 152 255 0 152 255 0 152 255 0 152 255 0 152 255 0 152 255 0 152 255 0 152 255 0 152 255 0 167 255 0 167 255 0 167 255 0 167 255 0 167 255 0 167 255 0 167 255 0 167 255 0 167 255 0 167 255 0 166 255 0 166 255 0 166 255 0 166 255 0 166 255 0 166 255 0 166 255 0 166 255 0 166 255 0 166 255 0 159 255 0 159 255 0 159 255 0 159 255 0 159 255 0 159 255 0 159 255 0 159 255 0 159 255 0 159 255 0 181 255 0 181 255 0 181 255 0 181 255 0 181 255 0 181 255 0 181 255 0 181 255 0 181 255 0 181 255 0 186 255 0 186 255 0 186 255 0 186 255 0 186 255 0 186 255 0 186 255 0 186 255 0 186 255 0 186 255 0 174 255 0 174 255 0 174 255 0 174 255 0 174 255 0 174 255 0 174 255 0 174 255 0 174 255 0 174 255 0 174 255 0 174 255 0 174 255 0 174 255 0 174 255 0 174 255 0 174 255 0 174 255 0 174 255 0 174 255 0 175 255 0 175 255 0 175 255 0 175 255 0 175 255 0 175 255 0 175 255 0 175 255 0 175 255 0 175 255 0 141 255 0 141 255 0 141 255 0 141 255 0 141 255 0 141 255 0 141 255 0 141 255 0 141 255 0 141 255 0 116 255 0 116 255 0 116 255 0 116 255 0 116 255 0 116 255 0 116 255 0 116 255 0 116 255 0 116 255 0 120 255 0 120 255 0 120 255 0 120 255 0 120 255 0 120 255 0 120 255 0 120 255 0 120 255 0 120 255 0 119 255 0 119 255 0 119 255 0 119 255 0 119 255 0 119 255 0 119 255 0 119 255 0 119 255 0 119 255 0 122 255 0 122 255 0 122 255 0 122 255 0 122 255 0 122 255 0 122 255 0 122 255 0 122 255 0 122 255 0 105 255 0 105 255 0 105 255 0 105 255 0 105 255 0 105 255 0 105 255 0 105 255 0 105 255 0 105 255 0 101 255 0 101 255 0 101 255 0 101 255 0 101 255 0 101 255 0 101 255 0 101 255 0 101 255 0 101 255 0 150 255 0 150 255 0 150 255 0 150 255 0 150 255 0 150 255 0 150 255 0 150 255 0 150 255 0 150 255 0 133 255 0 133 255 0 133 255 0 133 255 0 133 255 0 133 255 0 133 255 0 133 255 0 133 255 0 133 255 0 128 255 0 128 255 0 128 255 0 128 255 0 128 255 0 128 255 0 128 255 0 128 255 0 128 255 0 128 255 0 156 255 0 156 255 0 156 255 0 156 255 0 156 255 0 156 255 0 156 255 0 156 255 0 156 255 0 156 255 0 185 255 0 185 255 0 185 255 0 185 255 0 185 255 0 185 255 0 185 255 0 185 255 0 185 255 0 185 255 0 172 255 0 172 255 0 172 255 0 172 255 0 172 255 0 172 255 0 172 255 0 172 255 0 172 255 0 172 255 0 170 255 0 170 255 0 170 255 0 170 255 0 170 255 0 170 255 0 170 255 0 170 255 0 170 255 0 170 255 0 140 255 0 140 255 0 140 255 0 140 255 0 140 255 0 140 255 0 140 255 0 140 255 0 140 255 0 140 255 0 153 255 0 153 255 0 153 255 0 153 255 0 153 255 0 153 255 0 153 255 0 153 255 0 153 255 0 153 255 0 150 255 0 150 255 0 150 255 0 150 255 0 150 255 0 150 255 0 150 255 0 150 255 0 150 255 0 150 255 0 0 0 0 0 0 0 0 0 0 0 0 0 0 0 0 0 0 0 0 0 0 0 0 0 0 0 0 0 0 255 39 0 255 39 0 255 39 0 255 39 0 255 39 0 255 39 0 255 39 0 255 39 0 255 39 0 255 39 0 255 39 0 255 39 0 255 39 0 255 39 0 255 39 0 255 39 0 255 39 0 255 39 0 255 39 0 255 39 0 255 39 0 255 39 0 255 39 0 255 39 0 255 39 0 255 39 0 255 39 0 255 39 0 255 39 0 255 39 0 
0 164 255 0 164 255 0 164 255 0 164 255 0 164 255 0 164 255 0 164 255 0 164 255 0 164 255 0 164 255 0 164 255 0 164 255 0 164 255 0 164 255 0 164 255 0 164 255 0 164 255 0 164 255 0 164 255 0 164 255 0 172 255 0 172 255 0 172 255 0 172 255 0 172 255 0 172 255 0 172 255 0 172 255 0 172 255 0 172 255 0 154 255 0 154 255 0 154 255 0 154 255 0 154 255 0 154 255 0 154 255 0 154 255 0 154 255 0 154 255 0 158 255 0 158 255 0 158 255 0 158 255 0 158 255 0 158 255 0 158 255 0 158 255 0 158 255 0 158 255 0 161 255 0 161 255 0 161 255 0 161 255 0 161 255 0 161 255 0 161 255 0 161 255 0 161 255 0 161 255 0 172 255 0 172 255 0 172 255 0 172 255 0 172 255 0 172 255 0 172 255 0 172 255 0 172 255 0 172 255 0 172 255 0 172 255 0 172 255 0 172 255 0 172 255 0 172 255 0 172 255 0 172 255 0 172 255 0 172 255 0 164 255 0 164 255 0 164 255 0 164 255 0 164 255 0 164 255 0 164 255 0 164 255 0 164 255 0 164 255 0 150 255 0 150 255 0 150 255 0 150 255 0 150 255 0 150 255 0 150 255 0 150 255 0 150 255 0 150 255 0 162 255 0 162 255 0 162 255 0 162 255 0 162 255 0 162 255 0 162 255 0 162 255 0 162 255 0 162 255 0 146 255 0 146 255 0 146 255 0 146 255 0 146 255 0 146 255 0 146 255 0 146 255 0 146 255 0 146 255 0 133 255 0 133 255 0 133 255 0 133 255 0 133 255 0 133 255 0 133 255 0 133 255 0 133 255 0 133 255 0 159 255 0 159 255 0 159 255 0 159 255 0 159 255 0 159 255 0 159 255 0 159 255 0 159 255 0 159 255 0 142 255 0 142 255 0 142 255 0 142 255 0 142 255 0 142 255 0 142 255 0 142 255 0 142 255 0 142 255 0 118 255 0 118 255 0 118 255 0 118 255 0 118 255 0 118 255 0 118 255 0 118 255 0 118 255 0 118 255 0 129 255 0 129 255 0 129 255 0 129 255 0 129 255 0 129 255 0 129 255 0 129 255 0 129 255 0 129 255 0 127 255 0 127 255 0 127 255 0 127 255 0 127 255 0 127 255 0 127 255 0 127 255 0 127 255 0 127 255 0 174 255 0 174 255 0 174 255 0 174 255 0 174 255 0 174 255 0 174 255 0 174 255 0 174 255 0 174 255 0 111 255 0 111 255 0 111 255 0 111 255 0 111 255 0 111 255 0 111 255 0 111 255 0 111 255 0 111 255 0 130 255 0 130 255 0 130 255 0 130 255 0 130 255 0 130 255 0 130 255 0 130 255 0 130 255 0 130 255 0 145 255 0 145 255 0 145 255 0 145 255 0 145 255 0 145 255 0 145 255 0 145 255 0 145 255 0 145 255 0 155 255 0 155 255 0 155 255 0 155 255 0 155 255 0 155 255 0 155 255 0 155 255 0 155 255 0 155 255 0 136 255 0 136 255 0 136 255 0 136 255 0 136 255 0 136 255 0 136 255 0 136 255 0 136 255 0 136 255 0 150 255 0 150 255 0 150 255 0 150 255 0 150 255 0 150 255 0 150 255 0 150 255 0 150 255 0 150 255 0 151 255 0 151 255 0 151 255 0 151 255 0 151 255 0 151 255 0 151 255 0 151 255 0 151 255 0 151 255 0 165 255 0 165 255 0 165 255 0 165 255 0 165 255 0 165 255 0 165 255 0 165 255 0 165 255 0 165 255 0 162 255 0 162 255 0 162 255 0 162 255 0 162 255 0 162 255 0 162 255 0 162 255 0 162 255 0 162 255 0 0 0 0 0 0 0 0 0 0 0 0 0 0 0 0 0 0 0 0 0 0 0 0 0 0 0 0 0 0 255 35 0 255 35 0 255 35 0 255 35 0 255 35 0 255 35 0 255 35 0 255 35 0 255 35 0 255 35 0 255 35 0 255 35 0 255 35 0 255 35 0 255 35 0 255 35 0 255 35 0 255 35 0 255 35 0 255 35 0 255 35 0 255 35 0 255 35 0 255 35 0 255 35 0 255 35 0 255 35 0 255 35 0 255 35 0 255 35 0 
0 164 255 0 164 255 0 164 255 0 164 255 0 164 255 0 164 255 0 164 255 0 164 255 0 164 255 0 164 255 0 164 255 0 164 255 0 164 255 0 164 255 0 164 255 0 164 255 0 164 255 0 164 255 0 164 255 0 164 255 0 172 255 0 172 255 0 172 255 0 172 255 0 172 255 0 172 255 0 172 255 0 172 255 0 172 255 0 172 255 0 154 255 0 154 255 0 154 255 0 154 255 0 154 255 0 154 255 0 154 255 0 154 255 0 154 255 0 154 255 0 158 255 0 158 255 0 158 255 0 158 255 0 158 255 0 158 255 0 158 255 0 158 255 0 158 255 0 158 255 0 161 255 0 161 255 0 161 255 0 161 255 0 161 255 0 161 255 0 161 255 0 161 255 0 161 255 0 161 255 0 172 255 0 172 255 0 172 255 0 172 255 0 172 255 0 172 255 0 172 255 0 172 255 0 172 255 0 172 255 0 172 255 0 172 255 0 172 255 0 172 255 0 172 255 0 172 255 0 172 255 0 172 255 0 172 255 0 172 255 0 164 255 0 164 255 0 164 255 0 164 255 0 164 255 0 164 255 0 164 255 0 164 255 0 164 255 0 164 255 0 150 255 0 150 255 0 150 255 0 150 255 0 150 255 0 150 255 0 150 255 0 150 255 0 150 255 0 150 255 0 162 255 0 162 255 0 162 255 0 162 255 0 162 255 0 162 255 0 162 255 0 162 255 0 162 255 0 162 255 0 146 255 0 146 255 0 146 255 0 146 255 0 146 255 0 146 255 0 146 255 0 146 255 0 146 255 0 146 255 0 133 255 0 133 255 0 133 255 0 133 255 0 133 255 0 133 255 0 133 255 0 133 255 0 133 255 0 133 255 0 159 255 0 159 255 0 159 255 0 159 255 0 159 255 0 159 255 0 159 255 0 159 255 0 159 255 0 159 255 0 142 255 0 142 255 0 142 255 0 142 255 0 142 255 0 142 255 0 142 255 0 142 255 0 142 255 0 142 255 0 118 255 0 118 255 0 118 255 0 118 255 0 118 255 0 118 255 0 118 255 0 118 255 0 118 255 0 118 255 0 129 255 0 129 255 0 129 255 0 129 255 0 129 255 0 129 255 0 129 255 0 129 255 0 129 255 0 129 255 0 127 255 0 127 255 0 127 255 0 127 255 0 127 255 0 127 255 0 127 255 0 127 255 0 127 255 0 127 255 0 174 255 0 174 255 0 174 255 0 174 255 0 174 255 0 174 255 0 174 255 0 174 255 0 174 255 0 174 255 0 111 255 0 111 255 0 111 255 0 111 255 0 111 255 0 111 255 0 111 255 0 111 255 0 111 255 0 111 255 0 130 255 0 130 255 0 130 255 0 130 255 0 130 255 0 130 255 0 130 255 0 130 255 0 130 255 0 130 255 0 145 255 0 145 255 0 145 255 0 145 255 0 145 255 0 145 255 0 145 255 0 145 255 0 145 255 0 145 255 0 155 255 0 155 255 0 155 255 0 155 255 0 155 255 0 155 255 0 155 255 0 155 255 0 155 255 0 155 255 0 136 255 0 136 255 0 136 255 0 136 255 0 136 255 0 136 255 0 136 255 0 136 255 0 136 255 0 136 255 0 150 255 0 150 255 0 150 255 0 150 255 0 150 255 0 150 255 0 150 255 0 150 255 0 150 255 0 150 255 0 151 255 0 151 255 0 151 255 0 151 255 0 151 255 0 151 255 0 151 255 0 151 255 0 151 255 0 151 255 0 165 255 0 165 255 0 165 255 0 165 255 0 165 255 0 165 255 0 165 255 0 165 255 0 165 255 0 165 255 0 162 255 0 162 255 0 162 255 0 162 255 0 162 255 0 162 255 0 162 255 0 162 255 0 162 255 0 162 255 0 0 0 0 0 0 0 0 0 0 0 0 0 0 0 0 0 0 0 0 0 0 0 0 0 0 0 0 0 0 255 31 0 255 31 0 255 31 0 255 31 0 255 31 0 255 31 0 255 31 0 255 31 0 255 31 0 255 31 0 255 31 0 255 31 0 255 31 0 255 31 0 255 31 0 255 31 0 255 31 0 255 31 0 255 31 0 255 31 0 255 31 0 255 31 0 255 31 0 255 31 0 255 31 0 255 31 0 255 31 0 255 31 0 255 31 0 255 31 0 
0 164 255 0 164 255 0 164 255 0 164 255 0 164 255 0 164 255 0 164 255 0 164 255 0 164 255 0 164 255 0 164 255 0 164 255 0 164 255 0 164 255 0 164 255 0 164 255 0 164 255 0 164 255 0 164 255 0 164 255 0 172 255 0 172 255 0 172 255 0 172 255 0 172 255 0 172 255 0 172 255 0 172 255 0 172 255 0 172 255 0 154 255 0 154 255 0 154 255 0 154 255 0 154 255 0 154 255 0 154 255 0 154 255 0 154 255 0 154 255 0 158 255 0 158 255 0 158 255 0 158 255 0 158 255 0 158 255 0 158 255 0 158 255 0 158 255 0 158 255 0 161 255 0 161 255 0 161 255 0 161 255 0 161 255 0 161 255 0 161 255 0 161 255 0 161 255 0 161 255 0 172 255 0 172 255 0 172 255 0 172 255 0 172 255 0 172 255 0 172 255 0 172 255 0 172 255 0 172 255 0 172 255 0 172 255 0 172 255 0 172 255 0 172 255 0 172 255 0 172 255 0 172 255 0 172 255 0 172 255 0 164 255 0 164 255 0 164 255 0 164 255 0 164 255 0 164 255 0 164 255 0 164 255 0 164 255 0 164 255 0 150 255 0 150 255 0 150 255 0 150 255 0 150 255 0 150 255 0 150 255 0 150 255 0 150 255 0 150 255 0 162 255 0 162 255 0 162 255 0 162 255 0 162 255 0 162 255 0 162 255 0 162 255 0 162 255 0 162 255 0 146 255 0 146 255 0 146 255 0 146 255 0 146 255 0 146 255 0 146 255 0 146 255 0 146 255 0 146 255 0 133 255 0 133 255 0 133 255 0 133 255 0 133 255 0 133 255 0 133 255 0 133 255 0 133 255 0 133 255 0 159 255 0 159 255 0 159 255 0 159 255 0 159 255 0 159 255 0 159 255 0 159 255 0 159 255 0 159 255 0 142 255 0 142 255 0 142 255 0 142 255 0 142 255 0 142 255 0 142 255 0 142 255 0 142 255 0 142 255 0 118 255 0 118 255 0 118 255 0 118 255 0 118 255 0 118 255 0 118 255 0 118 255 0 118 255 0 118 255 0 129 255 0 129 255 0 129 255 0 129 255 0 129 255 0 129 255 0 129 255 0 129 255 0 129 255 0 129 255 0 127 255 0 127 255 0 127 255 0 127 255 0 127 255 0 127 255 0 127 255 0 127 255 0 127 255 0 127 255 0 174 255 0 174 255 0 174 255 0 174 255 0 174 255 0 174 255 0 174 255 0 174 255 0 174 255 0 174 255 0 111 255 0 111 255 0 111 255 0 111 255 0 111 255 0 111 255 0 111 255 0 111 255 0 111 255 0 111 255 0 130 255 0 130 255 0 130 255 0 130 255 0 130 255 0 130 255 0 130 255 0 130 255 0 130 255 0 130 255 0 145 255 0 145 255 0 145 255 0 145 255 0 145 255 0 145 255 0 145 255 0 145 255 0 145 255 0 145 255 0 155 255 0 155 255 0 155 255 0 155 255 0 155 255 0 155 255 0 155 255 0 155 255 0 155 255 0 155 255 0 136 255 0 136 255 0 136 255 0 136 255 0 136 255 0 136 255 0 136 255 0 136 255 0 136 255 0 136 255 0 150 255 0 150 255 0 150 255 0 150 255 0 150 255 0 150 255 0 150 255 0 150 255 0 150 255 0 150 255 0 151 255 0 151 255 0 151 255 0 151 255 0 151 255 0 151 255 0 151 255 0 151 255 0 151 255 0 151 255 0 165 255 0 165 255 0 165 255 0 165 255 0 165 255 0 165 255 0 165 255 0 165 255 0 165 255 0 165 255 0 162 255 0 162 255 0 162 255 0 162 255 0 162 255 0 162 255 0 162 255 0 162 255 0 162 255 0 162 255 0 0 0 0 0 0 0 0 0 0 0 0 0 0 0 0 0 0 0 0 0 0 0 0 0 0 0 0 0 0 255 28 0 255 28 0 255 28 0 255 28 0 255 28 0 255 28 0 255 28 0 255 28 0 255 28 0 255 28 0 255 28 0 255 28 0 255 28 0 255 28 0 255 28 0 255 28 0 255 28 0 255 28 0 255 28 0 255 28 0 255 28 0 255 28 0 255 28 0 255 28 0 255 28 0 255 28 0 255 28 0 255 28 0 255 28 0 255 28 0 
0 164 255 0 164 255 0 164 255 0 164 255 0 164 255 0 164 255 0 164 255 0 164 255 0 164 255 0 164 255 0 164 255 0 164 255 0 164 255 0 164 255 0 164 255 0 164 255 0 164 255 0 164 255 0 164 255 0 164 255 0 172 255 0 172 255 0 172 255 0 172 255 0 172 255 0 172 255 0 172 255 0 172 255 0 172 255 0 172 255 0 154 255 0 154 255 0 154 255 0 154 255 0 154 255 0 154 255 0 154 255 0 154 255 0 154 255 0 154 255 0 158 255 0 158 255 0 158 255 0 158 255 0 158 255 0 158 255 0 158 255 0 158 255 0 158 255 0 158 255 0 161 255 0 161 255 0 161 255 0 161 255 0 161 255 0 161 255 0 161 255 0 161 255 0 161 255 0 161 255 0 172 255 0 172 255 0 172 255 0 172 255 0 172 255 0 172 255 0 172 255 0 172 255 0 172 255 0 172 255 0 172 255 0 172 255 0 172 255 0 172 255 0 172 255 0 172 255 0 172 255 0 172 255 0 172 255 0 172 255 0 164 255 0 164 255 0 164 255 0 164 255 0 164 255 0 164 255 0 164 255 0 164 255 0 164 255 0 164 255 0 150 255 0 150 255 0 150 255 0 150 255 0 150 255 0 150 255 0 150 255 0 150 255 0 150 255 0 150 255 0 162 255 0 162 255 0 162 255 0 162 255 0 162 255 0 162 255 0 162 255 0 162 255 0 162 255 0 162 255 0 146 255 0 146 255 0 146 255 0 146 255 0 146 255 0 146 255 0 146 255 0 146 255 0 146 255 0 146 255 0 133 255 0 133 255 0 133 255 0 133 255 0 133 255 0 133 255 0 133 255 0 133 255 0 133 255 0 133 255 0 159 255 0 159 255 0 159 255 0 159 255 0 159 255 0 159 255 0 159 255 0 159 255 0 159 255 0 159 255 0 142 255 0 142 255 0 142 255 0 142 255 0 142 255 0 142 255 0 142 255 0 142 255 0 142 255 0 142 255 0 118 255 0 118 255 0 118 255 0 118 255 0 118 255 0 118 255 0 118 255 0 118 255 0 118 255 0 118 255 0 129 255 0 129 255 0 129 255 0 129 255 0 129 255 0 129 255 0 129 255 0 129 255 0 129 255 0 129 255 0 127 255 0 127 255 0 127 255 0 127 255 0 127 255 0 127 255 0 127 255 0 127 255 0 127 255 0 127 255 0 174 255 0 174 255 0 174 255 0 174 255 0 174 255 0 174 255 0 174 255 0 174 255 0 174 255 0 174 255 0 111 255 0 111 255 0 111 255 0 111 255 0 111 255 0 111 255 0 111 255 0 111 255 0 111 255 0 111 255 0 130 255 0 130 255 0 130 255 0 130 255 0 130 255 0 130 255 0 130 255 0 130 255 0 130 255 0 130 255 0 145 255 0 145 255 0 145 255 0 145 255 0 145 255 0 145 255 0 145 255 0 145 255 0 145 255 0 145 255 0 155 255 0 155 255 0 155 255 0 155 255 0 155 255 0 155 255 0 155 255 0 155 255 0 155 255 0 155 255 0 136 255 0 136 255 0 136 255 0 136 255 0 136 255 0 136 255 0 136 255 0 136 255 0 136 255 0 136 255 0 150 255 0 150 255 0 150 255 0 150 255 0 150 255 0 150 255 0 150 255 0 150 255 0 150 255 0 150 255 0 151 255 0 151 255 0 151 255 0 151 255 0 151 255 0 151 255 0 151 255 0 151 255 0 151 255 0 151 255 0 165 255 0 165 255 0 165 255 0 165 255 0 165 255 0 165 255 0 165 255 0 165 255 0 165 255 0 165 255 0 162 255 0 162 255 0 162 255 0 162 255 0 162 255 0 162 255 0 162 255 0 162 255 0 162 255 0 162 255 0 0 0 0 0 0 0 0 0 0 0 0 0 0 0 0 0 0 0 0 0 0 0 0 0 0 0 0 0 0 255 24 0 255 24 0 255 24 0 255 24 0 255 24 0 255 24 0 255 24 0 255 24 0 255 24 0 255 24 0 255 24 0 255 24 0 255 24 0 255 24 0 255 24 0 255 24 0 255 24 0 255 24 0 255 24 0 255 24 0 255 24 0 255 24 0 255 24 0 255 24 0 255 24 0 255 24 0 255 24 0 255 24 0 255 24 0 255 24 0 
0 164 255 0 164 255 0 164 255 0 164 255 0 164 255 0 164 255 0 164 255 0 164 255 0 164 255 0 164 255 0 164 255 0 164 255 0 164 255 0 164 255 0 164 255 0 164 255 0 164 255 0 164 255 0 164 255 0 164 255 0 172 255 0 172 255 0 172 255 0 172 255 0 172 255 0 172 255 0 172 255 0 172 255 0 172 255 0 172 255 0 154 255 0 154 255 0 154 255 0 154 255 0 154 255 0 154 255 0 154 255 0 154 255 0 154 255 0 154 255 0 158 255 0 158 255 0 158 255 0 158 255 0 158 255 0 158 255 0 158 255 0 158 255 0 158 255 0 158 255 0 161 255 0 161 255 0 161 255 0 161 255 0 161 255 0 161 255 0 161 255 0 161 255 0 161 255 0 161 255 0 172 255 0 172 255 0 172 255 0 172 255 0 172 255 0 172 255 0 172 255 0 172 255 0 172 255 0 172 255 0 172 255 0 172 255 0 172 255 0 172 255 0 172 255 0 172 255 0 172 255 0 172 255 0 172 255 0 172 255 0 164 255 0 164 255 0 164 255 0 164 255 0 164 255 0 164 255 0 164 255 0 164 255 0 164 255 0 164 255 0 150 255 0 150 255 0 150 255 0 150 255 0 150 255 0 150 255 0 150 255 0 150 255 0 150 255 0 150 255 0 162 255 0 162 255 0 162 255 0 162 255 0 162 255 0 162 255 0 162 255 0 162 255 0 162 255 0 162 255 0 146 255 0 146 255 0 146 255 0 146 255 0 146 255 0 146 255 0 146 255 0 146 255 0 146 255 0 146 255 0 133 255 0 133 255 0 133 255 0 133 255 0 133 255 0 133 255 0 133 255 0 133 255 0 133 255 0 133 255 0 159 255 0 159 255 0 159 255 0 159 255 0 159 255 0 159 255 0 159 255 0 159 255 0 159 255 0 159 255 0 142 255 0 142 255 0 142 255 0 142 255 0 142 255 0 142 255 0 142 255 0 142 255 0 142 255 0 142 255 0 118 255 0 118 255 0 118 255 0 118 255 0 118 255 0 118 255 0 118 255 0 118 255 0 118 255 0 118 255 0 129 255 0 129 255 0 129 255 0 129 255 0 129 255 0 129 255 0 129 255 0 129 255 0 129 255 0 129 255 0 127 255 0 127 255 0 127 255 0 127 255 0 127 255 0 127 255 0 127 255 0 127 255 0 127 255 0 127 255 0 174 255 0 174 255 0 174 255 0 174 255 0 174 255 0 174 255 0 174 255 0 174 255 0 174 255 0 174 255 0 111 255 0 111 255 0 111 255 0 111 255 0 111 255 0 111 255 0 111 255 0 111 255 0 111 255 0 111 255 0 130 255 0 130 255 0 130 255 0 130 255 0 130 255 0 130 255 0 130 255 0 130 255 0 130 255 0 130 255 0 145 255 0 145 255 0 145 255 0 145 255 0 145 255 0 145 255 0 145 255 0 145 255 0 145 255 0 145 255 0 155 255 0 155 255 0 155 255 0 155 255 0 155 255 0 155 255 0 155 255 0 155 255 0 155 255 0 155 255 0 136 255 0 136 255 0 136 255 0 136 255 0 136 255 0 136 255 0 136 255 0 136 255 0 136 255 0 136 255 0 150 255 0 150 255 0 150 255 0 150 255 0 150 255 0 150 255 0 150 255 0 150 255 0 150 255 0 150 255 0 151 255 0 151 255 0 151 255 0 151 255 0 151 255 0 151 255 0 151 255 0 151 255 0 151 255 0 151 255 0 165 255 0 165 255 0 165 255 0 165 255 0 165 255 0 165 255 0 165 255 0 165 255 0 165 255 0 165 255 0 162 255 0 162 255 0 162 255 0 162 255 0 162 255 0 162 255 0 162 255 0 162 255 0 162 255 0 162 255 0 0 0 0 0 0 0 0 0 0 0 0 0 0 0 0 0 0 0 0 0 0 0 0 0 0 0 0 0 0 255 21 0 255 21 0 255 21 0 255 21 0 255 21 0 255 21 0 255 21 0 255 21 0 255 21 0 255 21 0 255 21 0 255 21 0 255 21 0 255 21 0 255 21 0 255 21 0 255 21 0 255 21 0 255 21 0 255 21 0 255 21 0 255 21 0 255 21 0 255 21 0 255 21 0 255 21 0 255 21 0 255 21 0 255 21 0 255 21 0 
0 164 255 0 164 255 0 164 255 0 164 255 0 164 255 0 164 255 0 164 255 0 164 255 0 164 255 0 164 255 0 164 255 0 164 255 0 164 255 0 164 255 0 164 255 0 164 255 0 164 255 0 164 255 0 164 255 0 164 255 0 172 255 0 172 255 0 172 255 0 172 255 0 172 255 0 172 255 0 172 255 0 172 255 0 172 255 0 172 255 0 154 255 0 154 255 0 154 255 0 154 255 0 154 255 0 154 255 0 154 255 0 154 255 0 154 255 0 154 255 0 158 255 0 158 255 0 158 255 0 158 255 0 158 255 0 158 255 0 158 255 0 158 255 0 158 255 0 158 255 0 161 255 0 161 255 0 161 255 0 161 255 0 161 255 0 161 255 0 161 255 0 161 255 0 161 255 0 161 255 0 172 255 0 172 255 0 172 255 0 172 255 0 172 255 0 172 255 0 172 255 0 172 255 0 172 255 0 172 255 0 172 255 0 172 255 0 172 255 0 172 255 0 172 255 0 172 255 0 172 255 0 172 255 0 172 255 0 172 255 0 164 255 0 164 255 0 164 255 0 164 255 0 164 255 0 164 255 0 164 255 0 164 255 0 164 255 0 164 255 0 150 255 0 150 255 0 150 255 0 150 255 0 150 255 0 150 255 0 150 255 0 150 255 0 150 255 0 150 255 0 162 255 0 162 255 0 162 255 0 162 255 0 162 255 0 162 255 0 162 255 0 162 255 0 162 255 0 162 255 0 146 255 0 146 255 0 146 255 0 146 255 0 146 255 0 146 255 0 146 255 0 146 255 0 146 255 0 146 255 0 133 255 0 133 255 0 133 255 0 133 255 0 133 255 0 133 255 0 133 255 0 133 255 0 133 255 0 133 255 0 159 255 0 159 255 0 159 255 0 159 255 0 159 255 0 159 255 0 159 255 0 159 255 0 159 255 0 159 255 0 142 255 0 142 255 0 142 255 0 142 255 0 142 255 0 142 255 0 142 255 0 142 255 0 142 255 0 142 255 0 118 255 0 118 255 0 118 255 0 118 255 0 118 255 0 118 255 0 118 255 0 118 255 0 118 255 0 118 255 0 129 255 0 129 255 0 129 255 0 129 255 0 129 255 0 129 255 0 129 255 0 129 255 0 129 255 0 129 255 0 127 255 0 127 255 0 127 255 0 127 255 0 127 255 0 127 255 0 127 255 0 127 255 0 127 255 0 127 255 0 174 255 0 174 255 0 174 255 0 174 255 0 174 255 0 174 255 0 174 255 0 174 255 0 174 255 0 174 255 0 111 255 0 111 255 0 111 255 0 111 255 0 111 255 0 111 255 0 111 255 0 111 255 0 111 255 0 111 255 0 130 255 0 130 255 0 130 255 0 130 255 0 130 255 0 130 255 0 130 255 0 130 255 0 130 255 0 130 255 0 145 255 0 145 255 0 145 255 0 145 255 0 145 255 0 145 255 0 145 255 0 145 255 0 145 255 0 145 255 0 155 255 0 155 255 0 155 255 0 155 255 0 155 255 0 155 255 0 155 255 0 155 255 0 155 255 0 155 255 0 136 255 0 136 255 0 136 255 0 136 255 0 136 255 0 136 255 0 136 255 0 136 255 0 136 255 0 136 255 0 150 255 0 150 255 0 150 255 0 150 255 0 150 255 0 150 255 0 150 255 0 150 255 0 150 255 0 150 255 0 151 255 0 151 255 0 151 255 0 151 255 0 151 255 0 151 255 0 151 255 0 151 255 0 151 255 0 151 255 0 165 255 0 165 255 0 165 255 0 165 255 0 165 255 0 165 255 0 165 255 0 165 255 0 165 255 0 165 255 0 162 255 0 162 255 0 162 255 0 162 255 0 162 255 0 162 255 0 162 255 0 162 255 0 162 255 0 162 255 0 0 0 0 0 0 0 0 0 0 0 0 0 0 0 0 0 0 0 0 0 0 0 0 0 0 0 0 0 0 255 17 0 255 17 0 255 17 0 255 17 0 255 17 0 255 17 0 255 17 0 255 17 0 255 17 0 255 17 0 255 17 0 255 17 0 255 17 0 255 17 0 255 17 0 255 17 0 255 17 0 255 17 0 255 17 0 255 17 0 255 17 0 255 17 0 255 17 0 255 17 0 255 17 0 255 17 0 255 17 0 255 17 0 255 17 0 255 17 0 
0 164 255 0 164 255 0 164 255 0 164 255 0 164 255 0 164 255 0 164 255 0 164 255 0 164 255 0 164 255 0 164 255 0 164 255 0 164 255 0 164 255 0 164 255 0 164 255 0 164 255 0 164 255 0 164 255 0 164 255 0 172 255 0 172 255 0 172 255 0 172 255 0 172 255 0 172 255 0 172 255 0 172 255 0 172 255 0 172 255 0 154 255 0 154 255 0 154 255 0 154 255 0 154 255 0 154 255 0 154 255 0 154 255 0 154 255 0 154 255 0 158 255 0 158 255 0 158 255 0 158 255 0 158 255 0 158 255 0 158 255 0 158 255 0 158 255 0 158 255 0 161 255 0 161 255 0 161 255 0 161 255 0 161 255 0 161 255 0 161 255 0 161 255 0 161 255 0 161 255 0 172 255 0 172 255 0 172 255 0 172 255 0 172 255 0 172 255 0 172 255 0 172 255 0 172 255 0 172 255 0 172 255 0 172 255 0 172 255 0 172 255 0 172 255 0 172 255 0 172 255 0 172 255 0 172 255 0 172 255 0 164 255 0 164 255 0 164 255 0 164 255 0 164 255 0 164 255 0 164 255 0 164 255 0 164 255 0 164 255 0 150 255 0 150 255 0 150 255 0 150 255 0 150 255 0 150 255 0 150 255 0 150 255 0 150 255 0 150 255 0 162 255 0 162 255 0 162 255 0 162 255 0 162 255 0 162 255 0 162 255 0 162 255 0 162 255 0 162 255 0 146 255 0 146 255 0 146 255 0 146 255 0 146 255 0 146 255 0 146 255 0 146 255 0 146 255 0 146 255 0 133 255 0 133 255 0 133 255 0 133 255 0 133 255 0 133 255 0 133 255 0 133 255 0 133 255 0 133 255 0 159 255 0 159 255 0 159 255 0 159 255 0 159 255 0 159 255 0 159 255 0 159 255 0 159 255 0 159 255 0 142 255 0 142 255 0 142 255 0 142 255 0 142 255 0 142 255 0 142 255 0 142 255 0 142 255 0 142 255 0 118 255 0 118 255 0 118 255 0 118 255 0 118 255 0 118 255 0 118 255 0 118 255 0 118 255 0 118 255 0 129 255 0 129 255 0 129 255 0 129 255 0 129 255 0 129 255 0 129 255 0 129 255 0 129 255 0 129 255 0 127 255 0 127 255 0 127 255 0 127 255 0 127 255 0 127 255 0 127 255 0 127 255 0 127 255 0 127 255 0 174 255 0 174 255 0 174 255 0 174 255 0 174 255 0 174 255 0 174 255 0 174 255 0 174 255 0 174 255 0 111 255 0 111 255 0 111 255 0 111 255 0 111 255 0 111 255 0 111 255 0 111 255 0 111 255 0 111 255 0 130 255 0 130 255 0 130 255 0 130 255 0 130 255 0 130 255 0 130 255 0 130 255 0 130 255 0 130 255 0 145 255 0 145 255 0 145 255 0 145 255 0 145 255 0 145 255 0 145 255 0 145 255 0 145 255 0 145 255 0 155 255 0 155 255 0 155 255 0 155 255 0 155 255 0 155 255 0 155 255 0 155 255 0 155 255 0 155 255 0 136 255 0 136 255 0 136 255 0 136 255 0 136 255 0 136 255 0 136 255 0 136 255 0 136 255 0 136 255 0 150 255 0 150 255 0 150 255 0 150 255 0 150 255 0 150 255 0 150 255 0 150 255 0 150 255 0 150 255 0 151 255 0 151 255 0 151 255 0 151 255 0 151 255 0 151 255 0 151 255 0 151 255 0 151 255 0 151 255 0 165 255 0 165 255 0 165 255 0 165 255 0 165 255 0 165 255 0 165 255 0 165 255 0 165 255 0 165 255 0 162 255 0 162 255 0 162 255 0 162 255 0 162 255 0 162 255 0 162 255 0 162 255 0 162 255 0 162 255 0 0 0 0 0 0 0 0 0 0 0 0 0 0 0 0 0 0 0 0 0 0 0 0 0 0 0 0 0 0 255 13 0 255 13 0 255 13 0 255 13 0 255 13 0 255 13 0 255 13 0 255 13 0 255 13 0 255 13 0 255 13 0 255 13 0 255 13 0 255 13 0 255 13 0 255 13 0 255 13 0 255 13 0 255 13 0 255 13 0 255 13 0 255 13 0 255 13 0 255 13 0 255 13 0 255 13 0 255 13 0 255 13 0 255 13 0 255 13 0 
0 164 255 0 164 255 0 164 255 0 164 255 0 164 255 0 164 255 0 164 255 0 164 255 0 164 255 0 164 255 0 164 255 0 164 255 0 164 255 0 164 255 0 164 255 0 164 255 0 164 255 0 164 255 0 164 255 0 164 255 0 172 255 0 172 255 0 172 255 0 172 255 0 172 255 0 172 255 0 172 255 0 172 255 0 172 255 0 172 255 0 154 255 0 154 255 0 154 255 0 154 255 0 154 255 0 154 255 0 154 255 0 154 255 0 154 255 0 154 255 0 158 255 0 158 255 0 158 255 0 158 255 0 158 255 0 158 255 0 158 255 0 158 255 0 158 255 0 158 255 0 161 255 0 161 255 0 161 255 0 161 255 0 161 255 0 161 255 0 161 255 0 161 255 0 161 255 0 161 255 0 172 255 0 172 255 0 172 255 0 172 255 0 172 255 0 172 255 0 172 255 0 172 255 0 172 255 0 172 255 0 172 255 0 172 255 0 172 255 0 172 255 0 172 255 0 172 255 0 172 255 0 172 255 0 172 255 0 172 255 0 164 255 0 164 255 0 164 255 0 164 255 0 164 255 0 164 255 0 164 255 0 164 255 0 164 255 0 164 255 0 150 255 0 150 255 0 150 255 0 150 255 0 150 255 0 150 255 0 150 255 0 150 255 0 150 255 0 150 255 0 162 255 0 162 255 0 162 255 0 162 255 0 162 255 0 162 255 0 162 255 0 162 255 0 162 255 0 162 255 0 146 255 0 146 255 0 146 255 0 146 255 0 146 255 0 146 255 0 146 255 0 146 255 0 146 255 0 146 255 0 133 255 0 133 255 0 133 255 0 133 255 0 133 255 0 133 255 0 133 255 0 133 255 0 133 255 0 133 255 0 159 255 0 159 255 0 159 255 0 159 255 0 159 255 0 159 255 0 159 255 0 159 255 0 159 255 0 159 255 0 142 255 0 142 255 0 142 255 0 142 255 0 142 255 0 142 255 0 142 255 0 142 255 0 142 255 0 142 255 0 118 255 0 118 255 0 118 255 0 118 255 0 118 255 0 118 255 0 118 255 0 118 255 0 118 255 0 118 255 0 129 255 0 129 255 0 129 255 0 129 255 0 129 255 0 129 255 0 129 255 0 129 255 0 129 255 0 129 255 0 127 255 0 127 255 0 127 255 0 127 255 0 127 255 0 127 255 0 127 255 0 127 255 0 127 255 0 127 255 0 174 255 0 174 255 0 174 255 0 174 255 0 174 255 0 174 255 0 174 255 0 174 255 0 174 255 0 174 255 0 111 255 0 111 255 0 111 255 0 111 255 0 111 255 0 111 255 0 111 255 0 111 255 0 111 255 0 111 255 0 130 255 0 130 255 0 130 255 0 130 255 0 130 255 0 130 255 0 130 255 0 130 255 0 130 255 0 130 255 0 145 255 0 145 255 0 145 255 0 145 255 0 145 255 0 145 255 0 145 255 0 145 255 0 145 255 0 145 255 0 155 255 0 155 255 0 155 255 0 155 255 0 155 255 0 155 255 0 155 255 0 155 255 0 155 255 0 155 255 0 136 255 0 136 255 0 136 255 0 136 255 0 136 255 0 136 255 0 136 255 0 136 255 0 136 255 0 136 255 0 150 255 0 150 255 0 150 255 0 150 255 0 150 255 0 150 255 0 150 255 0 150 255 0 150 255 0 150 255 0 151 255 0 151 255 0 151 255 0 151 255 0 151 255 0 151 255 0 151 255 0 151 255 0 151 255 0 151 255 0 165 255 0 165 255 0 165 255 0 165 255 0 165 255 0 165 255 0 165 255 0 165 255 0 165 255 0 165 255 0 162 255 0 162 255 0 162 255 0 162 255 0 162 255 0 162 255 0 162 255 0 162 255 0 162 255 0 162 255 0 0 0 0 0 0 0 0 0 0 0 0 0 0 0 0 0 0 0 0 0 0 0 0 0 0 0 0 0 0 255 10 0 255 10 0 255 10 0 255 10 0 255 10 0 255 10 0 255 10 0 255 10 0 255 10 0 255 10 0 255 10 0 255 10 0 255 10 0 255 10 0 255 10 0 255 10 0 255 10 0 255 10 0 255 10 0 255 10 0 255 10 0 255 10 0 255 10 0 255 10 0 255 10 0 255 10 0 255 10 0 255 10 0 255 10 0 255 10 0 
0 164 255 0 164 255 0 164 255 0 164 255 0 164 255 0 164 255 0 164 255 0 164 255 0 164 255 0 164 255 0 164 255 0 164 255 0 164 255 0 164 255 0 164 255 0 164 255 0 164 255 0 164 255 0 164 255 0 164 255 0 172 255 0 172 255 0 172 255 0 172 255 0 172 255 0 172 255 0 172 255 0 172 255 0 172 255 0 172 255 0 154 255 0 154 255 0 154 255 0 154 255 0 154 255 0 154 255 0 154 255 0 154 255 0 154 255 0 154 255 0 158 255 0 158 255 0 158 255 0 158 255 0 158 255 0 158 255 0 158 255 0 158 255 0 158 255 0 158 255 0 161 255 0 161 255 0 161 255 0 161 255 0 161 255 0 161 255 0 161 255 0 161 255 0 161 255 0 161 255 0 172 255 0 172 255 0 172 255 0 172 255 0 172 255 0 172 255 0 172 255 0 172 255 0 172 255 0 172 255 0 172 255 0 172 255 0 172 255 0 172 255 0 172 255 0 172 255 0 172 255 0 172 255 0 172 255 0 172 255 0 164 255 0 164 255 0 164 255 0 164 255 0 164 255 0 164 255 0 164 255 0 164 255 0 164 255 0 164 255 0 150 255 0 150 255 0 150 255 0 150 255 0 150 255 0 150 255 0 150 255 0 150 255 0 150 255 0 150 255 0 162 255 0 162 255 0 162 255 0 162 255 0 162 255 0 162 255 0 162 255 0 162 255 0 162 255 0 162 255 0 146 255 0 146 255 0 146 255 0 146 255 0 146 255 0 146 255 0 146 255 0 146 255 0 146 255 0 146 255 0 133 255 0 133 255 0 133 255 0 133 255 0 133 255 0 133 255 0 133 255 0 133 255 0 133 255 0 133 255 0 159 255 0 159 255 0 159 255 0 159 255 0 159 255 0 159 255 0 159 255 0 159 255 0 159 255 0 159 255 0 142 255 0 142 255 0 142 255 0 142 255 0 142 255 0 142 255 0 142 255 0 142 255 0 142 255 0 142 255 0 118 255 0 118 255 0 118 255 0 118 255 0 118 255 0 118 255 0 118 255 0 118 255 0 118 255 0 118 255 0 129 255 0 129 255 0 129 255 0 129 255 0 129 255 0 129 255 0 129 255 0 129 255 0 129 255 0 129 255 0 127 255 0 127 255 0 127 255 0 127 255 0 127 255 0 127 255 0 127 255 0 127 255 0 127 255 0 127 255 0 174 255 0 174 255 0 174 255 0 174 255 0 174 255 0 174 255 0 174 255 0 174 255 0 174 255 0 174 255 0 111 255 0 111 255 0 111 255 0 111 255 0 111 255 0 111 255 0 111 255 0 111 255 0 111 255 0 111 255 0 130 255 0 130 255 0 130 255 0 130 255 0 130 255 0 130 255 0 130 255 0 130 255 0 130 255 0 130 255 0 145 255 0 145 255 0 145 255 0 145 255 0 145 255 0 145 255 0 145 255 0 145 255 0 145 255 0 145 255 0 155 255 0 155 255 0 155 255 0 155 255 0 155 255 0 155 255 0 155 255 0 155 255 0 155 255 0 155 255 0 136 255 0 136 255 0 136 255 0 136 255 0 136 255 0 136 255 0 136 255 0 136 255 0 136 255 0 136 255 0 150 255 0 150 255 0 150 255 0 150 255 0 150 255 0 150 255 0 150 255 0 150 255 0 150 255 0 150 255 0 151 255 0 151 255 0 151 255 0 151 255 0 151 255 0 151 255 0 151 255 0 151 255 0 151 255 0 151 255 0 165 255 0 165 255 0 165 255 0 165 255 0 165 255 0 165 255 0 165 255 0 165 255 0 165 255 0 165 255 0 162 255 0 162 255 0 162 255 0 162 255 0 162 255 0 162 255 0 162 255 0 162 255 0 162 255 0 162 255 0 0 0 0 0 0 0 0 0 0 0 0 0 0 0 0 0 0 0 0 0 0 0 0 0 0 0 0 0 0 255 6 0 255 6 0 255 6 0 255 6 0 255 6 0 255 6 0 255 6 0 255 6 0 255 6 0 255 6 0 255 6 0 255 6 0 255 6 0 255 6 0 255 6 0 255 6 0 255 6 0 255 6 0 255 6 0 255 6 0 255 6 0 255 6 0 255 6 0 255 6 0 255 6 0 255 6 0 255 6 0 255 6 0 255 6 0 255 6 0 
0 164 255 0 164 255 0 164 255 0 164 255 0 164 255 0 164 255 0 164 255 0 164 255 0 164 255 0 164 255 0 164 255 0 164 255 0 164 255 0 164 255 0 164 255 0 164 255 0 164 255 0 164 255 0 164 255 0 164 255 0 172 255 0 172 255 0 172 255 0 172 255 0 172 255 0 172 255 0 172 255 0 172 255 0 172 255 0 172 255 0 154 255 0 154 255 0 154 255 0 154 255 0 154 255 0 154 255 0 154 255 0 154 255 0 154 255 0 154 255 0 158 255 0 158 255 0 158 255 0 158 255 0 158 255 0 158 255 0 158 255 0 158 255 0 158 255 0 158 255 0 161 255 0 161 255 0 161 255 0 161 255 0 161 255 0 161 255 0 161 255 0 161 255 0 161 255 0 161 255 0 172 255 0 172 255 0 172 255 0 172 255 0 172 255 0 172 255 0 172 255 0 172 255 0 172 255 0 172 255 0 172 255 0 172 255 0 172 255 0 172 255 0 172 255 0 172 255 0 172 255 0 172 255 0 172 255 0 172 255 0 164 255 0 164 255 0 164 255 0 164 255 0 164 255 0 164 255 0 164 255 0 164 255 0 164 255 0 164 255 0 150 255 0 150 255 0 150 255 0 150 255 0 150 255 0 150 255 0 150 255 0 150 255 0 150 255 0 150 255 0 162 255 0 162 255 0 162 255 0 162 255 0 162 255 0 162 255 0 162 255 0 162 255 0 162 255 0 162 255 0 146 255 0 146 255 0 146 255 0 146 255 0 146 255 0 146 255 0 146 255 0 146 255 0 146 255 0 146 255 0 133 255 0 133 255 0 133 255 0 133 255 0 133 255 0 133 255 0 133 255 0 133 255 0 133 255 0 133 255 0 159 255 0 159 255 0 159 255 0 159 255 0 159 255 0 159 255 0 159 255 0 159 255 0 159 255 0 159 255 0 142 255 0 142 255 0 142 255 0 142 255 0 142 255 0 142 255 0 142 255 0 142 255 0 142 255 0 142 255 0 118 255 0 118 255 0 118 255 0 118 255 0 118 255 0 118 255 0 118 255 0 118 255 0 118 255 0 118 255 0 129 255 0 129 255 0 129 255 0 129 255 0 129 255 0 129 255 0 129 255 0 129 255 0 129 255 0 129 255 0 127 255 0 127 255 0 127 255 0 127 255 0 127 255 0 127 255 0 127 255 0 127 255 0 127 255 0 127 255 0 174 255 0 174 255 0 174 255 0 174 255 0 174 255 0 174 255 0 174 255 0 174 255 0 174 255 0 174 255 0 111 255 0 111 255 0 111 255 0 111 255 0 111 255 0 111 255 0 111 255 0 111 255 0 111 255 0 111 255 0 130 255 0 130 255 0 130 255 0 130 255 0 130 255 0 130 255 0 130 255 0 130 255 0 130 255 0 130 255 0 145 255 0 145 255 0 145 255 0 145 255 0 145 255 0 145 255 0 145 255 0 145 255 0 145 255 0 145 255 0 155 255 0 155 255 0 155 255 0 155 255 0 155 255 0 155 255 0 155 255 0 155 255 0 155 255 0 155 255 0 136 255 0 136 255 0 136 255 0 136 255 0 136 255 0 136 255 0 136 255 0 136 255 0 136 255 0 136 255 0 150 255 0 150 255 0 150 255 0 150 255 0 150 255 0 150 255 0 150 255 0 150 255 0 150 255 0 150 255 0 151 255 0 151 255 0 151 255 0 151 255 0 151 255 0 151 255 0 151 255 0 151 255 0 151 255 0 151 255 0 165 255 0 165 255 0 165 255 0 165 255 0 165 255 0 165 255 0 165 255 0 165 255 0 165 255 0 165 255 0 162 255 0 162 255 0 162 255 0 162 255 0 162 255 0 162 255 0 162 255 0 162 255 0 162 255 0 162 255 0 0 0 0 0 0 0 0 0 0 0 0 0 0 0 0 0 0 0 0 0 0 0 0 0 0 0 0 0 0 255 2 0 255 2 0 255 2 0 255 2 0 255 2 0 255 2 0 255 2 0 255 2 0 255 2 0 255 2 0 255 2 0 255 2 0 255 2 0 255 2 0 255 2 0 255 2 0 255 2 0 255 2 0 255 2 0 255 2 0 255 2 0 255 2 0 255 2 0 255 2 0 255 2 0 255 2 0 255 2 0 255 2 0 255 2 0 255 2 0 
0 152 255 0 152 255 0 152 255 0 152 255 0 152 255 0 152 255 0 152 255 0 152 255 0 152 255 0 152 255 0 146 255 0 146 255 0 146 255 0 146 255 0 146 255 0 146 255 0 146 255 0 146 255 0 146 255 0 146 255 0 154 255 0 154 255 0 154 255 0 154 255 0 154 255 0 154 255 0 154 255 0 154 255 0 154 255 0 154 255 0 159 255 0 159 255 0 159 255 0 159 255 0 159 255 0 159 255 0 159 255 0 159 255 0 159 255 0 159 255 0 177 255 0 177 255 0 177 255 0 177 255 0 177 255 0 177 255 0 177 255 0 177 255 0 177 255 0 177 255 0 167 255 0 167 255 0 167 255 0 167 255 0 167 255 0 167 255 0 167 255 0 167 255 0 167 255 0 167 255 0 152 255 0 152 255 0 152 255 0 152 255 0 152 255 0 152 255 0 152 255 0 152 255 0 152 255 0 152 255 0 154 255 0 154 255 0 154 255 0 154 255 0 154 255 0 154 255 0 154 255 0 154 255 0 154 255 0 154 255 0 139 255 0 139 255 0 139 255 0 139 255 0 139 255 0 139 255 0 139 255 0 139 255 0 139 255 0 139 255 0 153 255 0 153 255 0 153 255 0 153 255 0 153 255 0 153 255 0 153 255 0 153 255 0 153 255 0 153 255 0 152 255 0 152 255 0 152 255 0 152 255 0 152 255 0 152 255 0 152 255 0 152 255 0 152 255 0 152 255 0 163 255 0 163 255 0 163 255 0 163 255 0 163 255 0 163 255 0 163 255 0 163 255 0 163 255 0 163 255 0 176 255 0 176 255 0 176 255 0 176 255 0 176 255 0 176 255 0 176 255 0 176 255 0 176 255 0 176 255 0 152 255 0 152 255 0 152 255 0 152 255 0 152 255 0 152 255 0 152 255 0 152 255 0 152 255 0 152 255 0 181 255 0 181 255 0 181 255 0 181 255 0 181 255 0 181 255 0 181 255 0 181 255 0 181 255 0 181 255 0 135 255 0 135 255 0 135 255 0 135 255 0 135 255 0 135 255 0 135 255 0 135 255 0 135 255 0 135 255 0 163 255 0 163 255 0 163 255 0 163 255 0 163 255 0 163 255 0 163 255 0 163 255 0 163 255 0 163 255 0 184 255 0 184 255 0 184 255 0 184 255 0 184 255 0 184 255 0 184 255 0 184 255 0 184 255 0 184 255 0 155 255 0 155 255 0 155 255 0 155 255 0 155 255 0 155 255 0 155 255 0 155 255 0 155 255 0 155 255 0 139 255 0 139 255 0 139 255 0 139 255 0 139 255 0 139 255 0 139 255 0 139 255 0 139 255 0 139 255 0 156 255 0 156 255 0 156 255 0 156 255 0 156 255 0 156 255 0 156 255 0 156 255 0 156 255 0 156 255 0 124 255 0 124 255 0 124 255 0 124 255 0 124 255 0 124 255 0 124 255 0 124 255 0 124 255 0 124 255 0 117 255 0 117 255 0 117 255 0 117 255 0 117 255 0 117 255 0 117 255 0 117 255 0 117 255 0 117 255 0 76 255 0 76 255 0 76 255 0 76 255 0 76 255 0 76 255 0 76 255 0 76 255 0 76 255 0 76 255 0 115 255 0 115 255 0 115 255 0 115 255 0 115 255 0 115 255 0 115 255 0 115 255 0 115 255 0 115 255 0 164 255 0 164 255 0 164 255 0 164 255 0 164 255 0 164 255 0 164 255 0 164 255 0 164 255 0 164 255 0 160 255 0 160 255 0 160 255 0 160 255 0 160 255 0 160 255 0 160 255 0 160 255 0 160 255 0 160 255 0 149 255 0 149 255 0 149 255 0 149 255 0 149 255 0 149 255 0 149 255 0 149 255 0 149 255 0 149 255 0 0 0 0 0 0 0 0 0 0 0 0 0 0 0 0 0 0 0 0 0 0 0 0 0 0 0 0 0 0 254 0 0 254 0 0 254 0 0 254 0 0 254 0 0 254 0 0 254 0 0 254 0 0 254 0 0 254 0 0 254 0 0 254 0 0 254 0 0 254 0 0 254 0 0 254 0 0 254 0 0 254 0 0 254 0 0 254 0 0 254 0 0 254 0 0 254 0 0 254 0 0 254 0 0 254 0 0 254 0 0 254 0 0 254 0 0 254 0 0 
0 152 255 0 152 255 0 152 255 0 152 255 0 152 255 0 152 255 0 152 255 0 152 255 0 152 255 0 152 255 0 146 255 0 146 255 0 146 255 0 146 255 0 146 255 0 146 255 0 146 255 0 146 255 0 146 255 0 146 255 0 154 255 0 154 255 0 154 255 0 154 255 0 154 255 0 154 255 0 154 255 0 154 255 0 154 255 0 154 255 0 159 255 0 159 255 0 159 255 0 159 255 0 159 255 0 159 255 0 159 255 0 159 255 0 159 255 0 159 255 0 177 255 0 177 255 0 177 255 0 177 255 0 177 255 0 177 255 0 177 255 0 177 255 0 177 255 0 177 255 0 167 255 0 167 255 0 167 255 0 167 255 0 167 255 0 167 255 0 167 255 0 167 255 0 167 255 0 167 255 0 152 255 0 152 255 0 152 255 0 152 255 0 152 255 0 152 255 0 152 255 0 152 255 0 152 255 0 152 255 0 154 255 0 154 255 0 154 255 0 154 255 0 154 255 0 154 255 0 154 255 0 154 255 0 154 255 0 154 255 0 139 255 0 139 255 0 139 255 0 139 255 0 139 255 0 139 255 0 139 255 0 139 255 0 139 255 0 139 255 0 153 255 0 153 255 0 153 255 0 153 255 0 153 255 0 153 255 0 153 255 0 153 255 0 153 255 0 153 255 0 152 255 0 152 255 0 152 255 0 152 255 0 152 255 0 152 255 0 152 255 0 152 255 0 152 255 0 152 255 0 163 255 0 163 255 0 163 255 0 163 255 0 163 255 0 163 255 0 163 255 0 163 255 0 163 255 0 163 255 0 176 255 0 176 255 0 176 255 0 176 255 0 176 255 0 176 255 0 176 255 0 176 255 0 176 255 0 176 255 0 152 255 0 152 255 0 152 255 0 152 255 0 152 255 0 152 255 0 152 255 0 152 255 0 152 255 0 152 255 0 181 255 0 181 255 0 181 255 0 181 255 0 181 255 0 181 255 0 181 255 0 181 255 0 181 255 0 181 255 0 135 255 0 135 255 0 135 255 0 135 255 0 135 255 0 135 255 0 135 255 0 135 255 0 135 255 0 135 255 0 163 255 0 163 255 0 163 255 0 163 255 0 163 255 0 163 255 0 163 255 0 163 255 0 163 255 0 163 255 0 184 255 0 184 255 0 184 255 0 184 255 0 184 255 0 184 255 0 184 255 0 184 255 0 184 255 0 184 255 0 155 255 0 155 255 0 155 255 0 155 255 0 155 255 0 155 255 0 155 255 0 155 255 0 155 255 0 155 255 0 139 255 0 139 255 0 139 255 0 139 255 0 139 255 0 139 255 0 139 255 0 139 255 0 139 255 0 139 255 0 156 255 0 156 255 0 156 255 0 156 255 0 156 255 0 156 255 0 156 255 0 156 255 0 156 255 0 156 255 0 124 255 0 124 255 0 124 255 0 124 255 0 124 255 0 124 255 0 124 255 0 124 255 0 124 255 0 124 255 0 117 255 0 117 255 0 117 255 0 117 255 0 117 255 0 117 255 0 117 255 0 117 255 0 117 255 0 117 255 0 76 255 0 76 255 0 76 255 0 76 255 0 76 255 0 76 255 0 76 255 0 76 255 0 76 255 0 76 255 0 115 255 0 115 255 0 115 255 0 115 255 0 115 255 0 115 255 0 115 255 0 115 255 0 115 255 0 115 255 0 164 255 0 164 255 0 164 255 0 164 255 0 164 255 0 164 255 0 164 255 0 164 255 0 164 255 0 164 255 0 160 255 0 160 255 0 160 255 0 160 255 0 160 255 0 160 255 0 160 255 0 160 255 0 160 255 0 160 255 0 149 255 0 149 255 0 149 255 0 149 255 0 149 255 0 149 255 0 149 255 0 149 255 0 149 255 0 149 255 0 0 0 0 0 0 0 0 0 0 0 0 0 0 0 0 0 0 0 0 0 0 0 0 0 0 0 0 0 0 250 0 0 250 0 0 250 0 0 250 0 0 250 0 0 250 0 0 250 0 0 250 0 0 250 0 0 250 0 0 250 0 0 250 0 0 250 0 0 250 0 0 250 0 0 250 0 0 250 0 0 250 0 0 250 0 0 250 0 0 250 0 0 250 0 0 250 0 0 250 0 0 250 0 0 250 0 0 250 0 0 250 0 0 250 0 0 250 0 0 
0 152 255 0 152 255 0 152 255 0 152 255 0 152 255 0 152 255 0 152 255 0 152 255 0 152 255 0 152 255 0 146 255 0 146 255 0 146 255 0 146 255 0 146 255 0 146 255 0 146 255 0 146 255 0 146 255 0 146 255 0 154 255 0 154 255 0 154 255 0 154 255 0 154 255 0 154 255 0 154 255 0 154 255 0 154 255 0 154 255 0 159 255 0 159 255 0 159 255 0 159 255 0 159 255 0 159 255 0 159 255 0 159 255 0 159 255 0 159 255 0 177 255 0 177 255 0 177 255 0 177 255 0 177 255 0 177 255 0 177 255 0 177 255 0 177 255 0 177 255 0 167 255 0 167 255 0 167 255 0 167 255 0 167 255 0 167 255 0 167 255 0 167 255 0 167 255 0 167 255 0 152 255 0 152 255 0 152 255 0 152 255 0 152 255 0 152 255 0 152 255 0 152 255 0 152 255 0 152 255 0 154 255 0 154 255 0 154 255 0 154 255 0 154 255 0 154 255 0 154 255 0 154 255 0 154 255 0 154 255 0 139 255 0 139 255 0 139 255 0 139 255 0 139 255 0 139 255 0 139 255 0 139 255 0 139 255 0 139 255 0 153 255 0 153 255 0 153 255 0 153 255 0 153 255 0 153 255 0 153 255 0 153 255 0 153 255 0 153 255 0 152 255 0 152 255 0 152 255 0 152 255 0 152 255 0 152 255 0 152 255 0 152 255 0 152 255 0 152 255 0 163 255 0 163 255 0 163 255 0 163 255 0 163 255 0 163 255 0 163 255 0 163 255 0 163 255 0 163 255 0 176 255 0 176 255 0 176 255 0 176 255 0 176 255 0 176 255 0 176 255 0 176 255 0 176 255 0 176 255 0 152 255 0 152 255 0 152 255 0 152 255 0 152 255 0 152 255 0 152 255 0 152 255 0 152 255 0 152 255 0 181 255 0 181 255 0 181 255 0 181 255 0 181 255 0 181 255 0 181 255 0 181 255 0 181 255 0 181 255 0 135 255 0 135 255 0 135 255 0 135 255 0 135 255 0 135 255 0 135 255 0 135 255 0 135 255 0 135 255 0 163 255 0 163 255 0 163 255 0 163 255 0 163 255 0 163 255 0 163 255 0 163 255 0 163 255 0 163 255 0 184 255 0 184 255 0 184 255 0 184 255 0 184 255 0 184 255 0 184 255 0 184 255 0 184 255 0 184 255 0 155 255 0 155 255 0 155 255 0 155 255 0 155 255 0 155 255 0 155 255 0 155 255 0 155 255 0 155 255 0 139 255 0 139 255 0 139 255 0 139 255 0 139 255 0 139 255 0 139 255 0 139 255 0 139 255 0 139 255 0 156 255 0 156 255 0 156 255 0 156 255 0 156 255 0 156 255 0 156 255 0 156 255 0 156 255 0 156 255 0 124 255 0 124 255 0 124 255 0 124 255 0 124 255 0 124 255 0 124 255 0 124 255 0 124 255 0 124 255 0 117 255 0 117 255 0 117 255 0 117 255 0 117 255 0 117 255 0 117 255 0 117 255 0 117 255 0 117 255 0 76 255 0 76 255 0 76 255 0 76 255 0 76 255 0 76 255 0 76 255 0 76 255 0 76 255 0 76 255 0 115 255 0 115 255 0 115 255 0 115 255 0 115 255 0 115 255 0 115 255 0 115 255 0 115 255 0 115 255 0 164 255 0 164 255 0 164 255 0 164 255 0 164 255 0 164 255 0 164 255 0 164 255 0 164 255 0 164 255 0 160 255 0 160 255 0 160 255 0 160 255 0 160 255 0 160 255 0 160 255 0 160 255 0 160 255 0 160 255 0 149 255 0 149 255 0 149 255 0 149 255 0 149 255 0 149 255 0 149 255 0 149 255 0 149 255 0 149 255 0 0 0 0 0 0 0 0 0 0 0 0 0 0 0 0 0 0 0 0 0 0 0 0 0 0 0 0 0 0 246 0 0 246 0 0 246 0 0 246 0 0 246 0 0 246 0 0 246 0 0 246 0 0 246 0 0 246 0 0 246 0 0 246 0 0 246 0 0 246 0 0 246 0 0 246 0 0 246 0 0 246 0 0 246 0 0 246 0 0 246 0 0 246 0 0 246 0 0 246 0 0 246 0 0 246 0 0 246 0 0 246 0 0 246 0 0 246 0 0 
0 152 255 0 152 255 0 152 255 0 152 255 0 152 255 0 152 255 0 152 255 0 152 255 0 152 255 0 152 255 0 146 255 0 146 255 0 146 255 0 146 255 0 146 255 0 146 255 0 146 255 0 146 255 0 146 255 0 146 255 0 154 255 0 154 255 0 154 255 0 154 255 0 154 255 0 154 255 0 154 255 0 154 255 0 154 255 0 154 255 0 159 255 0 159 255 0 159 255 0 159 255 0 159 255 0 159 255 0 159 255 0 159 255 0 159 255 0 159 255 0 177 255 0 177 255 0 177 255 0 177 255 0 177 255 0 177 255 0 177 255 0 177 255 0 177 255 0 177 255 0 167 255 0 167 255 0 167 255 0 167 255 0 167 255 0 167 255 0 167 255 0 167 255 0 167 255 0 167 255 0 152 255 0 152 255 0 152 255 0 152 255 0 152 255 0 152 255 0 152 255 0 152 255 0 152 255 0 152 255 0 154 255 0 154 255 0 154 255 0 154 255 0 154 255 0 154 255 0 154 255 0 154 255 0 154 255 0 154 255 0 139 255 0 139 255 0 139 255 0 139 255 0 139 255 0 139 255 0 139 255 0 139 255 0 139 255 0 139 255 0 153 255 0 153 255 0 153 255 0 153 255 0 153 255 0 153 255 0 153 255 0 153 255 0 153 255 0 153 255 0 152 255 0 152 255 0 152 255 0 152 255 0 152 255 0 152 255 0 152 255 0 152 255 0 152 255 0 152 255 0 163 255 0 163 255 0 163 255 0 163 255 0 163 255 0 163 255 0 163 255 0 163 255 0 163 255 0 163 255 0 176 255 0 176 255 0 176 255 0 176 255 0 176 255 0 176 255 0 176 255 0 176 255 0 176 255 0 176 255 0 152 255 0 152 255 0 152 255 0 152 255 0 152 255 0 152 255 0 152 255 0 152 255 0 152 255 0 152 255 0 181 255 0 181 255 0 181 255 0 181 255 0 181 255 0 181 255 0 181 255 0 181 255 0 181 255 0 181 255 0 135 255 0 135 255 0 135 255 0 135 255 0 135 255 0 135 255 0 135 255 0 135 255 0 135 255 0 135 255 0 163 255 0 163 255 0 163 255 0 163 255 0 163 255 0 163 255 0 163 255 0 163 255 0 163 255 0 163 255 0 184 255 0 184 255 0 184 255 0 184 255 0 184 255 0 184 255 0 184 255 0 184 255 0 184 255 0 184 255 0 155 255 0 155 255 0 155 255 0 155 255 0 155 255 0 155 255 0 155 255 0 155 255 0 155 255 0 155 255 0 139 255 0 139 255 0 139 255 0 139 255 0 139 255 0 139 255 0 139 255 0 139 255 0 139 255 0 139 255 0 156 255 0 156 255 0 156 255 0 156 255 0 156 255 0 156 255 0 156 255 0 156 255 0 156 255 0 156 255 0 124 255 0 124 255 0 124 255 0 124 255 0 124 255 0 124 255 0 124 255 0 124 255 0 124 255 0 124 255 0 117 255 0 117 255 0 117 255 0 117 255 0 117 255 0 117 255 0 117 255 0 117 255 0 117 255 0 117 255 0 76 255 0 76 255 0 76 255 0 76 255 0 76 255 0 76 255 0 76 255 0 76 255 0 76 255 0 76 255 0 115 255 0 115 255 0 115 255 0 115 255 0 115 255 0 115 255 0 115 255 0 115 255 0 115 255 0 115 255 0 164 255 0 164 255 0 164 255 0 164 255 0 164 255 0 164 255 0 164 255 0 164 255 0 164 255 0 164 255 0 160 255 0 160 255 0 160 255 0 160 255 0 160 255 0 160 255 0 160 255 0 160 255 0 160 255 0 160 255 0 149 255 0 149 255 0 149 255 0 149 255 0 149 255 0 149 255 0 149 255 0 149 255 0 149 255 0 149 255 0 0 0 0 0 0 0 0 0 0 0 0 0 0 0 0 0 0 0 0 0 0 0 0 0 0 0 0 0 0 243 0 0 243 0 0 243 0 0 243 0 0 243 0 0 243 0 0 243 0 0 243 0 0 243 0 0 243 0 0 243 0 0 243 0 0 243 0 0 243 0 0 243 0 0 243 0 0 243 0 0 243 0 0 243 0 0 243 0 0 243 0 0 243 0 0 243 0 0 243 0 0 243 0 0 243 0 0 243 0 0 243 0 0 243 0 0 243 0 0 
0 152 255 0 152 255 0 152 255 0 152 255 0 152 255 0 152 255 0 152 255 0 152 255 0 152 255 0 152 255 0 146 255 0 146 255 0 146 255 0 146 255 0 146 255 0 146 255 0 146 255 0 146 255 0 146 255 0 146 255 0 154 255 0 154 255 0 154 255 0 154 255 0 154 255 0 154 255 0 154 255 0 154 255 0 154 255 0 154 255 0 159 255 0 159 255 0 159 255 0 159 255 0 159 255 0 159 255 0 159 255 0 159 255 0 159 255 0 159 255 0 177 255 0 177 255 0 177 255 0 177 255 0 177 255 0 177 255 0 177 255 0 177 255 0 177 255 0 177 255 0 167 255 0 167 255 0 167 255 0 167 255 0 167 255 0 167 255 0 167 255 0 167 255 0 167 255 0 167 255 0 152 255 0 152 255 0 152 255 0 152 255 0 152 255 0 152 255 0 152 255 0 152 255 0 152 255 0 152 255 0 154 255 0 154 255 0 154 255 0 154 255 0 154 255 0 154 255 0 154 255 0 154 255 0 154 255 0 154 255 0 139 255 0 139 255 0 139 255 0 139 255 0 139 255 0 139 255 0 139 255 0 139 255 0 139 255 0 139 255 0 153 255 0 153 255 0 153 255 0 153 255 0 153 255 0 153 255 0 153 255 0 153 255 0 153 255 0 153 255 0 152 255 0 152 255 0 152 255 0 152 255 0 152 255 0 152 255 0 152 255 0 152 255 0 152 255 0 152 255 0 163 255 0 163 255 0 163 255 0 163 255 0 163 255 0 163 255 0 163 255 0 163 255 0 163 255 0 163 255 0 176 255 0 176 255 0 176 255 0 176 255 0 176 255 0 176 255 0 176 255 0 176 255 0 176 255 0 176 255 0 152 255 0 152 255 0 152 255 0 152 255 0 152 255 0 152 255 0 152 255 0 152 255 0 152 255 0 152 255 0 181 255 0 181 255 0 181 255 0 181 255 0 181 255 0 181 255 0 181 255 0 181 255 0 181 255 0 181 255 0 135 255 0 135 255 0 135 255 0 135 255 0 135 255 0 135 255 0 135 255 0 135 255 0 135 255 0 135 255 0 163 255 0 163 255 0 163 255 0 163 255 0 163 255 0 163 255 0 163 255 0 163 255 0 163 255 0 163 255 0 184 255 0 184 255 0 184 255 0 184 255 0 184 255 0 184 255 0 184 255 0 184 255 0 184 255 0 184 255 0 155 255 0 155 255 0 155 255 0 155 255 0 155 255 0 155 255 0 155 255 0 155 255 0 155 255 0 155 255 0 139 255 0 139 255 0 139 255 0 139 255 0 139 255 0 139 255 0 139 255 0 139 255 0 139 255 0 139 255 0 156 255 0 156 255 0 156 255 0 156 255 0 156 255 0 156 255 0 156 255 0 156 255 0 156 255 0 156 255 0 124 255 0 124 255 0 124 255 0 124 255 0 124 255 0 124 255 0 124 255 0 124 255 0 124 255 0 124 255 0 117 255 0 117 255 0 117 255 0 117 255 0 117 255 0 117 255 0 117 255 0 117 255 0 117 255 0 117 255 0 76 255 0 76 255 0 76 255 0 76 255 0 76 255 0 76 255 0 76 255 0 76 255 0 76 255 0 76 255 0 115 255 0 115 255 0 115 255 0 115 255 0 115 255 0 115 255 0 115 255 0 115 255 0 115 255 0 115 255 0 164 255 0 164 255 0 164 255 0 164 255 0 164 255 0 164 255 0 164 255 0 164 255 0 164 255 0 164 255 0 160 255 0 160 255 0 160 255 0 160 255 0 160 255 0 160 255 0 160 255 0 160 255 0 160 255 0 160 255 0 149 255 0 149 255 0 149 255 0 149 255 0 149 255 0 149 255 0 149 255 0 149 255 0 149 255 0 149 255 0 0 0 0 0 0 0 0 0 0 0 0 0 0 0 0 0 0 0 0 0 0 0 0 0 0 0 0 0 0 239 0 0 239 0 0 239 0 0 239 0 0 239 0 0 239 0 0 239 0 0 239 0 0 239 0 0 239 0 0 239 0 0 239 0 0 239 0 0 239 0 0 239 0 0 239 0 0 239 0 0 239 0 0 239 0 0 239 0 0 239 0 0 239 0 0 239 0 0 239 0 0 239 0 0 239 0 0 239 0 0 239 0 0 239 0 0 239 0 0 
0 152 255 0 152 255 0 152 255 0 152 255 0 152 255 0 152 255 0 152 255 0 152 255 0 152 255 0 152 255 0 146 255 0 146 255 0 146 255 0 146 255 0 146 255 0 146 255 0 146 255 0 146 255 0 146 255 0 146 255 0 154 255 0 154 255 0 154 255 0 154 255 0 154 255 0 154 255 0 154 255 0 154 255 0 154 255 0 154 255 0 159 255 0 159 255 0 159 255 0 159 255 0 159 255 0 159 255 0 159 255 0 159 255 0 159 255 0 159 255 0 177 255 0 177 255 0 177 255 0 177 255 0 177 255 0 177 255 0 177 255 0 177 255 0 177 255 0 177 255 0 167 255 0 167 255 0 167 255 0 167 255 0 167 255 0 167 255 0 167 255 0 167 255 0 167 255 0 167 255 0 152 255 0 152 255 0 152 255 0 152 255 0 152 255 0 152 255 0 152 255 0 152 255 0 152 255 0 152 255 0 154 255 0 154 255 0 154 255 0 154 255 0 154 255 0 154 255 0 154 255 0 154 255 0 154 255 0 154 255 0 139 255 0 139 255 0 139 255 0 139 255 0 139 255 0 139 255 0 139 255 0 139 255 0 139 255 0 139 255 0 153 255 0 153 255 0 153 255 0 153 255 0 153 255 0 153 255 0 153 255 0 153 255 0 153 255 0 153 255 0 152 255 0 152 255 0 152 255 0 152 255 0 152 255 0 152 255 0 152 255 0 152 255 0 152 255 0 152 255 0 163 255 0 163 255 0 163 255 0 163 255 0 163 255 0 163 255 0 163 255 0 163 255 0 163 255 0 163 255 0 176 255 0 176 255 0 176 255 0 176 255 0 176 255 0 176 255 0 176 255 0 176 255 0 176 255 0 176 255 0 152 255 0 152 255 0 152 255 0 152 255 0 152 255 0 152 255 0 152 255 0 152 255 0 152 255 0 152 255 0 181 255 0 181 255 0 181 255 0 181 255 0 181 255 0 181 255 0 181 255 0 181 255 0 181 255 0 181 255 0 135 255 0 135 255 0 135 255 0 135 255 0 135 255 0 135 255 0 135 255 0 135 255 0 135 255 0 135 255 0 163 255 0 163 255 0 163 255 0 163 255 0 163 255 0 163 255 0 163 255 0 163 255 0 163 255 0 163 255 0 184 255 0 184 255 0 184 255 0 184 255 0 184 255 0 184 255 0 184 255 0 184 255 0 184 255 0 184 255 0 155 255 0 155 255 0 155 255 0 155 255 0 155 255 0 155 255 0 155 255 0 155 255 0 155 255 0 155 255 0 139 255 0 139 255 0 139 255 0 139 255 0 139 255 0 139 255 0 139 255 0 139 255 0 139 255 0 139 255 0 156 255 0 156 255 0 156 255 0 156 255 0 156 255 0 156 255 0 156 255 0 156 255 0 156 255 0 156 255 0 124 255 0 124 255 0 124 255 0 124 255 0 124 255 0 124 255 0 124 255 0 124 255 0 124 255 0 124 255 0 117 255 0 117 255 0 117 255 0 117 255 0 117 255 0 117 255 0 117 255 0 117 255 0 117 255 0 117 255 0 76 255 0 76 255 0 76 255 0 76 255 0 76 255 0 76 255 0 76 255 0 76 255 0 76 255 0 76 255 0 115 255 0 115 255 0 115 255 0 115 255 0 115 255 0 115 255 0 115 255 0 115 255 0 115 255 0 115 255 0 164 255 0 164 255 0 164 255 0 164 255 0 164 255 0 164 255 0 164 255 0 164 255 0 164 255 0 164 255 0 160 255 0 160 255 0 160 255 0 160 255 0 160 255 0 160 255 0 160 255 0 160 255 0 160 255 0 160 255 0 149 255 0 149 255 0 149 255 0 149 255 0 149 255 0 149 255 0 149 255 0 149 255 0 149 255 0 149 255 0 0 0 0 0 0 0 0 0 0 0 0 0 0 0 0 0 0 0 0 0 0 0 0 0 0 0 0 0 0 235 0 0 235 0 0 235 0 0 235 0 0 235 0 0 235 0 0 235 0 0 235 0 0 235 0 0 235 0 0 235 0 0 235 0 0 235 0 0 235 0 0 235 0 0 235 0 0 235 0 0 235 0 0 235 0 0 235 0 0 235 0 0 235 0 0 235 0 0 235 0 0 235 0 0 235 0 0 235 0 0 235 0 0 235 0 0 235 0 0 
0 152 255 0 152 255 0 152 255 0 152 255 0 152 255 0 152 255 0 152 255 0 152 255 0 152 255 0 152 255 0 146 255 0 146 255 0 146 255 0 146 255 0 146 255 0 146 255 0 146 255 0 146 255 0 146 255 0 146 255 0 154 255 0 154 255 0 154 255 0 154 255 0 154 255 0 154 255 0 154 255 0 154 255 0 154 255 0 154 255 0 159 255 0 159 255 0 159 255 0 159 255 0 159 255 0 159 255 0 159 255 0 159 255 0 159 255 0 159 255 0 177 255 0 177 255 0 177 255 0 177 255 0 177 255 0 177 255 0 177 255 0 177 255 0 177 255 0 177 255 0 167 255 0 167 255 0 167 255 0 167 255 0 167 255 0 167 255 0 167 255 0 167 255 0 167 255 0 167 255 0 152 255 0 152 255 0 152 255 0 152 255 0 152 255 0 152 255 0 152 255 0 152 255 0 152 255 0 152 255 0 154 255 0 154 255 0 154 255 0 154 255 0 154 255 0 154 255 0 154 255 0 154 255 0 154 255 0 154 255 0 139 255 0 139 255 0 139 255 0 139 255 0 139 255 0 139 255 0 139 255 0 139 255 0 139 255 0 139 255 0 153 255 0 153 255 0 153 255 0 153 255 0 153 255 0 153 255 0 153 255 0 153 255 0 153 255 0 153 255 0 152 255 0 152 255 0 152 255 0 152 255 0 152 255 0 152 255 0 152 255 0 152 255 0 152 255 0 152 255 0 163 255 0 163 255 0 163 255 0 163 255 0 163 255 0 163 255 0 163 255 0 163 255 0 163 255 0 163 255 0 176 255 0 176 255 0 176 255 0 176 255 0 176 255 0 176 255 0 176 255 0 176 255 0 176 255 0 176 255 0 152 255 0 152 255 0 152 255 0 152 255 0 152 255 0 152 255 0 152 255 0 152 255 0 152 255 0 152 255 0 181 255 0 181 255 0 181 255 0 181 255 0 181 255 0 181 255 0 181 255 0 181 255 0 181 255 0 181 255 0 135 255 0 135 255 0 135 255 0 135 255 0 135 255 0 135 255 0 135 255 0 135 255 0 135 255 0 135 255 0 163 255 0 163 255 0 163 255 0 163 255 0 163 255 0 163 255 0 163 255 0 163 255 0 163 255 0 163 255 0 184 255 0 184 255 0 184 255 0 184 255 0 184 255 0 184 255 0 184 255 0 184 255 0 184 255 0 184 255 0 155 255 0 155 255 0 155 255 0 155 255 0 155 255 0 155 255 0 155 255 0 155 255 0 155 255 0 155 255 0 139 255 0 139 255 0 139 255 0 139 255 0 139 255 0 139 255 0 139 255 0 139 255 0 139 255 0 139 255 0 156 255 0 156 255 0 156 255 0 156 255 0 156 255 0 156 255 0 156 255 0 156 255 0 156 255 0 156 255 0 124 255 0 124 255 0 124 255 0 124 255 0 124 255 0 124 255 0 124 255 0 124 255 0 124 255 0 124 255 0 117 255 0 117 255 0 117 255 0 117 255 0 117 255 0 117 255 0 117 255 0 117 255 0 117 255 0 117 255 0 76 255 0 76 255 0 76 255 0 76 255 0 76 255 0 76 255 0 76 255 0 76 255 0 76 255 0 76 255 0 115 255 0 115 255 0 115 255 0 115 255 0 115 255 0 115 255 0 115 255 0 115 255 0 115 255 0 115 255 0 164 255 0 164 255 0 164 255 0 164 255 0 164 255 0 164 255 0 164 255 0 164 255 0 164 255 0 164 255 0 160 255 0 160 255 0 160 255 0 160 255 0 160 255 0 160 255 0 160 255 0 160 255 0 160 255 0 160 255 0 149 255 0 149 255 0 149 255 0 149 255 0 149 255 0 149 255 0 149 255 0 149 255 0 149 255 0 149 255 0 0 0 0 0 0 0 0 0 0 0 0 0 0 0 0 0 0 0 0 0 0 0 0 0 0 0 0 0 0 232 0 0 232 0 0 232 0 0 232 0 0 232 0 0 232 0 0 232 0 0 232 0 0 232 0 0 232 0 0 232 0 0 232 0 0 232 0 0 232 0 0 232 0 0 232 0 0 232 0 0 232 0 0 232 0 0 232 0 0 232 0 0 232 0 0 232 0 0 232 0 0 232 0 0 232 0 0 232 0 0 232 0 0 232 0 0 232 0 0 
0 152 255 0 152 255 0 152 255 0 152 255 0 152 255 0 152 255 0 152 255 0 152 255 0 152 255 0 152 255 0 146 255 0 146 255 0 146 255 0 146 255 0 146 255 0 146 255 0 146 255 0 146 255 0 146 255 0 146 255 0 154 255 0 154 255 0 154 255 0 154 255 0 154 255 0 154 255 0 154 255 0 154 255 0 154 255 0 154 255 0 159 255 0 159 255 0 159 255 0 159 255 0 159 255 0 159 255 0 159 255 0 159 255 0 159 255 0 159 255 0 177 255 0 177 255 0 177 255 0 177 255 0 177 255 0 177 255 0 177 255 0 177 255 0 177 255 0 177 255 0 167 255 0 167 255 0 167 255 0 167 255 0 167 255 0 167 255 0 167 255 0 167 255 0 167 255 0 167 255 0 152 255 0 152 255 0 152 255 0 152 255 0 152 255 0 152 255 0 152 255 0 152 255 0 152 255 0 152 255 0 154 255 0 154 255 0 154 255 0 154 255 0 154 255 0 154 255 0 154 255 0 154 255 0 154 255 0 154 255 0 139 255 0 139 255 0 139 255 0 139 255 0 139 255 0 139 255 0 139 255 0 139 255 0 139 255 0 139 255 0 153 255 0 153 255 0 153 255 0 153 255 0 153 255 0 153 255 0 153 255 0 153 255 0 153 255 0 153 255 0 152 255 0 152 255 0 152 255 0 152 255 0 152 255 0 152 255 0 152 255 0 152 255 0 152 255 0 152 255 0 163 255 0 163 255 0 163 255 0 163 255 0 163 255 0 163 255 0 163 255 0 163 255 0 163 255 0 163 255 0 176 255 0 176 255 0 176 255 0 176 255 0 176 255 0 176 255 0 176 255 0 176 255 0 176 255 0 176 255 0 152 255 0 152 255 0 152 255 0 152 255 0 152 255 0 152 255 0 152 255 0 152 255 0 152 255 0 152 255 0 181 255 0 181 255 0 181 255 0 181 255 0 181 255 0 181 255 0 181 255 0 181 255 0 181 255 0 181 255 0 135 255 0 135 255 0 135 255 0 135 255 0 135 255 0 135 255 0 135 255 0 135 255 0 135 255 0 135 255 0 163 255 0 163 255 0 163 255 0 163 255 0 163 255 0 163 255 0 163 255 0 163 255 0 163 255 0 163 255 0 184 255 0 184 255 0 184 255 0 184 255 0 184 255 0 184 255 0 184 255 0 184 255 0 184 255 0 184 255 0 155 255 0 155 255 0 155 255 0 155 255 0 155 255 0 155 255 0 155 255 0 155 255 0 155 255 0 155 255 0 139 255 0 139 255 0 139 255 0 139 255 0 139 255 0 139 255 0 139 255 0 139 255 0 139 255 0 139 255 0 156 255 0 156 255 0 156 255 0 156 255 0 156 255 0 156 255 0 156 255 0 156 255 0 156 255 0 156 255 0 124 255 0 124 255 0 124 255 0 124 255 0 124 255 0 124 255 0 124 255 0 124 255 0 124 255 0 124 255 0 117 255 0 117 255 0 117 255 0 117 255 0 117 255 0 117 255 0 117 255 0 117 255 0 117 255 0 117 255 0 76 255 0 76 255 0 76 255 0 76 255 0 76 255 0 76 255 0 76 255 0 76 255 0 76 255 0 76 255 0 115 255 0 115 255 0 115 255 0 115 255 0 115 255 0 115 255 0 115 255 0 115 255 0 115 255 0 115 255 0 164 255 0 164 255 0 164 255 0 164 255 0 164 255 0 164 255 0 164 255 0 164 255 0 164 255 0 164 255 0 160 255 0 160 255 0 160 255 0 160 255 0 160 255 0 160 255 0 160 255 0 160 255 0 160 255 0 160 255 0 149 255 0 149 255 0 149 255 0 149 255 0 149 255 0 149 255 0 149 255 0 149 255 0 149 255 0 149 255 0 0 0 0 0 0 0 0 0 0 0 0 0 0 0 0 0 0 0 0 0 0 0 0 0 0 0 0 0 0 228 0 0 228 0 0 228 0 0 228 0 0 228 0 0 228 0 0 228 0 0 228 0 0 228 0 0 228 0 0 228 0 0 228 0 0 228 0 0 228 0 0 228 0 0 228 0 0 228 0 0 228 0 0 228 0 0 228 0 0 228 0 0 228 0 0 228 0 0 228 0 0 228 0 0 228 0 0 228 0 0 228 0 0 228 0 0 228 0 0 
0 152 255 0 152 255 0 152 255 0 152 255 0 152 255 0 152 255 0 152 255 0 152 255 0 152 255 0 152 255 0 146 255 0 146 255 0 146 255 0 146 255 0 146 255 0 146 255 0 146 255 0 146 255 0 146 255 0 146 255 0 154 255 0 154 255 0 154 255 0 154 255 0 154 255 0 154 255 0 154 255 0 154 255 0 154 255 0 154 255 0 159 255 0 159 255 0 159 255 0 159 255 0 159 255 0 159 255 0 159 255 0 159 255 0 159 255 0 159 255 0 177 255 0 177 255 0 177 255 0 177 255 0 177 255 0 177 255 0 177 255 0 177 255 0 177 255 0 177 255 0 167 255 0 167 255 0 167 255 0 167 255 0 167 255 0 167 255 0 167 255 0 167 255 0 167 255 0 167 255 0 152 255 0 152 255 0 152 255 0 152 255 0 152 255 0 152 255 0 152 255 0 152 255 0 152 255 0 152 255 0 154 255 0 154 255 0 154 255 0 154 255 0 154 255 0 154 255 0 154 255 0 154 255 0 154 255 0 154 255 0 139 255 0 139 255 0 139 255 0 139 255 0 139 255 0 139 255 0 139 255 0 139 255 0 139 255 0 139 255 0 153 255 0 153 255 0 153 255 0 153 255 0 153 255 0 153 255 0 153 255 0 153 255 0 153 255 0 153 255 0 152 255 0 152 255 0 152 255 0 152 255 0 152 255 0 152 255 0 152 255 0 152 255 0 152 255 0 152 255 0 163 255 0 163 255 0 163 255 0 163 255 0 163 255 0 163 255 0 163 255 0 163 255 0 163 255 0 163 255 0 176 255 0 176 255 0 176 255 0 176 255 0 176 255 0 176 255 0 176 255 0 176 255 0 176 255 0 176 255 0 152 255 0 152 255 0 152 255 0 152 255 0 152 255 0 152 255 0 152 255 0 152 255 0 152 255 0 152 255 0 181 255 0 181 255 0 181 255 0 181 255 0 181 255 0 181 255 0 181 255 0 181 255 0 181 255 0 181 255 0 135 255 0 135 255 0 135 255 0 135 255 0 135 255 0 135 255 0 135 255 0 135 255 0 135 255 0 135 255 0 163 255 0 163 255 0 163 255 0 163 255 0 163 255 0 163 255 0 163 255 0 163 255 0 163 255 0 163 255 0 184 255 0 184 255 0 184 255 0 184 255 0 184 255 0 184 255 0 184 255 0 184 255 0 184 255 0 184 255 0 155 255 0 155 255 0 155 255 0 155 255 0 155 255 0 155 255 0 155 255 0 155 255 0 155 255 0 155 255 0 139 255 0 139 255 0 139 255 0 139 255 0 139 255 0 139 255 0 139 255 0 139 255 0 139 255 0 139 255 0 156 255 0 156 255 0 156 255 0 156 255 0 156 255 0 156 255 0 156 255 0 156 255 0 156 255 0 156 255 0 124 255 0 124 255 0 124 255 0 124 255 0 124 255 0 124 255 0 124 255 0 124 255 0 124 255 0 124 255 0 117 255 0 117 255 0 117 255 0 117 255 0 117 255 0 117 255 0 117 255 0 117 255 0 117 255 0 117 255 0 76 255 0 76 255 0 76 255 0 76 255 0 76 255 0 76 255 0 76 255 0 76 255 0 76 255 0 76 255 0 115 255 0 115 255 0 115 255 0 115 255 0 115 255 0 115 255 0 115 255 0 115 255 0 115 255 0 115 255 0 164 255 0 164 255 0 164 255 0 164 255 0 164 255 0 164 255 0 164 255 0 164 255 0 164 255 0 164 255 0 160 255 0 160 255 0 160 255 0 160 255 0 160 255 0 160 255 0 160 255 0 160 255 0 160 255 0 160 255 0 149 255 0 149 255 0 149 255 0 149 255 0 149 255 0 149 255 0 149 255 0 149 255 0 149 255 0 149 255 0 0 0 0 0 0 0 0 0 0 0 0 0 0 0 0 0 0 0 0 0 0 0 0 0 0 0 0 0 0 224 0 0 224 0 0 224 0 0 224 0 0 224 0 0 224 0 0 224 0 0 224 0 0 224 0 0 224 0 0 224 0 0 224 0 0 224 0 0 224 0 0 224 0 0 224 0 0 224 0 0 224 0 0 224 0 0 224 0 0 224 0 0 224 0 0 224 0 0 224 0 0 224 0 0 224 0 0 224 0 0 224 0 0 224 0 0 224 0 0 
0 152 255 0 152 255 0 152 255 0 152 255 0 152 255 0 152 255 0 152 255 0 152 255 0 152 255 0 152 255 0 146 255 0 146 255 0 146 255 0 146 255 0 146 255 0 146 255 0 146 255 0 146 255 0 146 255 0 146 255 0 154 255 0 154 255 0 154 255 0 154 255 0 154 255 0 154 255 0 154 255 0 154 255 0 154 255 0 154 255 0 159 255 0 159 255 0 159 255 0 159 255 0 159 255 0 159 255 0 159 255 0 159 255 0 159 255 0 159 255 0 177 255 0 177 255 0 177 255 0 177 255 0 177 255 0 177 255 0 177 255 0 177 255 0 177 255 0 177 255 0 167 255 0 167 255 0 167 255 0 167 255 0 167 255 0 167 255 0 167 255 0 167 255 0 167 255 0 167 255 0 152 255 0 152 255 0 152 255 0 152 255 0 152 255 0 152 255 0 152 255 0 152 255 0 152 255 0 152 255 0 154 255 0 154 255 0 154 255 0 154 255 0 154 255 0 154 255 0 154 255 0 154 255 0 154 255 0 154 255 0 139 255 0 139 255 0 139 255 0 139 255 0 139 255 0 139 255 0 139 255 0 139 255 0 139 255 0 139 255 0 153 255 0 153 255 0 153 255 0 153 255 0 153 255 0 153 255 0 153 255 0 153 255 0 153 255 0 153 255 0 152 255 0 152 255 0 152 255 0 152 255 0 152 255 0 152 255 0 152 255 0 152 255 0 152 255 0 152 255 0 163 255 0 163 255 0 163 255 0 163 255 0 163 255 0 163 255 0 163 255 0 163 255 0 163 255 0 163 255 0 176 255 0 176 255 0 176 255 0 176 255 0 176 255 0 176 255 0 176 255 0 176 255 0 176 255 0 176 255 0 152 255 0 152 255 0 152 255 0 152 255 0 152 255 0 152 255 0 152 255 0 152 255 0 152 255 0 152 255 0 181 255 0 181 255 0 181 255 0 181 255 0 181 255 0 181 255 0 181 255 0 181 255 0 181 255 0 181 255 0 135 255 0 135 255 0 135 255 0 135 255 0 135 255 0 135 255 0 135 255 0 135 255 0 135 255 0 135 255 0 163 255 0 163 255 0 163 255 0 163 255 0 163 255 0 163 255 0 163 255 0 163 255 0 163 255 0 163 255 0 184 255 0 184 255 0 184 255 0 184 255 0 184 255 0 184 255 0 184 255 0 184 255 0 184 255 0 184 255 0 155 255 0 155 255 0 155 255 0 155 255 0 155 255 0 155 255 0 155 255 0 155 255 0 155 255 0 155 255 0 139 255 0 139 255 0 139 255 0 139 255 0 139 255 0 139 255 0 139 255 0 139 255 0 139 255 0 139 255 0 156 255 0 156 255 0 156 255 0 156 255 0 156 255 0 156 255 0 156 255 0 156 255 0 156 255 0 156 255 0 124 255 0 124 255 0 124 255 0 124 255 0 124 255 0 124 255 0 124 255 0 124 255 0 124 255 0 124 255 0 117 255 0 117 255 0 117 255 0 117 255 0 117 255 0 117 255 0 117 255 0 117 255 0 117 255 0 117 255 0 76 255 0 76 255 0 76 255 0 76 255 0 76 255 0 76 255 0 76 255 0 76 255 0 76 255 0 76 255 0 115 255 0 115 255 0 115 255 0 115 255 0 115 255 0 115 255 0 115 255 0 115 255 0 115 255 0 115 255 0 164 255 0 164 255 0 164 255 0 164 255 0 164 255 0 164 255 0 164 255 0 164 255 0 164 255 0 164 255 0 160 255 0 160 255 0 160 255 0 160 255 0 160 255 0 160 255 0 160 255 0 160 255 0 160 255 0 160 255 0 149 255 0 149 255 0 149 255 0 149 255 0 149 255 0 149 255 0 149 255 0 149 255 0 149 255 0 149 255 0 0 0 0 0 0 0 0 0 0 0 0 0 0 0 0 0 0 0 0 0 0 0 0 0 0 0 0 0 0 221 0 0 221 0 0 221 0 0 221 0 0 221 0 0 221 0 0 221 0 0 221 0 0 221 0 0 221 0 0 221 0 0 221 0 0 221 0 0 221 0 0 221 0 0 221 0 0 221 0 0 221 0 0 221 0 0 221 0 0 221 0 0 221 0 0 221 0 0 221 0 0 221 0 0 221 0 0 221 0 0 221 0 0 221 0 0 221 0 0 
0 172 255 0 172 255 0 172 255 0 172 255 0 172 255 0 172 255 0 172 255 0 172 255 0 172 255 0 172 255 0 144 255 0 144 255 0 144 255 0 144 255 0 144 255 0 144 255 0 144 255 0 144 255 0 144 255 0 144 255 0 161 255 0 161 255 0 161 255 0 161 255 0 161 255 0 161 255 0 161 255 0 161 255 0 161 255 0 161 255 0 164 255 0 164 255 0 164 255 0 164 255 0 164 255 0 164 255 0 164 255 0 164 255 0 164 255 0 164 255 0 160 255 0 160 255 0 160 255 0 160 255 0 160 255 0 160 255 0 160 255 0 160 255 0 160 255 0 160 255 0 146 255 0 146 255 0 146 255 0 146 255 0 146 255 0 146 255 0 146 255 0 146 255 0 146 255 0 146 255 0 117 255 0 117 255 0 117 255 0 117 255 0 117 255 0 117 255 0 117 255 0 117 255 0 117 255 0 117 255 0 104 255 0 104 255 0 104 255 0 104 255 0 104 255 0 104 255 0 104 255 0 104 255 0 104 255 0 104 255 0 123 255 0 123 255 0 123 255 0 123 255 0 123 255 0 123 255 0 123 255 0 123 255 0 123 255 0 123 255 0 104 255 0 104 255 0 104 255 0 104 255 0 104 255 0 104 255 0 104 255 0 104 255 0 104 255 0 104 255 0 137 255 0 137 255 0 137 255 0 137 255 0 137 255 0 137 255 0 137 255 0 137 255 0 137 255 0 137 255 0 147 255 0 147 255 0 147 255 0 147 255 0 147 255 0 147 255 0 147 255 0 147 255 0 147 255 0 147 255 0 105 255 0 105 255 0 105 255 0 105 255 0 105 255 0 105 255 0 105 255 0 105 255 0 105 255 0 105 255 0 86 255 0 86 255 0 86 255 0 86 255 0 86 255 0 86 255 0 86 255 0 86 255 0 86 255 0 86 255 0 165 255 0 165 255 0 165 255 0 165 255 0 165 255 0 165 255 0 165 255 0 165 255 0 165 255 0 165 255 0 177 255 0 177 255 0 177 255 0 177 255 0 177 255 0 177 255 0 177 255 0 177 255 0 177 255 0 177 255 0 157 255 0 157 255 0 157 255 0 157 255 0 157 255 0 157 255 0 157 255 0 157 255 0 157 255 0 157 255 0 182 255 0 182 255 0 182 255 0 182 255 0 182 255 0 182 255 0 182 255 0 182 255 0 182 255 0 182 255 0 141 255 0 141 255 0 141 255 0 141 255 0 141 255 0 141 255 0 141 255 0 141 255 0 141 255 0 141 255 0 123 255 0 123 255 0 123 255 0 123 255 0 123 255 0 123 255 0 123 255 0 123 255 0 123 255 0 123 255 0 155 255 0 155 255 0 155 255 0 155 255 0 155 255 0 155 255 0 155 255 0 155 255 0 155 255 0 155 255 0 124 255 0 124 255 0 124 255 0 124 255 0 124 255 0 124 255 0 124 255 0 124 255 0 124 255 0 124 255 0 101 255 0 101 255 0 101 255 0 101 255 0 101 255 0 101 255 0 101 255 0 101 255 0 101 255 0 101 255 0 79 255 0 79 255 0 79 255 0 79 255 0 79 255 0 79 255 0 79 255 0 79 255 0 79 255 0 79 255 0 95 255 0 95 255 0 95 255 0 95 255 0 95 255 0 95 255 0 95 255 0 95 255 0 95 255 0 95 255 0 159 255 0 159 255 0 159 255 0 159 255 0 159 255 0 159 255 0 159 255 0 159 255 0 159 255 0 159 255 0 146 255 0 146 255 0 146 255 0 146 255 0 146 255 0 146 255 0 146 255 0 146 255 0 146 255 0 146 255 0 169 255 0 169 255 0 169 255 0 169 255 0 169 255 0 169 255 0 169 255 0 169 255 0 169 255 0 169 255 0 0 0 0 0 0 0 0 0 0 0 0 0 0 0 0 0 0 0 0 0 0 0 0 0 0 0 0 0 0 217 0 0 217 0 0 217 0 0 217 0 0 217 0 0 217 0 0 217 0 0 217 0 0 217 0 0 217 0 0 217 0 0 217 0 0 217 0 0 217 0 0 217 0 0 217 0 0 217 0 0 217 0 0 217 0 0 217 0 0 217 0 0 217 0 0 217 0 0 217 0 0 217 0 0 217 0 0 217 0 0 217 0 0 217 0 0 217 0 0 
0 172 255 0 172 255 0 172 255 0 172 255 0 172 255 0 172 255 0 172 255 0 172 255 0 172 255 0 172 255 0 144 255 0 144 255 0 144 255 0 144 255 0 144 255 0 144 255 0 144 255 0 144 255 0 144 255 0 144 255 0 161 255 0 161 255 0 161 255 0 161 255 0 161 255 0 161 255 0 161 255 0 161 255 0 161 255 0 161 255 0 164 255 0 164 255 0 164 255 0 164 255 0 164 255 0 164 255 0 164 255 0 164 255 0 164 255 0 164 255 0 160 255 0 160 255 0 160 255 0 160 255 0 160 255 0 160 255 0 160 255 0 160 255 0 160 255 0 160 255 0 146 255 0 146 255 0 146 255 0 146 255 0 146 255 0 146 255 0 146 255 0 146 255 0 146 255 0 146 255 0 117 255 0 117 255 0 117 255 0 117 255 0 117 255 0 117 255 0 117 255 0 117 255 0 117 255 0 117 255 0 104 255 0 104 255 0 104 255 0 104 255 0 104 255 0 104 255 0 104 255 0 104 255 0 104 255 0 104 255 0 123 255 0 123 255 0 123 255 0 123 255 0 123 255 0 123 255 0 123 255 0 123 255 0 123 255 0 123 255 0 104 255 0 104 255 0 104 255 0 104 255 0 104 255 0 104 255 0 104 255 0 104 255 0 104 255 0 104 255 0 137 255 0 137 255 0 137 255 0 137 255 0 137 255 0 137 255 0 137 255 0 137 255 0 137 255 0 137 255 0 147 255 0 147 255 0 147 255 0 147 255 0 147 255 0 147 255 0 147 255 0 147 255 0 147 255 0 147 255 0 105 255 0 105 255 0 105 255 0 105 255 0 105 255 0 105 255 0 105 255 0 105 255 0 105 255 0 105 255 0 86 255 0 86 255 0 86 255 0 86 255 0 86 255 0 86 255 0 86 255 0 86 255 0 86 255 0 86 255 0 165 255 0 165 255 0 165 255 0 165 255 0 165 255 0 165 255 0 165 255 0 165 255 0 165 255 0 165 255 0 177 255 0 177 255 0 177 255 0 177 255 0 177 255 0 177 255 0 177 255 0 177 255 0 177 255 0 177 255 0 157 255 0 157 255 0 157 255 0 157 255 0 157 255 0 157 255 0 157 255 0 157 255 0 157 255 0 157 255 0 182 255 0 182 255 0 182 255 0 182 255 0 182 255 0 182 255 0 182 255 0 182 255 0 182 255 0 182 255 0 141 255 0 141 255 0 141 255 0 141 255 0 141 255 0 141 255 0 141 255 0 141 255 0 141 255 0 141 255 0 123 255 0 123 255 0 123 255 0 123 255 0 123 255 0 123 255 0 123 255 0 123 255 0 123 255 0 123 255 0 155 255 0 155 255 0 155 255 0 155 255 0 155 255 0 155 255 0 155 255 0 155 255 0 155 255 0 155 255 0 124 255 0 124 255 0 124 255 0 124 255 0 124 255 0 124 255 0 124 255 0 124 255 0 124 255 0 124 255 0 101 255 0 101 255 0 101 255 0 101 255 0 101 255 0 101 255 0 101 255 0 101 255 0 101 255 0 101 255 0 79 255 0 79 255 0 79 255 0 79 255 0 79 255 0 79 255 0 79 255 0 79 255 0 79 255 0 79 255 0 95 255 0 95 255 0 95 255 0 95 255 0 95 255 0 95 255 0 95 255 0 95 255 0 95 255 0 95 255 0 159 255 0 159 255 0 159 255 0 159 255 0 159 255 0 159 255 0 159 255 0 159 255 0 159 255 0 159 255 0 146 255 0 146 255 0 146 255 0 146 255 0 146 255 0 146 255 0 146 255 0 146 255 0 146 255 0 146 255 0 169 255 0 169 255 0 169 255 0 169 255 0 169 255 0 169 255 0 169 255 0 169 255 0 169 255 0 169 255 0 0 0 0 0 0 0 0 0 0 0 0 0 0 0 0 0 0 0 0 0 0 0 0 0 0 0 0 0 0 213 0 0 213 0 0 213 0 0 213 0 0 213 0 0 213 0 0 213 0 0 213 0 0 213 0 0 213 0 0 213 0 0 213 0 0 213 0 0 213 0 0 213 0 0 213 0 0 213 0 0 213 0 0 213 0 0 213 0 0 213 0 0 213 0 0 213 0 0 213 0 0 213 0 0 213 0 0 213 0 0 213 0 0 213 0 0 213 0 0 
0 172 255 0 172 255 0 172 255 0 172 255 0 172 255 0 172 255 0 172 255 0 172 255 0 172 255 0 172 255 0 144 255 0 144 255 0 144 255 0 144 255 0 144 255 0 144 255 0 144 255 0 144 255 0 144 255 0 144 255 0 161 255 0 161 255 0 161 255 0 161 255 0 161 255 0 161 255 0 161 255 0 161 255 0 161 255 0 161 255 0 164 255 0 164 255 0 164 255 0 164 255 0 164 255 0 164 255 0 164 255 0 164 255 0 164 255 0 164 255 0 160 255 0 160 255 0 160 255 0 160 255 0 160 255 0 160 255 0 160 255 0 160 255 0 160 255 0 160 255 0 146 255 0 146 255 0 146 255 0 146 255 0 146 255 0 146 255 0 146 255 0 146 255 0 146 255 0 146 255 0 117 255 0 117 255 0 117 255 0 117 255 0 117 255 0 117 255 0 117 255 0 117 255 0 117 255 0 117 255 0 104 255 0 104 255 0 104 255 0 104 255 0 104 255 0 104 255 0 104 255 0 104 255 0 104 255 0 104 255 0 123 255 0 123 255 0 123 255 0 123 255 0 123 255 0 123 255 0 123 255 0 123 255 0 123 255 0 123 255 0 104 255 0 104 255 0 104 255 0 104 255 0 104 255 0 104 255 0 104 255 0 104 255 0 104 255 0 104 255 0 137 255 0 137 255 0 137 255 0 137 255 0 137 255 0 137 255 0 137 255 0 137 255 0 137 255 0 137 255 0 147 255 0 147 255 0 147 255 0 147 255 0 147 255 0 147 255 0 147 255 0 147 255 0 147 255 0 147 255 0 105 255 0 105 255 0 105 255 0 105 255 0 105 255 0 105 255 0 105 255 0 105 255 0 105 255 0 105 255 0 86 255 0 86 255 0 86 255 0 86 255 0 86 255 0 86 255 0 86 255 0 86 255 0 86 255 0 86 255 0 165 255 0 165 255 0 165 255 0 165 255 0 165 255 0 165 255 0 165 255 0 165 255 0 165 255 0 165 255 0 177 255 0 177 255 0 177 255 0 177 255 0 177 255 0 177 255 0 177 255 0 177 255 0 177 255 0 177 255 0 157 255 0 157 255 0 157 255 0 157 255 0 157 255 0 157 255 0 157 255 0 157 255 0 157 255 0 157 255 0 182 255 0 182 255 0 182 255 0 182 255 0 182 255 0 182 255 0 182 255 0 182 255 0 182 255 0 182 255 0 141 255 0 141 255 0 141 255 0 141 255 0 141 255 0 141 255 0 141 255 0 141 255 0 141 255 0 141 255 0 123 255 0 123 255 0 123 255 0 123 255 0 123 255 0 123 255 0 123 255 0 123 255 0 123 255 0 123 255 0 155 255 0 155 255 0 155 255 0 155 255 0 155 255 0 155 255 0 155 255 0 155 255 0 155 255 0 155 255 0 124 255 0 124 255 0 124 255 0 124 255 0 124 255 0 124 255 0 124 255 0 124 255 0 124 255 0 124 255 0 101 255 0 101 255 0 101 255 0 101 255 0 101 255 0 101 255 0 101 255 0 101 255 0 101 255 0 101 255 0 79 255 0 79 255 0 79 255 0 79 255 0 79 255 0 79 255 0 79 255 0 79 255 0 79 255 0 79 255 0 95 255 0 95 255 0 95 255 0 95 255 0 95 255 0 95 255 0 95 255 0 95 255 0 95 255 0 95 255 0 159 255 0 159 255 0 159 255 0 159 255 0 159 255 0 159 255 0 159 255 0 159 255 0 159 255 0 159 255 0 146 255 0 146 255 0 146 255 0 146 255 0 146 255 0 146 255 0 146 255 0 146 255 0 146 255 0 146 255 0 169 255 0 169 255 0 169 255 0 169 255 0 169 255 0 169 255 0 169 255 0 169 255 0 169 255 0 169 255 0 0 0 0 0 0 0 0 0 0 0 0 0 0 0 0 0 0 0 0 0 0 0 0 0 0 0 0 0 0 210 0 0 210 0 0 210 0 0 210 0 0 210 0 0 210 0 0 210 0 0 210 0 0 210 0 0 210 0 0 210 0 0 210 0 0 210 0 0 210 0 0 210 0 0 210 0 0 210 0 0 210 0 0 210 0 0 210 0 0 210 0 0 210 0 0 210 0 0 210 0 0 210 0 0 210 0 0 210 0 0 210 0 0 210 0 0 210 0 0 
0 172 255 0 172 255 0 172 255 0 172 255 0 172 255 0 172 255 0 172 255 0 172 255 0 172 255 0 172 255 0 144 255 0 144 255 0 144 255 0 144 255 0 144 255 0 144 255 0 144 255 0 144 255 0 144 255 0 144 255 0 161 255 0 161 255 0 161 255 0 161 255 0 161 255 0 161 255 0 161 255 0 161 255 0 161 255 0 161 255 0 164 255 0 164 255 0 164 255 0 164 255 0 164 255 0 164 255 0 164 255 0 164 255 0 164 255 0 164 255 0 160 255 0 160 255 0 160 255 0 160 255 0 160 255 0 160 255 0 160 255 0 160 255 0 160 255 0 160 255 0 146 255 0 146 255 0 146 255 0 146 255 0 146 255 0 146 255 0 146 255 0 146 255 0 146 255 0 146 255 0 117 255 0 117 255 0 117 255 0 117 255 0 117 255 0 117 255 0 117 255 0 117 255 0 117 255 0 117 255 0 104 255 0 104 255 0 104 255 0 104 255 0 104 255 0 104 255 0 104 255 0 104 255 0 104 255 0 104 255 0 123 255 0 123 255 0 123 255 0 123 255 0 123 255 0 123 255 0 123 255 0 123 255 0 123 255 0 123 255 0 104 255 0 104 255 0 104 255 0 104 255 0 104 255 0 104 255 0 104 255 0 104 255 0 104 255 0 104 255 0 137 255 0 137 255 0 137 255 0 137 255 0 137 255 0 137 255 0 137 255 0 137 255 0 137 255 0 137 255 0 147 255 0 147 255 0 147 255 0 147 255 0 147 255 0 147 255 0 147 255 0 147 255 0 147 255 0 147 255 0 105 255 0 105 255 0 105 255 0 105 255 0 105 255 0 105 255 0 105 255 0 105 255 0 105 255 0 105 255 0 86 255 0 86 255 0 86 255 0 86 255 0 86 255 0 86 255 0 86 255 0 86 255 0 86 255 0 86 255 0 165 255 0 165 255 0 165 255 0 165 255 0 165 255 0 165 255 0 165 255 0 165 255 0 165 255 0 165 255 0 177 255 0 177 255 0 177 255 0 177 255 0 177 255 0 177 255 0 177 255 0 177 255 0 177 255 0 177 255 0 157 255 0 157 255 0 157 255 0 157 255 0 157 255 0 157 255 0 157 255 0 157 255 0 157 255 0 157 255 0 182 255 0 182 255 0 182 255 0 182 255 0 182 255 0 182 255 0 182 255 0 182 255 0 182 255 0 182 255 0 141 255 0 141 255 0 141 255 0 141 255 0 141 255 0 141 255 0 141 255 0 141 255 0 141 255 0 141 255 0 123 255 0 123 255 0 123 255 0 123 255 0 123 255 0 123 255 0 123 255 0 123 255 0 123 255 0 123 255 0 155 255 0 155 255 0 155 255 0 155 255 0 155 255 0 155 255 0 155 255 0 155 255 0 155 255 0 155 255 0 124 255 0 124 255 0 124 255 0 124 255 0 124 255 0 124 255 0 124 255 0 124 255 0 124 255 0 124 255 0 101 255 0 101 255 0 101 255 0 101 255 0 101 255 0 101 255 0 101 255 0 101 255 0 101 255 0 101 255 0 79 255 0 79 255 0 79 255 0 79 255 0 79 255 0 79 255 0 79 255 0 79 255 0 79 255 0 79 255 0 95 255 0 95 255 0 95 255 0 95 255 0 95 255 0 95 255 0 95 255 0 95 255 0 95 255 0 95 255 0 159 255 0 159 255 0 159 255 0 159 255 0 159 255 0 159 255 0 159 255 0 159 255 0 159 255 0 159 255 0 146 255 0 146 255 0 146 255 0 146 255 0 146 255 0 146 255 0 146 255 0 146 255 0 146 255 0 146 255 0 169 255 0 169 255 0 169 255 0 169 255 0 169 255 0 169 255 0 169 255 0 169 255 0 169 255 0 169 255 0 0 0 0 0 0 0 0 0 0 0 0 0 0 0 0 0 0 0 0 0 0 0 0 0 0 0 0 0 0 206 0 0 206 0 0 206 0 0 206 0 0 206 0 0 206 0 0 206 0 0 206 0 0 206 0 0 206 0 0 206 0 0 206 0 0 206 0 0 206 0 0 206 0 0 206 0 0 206 0 0 206 0 0 206 0 0 206 0 0 206 0 0 206 0 0 206 0 0 206 0 0 206 0 0 206 0 0 206 0 0 206 0 0 206 0 0 206 0 0 
0 172 255 0 172 255 0 172 255 0 172 255 0 172 255 0 172 255 0 172 255 0 172 255 0 172 255 0 172 255 0 144 255 0 144 255 0 144 255 0 144 255 0 144 255 0 144 255 0 144 255 0 144 255 0 144 255 0 144 255 0 161 255 0 161 255 0 161 255 0 161 255 0 161 255 0 161 255 0 161 255 0 161 255 0 161 255 0 161 255 0 164 255 0 164 255 0 164 255 0 164 255 0 164 255 0 164 255 0 164 255 0 164 255 0 164 255 0 164 255 0 160 255 0 160 255 0 160 255 0 160 255 0 160 255 0 160 255 0 160 255 0 160 255 0 160 255 0 160 255 0 146 255 0 146 255 0 146 255 0 146 255 0 146 255 0 146 255 0 146 255 0 146 255 0 146 255 0 146 255 0 117 255 0 117 255 0 117 255 0 117 255 0 117 255 0 117 255 0 117 255 0 117 255 0 117 255 0 117 255 0 104 255 0 104 255 0 104 255 0 104 255 0 104 255 0 104 255 0 104 255 0 104 255 0 104 255 0 104 255 0 123 255 0 123 255 0 123 255 0 123 255 0 123 255 0 123 255 0 123 255 0 123 255 0 123 255 0 123 255 0 104 255 0 104 255 0 104 255 0 104 255 0 104 255 0 104 255 0 104 255 0 104 255 0 104 255 0 104 255 0 137 255 0 137 255 0 137 255 0 137 255 0 137 255 0 137 255 0 137 255 0 137 255 0 137 255 0 137 255 0 147 255 0 147 255 0 147 255 0 147 255 0 147 255 0 147 255 0 147 255 0 147 255 0 147 255 0 147 255 0 105 255 0 105 255 0 105 255 0 105 255 0 105 255 0 105 255 0 105 255 0 105 255 0 105 255 0 105 255 0 86 255 0 86 255 0 86 255 0 86 255 0 86 255 0 86 255 0 86 255 0 86 255 0 86 255 0 86 255 0 165 255 0 165 255 0 165 255 0 165 255 0 165 255 0 165 255 0 165 255 0 165 255 0 165 255 0 165 255 0 177 255 0 177 255 0 177 255 0 177 255 0 177 255 0 177 255 0 177 255 0 177 255 0 177 255 0 177 255 0 157 255 0 157 255 0 157 255 0 157 255 0 157 255 0 157 255 0 157 255 0 157 255 0 157 255 0 157 255 0 182 255 0 182 255 0 182 255 0 182 255 0 182 255 0 182 255 0 182 255 0 182 255 0 182 255 0 182 255 0 141 255 0 141 255 0 141 255 0 141 255 0 141 255 0 141 255 0 141 255 0 141 255 0 141 255 0 141 255 0 123 255 0 123 255 0 123 255 0 123 255 0 123 255 0 123 255 0 123 255 0 123 255 0 123 255 0 123 255 0 155 255 0 155 255 0 155 255 0 155 255 0 155 255 0 155 255 0 155 255 0 155 255 0 155 255 0 155 255 0 124 255 0 124 255 0 124 255 0 124 255 0 124 255 0 124 255 0 124 255 0 124 255 0 124 255 0 124 255 0 101 255 0 101 255 0 101 255 0 101 255 0 101 255 0 101 255 0 101 255 0 101 255 0 101 255 0 101 255 0 79 255 0 79 255 0 79 255 0 79 255 0 79 255 0 79 255 0 79 255 0 79 255 0 79 255 0 79 255 0 95 255 0 95 255 0 95 255 0 95 255 0 95 255 0 95 255 0 95 255 0 95 255 0 95 255 0 95 255 0 159 255 0 159 255 0 159 255 0 159 255 0 159 255 0 159 255 0 159 255 0 159 255 0 159 255 0 159 255 0 146 255 0 146 255 0 146 255 0 146 255 0 146 255 0 146 255 0 146 255 0 146 255 0 146 255 0 146 255 0 169 255 0 169 255 0 169 255 0 169 255 0 169 255 0 169 255 0 169 255 0 169 255 0 169 255 0 169 255 0 0 0 0 0 0 0 0 0 0 0 0 0 0 0 0 0 0 0 0 0 0 0 0 0 0 0 0 0 0 202 0 0 202 0 0 202 0 0 202 0 0 202 0 0 202 0 0 202 0 0 202 0 0 202 0 0 202 0 0 202 0 0 202 0 0 202 0 0 202 0 0 202 0 0 202 0 0 202 0 0 202 0 0 202 0 0 202 0 0 202 0 0 202 0 0 202 0 0 202 0 0 202 0 0 202 0 0 202 0 0 202 0 0 202 0 0 202 0 0 
0 172 255 0 172 255 0 172 255 0 172 255 0 172 255 0 172 255 0 172 255 0 172 255 0 172 255 0 172 255 0 144 255 0 144 255 0 144 255 0 144 255 0 144 255 0 144 255 0 144 255 0 144 255 0 144 255 0 144 255 0 161 255 0 161 255 0 161 255 0 161 255 0 161 255 0 161 255 0 161 255 0 161 255 0 161 255 0 161 255 0 164 255 0 164 255 0 164 255 0 164 255 0 164 255 0 164 255 0 164 255 0 164 255 0 164 255 0 164 255 0 160 255 0 160 255 0 160 255 0 160 255 0 160 255 0 160 255 0 160 255 0 160 255 0 160 255 0 160 255 0 146 255 0 146 255 0 146 255 0 146 255 0 146 255 0 146 255 0 146 255 0 146 255 0 146 255 0 146 255 0 117 255 0 117 255 0 117 255 0 117 255 0 117 255 0 117 255 0 117 255 0 117 255 0 117 255 0 117 255 0 104 255 0 104 255 0 104 255 0 104 255 0 104 255 0 104 255 0 104 255 0 104 255 0 104 255 0 104 255 0 123 255 0 123 255 0 123 255 0 123 255 0 123 255 0 123 255 0 123 255 0 123 255 0 123 255 0 123 255 0 104 255 0 104 255 0 104 255 0 104 255 0 104 255 0 104 255 0 104 255 0 104 255 0 104 255 0 104 255 0 137 255 0 137 255 0 137 255 0 137 255 0 137 255 0 137 255 0 137 255 0 137 255 0 137 255 0 137 255 0 147 255 0 147 255 0 147 255 0 147 255 0 147 255 0 147 255 0 147 255 0 147 255 0 147 255 0 147 255 0 105 255 0 105 255 0 105 255 0 105 255 0 105 255 0 105 255 0 105 255 0 105 255 0 105 255 0 105 255 0 86 255 0 86 255 0 86 255 0 86 255 0 86 255 0 86 255 0 86 255 0 86 255 0 86 255 0 86 255 0 165 255 0 165 255 0 165 255 0 165 255 0 165 255 0 165 255 0 165 255 0 165 255 0 165 255 0 165 255 0 177 255 0 177 255 0 177 255 0 177 255 0 177 255 0 177 255 0 177 255 0 177 255 0 177 255 0 177 255 0 157 255 0 157 255 0 157 255 0 157 255 0 157 255 0 157 255 0 157 255 0 157 255 0 157 255 0 157 255 0 182 255 0 182 255 0 182 255 0 182 255 0 182 255 0 182 255 0 182 255 0 182 255 0 182 255 0 182 255 0 141 255 0 141 255 0 141 255 0 141 255 0 141 255 0 141 255 0 141 255 0 141 255 0 141 255 0 141 255 0 123 255 0 123 255 0 123 255 0 123 255 0 123 255 0 123 255 0 123 255 0 123 255 0 123 255 0 123 255 0 155 255 0 155 255 0 155 255 0 155 255 0 155 255 0 155 255 0 155 255 0 155 255 0 155 255 0 155 255 0 124 255 0 124 255 0 124 255 0 124 255 0 124 255 0 124 255 0 124 255 0 124 255 0 124 255 0 124 255 0 101 255 0 101 255 0 101 255 0 101 255 0 101 255 0 101 255 0 101 255 0 101 255 0 101 255 0 101 255 0 79 255 0 79 255 0 79 255 0 79 255 0 79 255 0 79 255 0 79 255 0 79 255 0 79 255 0 79 255 0 95 255 0 95 255 0 95 255 0 95 255 0 95 255 0 95 255 0 95 255 0 95 255 0 95 255 0 95 255 0 159 255 0 159 255 0 159 255 0 159 255 0 159 255 0 159 255 0 159 255 0 159 255 0 159 255 0 159 255 0 146 255 0 146 255 0 146 255 0 146 255 0 146 255 0 146 255 0 146 255 0 146 255 0 146 255 0 146 255 0 169 255 0 169 255 0 169 255 0 169 255 0 169 255 0 169 255 0 169 255 0 169 255 0 169 255 0 169 255 0 0 0 0 0 0 0 0 0 0 0 0 0 0 0 0 0 0 0 0 0 0 0 0 0 0 0 0 0 0 199 0 0 199 0 0 199 0 0 199 0 0 199 0 0 199 0 0 199 0 0 199 0 0 199 0 0 199 0 0 199 0 0 199 0 0 199 0 0 199 0 0 199 0 0 199 0 0 199 0 0 199 0 0 199 0 0 199 0 0 199 0 0 199 0 0 199 0 0 199 0 0 199 0 0 199 0 0 199 0 0 199 0 0 199 0 0 199 0 0 
0 172 255 0 172 255 0 172 255 0 172 255 0 172 255 0 172 255 0 172 255 0 172 255 0 172 255 0 172 255 0 144 255 0 144 255 0 144 255 0 144 255 0 144 255 0 144 255 0 144 255 0 144 255 0 144 255 0 144 255 0 161 255 0 161 255 0 161 255 0 161 255 0 161 255 0 161 255 0 161 255 0 161 255 0 161 255 0 161 255 0 164 255 0 164 255 0 164 255 0 164 255 0 164 255 0 164 255 0 164 255 0 164 255 0 164 255 0 164 255 0 160 255 0 160 255 0 160 255 0 160 255 0 160 255 0 160 255 0 160 255 0 160 255 0 160 255 0 160 255 0 146 255 0 146 255 0 146 255 0 146 255 0 146 255 0 146 255 0 146 255 0 146 255 0 146 255 0 146 255 0 117 255 0 117 255 0 117 255 0 117 255 0 117 255 0 117 255 0 117 255 0 117 255 0 117 255 0 117 255 0 104 255 0 104 255 0 104 255 0 104 255 0 104 255 0 104 255 0 104 255 0 104 255 0 104 255 0 104 255 0 123 255 0 123 255 0 123 255 0 123 255 0 123 255 0 123 255 0 123 255 0 123 255 0 123 255 0 123 255 0 104 255 0 104 255 0 104 255 0 104 255 0 104 255 0 104 255 0 104 255 0 104 255 0 104 255 0 104 255 0 137 255 0 137 255 0 137 255 0 137 255 0 137 255 0 137 255 0 137 255 0 137 255 0 137 255 0 137 255 0 147 255 0 147 255 0 147 255 0 147 255 0 147 255 0 147 255 0 147 255 0 147 255 0 147 255 0 147 255 0 105 255 0 105 255 0 105 255 0 105 255 0 105 255 0 105 255 0 105 255 0 105 255 0 105 255 0 105 255 0 86 255 0 86 255 0 86 255 0 86 255 0 86 255 0 86 255 0 86 255 0 86 255 0 86 255 0 86 255 0 165 255 0 165 255 0 165 255 0 165 255 0 165 255 0 165 255 0 165 255 0 165 255 0 165 255 0 165 255 0 177 255 0 177 255 0 177 255 0 177 255 0 177 255 0 177 255 0 177 255 0 177 255 0 177 255 0 177 255 0 157 255 0 157 255 0 157 255 0 157 255 0 157 255 0 157 255 0 157 255 0 157 255 0 157 255 0 157 255 0 182 255 0 182 255 0 182 255 0 182 255 0 182 255 0 182 255 0 182 255 0 182 255 0 182 255 0 182 255 0 141 255 0 141 255 0 141 255 0 141 255 0 141 255 0 141 255 0 141 255 0 141 255 0 141 255 0 141 255 0 123 255 0 123 255 0 123 255 0 123 255 0 123 255 0 123 255 0 123 255 0 123 255 0 123 255 0 123 255 0 155 255 0 155 255 0 155 255 0 155 255 0 155 255 0 155 255 0 155 255 0 155 255 0 155 255 0 155 255 0 124 255 0 124 255 0 124 255 0 124 255 0 124 255 0 124 255 0 124 255 0 124 255 0 124 255 0 124 255 0 101 255 0 101 255 0 101 255 0 101 255 0 101 255 0 101 255 0 101 255 0 101 255 0 101 255 0 101 255 0 79 255 0 79 255 0 79 255 0 79 255 0 79 255 0 79 255 0 79 255 0 79 255 0 79 255 0 79 255 0 95 255 0 95 255 0 95 255 0 95 255 0 95 255 0 95 255 0 95 255 0 95 255 0 95 255 0 95 255 0 159 255 0 159 255 0 159 255 0 159 255 0 159 255 0 159 255 0 159 255 0 159 255 0 159 255 0 159 255 0 146 255 0 146 255 0 146 255 0 146 255 0 146 255 0 146 255 0 146 255 0 146 255 0 146 255 0 146 255 0 169 255 0 169 255 0 169 255 0 169 255 0 169 255 0 169 255 0 169 255 0 169 255 0 169 255 0 169 255 0 0 0 0 0 0 0 0 0 0 0 0 0 0 0 0 0 0 0 0 0 0 0 0 0 0 0 0 0 0 195 0 0 195 0 0 195 0 0 195 0 0 195 0 0 195 0 0 195 0 0 195 0 0 195 0 0 195 0 0 195 0 0 195 0 0 195 0 0 195 0 0 195 0 0 195 0 0 195 0 0 195 0 0 195 0 0 195 0 0 195 0 0 195 0 0 195 0 0 195 0 0 195 0 0 195 0 0 195 0 0 195 0 0 195 0 0 195 0 0 
0 172 255 0 172 255 0 172 255 0 172 255 0 172 255 0 172 255 0 172 255 0 172 255 0 172 255 0 172 255 0 144 255 0 144 255 0 144 255 0 144 255 0 144 255 0 144 255 0 144 255 0 144 255 0 144 255 0 144 255 0 161 255 0 161 255 0 161 255 0 161 255 0 161 255 0 161 255 0 161 255 0 161 255 0 161 255 0 161 255 0 164 255 0 164 255 0 164 255 0 164 255 0 164 255 0 164 255 0 164 255 0 164 255 0 164 255 0 164 255 0 160 255 0 160 255 0 160 255 0 160 255 0 160 255 0 160 255 0 160 255 0 160 255 0 160 255 0 160 255 0 146 255 0 146 255 0 146 255 0 146 255 0 146 255 0 146 255 0 146 255 0 146 255 0 146 255 0 146 255 0 117 255 0 117 255 0 117 255 0 117 255 0 117 255 0 117 255 0 117 255 0 117 255 0 117 255 0 117 255 0 104 255 0 104 255 0 104 255 0 104 255 0 104 255 0 104 255 0 104 255 0 104 255 0 104 255 0 104 255 0 123 255 0 123 255 0 123 255 0 123 255 0 123 255 0 123 255 0 123 255 0 123 255 0 123 255 0 123 255 0 104 255 0 104 255 0 104 255 0 104 255 0 104 255 0 104 255 0 104 255 0 104 255 0 104 255 0 104 255 0 137 255 0 137 255 0 137 255 0 137 255 0 137 255 0 137 255 0 137 255 0 137 255 0 137 255 0 137 255 0 147 255 0 147 255 0 147 255 0 147 255 0 147 255 0 147 255 0 147 255 0 147 255 0 147 255 0 147 255 0 105 255 0 105 255 0 105 255 0 105 255 0 105 255 0 105 255 0 105 255 0 105 255 0 105 255 0 105 255 0 86 255 0 86 255 0 86 255 0 86 255 0 86 255 0 86 255 0 86 255 0 86 255 0 86 255 0 86 255 0 165 255 0 165 255 0 165 255 0 165 255 0 165 255 0 165 255 0 165 255 0 165 255 0 165 255 0 165 255 0 177 255 0 177 255 0 177 255 0 177 255 0 177 255 0 177 255 0 177 255 0 177 255 0 177 255 0 177 255 0 157 255 0 157 255 0 157 255 0 157 255 0 157 255 0 157 255 0 157 255 0 157 255 0 157 255 0 157 255 0 182 255 0 182 255 0 182 255 0 182 255 0 182 255 0 182 255 0 182 255 0 182 255 0 182 255 0 182 255 0 141 255 0 141 255 0 141 255 0 141 255 0 141 255 0 141 255 0 141 255 0 141 255 0 141 255 0 141 255 0 123 255 0 123 255 0 123 255 0 123 255 0 123 255 0 123 255 0 123 255 0 123 255 0 123 255 0 123 255 0 155 255 0 155 255 0 155 255 0 155 255 0 155 255 0 155 255 0 155 255 0 155 255 0 155 255 0 155 255 0 124 255 0 124 255 0 124 255 0 124 255 0 124 255 0 124 255 0 124 255 0 124 255 0 124 255 0 124 255 0 101 255 0 101 255 0 101 255 0 101 255 0 101 255 0 101 255 0 101 255 0 101 255 0 101 255 0 101 255 0 79 255 0 79 255 0 79 255 0 79 255 0 79 255 0 79 255 0 79 255 0 79 255 0 79 255 0 79 255 0 95 255 0 95 255 0 95 255 0 95 255 0 95 255 0 95 255 0 95 255 0 95 255 0 95 255 0 95 255 0 159 255 0 159 255 0 159 255 0 159 255 0 159 255 0 159 255 0 159 255 0 159 255 0 159 255 0 159 255 0 146 255 0 146 255 0 146 255 0 146 255 0 146 255 0 146 255 0 146 255 0 146 255 0 146 255 0 146 255 0 169 255 0 169 255 0 169 255 0 169 255 0 169 255 0 169 255 0 169 255 0 169 255 0 169 255 0 169 255 0 0 0 0 0 0 0 0 0 0 0 0 0 0 0 0 0 0 0 0 0 0 0 0 0 0 0 0 0 0 191 0 0 191 0 0 191 0 0 191 0 0 191 0 0 191 0 0 191 0 0 191 0 0 191 0 0 191 0 0 191 0 0 191 0 0 191 0 0 191 0 0 191 0 0 191 0 0 191 0 0 191 0 0 191 0 0 191 0 0 191 0 0 191 0 0 191 0 0 191 0 0 191 0 0 191 0 0 191 0 0 191 0 0 191 0 0 191 0 0 
0 172 255 0 172 255 0 172 255 0 172 255 0 172 255 0 172 255 0 172 255 0 172 255 0 172 255 0 172 255 0 144 255 0 144 255 0 144 255 0 144 255 0 144 255 0 144 255 0 144 255 0 144 255 0 144 255 0 144 255 0 161 255 0 161 255 0 161 255 0 161 255 0 161 255 0 161 255 0 161 255 0 161 255 0 161 255 0 161 255 0 164 255 0 164 255 0 164 255 0 164 255 0 164 255 0 164 255 0 164 255 0 164 255 0 164 255 0 164 255 0 160 255 0 160 255 0 160 255 0 160 255 0 160 255 0 160 255 0 160 255 0 160 255 0 160 255 0 160 255 0 146 255 0 146 255 0 146 255 0 146 255 0 146 255 0 146 255 0 146 255 0 146 255 0 146 255 0 146 255 0 117 255 0 117 255 0 117 255 0 117 255 0 117 255 0 117 255 0 117 255 0 117 255 0 117 255 0 117 255 0 104 255 0 104 255 0 104 255 0 104 255 0 104 255 0 104 255 0 104 255 0 104 255 0 104 255 0 104 255 0 123 255 0 123 255 0 123 255 0 123 255 0 123 255 0 123 255 0 123 255 0 123 255 0 123 255 0 123 255 0 104 255 0 104 255 0 104 255 0 104 255 0 104 255 0 104 255 0 104 255 0 104 255 0 104 255 0 104 255 0 137 255 0 137 255 0 137 255 0 137 255 0 137 255 0 137 255 0 137 255 0 137 255 0 137 255 0 137 255 0 147 255 0 147 255 0 147 255 0 147 255 0 147 255 0 147 255 0 147 255 0 147 255 0 147 255 0 147 255 0 105 255 0 105 255 0 105 255 0 105 255 0 105 255 0 105 255 0 105 255 0 105 255 0 105 255 0 105 255 0 86 255 0 86 255 0 86 255 0 86 255 0 86 255 0 86 255 0 86 255 0 86 255 0 86 255 0 86 255 0 165 255 0 165 255 0 165 255 0 165 255 0 165 255 0 165 255 0 165 255 0 165 255 0 165 255 0 165 255 0 177 255 0 177 255 0 177 255 0 177 255 0 177 255 0 177 255 0 177 255 0 177 255 0 177 255 0 177 255 0 157 255 0 157 255 0 157 255 0 157 255 0 157 255 0 157 255 0 157 255 0 157 255 0 157 255 0 157 255 0 182 255 0 182 255 0 182 255 0 182 255 0 182 255 0 182 255 0 182 255 0 182 255 0 182 255 0 182 255 0 141 255 0 141 255 0 141 255 0 141 255 0 141 255 0 141 255 0 141 255 0 141 255 0 141 255 0 141 255 0 123 255 0 123 255 0 123 255 0 123 255 0 123 255 0 123 255 0 123 255 0 123 255 0 123 255 0 123 255 0 155 255 0 155 255 0 155 255 0 155 255 0 155 255 0 155 255 0 155 255 0 155 255 0 155 255 0 155 255 0 124 255 0 124 255 0 124 255 0 124 255 0 124 255 0 124 255 0 124 255 0 124 255 0 124 255 0 124 255 0 101 255 0 101 255 0 101 255 0 101 255 0 101 255 0 101 255 0 101 255 0 101 255 0 101 255 0 101 255 0 79 255 0 79 255 0 79 255 0 79 255 0 79 255 0 79 255 0 79 255 0 79 255 0 79 255 0 79 255 0 95 255 0 95 255 0 95 255 0 95 255 0 95 255 0 95 255 0 95 255 0 95 255 0 95 255 0 95 255 0 159 255 0 159 255 0 159 255 0 159 255 0 159 255 0 159 255 0 159 255 0 159 255 0 159 255 0 159 255 0 146 255 0 146 255 0 146 255 0 146 255 0 146 255 0 146 255 0 146 255 0 146 255 0 146 255 0 146 255 0 169 255 0 169 255 0 169 255 0 169 255 0 169 255 0 169 255 0 169 255 0 169 255 0 169 255 0 169 255 0 0 0 0 0 0 0 0 0 0 0 0 0 0 0 0 0 0 0 0 0 0 0 0 0 0 0 0 0 0 188 0 0 188 0 0 188 0 0 188 0 0 188 0 0 188 0 0 188 0 0 188 0 0 188 0 0 188 0 0 188 0 0 188 0 0 188 0 0 188 0 0 188 0 0 188 0 0 188 0 0 188 0 0 188 0 0 188 0 0 188 0 0 188 0 0 188 0 0 188 0 0 188 0 0 188 0 0 188 0 0 188 0 0 188 0 0 188 0 0 
0 172 255 0 172 255 0 172 255 0 172 255 0 172 255 0 172 255 0 172 255 0 172 255 0 172 255 0 172 255 0 144 255 0 144 255 0 144 255 0 144 255 0 144 255 0 144 255 0 144 255 0 144 255 0 144 255 0 144 255 0 161 255 0 161 255 0 161 255 0 161 255 0 161 255 0 161 255 0 161 255 0 161 255 0 161 255 0 161 255 0 164 255 0 164 255 0 164 255 0 164 255 0 164 255 0 164 255 0 164 255 0 164 255 0 164 255 0 164 255 0 160 255 0 160 255 0 160 255 0 160 255 0 160 255 0 160 255 0 160 255 0 160 255 0 160 255 0 160 255 0 146 255 0 146 255 0 146 255 0 146 255 0 146 255 0 146 255 0 146 255 0 146 255 0 146 255 0 146 255 0 117 255 0 117 255 0 117 255 0 117 255 0 117 255 0 117 255 0 117 255 0 117 255 0 117 255 0 117 255 0 104 255 0 104 255 0 104 255 0 104 255 0 104 255 0 104 255 0 104 255 0 104 255 0 104 255 0 104 255 0 123 255 0 123 255 0 123 255 0 123 255 0 123 255 0 123 255 0 123 255 0 123 255 0 123 255 0 123 255 0 104 255 0 104 255 0 104 255 0 104 255 0 104 255 0 104 255 0 104 255 0 104 255 0 104 255 0 104 255 0 137 255 0 137 255 0 137 255 0 137 255 0 137 255 0 137 255 0 137 255 0 137 255 0 137 255 0 137 255 0 147 255 0 147 255 0 147 255 0 147 255 0 147 255 0 147 255 0 147 255 0 147 255 0 147 255 0 147 255 0 105 255 0 105 255 0 105 255 0 105 255 0 105 255 0 105 255 0 105 255 0 105 255 0 105 255 0 105 255 0 86 255 0 86 255 0 86 255 0 86 255 0 86 255 0 86 255 0 86 255 0 86 255 0 86 255 0 86 255 0 165 255 0 165 255 0 165 255 0 165 255 0 165 255 0 165 255 0 165 255 0 165 255 0 165 255 0 165 255 0 177 255 0 177 255 0 177 255 0 177 255 0 177 255 0 177 255 0 177 255 0 177 255 0 177 255 0 177 255 0 157 255 0 157 255 0 157 255 0 157 255 0 157 255 0 157 255 0 157 255 0 157 255 0 157 255 0 157 255 0 182 255 0 182 255 0 182 255 0 182 255 0 182 255 0 182 255 0 182 255 0 182 255 0 182 255 0 182 255 0 141 255 0 141 255 0 141 255 0 141 255 0 141 255 0 141 255 0 141 255 0 141 255 0 141 255 0 141 255 0 123 255 0 123 255 0 123 255 0 123 255 0 123 255 0 123 255 0 123 255 0 123 255 0 123 255 0 123 255 0 155 255 0 155 255 0 155 255 0 155 255 0 155 255 0 155 255 0 155 255 0 155 255 0 155 255 0 155 255 0 124 255 0 124 255 0 124 255 0 124 255 0 124 255 0 124 255 0 124 255 0 124 255 0 124 255 0 124 255 0 101 255 0 101 255 0 101 255 0 101 255 0 101 255 0 101 255 0 101 255 0 101 255 0 101 255 0 101 255 0 79 255 0 79 255 0 79 255 0 79 255 0 79 255 0 79 255 0 79 255 0 79 255 0 79 255 0 79 255 0 95 255 0 95 255 0 95 255 0 95 255 0 95 255 0 95 255 0 95 255 0 95 255 0 95 255 0 95 255 0 159 255 0 159 255 0 159 255 0 159 255 0 159 255 0 159 255 0 159 255 0 159 255 0 159 255 0 159 255 0 146 255 0 146 255 0 146 255 0 146 255 0 146 255 0 146 255 0 146 255 0 146 255 0 146 255 0 146 255 0 169 255 0 169 255 0 169 255 0 169 255 0 169 255 0 169 255 0 169 255 0 169 255 0 169 255 0 169 255 0 0 0 0 0 0 0 0 0 0 0 0 0 0 0 0 0 0 0 0 0 0 0 0 0 0 0 0 0 0 184 0 0 184 0 0 184 0 0 184 0 0 184 0 0 184 0 0 184 0 0 184 0 0 184 0 0 184 0 0 184 0 0 184 0 0 184 0 0 184 0 0 184 0 0 184 0 0 184 0 0 184 0 0 184 0 0 184 0 0 184 0 0 184 0 0 184 0 0 184 0 0 184 0 0 184 0 0 184 0 0 184 0 0 184 0 0 184 0 0 
0 160 255 0 160 255 0 160 255 0 160 255 0 160 255 0 160 255 0 160 255 0 160 255 0 160 255 0 160 255 0 148 255 0 148 255 0 148 255 0 148 255 0 148 255 0 148 255 0 148 255 0 148 255 0 148 255 0 148 255 0 175 255 0 175 255 0 175 255 0 175 255 0 175 255 0 175 255 0 175 255 0 175 255 0 175 255 0 175 255 0 149 255 0 149 255 0 149 255 0 149 255 0 149 255 0 149 255 0 149 255 0 149 255 0 149 255 0 149 255 0 142 255 0 142 255 0 142 255 0 142 255 0 142 255 0 142 255 0 142 255 0 142 255 0 142 255 0 142 255 0 117 255 0 117 255 0 117 255 0 117 255 0 117 255 0 117 255 0 117 255 0 117 255 0 117 255 0 117 255 0 134 255 0 134 255 0 134 255 0 134 255 0 134 255 0 134 255 0 134 255 0 134 255 0 134 255 0 134 255 0 128 255 0 128 255 0 128 255 0 128 255 0 128 255 0 128 255 0 128 255 0 128 255 0 128 255 0 128 255 0 114 255 0 114 255 0 114 255 0 114 255 0 114 255 0 114 255 0 114 255 0 114 255 0 114 255 0 114 255 0 101 255 0 101 255 0 101 255 0 101 255 0 101 255 0 101 255 0 101 255 0 101 255 0 101 255 0 101 255 0 103 255 0 103 255 0 103 255 0 103 255 0 103 255 0 103 255 0 103 255 0 103 255 0 103 255 0 103 255 0 90 255 0 90 255 0 90 255 0 90 255 0 90 255 0 90 255 0 90 255 0 90 255 0 90 255 0 90 255 0 119 255 0 119 255 0 119 255 0 119 255 0 119 255 0 119 255 0 119 255 0 119 255 0 119 255 0 119 255 0 144 255 0 144 255 0 144 255 0 144 255 0 144 255 0 144 255 0 144 255 0 144 255 0 144 255 0 144 255 0 196 255 0 196 255 0 196 255 0 196 255 0 196 255 0 196 255 0 196 255 0 196 255 0 196 255 0 196 255 0 237 255 0 237 255 0 237 255 0 237 255 0 237 255 0 237 255 0 237 255 0 237 255 0 237 255 0 237 255 0 226 255 0 226 255 0 226 255 0 226 255 0 226 255 0 226 255 0 226 255 0 226 255 0 226 255 0 226 255 0 162 255 0 162 255 0 162 255 0 162 255 0 162 255 0 162 255 0 162 255 0 162 255 0 162 255 0 162 255 0 160 255 0 160 255 0 160 255 0 160 255 0 160 255 0 160 255 0 160 255 0 160 255 0 160 255 0 160 255 0 130 255 0 130 255 0 130 255 0 130 255 0 130 255 0 130 255 0 130 255 0 130 255 0 130 255 0 130 255 0 146 255 0 146 255 0 146 255 0 146 255 0 146 255 0 146 255 0 146 255 0 146 255 0 146 255 0 146 255 0 124 255 0 124 255 0 124 255 0 124 255 0 124 255 0 124 255 0 124 255 0 124 255 0 124 255 0 124 255 0 87 255 0 87 255 0 87 255 0 87 255 0 87 255 0 87 255 0 87 255 0 87 255 0 87 255 0 87 255 0 88 255 0 88 255 0 88 255 0 88 255 0 88 255 0 88 255 0 88 255 0 88 255 0 88 255 0 88 255 0 120 255 0 120 255 0 120 255 0 120 255 0 120 255 0 120 255 0 120 255 0 120 255 0 120 255 0 120 255 0 162 255 0 162 255 0 162 255 0 162 255 0 162 255 0 162 255 0 162 255 0 162 255 0 162 255 0 162 255 0 161 255 0 161 255 0 161 255 0 161 255 0 161 255 0 161 255 0 161 255 0 161 255 0 161 255 0 161 255 0 160 255 0 160 255 0 160 255 0 160 255 0 160 255 0 160 255 0 160 255 0 160 255 0 160 255 0 160 255 0 0 0 0 0 0 0 0 0 0 0 0 0 0 0 0 0 0 0 0 0 0 0 0 0 0 0 0 0 0 180 0 0 180 0 0 180 0 0 180 0 0 180 0 0 180 0 0 180 0 0 180 0 0 180 0 0 180 0 0 180 0 0 180 0 0 180 0 0 180 0 0 180 0 0 180 0 0 180 0 0 180 0 0 180 0 0 180 0 0 180 0 0 180 0 0 180 0 0 180 0 0 180 0 0 180 0 0 180 0 0 180 0 0 180 0 0 180 0 0 
0 160 255 0 160 255 0 160 255 0 160 255 0 160 255 0 160 255 0 160 255 0 160 255 0 160 255 0 160 255 0 148 255 0 148 255 0 148 255 0 148 255 0 148 255 0 148 255 0 148 255 0 148 255 0 148 255 0 148 255 0 175 255 0 175 255 0 175 255 0 175 255 0 175 255 0 175 255 0 175 255 0 175 255 0 175 255 0 175 255 0 149 255 0 149 255 0 149 255 0 149 255 0 149 255 0 149 255 0 149 255 0 149 255 0 149 255 0 149 255 0 142 255 0 142 255 0 142 255 0 142 255 0 142 255 0 142 255 0 142 255 0 142 255 0 142 255 0 142 255 0 117 255 0 117 255 0 117 255 0 117 255 0 117 255 0 117 255 0 117 255 0 117 255 0 117 255 0 117 255 0 134 255 0 134 255 0 134 255 0 134 255 0 134 255 0 134 255 0 134 255 0 134 255 0 134 255 0 134 255 0 128 255 0 128 255 0 128 255 0 128 255 0 128 255 0 128 255 0 128 255 0 128 255 0 128 255 0 128 255 0 114 255 0 114 255 0 114 255 0 114 255 0 114 255 0 114 255 0 114 255 0 114 255 0 114 255 0 114 255 0 101 255 0 101 255 0 101 255 0 101 255 0 101 255 0 101 255 0 101 255 0 101 255 0 101 255 0 101 255 0 103 255 0 103 255 0 103 255 0 103 255 0 103 255 0 103 255 0 103 255 0 103 255 0 103 255 0 103 255 0 90 255 0 90 255 0 90 255 0 90 255 0 90 255 0 90 255 0 90 255 0 90 255 0 90 255 0 90 255 0 119 255 0 119 255 0 119 255 0 119 255 0 119 255 0 119 255 0 119 255 0 119 255 0 119 255 0 119 255 0 144 255 0 144 255 0 144 255 0 144 255 0 144 255 0 144 255 0 144 255 0 144 255 0 144 255 0 144 255 0 196 255 0 196 255 0 196 255 0 196 255 0 196 255 0 196 255 0 196 255 0 196 255 0 196 255 0 196 255 0 237 255 0 237 255 0 237 255 0 237 255 0 237 255 0 237 255 0 237 255 0 237 255 0 237 255 0 237 255 0 226 255 0 226 255 0 226 255 0 226 255 0 226 255 0 226 255 0 226 255 0 226 255 0 226 255 0 226 255 0 162 255 0 162 255 0 162 255 0 162 255 0 162 255 0 162 255 0 162 255 0 162 255 0 162 255 0 162 255 0 160 255 0 160 255 0 160 255 0 160 255 0 160 255 0 160 255 0 160 255 0 160 255 0 160 255 0 160 255 0 130 255 0 130 255 0 130 255 0 130 255 0 130 255 0 130 255 0 130 255 0 130 255 0 130 255 0 130 255 0 146 255 0 146 255 0 146 255 0 146 255 0 146 255 0 146 255 0 146 255 0 146 255 0 146 255 0 146 255 0 124 255 0 124 255 0 124 255 0 124 255 0 124 255 0 124 255 0 124 255 0 124 255 0 124 255 0 124 255 0 87 255 0 87 255 0 87 255 0 87 255 0 87 255 0 87 255 0 87 255 0 87 255 0 87 255 0 87 255 0 88 255 0 88 255 0 88 255 0 88 255 0 88 255 0 88 255 0 88 255 0 88 255 0 88 255 0 88 255 0 120 255 0 120 255 0 120 255 0 120 255 0 120 255 0 120 255 0 120 255 0 120 255 0 120 255 0 120 255 0 162 255 0 162 255 0 162 255 0 162 255 0 162 255 0 162 255 0 162 255 0 162 255 0 162 255 0 162 255 0 161 255 0 161 255 0 161 255 0 161 255 0 161 255 0 161 255 0 161 255 0 161 255 0 161 255 0 161 255 0 160 255 0 160 255 0 160 255 0 160 255 0 160 255 0 160 255 0 160 255 0 160 255 0 160 255 0 160 255 0 0 0 0 0 0 0 0 0 0 0 0 0 0 0 0 0 0 0 0 0 0 0 0 0 0 0 0 0 0 177 0 0 177 0 0 177 0 0 177 0 0 177 0 0 177 0 0 177 0 0 177 0 0 177 0 0 177 0 0 177 0 0 177 0 0 177 0 0 177 0 0 177 0 0 177 0 0 177 0 0 177 0 0 177 0 0 177 0 0 177 0 0 177 0 0 177 0 0 177 0 0 177 0 0 177 0 0 177 0 0 177 0 0 177 0 0 177 0 0 
0 160 255 0 160 255 0 160 255 0 160 255 0 160 255 0 160 255 0 160 255 0 160 255 0 160 255 0 160 255 0 148 255 0 148 255 0 148 255 0 148 255 0 148 255 0 148 255 0 148 255 0 148 255 0 148 255 0 148 255 0 175 255 0 175 255 0 175 255 0 175 255 0 175 255 0 175 255 0 175 255 0 175 255 0 175 255 0 175 255 0 149 255 0 149 255 0 149 255 0 149 255 0 149 255 0 149 255 0 149 255 0 149 255 0 149 255 0 149 255 0 142 255 0 142 255 0 142 255 0 142 255 0 142 255 0 142 255 0 142 255 0 142 255 0 142 255 0 142 255 0 117 255 0 117 255 0 117 255 0 117 255 0 117 255 0 117 255 0 117 255 0 117 255 0 117 255 0 117 255 0 134 255 0 134 255 0 134 255 0 134 255 0 134 255 0 134 255 0 134 255 0 134 255 0 134 255 0 134 255 0 128 255 0 128 255 0 128 255 0 128 255 0 128 255 0 128 255 0 128 255 0 128 255 0 128 255 0 128 255 0 114 255 0 114 255 0 114 255 0 114 255 0 114 255 0 114 255 0 114 255 0 114 255 0 114 255 0 114 255 0 101 255 0 101 255 0 101 255 0 101 255 0 101 255 0 101 255 0 101 255 0 101 255 0 101 255 0 101 255 0 103 255 0 103 255 0 103 255 0 103 255 0 103 255 0 103 255 0 103 255 0 103 255 0 103 255 0 103 255 0 90 255 0 90 255 0 90 255 0 90 255 0 90 255 0 90 255 0 90 255 0 90 255 0 90 255 0 90 255 0 119 255 0 119 255 0 119 255 0 119 255 0 119 255 0 119 255 0 119 255 0 119 255 0 119 255 0 119 255 0 144 255 0 144 255 0 144 255 0 144 255 0 144 255 0 144 255 0 144 255 0 144 255 0 144 255 0 144 255 0 196 255 0 196 255 0 196 255 0 196 255 0 196 255 0 196 255 0 196 255 0 196 255 0 196 255 0 196 255 0 237 255 0 237 255 0 237 255 0 237 255 0 237 255 0 237 255 0 237 255 0 237 255 0 237 255 0 237 255 0 226 255 0 226 255 0 226 255 0 226 255 0 226 255 0 226 255 0 226 255 0 226 255 0 226 255 0 226 255 0 162 255 0 162 255 0 162 255 0 162 255 0 162 255 0 162 255 0 162 255 0 162 255 0 162 255 0 162 255 0 160 255 0 160 255 0 160 255 0 160 255 0 160 255 0 160 255 0 160 255 0 160 255 0 160 255 0 160 255 0 130 255 0 130 255 0 130 255 0 130 255 0 130 255 0 130 255 0 130 255 0 130 255 0 130 255 0 130 255 0 146 255 0 146 255 0 146 255 0 146 255 0 146 255 0 146 255 0 146 255 0 146 255 0 146 255 0 146 255 0 124 255 0 124 255 0 124 255 0 124 255 0 124 255 0 124 255 0 124 255 0 124 255 0 124 255 0 124 255 0 87 255 0 87 255 0 87 255 0 87 255 0 87 255 0 87 255 0 87 255 0 87 255 0 87 255 0 87 255 0 88 255 0 88 255 0 88 255 0 88 255 0 88 255 0 88 255 0 88 255 0 88 255 0 88 255 0 88 255 0 120 255 0 120 255 0 120 255 0 120 255 0 120 255 0 120 255 0 120 255 0 120 255 0 120 255 0 120 255 0 162 255 0 162 255 0 162 255 0 162 255 0 162 255 0 162 255 0 162 255 0 162 255 0 162 255 0 162 255 0 161 255 0 161 255 0 161 255 0 161 255 0 161 255 0 161 255 0 161 255 0 161 255 0 161 255 0 161 255 0 160 255 0 160 255 0 160 255 0 160 255 0 160 255 0 160 255 0 160 255 0 160 255 0 160 255 0 160 255 0 0 0 0 0 0 0 0 0 0 0 0 0 0 0 0 0 0 0 0 0 0 0 0 0 0 0 0 0 0 173 0 0 173 0 0 173 0 0 173 0 0 173 0 0 173 0 0 173 0 0 173 0 0 173 0 0 173 0 0 173 0 0 173 0 0 173 0 0 173 0 0 173 0 0 173 0 0 173 0 0 173 0 0 173 0 0 173 0 0 173 0 0 173 0 0 173 0 0 173 0 0 173 0 0 173 0 0 173 0 0 173 0 0 173 0 0 173 0 0 
0 160 255 0 160 255 0 160 255 0 160 255 0 160 255 0 160 255 0 160 255 0 160 255 0 160 255 0 160 255 0 148 255 0 148 255 0 148 255 0 148 255 0 148 255 0 148 255 0 148 255 0 148 255 0 148 255 0 148 255 0 175 255 0 175 255 0 175 255 0 175 255 0 175 255 0 175 255 0 175 255 0 175 255 0 175 255 0 175 255 0 149 255 0 149 255 0 149 255 0 149 255 0 149 255 0 149 255 0 149 255 0 149 255 0 149 255 0 149 255 0 142 255 0 142 255 0 142 255 0 142 255 0 142 255 0 142 255 0 142 255 0 142 255 0 142 255 0 142 255 0 117 255 0 117 255 0 117 255 0 117 255 0 117 255 0 117 255 0 117 255 0 117 255 0 117 255 0 117 255 0 134 255 0 134 255 0 134 255 0 134 255 0 134 255 0 134 255 0 134 255 0 134 255 0 134 255 0 134 255 0 128 255 0 128 255 0 128 255 0 128 255 0 128 255 0 128 255 0 128 255 0 128 255 0 128 255 0 128 255 0 114 255 0 114 255 0 114 255 0 114 255 0 114 255 0 114 255 0 114 255 0 114 255 0 114 255 0 114 255 0 101 255 0 101 255 0 101 255 0 101 255 0 101 255 0 101 255 0 101 255 0 101 255 0 101 255 0 101 255 0 103 255 0 103 255 0 103 255 0 103 255 0 103 255 0 103 255 0 103 255 0 103 255 0 103 255 0 103 255 0 90 255 0 90 255 0 90 255 0 90 255 0 90 255 0 90 255 0 90 255 0 90 255 0 90 255 0 90 255 0 119 255 0 119 255 0 119 255 0 119 255 0 119 255 0 119 255 0 119 255 0 119 255 0 119 255 0 119 255 0 144 255 0 144 255 0 144 255 0 144 255 0 144 255 0 144 255 0 144 255 0 144 255 0 144 255 0 144 255 0 196 255 0 196 255 0 196 255 0 196 255 0 196 255 0 196 255 0 196 255 0 196 255 0 196 255 0 196 255 0 237 255 0 237 255 0 237 255 0 237 255 0 237 255 0 237 255 0 237 255 0 237 255 0 237 255 0 237 255 0 226 255 0 226 255 0 226 255 0 226 255 0 226 255 0 226 255 0 226 255 0 226 255 0 226 255 0 226 255 0 162 255 0 162 255 0 162 255 0 162 255 0 162 255 0 162 255 0 162 255 0 162 255 0 162 255 0 162 255 0 160 255 0 160 255 0 160 255 0 160 255 0 160 255 0 160 255 0 160 255 0 160 255 0 160 255 0 160 255 0 130 255 0 130 255 0 130 255 0 130 255 0 130 255 0 130 255 0 130 255 0 130 255 0 130 255 0 130 255 0 146 255 0 146 255 0 146 255 0 146 255 0 146 255 0 146 255 0 146 255 0 146 255 0 146 255 0 146 255 0 124 255 0 124 255 0 124 255 0 124 255 0 124 255 0 124 255 0 124 255 0 124 255 0 124 255 0 124 255 0 87 255 0 87 255 0 87 255 0 87 255 0 87 255 0 87 255 0 87 255 0 87 255 0 87 255 0 87 255 0 88 255 0 88 255 0 88 255 0 88 255 0 88 255 0 88 255 0 88 255 0 88 255 0 88 255 0 88 255 0 120 255 0 120 255 0 120 255 0 120 255 0 120 255 0 120 255 0 120 255 0 120 255 0 120 255 0 120 255 0 162 255 0 162 255 0 162 255 0 162 255 0 162 255 0 162 255 0 162 255 0 162 255 0 162 255 0 162 255 0 161 255 0 161 255 0 161 255 0 161 255 0 161 255 0 161 255 0 161 255 0 161 255 0 161 255 0 161 255 0 160 255 0 160 255 0 160 255 0 160 255 0 160 255 0 160 255 0 160 255 0 160 255 0 160 255 0 160 255 0 0 0 0 0 0 0 0 0 0 0 0 0 0 0 0 0 0 0 0 0 0 0 0 0 0 0 0 0 0 170 0 0 170 0 0 170 0 0 170 0 0 170 0 0 170 0 0 170 0 0 170 0 0 170 0 0 170 0 0 170 0 0 170 0 0 170 0 0 170 0 0 170 0 0 170 0 0 170 0 0 170 0 0 170 0 0 170 0 0 170 0 0 170 0 0 170 0 0 170 0 0 170 0 0 170 0 0 170 0 0 170 0 0 170 0 0 170 0 0 
0 160 255 0 160 255 0 160 255 0 160 255 0 160 255 0 160 255 0 160 255 0 160 255 0 160 255 0 160 255 0 148 255 0 148 255 0 148 255 0 148 255 0 148 255 0 148 255 0 148 255 0 148 255 0 148 255 0 148 255 0 175 255 0 175 255 0 175 255 0 175 255 0 175 255 0 175 255 0 175 255 0 175 255 0 175 255 0 175 255 0 149 255 0 149 255 0 149 255 0 149 255 0 149 255 0 149 255 0 149 255 0 149 255 0 149 255 0 149 255 0 142 255 0 142 255 0 142 255 0 142 255 0 142 255 0 142 255 0 142 255 0 142 255 0 142 255 0 142 255 0 117 255 0 117 255 0 117 255 0 117 255 0 117 255 0 117 255 0 117 255 0 117 255 0 117 255 0 117 255 0 134 255 0 134 255 0 134 255 0 134 255 0 134 255 0 134 255 0 134 255 0 134 255 0 134 255 0 134 255 0 128 255 0 128 255 0 128 255 0 128 255 0 128 255 0 128 255 0 128 255 0 128 255 0 128 255 0 128 255 0 114 255 0 114 255 0 114 255 0 114 255 0 114 255 0 114 255 0 114 255 0 114 255 0 114 255 0 114 255 0 101 255 0 101 255 0 101 255 0 101 255 0 101 255 0 101 255 0 101 255 0 101 255 0 101 255 0 101 255 0 103 255 0 103 255 0 103 255 0 103 255 0 103 255 0 103 255 0 103 255 0 103 255 0 103 255 0 103 255 0 90 255 0 90 255 0 90 255 0 90 255 0 90 255 0 90 255 0 90 255 0 90 255 0 90 255 0 90 255 0 119 255 0 119 255 0 119 255 0 119 255 0 119 255 0 119 255 0 119 255 0 119 255 0 119 255 0 119 255 0 144 255 0 144 255 0 144 255 0 144 255 0 144 255 0 144 255 0 144 255 0 144 255 0 144 255 0 144 255 0 196 255 0 196 255 0 196 255 0 196 255 0 196 255 0 196 255 0 196 255 0 196 255 0 196 255 0 196 255 0 237 255 0 237 255 0 237 255 0 237 255 0 237 255 0 237 255 0 237 255 0 237 255 0 237 255 0 237 255 0 226 255 0 226 255 0 226 255 0 226 255 0 226 255 0 226 255 0 226 255 0 226 255 0 226 255 0 226 255 0 162 255 0 162 255 0 162 255 0 162 255 0 162 255 0 162 255 0 162 255 0 162 255 0 162 255 0 162 255 0 160 255 0 160 255 0 160 255 0 160 255 0 160 255 0 160 255 0 160 255 0 160 255 0 160 255 0 160 255 0 130 255 0 130 255 0 130 255 0 130 255 0 130 255 0 130 255 0 130 255 0 130 255 0 130 255 0 130 255 0 146 255 0 146 255 0 146 255 0 146 255 0 146 255 0 146 255 0 146 255 0 146 255 0 146 255 0 146 255 0 124 255 0 124 255 0 124 255 0 124 255 0 124 255 0 124 255 0 124 255 0 124 255 0 124 255 0 124 255 0 87 255 0 87 255 0 87 255 0 87 255 0 87 255 0 87 255 0 87 255 0 87 255 0 87 255 0 87 255 0 88 255 0 88 255 0 88 255 0 88 255 0 88 255 0 88 255 0 88 255 0 88 255 0 88 255 0 88 255 0 120 255 0 120 255 0 120 255 0 120 255 0 120 255 0 120 255 0 120 255 0 120 255 0 120 255 0 120 255 0 162 255 0 162 255 0 162 255 0 162 255 0 162 255 0 162 255 0 162 255 0 162 255 0 162 255 0 162 255 0 161 255 0 161 255 0 161 255 0 161 255 0 161 255 0 161 255 0 161 255 0 161 255 0 161 255 0 161 255 0 160 255 0 160 255 0 160 255 0 160 255 0 160 255 0 160 255 0 160 255 0 160 255 0 160 255 0 160 255 0 0 0 0 0 0 0 0 0 0 0 0 0 0 0 0 0 0 0 0 0 0 0 0 0 0 0 0 0 0 166 0 0 166 0 0 166 0 0 166 0 0 166 0 0 166 0 0 166 0 0 166 0 0 166 0 0 166 0 0 166 0 0 166 0 0 166 0 0 166 0 0 166 0 0 166 0 0 166 0 0 166 0 0 166 0 0 166 0 0 166 0 0 166 0 0 166 0 0 166 0 0 166 0 0 166 0 0 166 0 0 166 0 0 166 0 0 166 0 0 
0 160 255 0 160 255 0 160 255 0 160 255 0 160 255 0 160 255 0 160 255 0 160 255 0 160 255 0 160 255 0 148 255 0 148 255 0 148 255 0 148 255 0 148 255 0 148 255 0 148 255 0 148 255 0 148 255 0 148 255 0 175 255 0 175 255 0 175 255 0 175 255 0 175 255 0 175 255 0 175 255 0 175 255 0 175 255 0 175 255 0 149 255 0 149 255 0 149 255 0 149 255 0 149 255 0 149 255 0 149 255 0 149 255 0 149 255 0 149 255 0 142 255 0 142 255 0 142 255 0 142 255 0 142 255 0 142 255 0 142 255 0 142 255 0 142 255 0 142 255 0 117 255 0 117 255 0 117 255 0 117 255 0 117 255 0 117 255 0 117 255 0 117 255 0 117 255 0 117 255 0 134 255 0 134 255 0 134 255 0 134 255 0 134 255 0 134 255 0 134 255 0 134 255 0 134 255 0 134 255 0 128 255 0 128 255 0 128 255 0 128 255 0 128 255 0 128 255 0 128 255 0 128 255 0 128 255 0 128 255 0 114 255 0 114 255 0 114 255 0 114 255 0 114 255 0 114 255 0 114 255 0 114 255 0 114 255 0 114 255 0 101 255 0 101 255 0 101 255 0 101 255 0 101 255 0 101 255 0 101 255 0 101 255 0 101 255 0 101 255 0 103 255 0 103 255 0 103 255 0 103 255 0 103 255 0 103 255 0 103 255 0 103 255 0 103 255 0 103 255 0 90 255 0 90 255 0 90 255 0 90 255 0 90 255 0 90 255 0 90 255 0 90 255 0 90 255 0 90 255 0 119 255 0 119 255 0 119 255 0 119 255 0 119 255 0 119 255 0 119 255 0 119 255 0 119 255 0 119 255 0 144 255 0 144 255 0 144 255 0 144 255 0 144 255 0 144 255 0 144 255 0 144 255 0 144 255 0 144 255 0 196 255 0 196 255 0 196 255 0 196 255 0 196 255 0 196 255 0 196 255 0 196 255 0 196 255 0 196 255 0 237 255 0 237 255 0 237 255 0 237 255 0 237 255 0 237 255 0 237 255 0 237 255 0 237 255 0 237 255 0 226 255 0 226 255 0 226 255 0 226 255 0 226 255 0 226 255 0 226 255 0 226 255 0 226 255 0 226 255 0 162 255 0 162 255 0 162 255 0 162 255 0 162 255 0 162 255 0 162 255 0 162 255 0 162 255 0 162 255 0 160 255 0 160 255 0 160 255 0 160 255 0 160 255 0 160 255 0 160 255 0 160 255 0 160 255 0 160 255 0 130 255 0 130 255 0 130 255 0 130 255 0 130 255 0 130 255 0 130 255 0 130 255 0 130 255 0 130 255 0 146 255 0 146 255 0 146 255 0 146 255 0 146 255 0 146 255 0 146 255 0 146 255 0 146 255 0 146 255 0 124 255 0 124 255 0 124 255 0 124 255 0 124 255 0 124 255 0 124 255 0 124 255 0 124 255 0 124 255 0 87 255 0 87 255 0 87 255 0 87 255 0 87 255 0 87 255 0 87 255 0 87 255 0 87 255 0 87 255 0 88 255 0 88 255 0 88 255 0 88 255 0 88 255 0 88 255 0 88 255 0 88 255 0 88 255 0 88 255 0 120 255 0 120 255 0 120 255 0 120 255 0 120 255 0 120 255 0 120 255 0 120 255 0 120 255 0 120 255 0 162 255 0 162 255 0 162 255 0 162 255 0 162 255 0 162 255 0 162 255 0 162 255 0 162 255 0 162 255 0 161 255 0 161 255 0 161 255 0 161 255 0 161 255 0 161 255 0 161 255 0 161 255 0 161 255 0 161 255 0 160 255 0 160 255 0 160 255 0 160 255 0 160 255 0 160 255 0 160 255 0 160 255 0 160 255 0 160 255 0 0 0 0 0 0 0 0 0 0 0 0 0 0 0 0 0 0 0 0 0 0 0 0 0 0 0 0 0 0 162 0 0 162 0 0 162 0 0 162 0 0 162 0 0 162 0 0 162 0 0 162 0 0 162 0 0 162 0 0 162 0 0 162 0 0 162 0 0 162 0 0 162 0 0 162 0 0 162 0 0 162 0 0 162 0 0 162 0 0 162 0 0 162 0 0 162 0 0 162 0 0 162 0 0 162 0 0 162 0 0 162 0 0 162 0 0 162 0 0 
0 160 255 0 160 255 0 160 255 0 160 255 0 160 255 0 160 255 0 160 255 0 160 255 0 160 255 0 160 255 0 148 255 0 148 255 0 148 255 0 148 255 0 148 255 0 148 255 0 148 255 0 148 255 0 148 255 0 148 255 0 175 255 0 175 255 0 175 255 0 175 255 0 175 255 0 175 255 0 175 255 0 175 255 0 175 255 0 175 255 0 149 255 0 149 255 0 149 255 0 149 255 0 149 255 0 149 255 0 149 255 0 149 255 0 149 255 0 149 255 0 142 255 0 142 255 0 142 255 0 142 255 0 142 255 0 142 255 0 142 255 0 142 255 0 142 255 0 142 255 0 117 255 0 117 255 0 117 255 0 117 255 0 117 255 0 117 255 0 117 255 0 117 255 0 117 255 0 117 255 0 134 255 0 134 255 0 134 255 0 134 255 0 134 255 0 134 255 0 134 255 0 134 255 0 134 255 0 134 255 0 128 255 0 128 255 0 128 255 0 128 255 0 128 255 0 128 255 0 128 255 0 128 255 0 128 255 0 128 255 0 114 255 0 114 255 0 114 255 0 114 255 0 114 255 0 114 255 0 114 255 0 114 255 0 114 255 0 114 255 0 101 255 0 101 255 0 101 255 0 101 255 0 101 255 0 101 255 0 101 255 0 101 255 0 101 255 0 101 255 0 103 255 0 103 255 0 103 255 0 103 255 0 103 255 0 103 255 0 103 255 0 103 255 0 103 255 0 103 255 0 90 255 0 90 255 0 90 255 0 90 255 0 90 255 0 90 255 0 90 255 0 90 255 0 90 255 0 90 255 0 119 255 0 119 255 0 119 255 0 119 255 0 119 255 0 119 255 0 119 255 0 119 255 0 119 255 0 119 255 0 144 255 0 144 255 0 144 255 0 144 255 0 144 255 0 144 255 0 144 255 0 144 255 0 144 255 0 144 255 0 196 255 0 196 255 0 196 255 0 196 255 0 196 255 0 196 255 0 196 255 0 196 255 0 196 255 0 196 255 0 237 255 0 237 255 0 237 255 0 237 255 0 237 255 0 237 255 0 237 255 0 237 255 0 237 255 0 237 255 0 226 255 0 226 255 0 226 255 0 226 255 0 226 255 0 226 255 0 226 255 0 226 255 0 226 255 0 226 255 0 162 255 0 162 255 0 162 255 0 162 255 0 162 255 0 162 255 0 162 255 0 162 255 0 162 255 0 162 255 0 160 255 0 160 255 0 160 255 0 160 255 0 160 255 0 160 255 0 160 255 0 160 255 0 160 255 0 160 255 0 130 255 0 130 255 0 130 255 0 130 255 0 130 255 0 130 255 0 130 255 0 130 255 0 130 255 0 130 255 0 146 255 0 146 255 0 146 255 0 146 255 0 146 255 0 146 255 0 146 255 0 146 255 0 146 255 0 146 255 0 124 255 0 124 255 0 124 255 0 124 255 0 124 255 0 124 255 0 124 255 0 124 255 0 124 255 0 124 255 0 87 255 0 87 255 0 87 255 0 87 255 0 87 255 0 87 255 0 87 255 0 87 255 0 87 255 0 87 255 0 88 255 0 88 255 0 88 255 0 88 255 0 88 255 0 88 255 0 88 255 0 88 255 0 88 255 0 88 255 0 120 255 0 120 255 0 120 255 0 120 255 0 120 255 0 120 255 0 120 255 0 120 255 0 120 255 0 120 255 0 162 255 0 162 255 0 162 255 0 162 255 0 162 255 0 162 255 0 162 255 0 162 255 0 162 255 0 162 255 0 161 255 0 161 255 0 161 255 0 161 255 0 161 255 0 161 255 0 161 255 0 161 255 0 161 255 0 161 255 0 160 255 0 160 255 0 160 255 0 160 255 0 160 255 0 160 255 0 160 255 0 160 255 0 160 255 0 160 255 0 0 0 0 0 0 0 0 0 0 0 0 0 0 0 0 0 0 0 0 0 0 0 0 0 0 0 0 0 0 159 0 0 159 0 0 159 0 0 159 0 0 159 0 0 159 0 0 159 0 0 159 0 0 159 0 0 159 0 0 159 0 0 159 0 0 159 0 0 159 0 0 159 0 0 159 0 0 159 0 0 159 0 0 159 0 0 159 0 0 159 0 0 159 0 0 159 0 0 159 0 0 159 0 0 159 0 0 159 0 0 159 0 0 159 0 0 159 0 0 
0 160 255 0 160 255 0 160 255 0 160 255 0 160 255 0 160 255 0 160 255 0 160 255 0 160 255 0 160 255 0 148 255 0 148 255 0 148 255 0 148 255 0 148 255 0 148 255 0 148 255 0 148 255 0 148 255 0 148 255 0 175 255 0 175 255 0 175 255 0 175 255 0 175 255 0 175 255 0 175 255 0 175 255 0 175 255 0 175 255 0 149 255 0 149 255 0 149 255 0 149 255 0 149 255 0 149 255 0 149 255 0 149 255 0 149 255 0 149 255 0 142 255 0 142 255 0 142 255 0 142 255 0 142 255 0 142 255 0 142 255 0 142 255 0 142 255 0 142 255 0 117 255 0 117 255 0 117 255 0 117 255 0 117 255 0 117 255 0 117 255 0 117 255 0 117 255 0 117 255 0 134 255 0 134 255 0 134 255 0 134 255 0 134 255 0 134 255 0 134 255 0 134 255 0 134 255 0 134 255 0 128 255 0 128 255 0 128 255 0 128 255 0 128 255 0 128 255 0 128 255 0 128 255 0 128 255 0 128 255 0 114 255 0 114 255 0 114 255 0 114 255 0 114 255 0 114 255 0 114 255 0 114 255 0 114 255 0 114 255 0 101 255 0 101 255 0 101 255 0 101 255 0 101 255 0 101 255 0 101 255 0 101 255 0 101 255 0 101 255 0 103 255 0 103 255 0 103 255 0 103 255 0 103 255 0 103 255 0 103 255 0 103 255 0 103 255 0 103 255 0 90 255 0 90 255 0 90 255 0 90 255 0 90 255 0 90 255 0 90 255 0 90 255 0 90 255 0 90 255 0 119 255 0 119 255 0 119 255 0 119 255 0 119 255 0 119 255 0 119 255 0 119 255 0 119 255 0 119 255 0 144 255 0 144 255 0 144 255 0 144 255 0 144 255 0 144 255 0 144 255 0 144 255 0 144 255 0 144 255 0 196 255 0 196 255 0 196 255 0 196 255 0 196 255 0 196 255 0 196 255 0 196 255 0 196 255 0 196 255 0 237 255 0 237 255 0 237 255 0 237 255 0 237 255 0 237 255 0 237 255 0 237 255 0 237 255 0 237 255 0 226 255 0 226 255 0 226 255 0 226 255 0 226 255 0 226 255 0 226 255 0 226 255 0 226 255 0 226 255 0 162 255 0 162 255 0 162 255 0 162 255 0 162 255 0 162 255 0 162 255 0 162 255 0 162 255 0 162 255 0 160 255 0 160 255 0 160 255 0 160 255 0 160 255 0 160 255 0 160 255 0 160 255 0 160 255 0 160 255 0 130 255 0 130 255 0 130 255 0 130 255 0 130 255 0 130 255 0 130 255 0 130 255 0 130 255 0 130 255 0 146 255 0 146 255 0 146 255 0 146 255 0 146 255 0 146 255 0 146 255 0 146 255 0 146 255 0 146 255 0 124 255 0 124 255 0 124 255 0 124 255 0 124 255 0 124 255 0 124 255 0 124 255 0 124 255 0 124 255 0 87 255 0 87 255 0 87 255 0 87 255 0 87 255 0 87 255 0 87 255 0 87 255 0 87 255 0 87 255 0 88 255 0 88 255 0 88 255 0 88 255 0 88 255 0 88 255 0 88 255 0 88 255 0 88 255 0 88 255 0 120 255 0 120 255 0 120 255 0 120 255 0 120 255 0 120 255 0 120 255 0 120 255 0 120 255 0 120 255 0 162 255 0 162 255 0 162 255 0 162 255 0 162 255 0 162 255 0 162 255 0 162 255 0 162 255 0 162 255 0 161 255 0 161 255 0 161 255 0 161 255 0 161 255 0 161 255 0 161 255 0 161 255 0 161 255 0 161 255 0 160 255 0 160 255 0 160 255 0 160 255 0 160 255 0 160 255 0 160 255 0 160 255 0 160 255 0 160 255 0 0 0 0 0 0 0 0 0 0 0 0 0 0 0 0 0 0 0 0 0 0 0 0 0 0 0 0 0 0 155 0 0 155 0 0 155 0 0 155 0 0 155 0 0 155 0 0 155 0 0 155 0 0 155 0 0 155 0 0 155 0 0 155 0 0 155 0 0 155 0 0 155 0 0 155 0 0 155 0 0 155 0 0 155 0 0 155 0 0 155 0 0 155 0 0 155 0 0 155 0 0 155 0 0 155 0 0 155 0 0 155 0 0 155 0 0 155 0 0 
0 160 255 0 160 255 0 160 255 0 160 255 0 160 255 0 160 255 0 160 255 0 160 255 0 160 255 0 160 255 0 148 255 0 148 255 0 148 255 0 148 255 0 148 255 0 148 255 0 148 255 0 148 255 0 148 255 0 148 255 0 175 255 0 175 255 0 175 255 0 175 255 0 175 255 0 175 255 0 175 255 0 175 255 0 175 255 0 175 255 0 149 255 0 149 255 0 149 255 0 149 255 0 149 255 0 149 255 0 149 255 0 149 255 0 149 255 0 149 255 0 142 255 0 142 255 0 142 255 0 142 255 0 142 255 0 142 255 0 142 255 0 142 255 0 142 255 0 142 255 0 117 255 0 117 255 0 117 255 0 117 255 0 117 255 0 117 255 0 117 255 0 117 255 0 117 255 0 117 255 0 134 255 0 134 255 0 134 255 0 134 255 0 134 255 0 134 255 0 134 255 0 134 255 0 134 255 0 134 255 0 128 255 0 128 255 0 128 255 0 128 255 0 128 255 0 128 255 0 128 255 0 128 255 0 128 255 0 128 255 0 114 255 0 114 255 0 114 255 0 114 255 0 114 255 0 114 255 0 114 255 0 114 255 0 114 255 0 114 255 0 101 255 0 101 255 0 101 255 0 101 255 0 101 255 0 101 255 0 101 255 0 101 255 0 101 255 0 101 255 0 103 255 0 103 255 0 103 255 0 103 255 0 103 255 0 103 255 0 103 255 0 103 255 0 103 255 0 103 255 0 90 255 0 90 255 0 90 255 0 90 255 0 90 255 0 90 255 0 90 255 0 90 255 0 90 255 0 90 255 0 119 255 0 119 255 0 119 255 0 119 255 0 119 255 0 119 255 0 119 255 0 119 255 0 119 255 0 119 255 0 144 255 0 144 255 0 144 255 0 144 255 0 144 255 0 144 255 0 144 255 0 144 255 0 144 255 0 144 255 0 196 255 0 196 255 0 196 255 0 196 255 0 196 255 0 196 255 0 196 255 0 196 255 0 196 255 0 196 255 0 237 255 0 237 255 0 237 255 0 237 255 0 237 255 0 237 255 0 237 255 0 237 255 0 237 255 0 237 255 0 226 255 0 226 255 0 226 255 0 226 255 0 226 255 0 226 255 0 226 255 0 226 255 0 226 255 0 226 255 0 162 255 0 162 255 0 162 255 0 162 255 0 162 255 0 162 255 0 162 255 0 162 255 0 162 255 0 162 255 0 160 255 0 160 255 0 160 255 0 160 255 0 160 255 0 160 255 0 160 255 0 160 255 0 160 255 0 160 255 0 130 255 0 130 255 0 130 255 0 130 255 0 130 255 0 130 255 0 130 255 0 130 255 0 130 255 0 130 255 0 146 255 0 146 255 0 146 255 0 146 255 0 146 255 0 146 255 0 146 255 0 146 255 0 146 255 0 146 255 0 124 255 0 124 255 0 124 255 0 124 255 0 124 255 0 124 255 0 124 255 0 124 255 0 124 255 0 124 255 0 87 255 0 87 255 0 87 255 0 87 255 0 87 255 0 87 255 0 87 255 0 87 255 0 87 255 0 87 255 0 88 255 0 88 255 0 88 255 0 88 255 0 88 255 0 88 255 0 88 255 0 88 255 0 88 255 0 88 255 0 120 255 0 120 255 0 120 255 0 120 255 0 120 255 0 120 255 0 120 255 0 120 255 0 120 255 0 120 255 0 162 255 0 162 255 0 162 255 0 162 255 0 162 255 0 162 255 0 162 255 0 162 255 0 162 255 0 162 255 0 161 255 0 161 255 0 161 255 0 161 255 0 161 255 0 161 255 0 161 255 0 161 255 0 161 255 0 161 255 0 160 255 0 160 255 0 160 255 0 160 255 0 160 255 0 160 255 0 160 255 0 160 255 0 160 255 0 160 255 0 0 0 0 0 0 0 0 0 0 0 0 0 0 0 0 0 0 0 0 0 0 0 0 0 0 0 0 0 0 151 0 0 151 0 0 151 0 0 151 0 0 151 0 0 151 0 0 151 0 0 151 0 0 151 0 0 151 0 0 151 0 0 151 0 0 151 0 0 151 0 0 151 0 0 151 0 0 151 0 0 151 0 0 151 0 0 151 0 0 151 0 0 151 0 0 151 0 0 151 0 0 151 0 0 151 0 0 151 0 0 151 0 0 151 0 0 151 0 0 
0 160 255 0 160 255 0 160 255 0 160 255 0 160 255 0 160 255 0 160 255 0 160 255 0 160 255 0 160 255 0 148 255 0 148 255 0 148 255 0 148 255 0 148 255 0 148 255 0 148 255 0 148 255 0 148 255 0 148 255 0 175 255 0 175 255 0 175 255 0 175 255 0 175 255 0 175 255 0 175 255 0 175 255 0 175 255 0 175 255 0 149 255 0 149 255 0 149 255 0 149 255 0 149 255 0 149 255 0 149 255 0 149 255 0 149 255 0 149 255 0 142 255 0 142 255 0 142 255 0 142 255 0 142 255 0 142 255 0 142 255 0 142 255 0 142 255 0 142 255 0 117 255 0 117 255 0 117 255 0 117 255 0 117 255 0 117 255 0 117 255 0 117 255 0 117 255 0 117 255 0 134 255 0 134 255 0 134 255 0 134 255 0 134 255 0 134 255 0 134 255 0 134 255 0 134 255 0 134 255 0 128 255 0 128 255 0 128 255 0 128 255 0 128 255 0 128 255 0 128 255 0 128 255 0 128 255 0 128 255 0 114 255 0 114 255 0 114 255 0 114 255 0 114 255 0 114 255 0 114 255 0 114 255 0 114 255 0 114 255 0 101 255 0 101 255 0 101 255 0 101 255 0 101 255 0 101 255 0 101 255 0 101 255 0 101 255 0 101 255 0 103 255 0 103 255 0 103 255 0 103 255 0 103 255 0 103 255 0 103 255 0 103 255 0 103 255 0 103 255 0 90 255 0 90 255 0 90 255 0 90 255 0 90 255 0 90 255 0 90 255 0 90 255 0 90 255 0 90 255 0 119 255 0 119 255 0 119 255 0 119 255 0 119 255 0 119 255 0 119 255 0 119 255 0 119 255 0 119 255 0 144 255 0 144 255 0 144 255 0 144 255 0 144 255 0 144 255 0 144 255 0 144 255 0 144 255 0 144 255 0 196 255 0 196 255 0 196 255 0 196 255 0 196 255 0 196 255 0 196 255 0 196 255 0 196 255 0 196 255 0 237 255 0 237 255 0 237 255 0 237 255 0 237 255 0 237 255 0 237 255 0 237 255 0 237 255 0 237 255 0 226 255 0 226 255 0 226 255 0 226 255 0 226 255 0 226 255 0 226 255 0 226 255 0 226 255 0 226 255 0 162 255 0 162 255 0 162 255 0 162 255 0 162 255 0 162 255 0 162 255 0 162 255 0 162 255 0 162 255 0 160 255 0 160 255 0 160 255 0 160 255 0 160 255 0 160 255 0 160 255 0 160 255 0 160 255 0 160 255 0 130 255 0 130 255 0 130 255 0 130 255 0 130 255 0 130 255 0 130 255 0 130 255 0 130 255 0 130 255 0 146 255 0 146 255 0 146 255 0 146 255 0 146 255 0 146 255 0 146 255 0 146 255 0 146 255 0 146 255 0 124 255 0 124 255 0 124 255 0 124 255 0 124 255 0 124 255 0 124 255 0 124 255 0 124 255 0 124 255 0 87 255 0 87 255 0 87 255 0 87 255 0 87 255 0 87 255 0 87 255 0 87 255 0 87 255 0 87 255 0 88 255 0 88 255 0 88 255 0 88 255 0 88 255 0 88 255 0 88 255 0 88 255 0 88 255 0 88 255 0 120 255 0 120 255 0 120 255 0 120 255 0 120 255 0 120 255 0 120 255 0 120 255 0 120 255 0 120 255 0 162 255 0 162 255 0 162 255 0 162 255 0 162 255 0 162 255 0 162 255 0 162 255 0 162 255 0 162 255 0 161 255 0 161 255 0 161 255 0 161 255 0 161 255 0 161 255 0 161 255 0 161 255 0 161 255 0 161 255 0 160 255 0 160 255 0 160 255 0 160 255 0 160 255 0 160 255 0 160 255 0 160 255 0 160 255 0 160 255 0 0 0 0 0 0 0 0 0 0 0 0 0 0 0 0 0 0 0 0 0 0 0 0 0 0 0 0 0 0 148 0 0 148 0 0 148 0 0 148 0 0 148 0 0 148 0 0 148 0 0 148 0 0 148 0 0 148 0 0 148 0 0 148 0 0 148 0 0 148 0 0 148 0 0 148 0 0 148 0 0 148 0 0 148 0 0 148 0 0 148 0 0 148 0 0 148 0 0 148 0 0 148 0 0 148 0 0 148 0 0 148 0 0 148 0 0 148 0 0 
0 158 255 0 158 255 0 158 255 0 158 255 0 158 255 0 158 255 0 158 255 0 158 255 0 158 255 0 158 255 0 145 255 0 145 255 0 145 255 0 145 255 0 145 255 0 145 255 0 145 255 0 145 255 0 145 255 0 145 255 0 148 255 0 148 255 0 148 255 0 148 255 0 148 255 0 148 255 0 148 255 0 148 255 0 148 255 0 148 255 0 177 255 0 177 255 0 177 255 0 177 255 0 177 255 0 177 255 0 177 255 0 177 255 0 177 255 0 177 255 0 142 255 0 142 255 0 142 255 0 142 255 0 142 255 0 142 255 0 142 255 0 142 255 0 142 255 0 142 255 0 125 255 0 125 255 0 125 255 0 125 255 0 125 255 0 125 255 0 125 255 0 125 255 0 125 255 0 125 255 0 118 255 0 118 255 0 118 255 0 118 255 0 118 255 0 118 255 0 118 255 0 118 255 0 118 255 0 118 255 0 95 255 0 95 255 0 95 255 0 95 255 0 95 255 0 95 255 0 95 255 0 95 255 0 95 255 0 95 255 0 89 255 0 89 255 0 89 255 0 89 255 0 89 255 0 89 255 0 89 255 0 89 255 0 89 255 0 89 255 0 72 255 0 72 255 0 72 255 0 72 255 0 72 255 0 72 255 0 72 255 0 72 255 0 72 255 0 72 255 0 73 255 0 73 255 0 73 255 0 73 255 0 73 255 0 73 255 0 73 255 0 73 255 0 73 255 0 73 255 0 92 255 0 92 255 0 92 255 0 92 255 0 92 255 0 92 255 0 92 255 0 92 255 0 92 255 0 92 255 0 112 255 0 112 255 0 112 255 0 112 255 0 112 255 0 112 255 0 112 255 0 112 255 0 112 255 0 112 255 0 132 255 0 132 255 0 132 255 0 132 255 0 132 255 0 132 255 0 132 255 0 132 255 0 132 255 0 132 255 0 178 255 0 178 255 0 178 255 0 178 255 0 178 255 0 178 255 0 178 255 0 178 255 0 178 255 0 178 255 0 249 255 0 249 255 0 249 255 0 249 255 0 249 255 0 249 255 0 249 255 0 249 255 0 249 255 0 249 255 0 248 255 0 248 255 0 248 255 0 248 255 0 248 255 0 248 255 0 248 255 0 248 255 0 248 255 0 248 255 0 213 255 0 213 255 0 213 255 0 213 255 0 213 255 0 213 255 0 213 255 0 213 255 0 213 255 0 213 255 0 137 255 0 137 255 0 137 255 0 137 255 0 137 255 0 137 255 0 137 255 0 137 255 0 137 255 0 137 255 0 135 255 0 135 255 0 135 255 0 135 255 0 135 255 0 135 255 0 135 255 0 135 255 0 135 255 0 135 255 0 123 255 0 123 255 0 123 255 0 123 255 0 123 255 0 123 255 0 123 255 0 123 255 0 123 255 0 123 255 0 110 255 0 110 255 0 110 255 0 110 255 0 110 255 0 110 255 0 110 255 0 110 255 0 110 255 0 110 255 0 76 255 0 76 255 0 76 255 0 76 255 0 76 255 0 76 255 0 76 255 0 76 255 0 76 255 0 76 255 0 84 255 0 84 255 0 84 255 0 84 255 0 84 255 0 84 255 0 84 255 0 84 255 0 84 255 0 84 255 0 149 255 0 149 255 0 149 255 0 149 255 0 149 255 0 149 255 0 149 255 0 149 255 0 149 255 0 149 255 0 169 255 0 169 255 0 169 255 0 169 255 0 169 255 0 169 255 0 169 255 0 169 255 0 169 255 0 169 255 0 172 255 0 172 255 0 172 255 0 172 255 0 172 255 0 172 255 0 172 255 0 172 255 0 172 255 0 172 255 0 146 255 0 146 255 0 146 255 0 146 255 0 146 255 0 146 255 0 146 255 0 146 255 0 146 255 0 146 255 0 0 0 0 0 0 0 0 0 0 0 0 0 0 0 0 0 0 0 0 0 0 0 0 0 0 0 0 0 0 144 0 0 144 0 0 144 0 0 144 0 0 144 0 0 144 0 0 144 0 0 144 0 0 144 0 0 144 0 0 144 0 0 144 0 0 144 0 0 144 0 0 144 0 0 144 0 0 144 0 0 144 0 0 144 0 0 144 0 0 144 0 0 144 0 0 144 0 0 144 0 0 144 0 0 144 0 0 144 0 0 144 0 0 144 0 0 144 0 0 
0 158 255 0 158 255 0 158 255 0 158 255 0 158 255 0 158 255 0 158 255 0 158 255 0 158 255 0 158 255 0 145 255 0 145 255 0 145 255 0 145 255 0 145 255 0 145 255 0 145 255 0 145 255 0 145 255 0 145 255 0 148 255 0 148 255 0 148 255 0 148 255 0 148 255 0 148 255 0 148 255 0 148 255 0 148 255 0 148 255 0 177 255 0 177 255 0 177 255 0 177 255 0 177 255 0 177 255 0 177 255 0 177 255 0 177 255 0 177 255 0 142 255 0 142 255 0 142 255 0 142 255 0 142 255 0 142 255 0 142 255 0 142 255 0 142 255 0 142 255 0 125 255 0 125 255 0 125 255 0 125 255 0 125 255 0 125 255 0 125 255 0 125 255 0 125 255 0 125 255 0 118 255 0 118 255 0 118 255 0 118 255 0 118 255 0 118 255 0 118 255 0 118 255 0 118 255 0 118 255 0 95 255 0 95 255 0 95 255 0 95 255 0 95 255 0 95 255 0 95 255 0 95 255 0 95 255 0 95 255 0 89 255 0 89 255 0 89 255 0 89 255 0 89 255 0 89 255 0 89 255 0 89 255 0 89 255 0 89 255 0 72 255 0 72 255 0 72 255 0 72 255 0 72 255 0 72 255 0 72 255 0 72 255 0 72 255 0 72 255 0 73 255 0 73 255 0 73 255 0 73 255 0 73 255 0 73 255 0 73 255 0 73 255 0 73 255 0 73 255 0 92 255 0 92 255 0 92 255 0 92 255 0 92 255 0 92 255 0 92 255 0 92 255 0 92 255 0 92 255 0 112 255 0 112 255 0 112 255 0 112 255 0 112 255 0 112 255 0 112 255 0 112 255 0 112 255 0 112 255 0 132 255 0 132 255 0 132 255 0 132 255 0 132 255 0 132 255 0 132 255 0 132 255 0 132 255 0 132 255 0 178 255 0 178 255 0 178 255 0 178 255 0 178 255 0 178 255 0 178 255 0 178 255 0 178 255 0 178 255 0 249 255 0 249 255 0 249 255 0 249 255 0 249 255 0 249 255 0 249 255 0 249 255 0 249 255 0 249 255 0 248 255 0 248 255 0 248 255 0 248 255 0 248 255 0 248 255 0 248 255 0 248 255 0 248 255 0 248 255 0 213 255 0 213 255 0 213 255 0 213 255 0 213 255 0 213 255 0 213 255 0 213 255 0 213 255 0 213 255 0 137 255 0 137 255 0 137 255 0 137 255 0 137 255 0 137 255 0 137 255 0 137 255 0 137 255 0 137 255 0 135 255 0 135 255 0 135 255 0 135 255 0 135 255 0 135 255 0 135 255 0 135 255 0 135 255 0 135 255 0 123 255 0 123 255 0 123 255 0 123 255 0 123 255 0 123 255 0 123 255 0 123 255 0 123 255 0 123 255 0 110 255 0 110 255 0 110 255 0 110 255 0 110 255 0 110 255 0 110 255 0 110 255 0 110 255 0 110 255 0 76 255 0 76 255 0 76 255 0 76 255 0 76 255 0 76 255 0 76 255 0 76 255 0 76 255 0 76 255 0 84 255 0 84 255 0 84 255 0 84 255 0 84 255 0 84 255 0 84 255 0 84 255 0 84 255 0 84 255 0 149 255 0 149 255 0 149 255 0 149 255 0 149 255 0 149 255 0 149 255 0 149 255 0 149 255 0 149 255 0 169 255 0 169 255 0 169 255 0 169 255 0 169 255 0 169 255 0 169 255 0 169 255 0 169 255 0 169 255 0 172 255 0 172 255 0 172 255 0 172 255 0 172 255 0 172 255 0 172 255 0 172 255 0 172 255 0 172 255 0 146 255 0 146 255 0 146 255 0 146 255 0 146 255 0 146 255 0 146 255 0 146 255 0 146 255 0 146 255 0 0 0 0 0 0 0 0 0 0 0 0 0 0 0 0 0 0 0 0 0 0 0 0 0 0 0 0 0 0 140 0 0 140 0 0 140 0 0 140 0 0 140 0 0 140 0 0 140 0 0 140 0 0 140 0 0 140 0 0 140 0 0 140 0 0 140 0 0 140 0 0 140 0 0 140 0 0 140 0 0 140 0 0 140 0 0 140 0 0 140 0 0 140 0 0 140 0 0 140 0 0 140 0 0 140 0 0 140 0 0 140 0 0 140 0 0 140 0 0 
0 158 255 0 158 255 0 158 255 0 158 255 0 158 255 0 158 255 0 158 255 0 158 255 0 158 255 0 158 255 0 145 255 0 145 255 0 145 255 0 145 255 0 145 255 0 145 255 0 145 255 0 145 255 0 145 255 0 145 255 0 148 255 0 148 255 0 148 255 0 148 255 0 148 255 0 148 255 0 148 255 0 148 255 0 148 255 0 148 255 0 177 255 0 177 255 0 177 255 0 177 255 0 177 255 0 177 255 0 177 255 0 177 255 0 177 255 0 177 255 0 142 255 0 142 255 0 142 255 0 142 255 0 142 255 0 142 255 0 142 255 0 142 255 0 142 255 0 142 255 0 125 255 0 125 255 0 125 255 0 125 255 0 125 255 0 125 255 0 125 255 0 125 255 0 125 255 0 125 255 0 118 255 0 118 255 0 118 255 0 118 255 0 118 255 0 118 255 0 118 255 0 118 255 0 118 255 0 118 255 0 95 255 0 95 255 0 95 255 0 95 255 0 95 255 0 95 255 0 95 255 0 95 255 0 95 255 0 95 255 0 89 255 0 89 255 0 89 255 0 89 255 0 89 255 0 89 255 0 89 255 0 89 255 0 89 255 0 89 255 0 72 255 0 72 255 0 72 255 0 72 255 0 72 255 0 72 255 0 72 255 0 72 255 0 72 255 0 72 255 0 73 255 0 73 255 0 73 255 0 73 255 0 73 255 0 73 255 0 73 255 0 73 255 0 73 255 0 73 255 0 92 255 0 92 255 0 92 255 0 92 255 0 92 255 0 92 255 0 92 255 0 92 255 0 92 255 0 92 255 0 112 255 0 112 255 0 112 255 0 112 255 0 112 255 0 112 255 0 112 255 0 112 255 0 112 255 0 112 255 0 132 255 0 132 255 0 132 255 0 132 255 0 132 255 0 132 255 0 132 255 0 132 255 0 132 255 0 132 255 0 178 255 0 178 255 0 178 255 0 178 255 0 178 255 0 178 255 0 178 255 0 178 255 0 178 255 0 178 255 0 249 255 0 249 255 0 249 255 0 249 255 0 249 255 0 249 255 0 249 255 0 249 255 0 249 255 0 249 255 0 248 255 0 248 255 0 248 255 0 248 255 0 248 255 0 248 255 0 248 255 0 248 255 0 248 255 0 248 255 0 213 255 0 213 255 0 213 255 0 213 255 0 213 255 0 213 255 0 213 255 0 213 255 0 213 255 0 213 255 0 137 255 0 137 255 0 137 255 0 137 255 0 137 255 0 137 255 0 137 255 0 137 255 0 137 255 0 137 255 0 135 255 0 135 255 0 135 255 0 135 255 0 135 255 0 135 255 0 135 255 0 135 255 0 135 255 0 135 255 0 123 255 0 123 255 0 123 255 0 123 255 0 123 255 0 123 255 0 123 255 0 123 255 0 123 255 0 123 255 0 110 255 0 110 255 0 110 255 0 110 255 0 110 255 0 110 255 0 110 255 0 110 255 0 110 255 0 110 255 0 76 255 0 76 255 0 76 255 0 76 255 0 76 255 0 76 255 0 76 255 0 76 255 0 76 255 0 76 255 0 84 255 0 84 255 0 84 255 0 84 255 0 84 255 0 84 255 0 84 255 0 84 255 0 84 255 0 84 255 0 149 255 0 149 255 0 149 255 0 149 255 0 149 255 0 149 255 0 149 255 0 149 255 0 149 255 0 149 255 0 169 255 0 169 255 0 169 255 0 169 255 0 169 255 0 169 255 0 169 255 0 169 255 0 169 255 0 169 255 0 172 255 0 172 255 0 172 255 0 172 255 0 172 255 0 172 255 0 172 255 0 172 255 0 172 255 0 172 255 0 146 255 0 146 255 0 146 255 0 146 255 0 146 255 0 146 255 0 146 255 0 146 255 0 146 255 0 146 255 0 0 0 0 0 0 0 0 0 0 0 0 0 0 0 0 0 0 0 0 0 0 0 0 0 0 0 0 0 0 137 0 0 137 0 0 137 0 0 137 0 0 137 0 0 137 0 0 137 0 0 137 0 0 137 0 0 137 0 0 137 0 0 137 0 0 137 0 0 137 0 0 137 0 0 137 0 0 137 0 0 137 0 0 137 0 0 137 0 0 137 0 0 137 0 0 137 0 0 137 0 0 137 0 0 137 0 0 137 0 0 137 0 0 137 0 0 137 0 0 
0 158 255 0 158 255 0 158 255 0 158 255 0 158 255 0 158 255 0 158 255 0 158 255 0 158 255 0 158 255 0 145 255 0 145 255 0 145 255 0 145 255 0 145 255 0 145 255 0 145 255 0 145 255 0 145 255 0 145 255 0 148 255 0 148 255 0 148 255 0 148 255 0 148 255 0 148 255 0 148 255 0 148 255 0 148 255 0 148 255 0 177 255 0 177 255 0 177 255 0 177 255 0 177 255 0 177 255 0 177 255 0 177 255 0 177 255 0 177 255 0 142 255 0 142 255 0 142 255 0 142 255 0 142 255 0 142 255 0 142 255 0 142 255 0 142 255 0 142 255 0 125 255 0 125 255 0 125 255 0 125 255 0 125 255 0 125 255 0 125 255 0 125 255 0 125 255 0 125 255 0 118 255 0 118 255 0 118 255 0 118 255 0 118 255 0 118 255 0 118 255 0 118 255 0 118 255 0 118 255 0 95 255 0 95 255 0 95 255 0 95 255 0 95 255 0 95 255 0 95 255 0 95 255 0 95 255 0 95 255 0 89 255 0 89 255 0 89 255 0 89 255 0 89 255 0 89 255 0 89 255 0 89 255 0 89 255 0 89 255 0 72 255 0 72 255 0 72 255 0 72 255 0 72 255 0 72 255 0 72 255 0 72 255 0 72 255 0 72 255 0 73 255 0 73 255 0 73 255 0 73 255 0 73 255 0 73 255 0 73 255 0 73 255 0 73 255 0 73 255 0 92 255 0 92 255 0 92 255 0 92 255 0 92 255 0 92 255 0 92 255 0 92 255 0 92 255 0 92 255 0 112 255 0 112 255 0 112 255 0 112 255 0 112 255 0 112 255 0 112 255 0 112 255 0 112 255 0 112 255 0 132 255 0 132 255 0 132 255 0 132 255 0 132 255 0 132 255 0 132 255 0 132 255 0 132 255 0 132 255 0 178 255 0 178 255 0 178 255 0 178 255 0 178 255 0 178 255 0 178 255 0 178 255 0 178 255 0 178 255 0 249 255 0 249 255 0 249 255 0 249 255 0 249 255 0 249 255 0 249 255 0 249 255 0 249 255 0 249 255 0 248 255 0 248 255 0 248 255 0 248 255 0 248 255 0 248 255 0 248 255 0 248 255 0 248 255 0 248 255 0 213 255 0 213 255 0 213 255 0 213 255 0 213 255 0 213 255 0 213 255 0 213 255 0 213 255 0 213 255 0 137 255 0 137 255 0 137 255 0 137 255 0 137 255 0 137 255 0 137 255 0 137 255 0 137 255 0 137 255 0 135 255 0 135 255 0 135 255 0 135 255 0 135 255 0 135 255 0 135 255 0 135 255 0 135 255 0 135 255 0 123 255 0 123 255 0 123 255 0 123 255 0 123 255 0 123 255 0 123 255 0 123 255 0 123 255 0 123 255 0 110 255 0 110 255 0 110 255 0 110 255 0 110 255 0 110 255 0 110 255 0 110 255 0 110 255 0 110 255 0 76 255 0 76 255 0 76 255 0 76 255 0 76 255 0 76 255 0 76 255 0 76 255 0 76 255 0 76 255 0 84 255 0 84 255 0 84 255 0 84 255 0 84 255 0 84 255 0 84 255 0 84 255 0 84 255 0 84 255 0 149 255 0 149 255 0 149 255 0 149 255 0 149 255 0 149 255 0 149 255 0 149 255 0 149 255 0 149 255 0 169 255 0 169 255 0 169 255 0 169 255 0 169 255 0 169 255 0 169 255 0 169 255 0 169 255 0 169 255 0 172 255 0 172 255 0 172 255 0 172 255 0 172 255 0 172 255 0 172 255 0 172 255 0 172 255 0 172 255 0 146 255 0 146 255 0 146 255 0 146 255 0 146 255 0 146 255 0 146 255 0 146 255 0 146 255 0 146 255 0 0 0 0 0 0 0 0 0 0 0 0 0 0 0 0 0 0 0 0 0 0 0 0 0 0 0 0 0 0 133 0 0 133 0 0 133 0 0 133 0 0 133 0 0 133 0 0 133 0 0 133 0 0 133 0 0 133 0 0 133 0 0 133 0 0 133 0 0 133 0 0 133 0 0 133 0 0 133 0 0 133 0 0 133 0 0 133 0 0 133 0 0 133 0 0 133 0 0 133 0 0 133 0 0 133 0 0 133 0 0 133 0 0 133 0 0 133 0 0 
0 158 255 0 158 255 0 158 255 0 158 255 0 158 255 0 158 255 0 158 255 0 158 255 0 158 255 0 158 255 0 145 255 0 145 255 0 145 255 0 145 255 0 145 255 0 145 255 0 145 255 0 145 255 0 145 255 0 145 255 0 148 255 0 148 255 0 148 255 0 148 255 0 148 255 0 148 255 0 148 255 0 148 255 0 148 255 0 148 255 0 177 255 0 177 255 0 177 255 0 177 255 0 177 255 0 177 255 0 177 255 0 177 255 0 177 255 0 177 255 0 142 255 0 142 255 0 142 255 0 142 255 0 142 255 0 142 255 0 142 255 0 142 255 0 142 255 0 142 255 0 125 255 0 125 255 0 125 255 0 125 255 0 125 255 0 125 255 0 125 255 0 125 255 0 125 255 0 125 255 0 118 255 0 118 255 0 118 255 0 118 255 0 118 255 0 118 255 0 118 255 0 118 255 0 118 255 0 118 255 0 95 255 0 95 255 0 95 255 0 95 255 0 95 255 0 95 255 0 95 255 0 95 255 0 95 255 0 95 255 0 89 255 0 89 255 0 89 255 0 89 255 0 89 255 0 89 255 0 89 255 0 89 255 0 89 255 0 89 255 0 72 255 0 72 255 0 72 255 0 72 255 0 72 255 0 72 255 0 72 255 0 72 255 0 72 255 0 72 255 0 73 255 0 73 255 0 73 255 0 73 255 0 73 255 0 73 255 0 73 255 0 73 255 0 73 255 0 73 255 0 92 255 0 92 255 0 92 255 0 92 255 0 92 255 0 92 255 0 92 255 0 92 255 0 92 255 0 92 255 0 112 255 0 112 255 0 112 255 0 112 255 0 112 255 0 112 255 0 112 255 0 112 255 0 112 255 0 112 255 0 132 255 0 132 255 0 132 255 0 132 255 0 132 255 0 132 255 0 132 255 0 132 255 0 132 255 0 132 255 0 178 255 0 178 255 0 178 255 0 178 255 0 178 255 0 178 255 0 178 255 0 178 255 0 178 255 0 178 255 0 249 255 0 249 255 0 249 255 0 249 255 0 249 255 0 249 255 0 249 255 0 249 255 0 249 255 0 249 255 0 248 255 0 248 255 0 248 255 0 248 255 0 248 255 0 248 255 0 248 255 0 248 255 0 248 255 0 248 255 0 213 255 0 213 255 0 213 255 0 213 255 0 213 255 0 213 255 0 213 255 0 213 255 0 213 255 0 213 255 0 137 255 0 137 255 0 137 255 0 137 255 0 137 255 0 137 255 0 137 255 0 137 255 0 137 255 0 137 255 0 135 255 0 135 255 0 135 255 0 135 255 0 135 255 0 135 255 0 135 255 0 135 255 0 135 255 0 135 255 0 123 255 0 123 255 0 123 255 0 123 255 0 123 255 0 123 255 0 123 255 0 123 255 0 123 255 0 123 255 0 110 255 0 110 255 0 110 255 0 110 255 0 110 255 0 110 255 0 110 255 0 110 255 0 110 255 0 110 255 0 76 255 0 76 255 0 76 255 0 76 255 0 76 255 0 76 255 0 76 255 0 76 255 0 76 255 0 76 255 0 84 255 0 84 255 0 84 255 0 84 255 0 84 255 0 84 255 0 84 255 0 84 255 0 84 255 0 84 255 0 149 255 0 149 255 0 149 255 0 149 255 0 149 255 0 149 255 0 149 255 0 149 255 0 149 255 0 149 255 0 169 255 0 169 255 0 169 255 0 169 255 0 169 255 0 169 255 0 169 255 0 169 255 0 169 255 0 169 255 0 172 255 0 172 255 0 172 255 0 172 255 0 172 255 0 172 255 0 172 255 0 172 255 0 172 255 0 172 255 0 146 255 0 146 255 0 146 255 0 146 255 0 146 255 0 146 255 0 146 255 0 146 255 0 146 255 0 146 255 0 0 0 0 0 0 0 0 0 0 0 0 0 0 0 0 0 0 0 0 0 0 0 0 0 0 0 0 0 0 129 0 0 129 0 0 129 0 0 129 0 0 129 0 0 129 0 0 129 0 0 129 0 0 129 0 0 129 0 0 129 0 0 129 0 0 129 0 0 129 0 0 129 0 0 129 0 0 129 0 0 129 0 0 129 0 0 129 0 0 129 0 0 129 0 0 129 0 0 129 0 0 129 0 0 129 0 0 129 0 0 129 0 0 129 0 0 129 0 0 
0 158 255 0 158 255 0 158 255 0 158 255 0 158 255 0 158 255 0 158 255 0 158 255 0 158 255 0 158 255 0 145 255 0 145 255 0 145 255 0 145 255 0 145 255 0 145 255 0 145 255 0 145 255 0 145 255 0 145 255 0 148 255 0 148 255 0 148 255 0 148 255 0 148 255 0 148 255 0 148 255 0 148 255 0 148 255 0 148 255 0 177 255 0 177 255 0 177 255 0 177 255 0 177 255 0 177 255 0 177 255 0 177 255 0 177 255 0 177 255 0 142 255 0 142 255 0 142 255 0 142 255 0 142 255 0 142 255 0 142 255 0 142 255 0 142 255 0 142 255 0 125 255 0 125 255 0 125 255 0 125 255 0 125 255 0 125 255 0 125 255 0 125 255 0 125 255 0 125 255 0 118 255 0 118 255 0 118 255 0 118 255 0 118 255 0 118 255 0 118 255 0 118 255 0 118 255 0 118 255 0 95 255 0 95 255 0 95 255 0 95 255 0 95 255 0 95 255 0 95 255 0 95 255 0 95 255 0 95 255 0 89 255 0 89 255 0 89 255 0 89 255 0 89 255 0 89 255 0 89 255 0 89 255 0 89 255 0 89 255 0 72 255 0 72 255 0 72 255 0 72 255 0 72 255 0 72 255 0 72 255 0 72 255 0 72 255 0 72 255 0 73 255 0 73 255 0 73 255 0 73 255 0 73 255 0 73 255 0 73 255 0 73 255 0 73 255 0 73 255 0 92 255 0 92 255 0 92 255 0 92 255 0 92 255 0 92 255 0 92 255 0 92 255 0 92 255 0 92 255 0 112 255 0 112 255 0 112 255 0 112 255 0 112 255 0 112 255 0 112 255 0 112 255 0 112 255 0 112 255 0 132 255 0 132 255 0 132 255 0 132 255 0 132 255 0 132 255 0 132 255 0 132 255 0 132 255 0 132 255 0 178 255 0 178 255 0 178 255 0 178 255 0 178 255 0 178 255 0 178 255 0 178 255 0 178 255 0 178 255 0 249 255 0 249 255 0 249 255 0 249 255 0 249 255 0 249 255 0 249 255 0 249 255 0 249 255 0 249 255 0 248 255 0 248 255 0 248 255 0 248 255 0 248 255 0 248 255 0 248 255 0 248 255 0 248 255 0 248 255 0 213 255 0 213 255 0 213 255 0 213 255 0 213 255 0 213 255 0 213 255 0 213 255 0 213 255 0 213 255 0 137 255 0 137 255 0 137 255 0 137 255 0 137 255 0 137 255 0 137 255 0 137 255 0 137 255 0 137 255 0 135 255 0 135 255 0 135 255 0 135 255 0 135 255 0 135 255 0 135 255 0 135 255 0 135 255 0 135 255 0 123 255 0 123 255 0 123 255 0 123 255 0 123 255 0 123 255 0 123 255 0 123 255 0 123 255 0 123 255 0 110 255 0 110 255 0 110 255 0 110 255 0 110 255 0 110 255 0 110 255 0 110 255 0 110 255 0 110 255 0 76 255 0 76 255 0 76 255 0 76 255 0 76 255 0 76 255 0 76 255 0 76 255 0 76 255 0 76 255 0 84 255 0 84 255 0 84 255 0 84 255 0 84 255 0 84 255 0 84 255 0 84 255 0 84 255 0 84 255 0 149 255 0 149 255 0 149 255 0 149 255 0 149 255 0 149 255 0 149 255 0 149 255 0 149 255 0 149 255 0 169 255 0 169 255 0 169 255 0 169 255 0 169 255 0 169 255 0 169 255 0 169 255 0 169 255 0 169 255 0 172 255 0 172 255 0 172 255 0 172 255 0 172 255 0 172 255 0 172 255 0 172 255 0 172 255 0 172 255 0 146 255 0 146 255 0 146 255 0 146 255 0 146 255 0 146 255 0 146 255 0 146 255 0 146 255 0 146 255 0 0 0 0 0 0 0 0 0 0 0 0 0 0 0 0 0 0 0 0 0 0 0 0 0 0 0 0 0 0 126 0 0 126 0 0 126 0 0 126 0 0 126 0 0 126 0 0 126 0 0 126 0 0 126 0 0 126 0 0 126 0 0 126 0 0 126 0 0 126 0 0 126 0 0 126 0 0 126 0 0 126 0 0 126 0 0 126 0 0 126 0 0 126 0 0 126 0 0 126 0 0 126 0 0 126 0 0 126 0 0 126 0 0 126 0 0 126 0 0 
0 158 255 0 158 255 0 158 255 0 158 255 0 158 255 0 158 255 0 158 255 0 158 255 0 158 255 0 158 255 0 145 255 0 145 255 0 145 255 0 145 255 0 145 255 0 145 255 0 145 255 0 145 255 0 145 255 0 145 255 0 148 255 0 148 255 0 148 255 0 148 255 0 148 255 0 148 255 0 148 255 0 148 255 0 148 255 0 148 255 0 177 255 0 177 255 0 177 255 0 177 255 0 177 255 0 177 255 0 177 255 0 177 255 0 177 255 0 177 255 0 142 255 0 142 255 0 142 255 0 142 255 0 142 255 0 142 255 0 142 255 0 142 255 0 142 255 0 142 255 0 125 255 0 125 255 0 125 255 0 125 255 0 125 255 0 125 255 0 125 255 0 125 255 0 125 255 0 125 255 0 118 255 0 118 255 0 118 255 0 118 255 0 118 255 0 118 255 0 118 255 0 118 255 0 118 255 0 118 255 0 95 255 0 95 255 0 95 255 0 95 255 0 95 255 0 95 255 0 95 255 0 95 255 0 95 255 0 95 255 0 89 255 0 89 255 0 89 255 0 89 255 0 89 255 0 89 255 0 89 255 0 89 255 0 89 255 0 89 255 0 72 255 0 72 255 0 72 255 0 72 255 0 72 255 0 72 255 0 72 255 0 72 255 0 72 255 0 72 255 0 73 255 0 73 255 0 73 255 0 73 255 0 73 255 0 73 255 0 73 255 0 73 255 0 73 255 0 73 255 0 92 255 0 92 255 0 92 255 0 92 255 0 92 255 0 92 255 0 92 255 0 92 255 0 92 255 0 92 255 0 112 255 0 112 255 0 112 255 0 112 255 0 112 255 0 112 255 0 112 255 0 112 255 0 112 255 0 112 255 0 132 255 0 132 255 0 132 255 0 132 255 0 132 255 0 132 255 0 132 255 0 132 255 0 132 255 0 132 255 0 178 255 0 178 255 0 178 255 0 178 255 0 178 255 0 178 255 0 178 255 0 178 255 0 178 255 0 178 255 0 249 255 0 249 255 0 249 255 0 249 255 0 249 255 0 249 255 0 249 255 0 249 255 0 249 255 0 249 255 0 248 255 0 248 255 0 248 255 0 248 255 0 248 255 0 248 255 0 248 255 0 248 255 0 248 255 0 248 255 0 213 255 0 213 255 0 213 255 0 213 255 0 213 255 0 213 255 0 213 255 0 213 255 0 213 255 0 213 255 0 137 255 0 137 255 0 137 255 0 137 255 0 137 255 0 137 255 0 137 255 0 137 255 0 137 255 0 137 255 0 135 255 0 135 255 0 135 255 0 135 255 0 135 255 0 135 255 0 135 255 0 135 255 0 135 255 0 135 255 0 123 255 0 123 255 0 123 255 0 123 255 0 123 255 0 123 255 0 123 255 0 123 255 0 123 255 0 123 255 0 110 255 0 110 255 0 110 255 0 110 255 0 110 255 0 110 255 0 110 255 0 110 255 0 110 255 0 110 255 0 76 255 0 76 255 0 76 255 0 76 255 0 76 255 0 76 255 0 76 255 0 76 255 0 76 255 0 76 255 0 84 255 0 84 255 0 84 255 0 84 255 0 84 255 0 84 255 0 84 255 0 84 255 0 84 255 0 84 255 0 149 255 0 149 255 0 149 255 0 149 255 0 149 255 0 149 255 0 149 255 0 149 255 0 149 255 0 149 255 0 169 255 0 169 255 0 169 255 0 169 255 0 169 255 0 169 255 0 169 255 0 169 255 0 169 255 0 169 255 0 172 255 0 172 255 0 172 255 0 172 255 0 172 255 0 172 255 0 172 255 0 172 255 0 172 255 0 172 255 0 146 255 0 146 255 0 146 255 0 146 255 0 146 255 0 146 255 0 146 255 0 146 255 0 146 255 0 146 255 0 0 0 0 0 0 0 0 0 0 0 0 0 0 0 0 0 0 0 0 0 0 0 0 0 0 0 0 0 0 122 0 0 122 0 0 122 0 0 122 0 0 122 0 0 122 0 0 122 0 0 122 0 0 122 0 0 122 0 0 122 0 0 122 0 0 122 0 0 122 0 0 122 0 0 122 0 0 122 0 0 122 0 0 122 0 0 122 0 0 122 0 0 122 0 0 122 0 0 122 0 0 122 0 0 122 0 0 122 0 0 122 0 0 122 0 0 122 0 0 
0 158 255 0 158 255 0 158 255 0 158 255 0 158 255 0 158 255 0 158 255 0 158 255 0 158 255 0 158 255 0 145 255 0 145 255 0 145 255 0 145 255 0 145 255 0 145 255 0 145 255 0 145 255 0 145 255 0 145 255 0 148 255 0 148 255 0 148 255 0 148 255 0 148 255 0 148 255 0 148 255 0 148 255 0 148 255 0 148 255 0 177 255 0 177 255 0 177 255 0 177 255 0 177 255 0 177 255 0 177 255 0 177 255 0 177 255 0 177 255 0 142 255 0 142 255 0 142 255 0 142 255 0 142 255 0 142 255 0 142 255 0 142 255 0 142 255 0 142 255 0 125 255 0 125 255 0 125 255 0 125 255 0 125 255 0 125 255 0 125 255 0 125 255 0 125 255 0 125 255 0 118 255 0 118 255 0 118 255 0 118 255 0 118 255 0 118 255 0 118 255 0 118 255 0 118 255 0 118 255 0 95 255 0 95 255 0 95 255 0 95 255 0 95 255 0 95 255 0 95 255 0 95 255 0 95 255 0 95 255 0 89 255 0 89 255 0 89 255 0 89 255 0 89 255 0 89 255 0 89 255 0 89 255 0 89 255 0 89 255 0 72 255 0 72 255 0 72 255 0 72 255 0 72 255 0 72 255 0 72 255 0 72 255 0 72 255 0 72 255 0 73 255 0 73 255 0 73 255 0 73 255 0 73 255 0 73 255 0 73 255 0 73 255 0 73 255 0 73 255 0 92 255 0 92 255 0 92 255 0 92 255 0 92 255 0 92 255 0 92 255 0 92 255 0 92 255 0 92 255 0 112 255 0 112 255 0 112 255 0 112 255 0 112 255 0 112 255 0 112 255 0 112 255 0 112 255 0 112 255 0 132 255 0 132 255 0 132 255 0 132 255 0 132 255 0 132 255 0 132 255 0 132 255 0 132 255 0 132 255 0 178 255 0 178 255 0 178 255 0 178 255 0 178 255 0 178 255 0 178 255 0 178 255 0 178 255 0 178 255 0 249 255 0 249 255 0 249 255 0 249 255 0 249 255 0 249 255 0 249 255 0 249 255 0 249 255 0 249 255 0 248 255 0 248 255 0 248 255 0 248 255 0 248 255 0 248 255 0 248 255 0 248 255 0 248 255 0 248 255 0 213 255 0 213 255 0 213 255 0 213 255 0 213 255 0 213 255 0 213 255 0 213 255 0 213 255 0 213 255 0 137 255 0 137 255 0 137 255 0 137 255 0 137 255 0 137 255 0 137 255 0 137 255 0 137 255 0 137 255 0 135 255 0 135 255 0 135 255 0 135 255 0 135 255 0 135 255 0 135 255 0 135 255 0 135 255 0 135 255 0 123 255 0 123 255 0 123 255 0 123 255 0 123 255 0 123 255 0 123 255 0 123 255 0 123 255 0 123 255 0 110 255 0 110 255 0 110 255 0 110 255 0 110 255 0 110 255 0 110 255 0 110 255 0 110 255 0 110 255 0 76 255 0 76 255 0 76 255 0 76 255 0 76 255 0 76 255 0 76 255 0 76 255 0 76 255 0 76 255 0 84 255 0 84 255 0 84 255 0 84 255 0 84 255 0 84 255 0 84 255 0 84 255 0 84 255 0 84 255 0 149 255 0 149 255 0 149 255 0 149 255 0 149 255 0 149 255 0 149 255 0 149 255 0 149 255 0 149 255 0 169 255 0 169 255 0 169 255 0 169 255 0 169 255 0 169 255 0 169 255 0 169 255 0 169 255 0 169 255 0 172 255 0 172 255 0 172 255 0 172 255 0 172 255 0 172 255 0 172 255 0 172 255 0 172 255 0 172 255 0 146 255 0 146 255 0 146 255 0 146 255 0 146 255 0 146 255 0 146 255 0 146 255 0 146 255 0 146 255 0 0 0 0 0 0 0 0 0 0 0 0 0 0 0 0 0 0 0 0 0 0 0 0 0 0 0 0 0 0 118 0 0 118 0 0 118 0 0 118 0 0 118 0 0 118 0 0 118 0 0 118 0 0 118 0 0 118 0 0 118 0 0 118 0 0 118 0 0 118 0 0 118 0 0 118 0 0 118 0 0 118 0 0 118 0 0 118 0 0 118 0 0 118 0 0 118 0 0 118 0 0 118 0 0 118 0 0 118 0 0 118 0 0 118 0 0 118 0 0 
0 158 255 0 158 255 0 158 255 0 158 255 0 158 255 0 158 255 0 158 255 0 158 255 0 158 255 0 158 255 0 145 255 0 145 255 0 145 255 0 145 255 0 145 255 0 145 255 0 145 255 0 145 255 0 145 255 0 145 255 0 148 255 0 148 255 0 148 255 0 148 255 0 148 255 0 148 255 0 148 255 0 148 255 0 148 255 0 148 255 0 177 255 0 177 255 0 177 255 0 177 255 0 177 255 0 177 255 0 177 255 0 177 255 0 177 255 0 177 255 0 142 255 0 142 255 0 142 255 0 142 255 0 142 255 0 142 255 0 142 255 0 142 255 0 142 255 0 142 255 0 125 255 0 125 255 0 125 255 0 125 255 0 125 255 0 125 255 0 125 255 0 125 255 0 125 255 0 125 255 0 118 255 0 118 255 0 118 255 0 118 255 0 118 255 0 118 255 0 118 255 0 118 255 0 118 255 0 118 255 0 95 255 0 95 255 0 95 255 0 95 255 0 95 255 0 95 255 0 95 255 0 95 255 0 95 255 0 95 255 0 89 255 0 89 255 0 89 255 0 89 255 0 89 255 0 89 255 0 89 255 0 89 255 0 89 255 0 89 255 0 72 255 0 72 255 0 72 255 0 72 255 0 72 255 0 72 255 0 72 255 0 72 255 0 72 255 0 72 255 0 73 255 0 73 255 0 73 255 0 73 255 0 73 255 0 73 255 0 73 255 0 73 255 0 73 255 0 73 255 0 92 255 0 92 255 0 92 255 0 92 255 0 92 255 0 92 255 0 92 255 0 92 255 0 92 255 0 92 255 0 112 255 0 112 255 0 112 255 0 112 255 0 112 255 0 112 255 0 112 255 0 112 255 0 112 255 0 112 255 0 132 255 0 132 255 0 132 255 0 132 255 0 132 255 0 132 255 0 132 255 0 132 255 0 132 255 0 132 255 0 178 255 0 178 255 0 178 255 0 178 255 0 178 255 0 178 255 0 178 255 0 178 255 0 178 255 0 178 255 0 249 255 0 249 255 0 249 255 0 249 255 0 249 255 0 249 255 0 249 255 0 249 255 0 249 255 0 249 255 0 248 255 0 248 255 0 248 255 0 248 255 0 248 255 0 248 255 0 248 255 0 248 255 0 248 255 0 248 255 0 213 255 0 213 255 0 213 255 0 213 255 0 213 255 0 213 255 0 213 255 0 213 255 0 213 255 0 213 255 0 137 255 0 137 255 0 137 255 0 137 255 0 137 255 0 137 255 0 137 255 0 137 255 0 137 255 0 137 255 0 135 255 0 135 255 0 135 255 0 135 255 0 135 255 0 135 255 0 135 255 0 135 255 0 135 255 0 135 255 0 123 255 0 123 255 0 123 255 0 123 255 0 123 255 0 123 255 0 123 255 0 123 255 0 123 255 0 123 255 0 110 255 0 110 255 0 110 255 0 110 255 0 110 255 0 110 255 0 110 255 0 110 255 0 110 255 0 110 255 0 76 255 0 76 255 0 76 255 0 76 255 0 76 255 0 76 255 0 76 255 0 76 255 0 76 255 0 76 255 0 84 255 0 84 255 0 84 255 0 84 255 0 84 255 0 84 255 0 84 255 0 84 255 0 84 255 0 84 255 0 149 255 0 149 255 0 149 255 0 149 255 0 149 255 0 149 255 0 149 255 0 149 255 0 149 255 0 149 255 0 169 255 0 169 255 0 169 255 0 169 255 0 169 255 0 169 255 0 169 255 0 169 255 0 169 255 0 169 255 0 172 255 0 172 255 0 172 255 0 172 255 0 172 255 0 172 255 0 172 255 0 172 255 0 172 255 0 172 255 0 146 255 0 146 255 0 146 255 0 146 255 0 146 255 0 146 255 0 146 255 0 146 255 0 146 255 0 146 255 0 0 0 0 0 0 0 0 0 0 0 0 0 0 0 0 0 0 0 0 0 0 0 0 0 0 0 0 0 0 115 0 0 115 0 0 115 0 0 115 0 0 115 0 0 115 0 0 115 0 0 115 0 0 115 0 0 115 0 0 115 0 0 115 0 0 115 0 0 115 0 0 115 0 0 115 0 0 115 0 0 115 0 0 115 0 0 115 0 0 115 0 0 115 0 0 115 0 0 115 0 0 115 0 0 115 0 0 115 0 0 115 0 0 115 0 0 115 0 0 
0 158 255 0 158 255 0 158 255 0 158 255 0 158 255 0 158 255 0 158 255 0 158 255 0 158 255 0 158 255 0 145 255 0 145 255 0 145 255 0 145 255 0 145 255 0 145 255 0 145 255 0 145 255 0 145 255 0 145 255 0 148 255 0 148 255 0 148 255 0 148 255 0 148 255 0 148 255 0 148 255 0 148 255 0 148 255 0 148 255 0 177 255 0 177 255 0 177 255 0 177 255 0 177 255 0 177 255 0 177 255 0 177 255 0 177 255 0 177 255 0 142 255 0 142 255 0 142 255 0 142 255 0 142 255 0 142 255 0 142 255 0 142 255 0 142 255 0 142 255 0 125 255 0 125 255 0 125 255 0 125 255 0 125 255 0 125 255 0 125 255 0 125 255 0 125 255 0 125 255 0 118 255 0 118 255 0 118 255 0 118 255 0 118 255 0 118 255 0 118 255 0 118 255 0 118 255 0 118 255 0 95 255 0 95 255 0 95 255 0 95 255 0 95 255 0 95 255 0 95 255 0 95 255 0 95 255 0 95 255 0 89 255 0 89 255 0 89 255 0 89 255 0 89 255 0 89 255 0 89 255 0 89 255 0 89 255 0 89 255 0 72 255 0 72 255 0 72 255 0 72 255 0 72 255 0 72 255 0 72 255 0 72 255 0 72 255 0 72 255 0 73 255 0 73 255 0 73 255 0 73 255 0 73 255 0 73 255 0 73 255 0 73 255 0 73 255 0 73 255 0 92 255 0 92 255 0 92 255 0 92 255 0 92 255 0 92 255 0 92 255 0 92 255 0 92 255 0 92 255 0 112 255 0 112 255 0 112 255 0 112 255 0 112 255 0 112 255 0 112 255 0 112 255 0 112 255 0 112 255 0 132 255 0 132 255 0 132 255 0 132 255 0 132 255 0 132 255 0 132 255 0 132 255 0 132 255 0 132 255 0 178 255 0 178 255 0 178 255 0 178 255 0 178 255 0 178 255 0 178 255 0 178 255 0 178 255 0 178 255 0 249 255 0 249 255 0 249 255 0 249 255 0 249 255 0 249 255 0 249 255 0 249 255 0 249 255 0 249 255 0 248 255 0 248 255 0 248 255 0 248 255 0 248 255 0 248 255 0 248 255 0 248 255 0 248 255 0 248 255 0 213 255 0 213 255 0 213 255 0 213 255 0 213 255 0 213 255 0 213 255 0 213 255 0 213 255 0 213 255 0 137 255 0 137 255 0 137 255 0 137 255 0 137 255 0 137 255 0 137 255 0 137 255 0 137 255 0 137 255 0 135 255 0 135 255 0 135 255 0 135 255 0 135 255 0 135 255 0 135 255 0 135 255 0 135 255 0 135 255 0 123 255 0 123 255 0 123 255 0 123 255 0 123 255 0 123 255 0 123 255 0 123 255 0 123 255 0 123 255 0 110 255 0 110 255 0 110 255 0 110 255 0 110 255 0 110 255 0 110 255 0 110 255 0 110 255 0 110 255 0 76 255 0 76 255 0 76 255 0 76 255 0 76 255 0 76 255 0 76 255 0 76 255 0 76 255 0 76 255 0 84 255 0 84 255 0 84 255 0 84 255 0 84 255 0 84 255 0 84 255 0 84 255 0 84 255 0 84 255 0 149 255 0 149 255 0 149 255 0 149 255 0 149 255 0 149 255 0 149 255 0 149 255 0 149 255 0 149 255 0 169 255 0 169 255 0 169 255 0 169 255 0 169 255 0 169 255 0 169 255 0 169 255 0 169 255 0 169 255 0 172 255 0 172 255 0 172 255 0 172 255 0 172 255 0 172 255 0 172 255 0 172 255 0 172 255 0 172 255 0 146 255 0 146 255 0 146 255 0 146 255 0 146 255 0 146 255 0 146 255 0 146 255 0 146 255 0 146 255 0 0 0 0 0 0 0 0 0 0 0 0 0 0 0 0 0 0 0 0 0 0 0 0 0 0 0 0 0 0 111 0 0 111 0 0 111 0 0 111 0 0 111 0 0 111 0 0 111 0 0 111 0 0 111 0 0 111 0 0 111 0 0 111 0 0 111 0 0 111 0 0 111 0 0 111 0 0 111 0 0 111 0 0 111 0 0 111 0 0 111 0 0 111 0 0 111 0 0 111 0 0 111 0 0 111 0 0 111 0 0 111 0 0 111 0 0 111 0 0 
0 159 255 0 159 255 0 159 255 0 159 255 0 159 255 0 159 255 0 159 255 0 159 255 0 159 255 0 159 255 0 156 255 0 156 255 0 156 255 0 156 255 0 156 255 0 156 255 0 156 255 0 156 255 0 156 255 0 156 255 0 172 255 0 172 255 0 172 255 0 172 255 0 172 255 0 172 255 0 172 255 0 172 255 0 172 255 0 172 255 0 165 255 0 165 255 0 165 255 0 165 255 0 165 255 0 165 255 0 165 255 0 165 255 0 165 255 0 165 255 0 145 255 0 145 255 0 145 255 0 145 255 0 145 255 0 145 255 0 145 255 0 145 255 0 145 255 0 145 255 0 130 255 0 130 255 0 130 255 0 130 255 0 130 255 0 130 255 0 130 255 0 130 255 0 130 255 0 130 255 0 114 255 0 114 255 0 114 255 0 114 255 0 114 255 0 114 255 0 114 255 0 114 255 0 114 255 0 114 255 0 86 255 0 86 255 0 86 255 0 86 255 0 86 255 0 86 255 0 86 255 0 86 255 0 86 255 0 86 255 0 76 255 0 76 255 0 76 255 0 76 255 0 76 255 0 76 255 0 76 255 0 76 255 0 76 255 0 76 255 0 61 255 0 61 255 0 61 255 0 61 255 0 61 255 0 61 255 0 61 255 0 61 255 0 61 255 0 61 255 0 86 255 0 86 255 0 86 255 0 86 255 0 86 255 0 86 255 0 86 255 0 86 255 0 86 255 0 86 255 0 127 255 0 127 255 0 127 255 0 127 255 0 127 255 0 127 255 0 127 255 0 127 255 0 127 255 0 127 255 0 102 255 0 102 255 0 102 255 0 102 255 0 102 255 0 102 255 0 102 255 0 102 255 0 102 255 0 102 255 0 77 255 0 77 255 0 77 255 0 77 255 0 77 255 0 77 255 0 77 255 0 77 255 0 77 255 0 77 255 0 78 255 0 78 255 0 78 255 0 78 255 0 78 255 0 78 255 0 78 255 0 78 255 0 78 255 0 78 255 0 166 255 0 166 255 0 166 255 0 166 255 0 166 255 0 166 255 0 166 255 0 166 255 0 166 255 0 166 255 0 224 255 0 224 255 0 224 255 0 224 255 0 224 255 0 224 255 0 224 255 0 224 255 0 224 255 0 224 255 0 203 255 0 203 255 0 203 255 0 203 255 0 203 255 0 203 255 0 203 255 0 203 255 0 203 255 0 203 255 0 167 255 0 167 255 0 167 255 0 167 255 0 167 255 0 167 255 0 167 255 0 167 255 0 167 255 0 167 255 0 156 255 0 156 255 0 156 255 0 156 255 0 156 255 0 156 255 0 156 255 0 156 255 0 156 255 0 156 255 0 117 255 0 117 255 0 117 255 0 117 255 0 117 255 0 117 255 0 117 255 0 117 255 0 117 255 0 117 255 0 105 255 0 105 255 0 105 255 0 105 255 0 105 255 0 105 255 0 105 255 0 105 255 0 105 255 0 105 255 0 65 255 0 65 255 0 65 255 0 65 255 0 65 255 0 65 255 0 65 255 0 65 255 0 65 255 0 65 255 0 92 255 0 92 255 0 92 255 0 92 255 0 92 255 0 92 255 0 92 255 0 92 255 0 92 255 0 92 255 0 117 255 0 117 255 0 117 255 0 117 255 0 117 255 0 117 255 0 117 255 0 117 255 0 117 255 0 117 255 0 157 255 0 157 255 0 157 255 0 157 255 0 157 255 0 157 255 0 157 255 0 157 255 0 157 255 0 157 255 0 149 255 0 149 255 0 149 255 0 149 255 0 149 255 0 149 255 0 149 255 0 149 255 0 149 255 0 149 255 0 156 255 0 156 255 0 156 255 0 156 255 0 156 255 0 156 255 0 156 255 0 156 255 0 156 255 0 156 255 0 0 0 0 0 0 0 0 0 0 0 0 0 0 0 0 0 0 0 0 0 0 0 0 0 0 0 0 0 0 107 0 0 107 0 0 107 0 0 107 0 0 107 0 0 107 0 0 107 0 0 107 0 0 107 0 0 107 0 0 107 0 0 107 0 0 107 0 0 107 0 0 107 0 0 107 0 0 107 0 0 107 0 0 107 0 0 107 0 0 107 0 0 107 0 0 107 0 0 107 0 0 107 0 0 107 0 0 107 0 0 107 0 0 107 0 0 107 0 0 
0 159 255 0 159 255 0 159 255 0 159 255 0 159 255 0 159 255 0 159 255 0 159 255 0 159 255 0 159 255 0 156 255 0 156 255 0 156 255 0 156 255 0 156 255 0 156 255 0 156 255 0 156 255 0 156 255 0 156 255 0 172 255 0 172 255 0 172 255 0 172 255 0 172 255 0 172 255 0 172 255 0 172 255 0 172 255 0 172 255 0 165 255 0 165 255 0 165 255 0 165 255 0 165 255 0 165 255 0 165 255 0 165 255 0 165 255 0 165 255 0 145 255 0 145 255 0 145 255 0 145 255 0 145 255 0 145 255 0 145 255 0 145 255 0 145 255 0 145 255 0 130 255 0 130 255 0 130 255 0 130 255 0 130 255 0 130 255 0 130 255 0 130 255 0 130 255 0 130 255 0 114 255 0 114 255 0 114 255 0 114 255 0 114 255 0 114 255 0 114 255 0 114 255 0 114 255 0 114 255 0 86 255 0 86 255 0 86 255 0 86 255 0 86 255 0 86 255 0 86 255 0 86 255 0 86 255 0 86 255 0 76 255 0 76 255 0 76 255 0 76 255 0 76 255 0 76 255 0 76 255 0 76 255 0 76 255 0 76 255 0 61 255 0 61 255 0 61 255 0 61 255 0 61 255 0 61 255 0 61 255 0 61 255 0 61 255 0 61 255 0 86 255 0 86 255 0 86 255 0 86 255 0 86 255 0 86 255 0 86 255 0 86 255 0 86 255 0 86 255 0 127 255 0 127 255 0 127 255 0 127 255 0 127 255 0 127 255 0 127 255 0 127 255 0 127 255 0 127 255 0 102 255 0 102 255 0 102 255 0 102 255 0 102 255 0 102 255 0 102 255 0 102 255 0 102 255 0 102 255 0 77 255 0 77 255 0 77 255 0 77 255 0 77 255 0 77 255 0 77 255 0 77 255 0 77 255 0 77 255 0 78 255 0 78 255 0 78 255 0 78 255 0 78 255 0 78 255 0 78 255 0 78 255 0 78 255 0 78 255 0 166 255 0 166 255 0 166 255 0 166 255 0 166 255 0 166 255 0 166 255 0 166 255 0 166 255 0 166 255 0 224 255 0 224 255 0 224 255 0 224 255 0 224 255 0 224 255 0 224 255 0 224 255 0 224 255 0 224 255 0 203 255 0 203 255 0 203 255 0 203 255 0 203 255 0 203 255 0 203 255 0 203 255 0 203 255 0 203 255 0 167 255 0 167 255 0 167 255 0 167 255 0 167 255 0 167 255 0 167 255 0 167 255 0 167 255 0 167 255 0 156 255 0 156 255 0 156 255 0 156 255 0 156 255 0 156 255 0 156 255 0 156 255 0 156 255 0 156 255 0 117 255 0 117 255 0 117 255 0 117 255 0 117 255 0 117 255 0 117 255 0 117 255 0 117 255 0 117 255 0 105 255 0 105 255 0 105 255 0 105 255 0 105 255 0 105 255 0 105 255 0 105 255 0 105 255 0 105 255 0 65 255 0 65 255 0 65 255 0 65 255 0 65 255 0 65 255 0 65 255 0 65 255 0 65 255 0 65 255 0 92 255 0 92 255 0 92 255 0 92 255 0 92 255 0 92 255 0 92 255 0 92 255 0 92 255 0 92 255 0 117 255 0 117 255 0 117 255 0 117 255 0 117 255 0 117 255 0 117 255 0 117 255 0 117 255 0 117 255 0 157 255 0 157 255 0 157 255 0 157 255 0 157 255 0 157 255 0 157 255 0 157 255 0 157 255 0 157 255 0 149 255 0 149 255 0 149 255 0 149 255 0 149 255 0 149 255 0 149 255 0 149 255 0 149 255 0 149 255 0 156 255 0 156 255 0 156 255 0 156 255 0 156 255 0 156 255 0 156 255 0 156 255 0 156 255 0 156 255 0 0 0 0 0 0 0 0 0 0 0 0 0 0 0 0 0 0 0 0 0 0 0 0 0 0 0 0 0 0 104 0 0 104 0 0 104 0 0 104 0 0 104 0 0 104 0 0 104 0 0 104 0 0 104 0 0 104 0 0 104 0 0 104 0 0 104 0 0 104 0 0 104 0 0 104 0 0 104 0 0 104 0 0 104 0 0 104 0 0 104 0 0 104 0 0 104 0 0 104 0 0 104 0 0 104 0 0 104 0 0 104 0 0 104 0 0 104 0 0 
0 159 255 0 159 255 0 159 255 0 159 255 0 159 255 0 159 255 0 159 255 0 159 255 0 159 255 0 159 255 0 156 255 0 156 255 0 156 255 0 156 255 0 156 255 0 156 255 0 156 255 0 156 255 0 156 255 0 156 255 0 172 255 0 172 255 0 172 255 0 172 255 0 172 255 0 172 255 0 172 255 0 172 255 0 172 255 0 172 255 0 165 255 0 165 255 0 165 255 0 165 255 0 165 255 0 165 255 0 165 255 0 165 255 0 165 255 0 165 255 0 145 255 0 145 255 0 145 255 0 145 255 0 145 255 0 145 255 0 145 255 0 145 255 0 145 255 0 145 255 0 130 255 0 130 255 0 130 255 0 130 255 0 130 255 0 130 255 0 130 255 0 130 255 0 130 255 0 130 255 0 114 255 0 114 255 0 114 255 0 114 255 0 114 255 0 114 255 0 114 255 0 114 255 0 114 255 0 114 255 0 86 255 0 86 255 0 86 255 0 86 255 0 86 255 0 86 255 0 86 255 0 86 255 0 86 255 0 86 255 0 76 255 0 76 255 0 76 255 0 76 255 0 76 255 0 76 255 0 76 255 0 76 255 0 76 255 0 76 255 0 61 255 0 61 255 0 61 255 0 61 255 0 61 255 0 61 255 0 61 255 0 61 255 0 61 255 0 61 255 0 86 255 0 86 255 0 86 255 0 86 255 0 86 255 0 86 255 0 86 255 0 86 255 0 86 255 0 86 255 0 127 255 0 127 255 0 127 255 0 127 255 0 127 255 0 127 255 0 127 255 0 127 255 0 127 255 0 127 255 0 102 255 0 102 255 0 102 255 0 102 255 0 102 255 0 102 255 0 102 255 0 102 255 0 102 255 0 102 255 0 77 255 0 77 255 0 77 255 0 77 255 0 77 255 0 77 255 0 77 255 0 77 255 0 77 255 0 77 255 0 78 255 0 78 255 0 78 255 0 78 255 0 78 255 0 78 255 0 78 255 0 78 255 0 78 255 0 78 255 0 166 255 0 166 255 0 166 255 0 166 255 0 166 255 0 166 255 0 166 255 0 166 255 0 166 255 0 166 255 0 224 255 0 224 255 0 224 255 0 224 255 0 224 255 0 224 255 0 224 255 0 224 255 0 224 255 0 224 255 0 203 255 0 203 255 0 203 255 0 203 255 0 203 255 0 203 255 0 203 255 0 203 255 0 203 255 0 203 255 0 167 255 0 167 255 0 167 255 0 167 255 0 167 255 0 167 255 0 167 255 0 167 255 0 167 255 0 167 255 0 156 255 0 156 255 0 156 255 0 156 255 0 156 255 0 156 255 0 156 255 0 156 255 0 156 255 0 156 255 0 117 255 0 117 255 0 117 255 0 117 255 0 117 255 0 117 255 0 117 255 0 117 255 0 117 255 0 117 255 0 105 255 0 105 255 0 105 255 0 105 255 0 105 255 0 105 255 0 105 255 0 105 255 0 105 255 0 105 255 0 65 255 0 65 255 0 65 255 0 65 255 0 65 255 0 65 255 0 65 255 0 65 255 0 65 255 0 65 255 0 92 255 0 92 255 0 92 255 0 92 255 0 92 255 0 92 255 0 92 255 0 92 255 0 92 255 0 92 255 0 117 255 0 117 255 0 117 255 0 117 255 0 117 255 0 117 255 0 117 255 0 117 255 0 117 255 0 117 255 0 157 255 0 157 255 0 157 255 0 157 255 0 157 255 0 157 255 0 157 255 0 157 255 0 157 255 0 157 255 0 149 255 0 149 255 0 149 255 0 149 255 0 149 255 0 149 255 0 149 255 0 149 255 0 149 255 0 149 255 0 156 255 0 156 255 0 156 255 0 156 255 0 156 255 0 156 255 0 156 255 0 156 255 0 156 255 0 156 255 0 0 0 0 0 0 0 0 0 0 0 0 0 0 0 0 0 0 0 0 0 0 0 0 0 0 0 0 0 0 100 0 0 100 0 0 100 0 0 100 0 0 100 0 0 100 0 0 100 0 0 100 0 0 100 0 0 100 0 0 100 0 0 100 0 0 100 0 0 100 0 0 100 0 0 100 0 0 100 0 0 100 0 0 100 0 0 100 0 0 100 0 0 100 0 0 100 0 0 100 0 0 100 0 0 100 0 0 100 0 0 100 0 0 100 0 0 100 0 0 
0 159 255 0 159 255 0 159 255 0 159 255 0 159 255 0 159 255 0 159 255 0 159 255 0 159 255 0 159 255 0 156 255 0 156 255 0 156 255 0 156 255 0 156 255 0 156 255 0 156 255 0 156 255 0 156 255 0 156 255 0 172 255 0 172 255 0 172 255 0 172 255 0 172 255 0 172 255 0 172 255 0 172 255 0 172 255 0 172 255 0 165 255 0 165 255 0 165 255 0 165 255 0 165 255 0 165 255 0 165 255 0 165 255 0 165 255 0 165 255 0 145 255 0 145 255 0 145 255 0 145 255 0 145 255 0 145 255 0 145 255 0 145 255 0 145 255 0 145 255 0 130 255 0 130 255 0 130 255 0 130 255 0 130 255 0 130 255 0 130 255 0 130 255 0 130 255 0 130 255 0 114 255 0 114 255 0 114 255 0 114 255 0 114 255 0 114 255 0 114 255 0 114 255 0 114 255 0 114 255 0 86 255 0 86 255 0 86 255 0 86 255 0 86 255 0 86 255 0 86 255 0 86 255 0 86 255 0 86 255 0 76 255 0 76 255 0 76 255 0 76 255 0 76 255 0 76 255 0 76 255 0 76 255 0 76 255 0 76 255 0 61 255 0 61 255 0 61 255 0 61 255 0 61 255 0 61 255 0 61 255 0 61 255 0 61 255 0 61 255 0 86 255 0 86 255 0 86 255 0 86 255 0 86 255 0 86 255 0 86 255 0 86 255 0 86 255 0 86 255 0 127 255 0 127 255 0 127 255 0 127 255 0 127 255 0 127 255 0 127 255 0 127 255 0 127 255 0 127 255 0 102 255 0 102 255 0 102 255 0 102 255 0 102 255 0 102 255 0 102 255 0 102 255 0 102 255 0 102 255 0 77 255 0 77 255 0 77 255 0 77 255 0 77 255 0 77 255 0 77 255 0 77 255 0 77 255 0 77 255 0 78 255 0 78 255 0 78 255 0 78 255 0 78 255 0 78 255 0 78 255 0 78 255 0 78 255 0 78 255 0 166 255 0 166 255 0 166 255 0 166 255 0 166 255 0 166 255 0 166 255 0 166 255 0 166 255 0 166 255 0 224 255 0 224 255 0 224 255 0 224 255 0 224 255 0 224 255 0 224 255 0 224 255 0 224 255 0 224 255 0 203 255 0 203 255 0 203 255 0 203 255 0 203 255 0 203 255 0 203 255 0 203 255 0 203 255 0 203 255 0 167 255 0 167 255 0 167 255 0 167 255 0 167 255 0 167 255 0 167 255 0 167 255 0 167 255 0 167 255 0 156 255 0 156 255 0 156 255 0 156 255 0 156 255 0 156 255 0 156 255 0 156 255 0 156 255 0 156 255 0 117 255 0 117 255 0 117 255 0 117 255 0 117 255 0 117 255 0 117 255 0 117 255 0 117 255 0 117 255 0 105 255 0 105 255 0 105 255 0 105 255 0 105 255 0 105 255 0 105 255 0 105 255 0 105 255 0 105 255 0 65 255 0 65 255 0 65 255 0 65 255 0 65 255 0 65 255 0 65 255 0 65 255 0 65 255 0 65 255 0 92 255 0 92 255 0 92 255 0 92 255 0 92 255 0 92 255 0 92 255 0 92 255 0 92 255 0 92 255 0 117 255 0 117 255 0 117 255 0 117 255 0 117 255 0 117 255 0 117 255 0 117 255 0 117 255 0 117 255 0 157 255 0 157 255 0 157 255 0 157 255 0 157 255 0 157 255 0 157 255 0 157 255 0 157 255 0 157 255 0 149 255 0 149 255 0 149 255 0 149 255 0 149 255 0 149 255 0 149 255 0 149 255 0 149 255 0 149 255 0 156 255 0 156 255 0 156 255 0 156 255 0 156 255 0 156 255 0 156 255 0 156 255 0 156 255 0 156 255 0 0 0 0 0 0 0 0 0 0 0 0 0 0 0 0 0 0 0 0 0 0 0 0 0 0 0 0 0 0 96 0 0 96 0 0 96 0 0 96 0 0 96 0 0 96 0 0 96 0 0 96 0 0 96 0 0 96 0 0 96 0 0 96 0 0 96 0 0 96 0 0 96 0 0 96 0 0 96 0 0 96 0 0 96 0 0 96 0 0 96 0 0 96 0 0 96 0 0 96 0 0 96 0 0 96 0 0 96 0 0 96 0 0 96 0 0 96 0 0 
0 159 255 0 159 255 0 159 255 0 159 255 0 159 255 0 159 255 0 159 255 0 159 255 0 159 255 0 159 255 0 156 255 0 156 255 0 156 255 0 156 255 0 156 255 0 156 255 0 156 255 0 156 255 0 156 255 0 156 255 0 172 255 0 172 255 0 172 255 0 172 255 0 172 255 0 172 255 0 172 255 0 172 255 0 172 255 0 172 255 0 165 255 0 165 255 0 165 255 0 165 255 0 165 255 0 165 255 0 165 255 0 165 255 0 165 255 0 165 255 0 145 255 0 145 255 0 145 255 0 145 255 0 145 255 0 145 255 0 145 255 0 145 255 0 145 255 0 145 255 0 130 255 0 130 255 0 130 255 0 130 255 0 130 255 0 130 255 0 130 255 0 130 255 0 130 255 0 130 255 0 114 255 0 114 255 0 114 255 0 114 255 0 114 255 0 114 255 0 114 255 0 114 255 0 114 255 0 114 255 0 86 255 0 86 255 0 86 255 0 86 255 0 86 255 0 86 255 0 86 255 0 86 255 0 86 255 0 86 255 0 76 255 0 76 255 0 76 255 0 76 255 0 76 255 0 76 255 0 76 255 0 76 255 0 76 255 0 76 255 0 61 255 0 61 255 0 61 255 0 61 255 0 61 255 0 61 255 0 61 255 0 61 255 0 61 255 0 61 255 0 86 255 0 86 255 0 86 255 0 86 255 0 86 255 0 86 255 0 86 255 0 86 255 0 86 255 0 86 255 0 127 255 0 127 255 0 127 255 0 127 255 0 127 255 0 127 255 0 127 255 0 127 255 0 127 255 0 127 255 0 102 255 0 102 255 0 102 255 0 102 255 0 102 255 0 102 255 0 102 255 0 102 255 0 102 255 0 102 255 0 77 255 0 77 255 0 77 255 0 77 255 0 77 255 0 77 255 0 77 255 0 77 255 0 77 255 0 77 255 0 78 255 0 78 255 0 78 255 0 78 255 0 78 255 0 78 255 0 78 255 0 78 255 0 78 255 0 78 255 0 166 255 0 166 255 0 166 255 0 166 255 0 166 255 0 166 255 0 166 255 0 166 255 0 166 255 0 166 255 0 224 255 0 224 255 0 224 255 0 224 255 0 224 255 0 224 255 0 224 255 0 224 255 0 224 255 0 224 255 0 203 255 0 203 255 0 203 255 0 203 255 0 203 255 0 203 255 0 203 255 0 203 255 0 203 255 0 203 255 0 167 255 0 167 255 0 167 255 0 167 255 0 167 255 0 167 255 0 167 255 0 167 255 0 167 255 0 167 255 0 156 255 0 156 255 0 156 255 0 156 255 0 156 255 0 156 255 0 156 255 0 156 255 0 156 255 0 156 255 0 117 255 0 117 255 0 117 255 0 117 255 0 117 255 0 117 255 0 117 255 0 117 255 0 117 255 0 117 255 0 105 255 0 105 255 0 105 255 0 105 255 0 105 255 0 105 255 0 105 255 0 105 255 0 105 255 0 105 255 0 65 255 0 65 255 0 65 255 0 65 255 0 65 255 0 65 255 0 65 255 0 65 255 0 65 255 0 65 255 0 92 255 0 92 255 0 92 255 0 92 255 0 92 255 0 92 255 0 92 255 0 92 255 0 92 255 0 92 255 0 117 255 0 117 255 0 117 255 0 117 255 0 117 255 0 117 255 0 117 255 0 117 255 0 117 255 0 117 255 0 157 255 0 157 255 0 157 255 0 157 255 0 157 255 0 157 255 0 157 255 0 157 255 0 157 255 0 157 255 0 149 255 0 149 255 0 149 255 0 149 255 0 149 255 0 149 255 0 149 255 0 149 255 0 149 255 0 149 255 0 156 255 0 156 255 0 156 255 0 156 255 0 156 255 0 156 255 0 156 255 0 156 255 0 156 255 0 156 255 0 0 0 0 0 0 0 0 0 0 0 0 0 0 0 0 0 0 0 0 0 0 0 0 0 0 0 0 0 0 93 0 0 93 0 0 93 0 0 93 0 0 93 0 0 93 0 0 93 0 0 93 0 0 93 0 0 93 0 0 93 0 0 93 0 0 93 0 0 93 0 0 93 0 0 93 0 0 93 0 0 93 0 0 93 0 0 93 0 0 93 0 0 93 0 0 93 0 0 93 0 0 93 0 0 93 0 0 93 0 0 93 0 0 93 0 0 93 0 0 
0 159 255 0 159 255 0 159 255 0 159 255 0 159 255 0 159 255 0 159 255 0 159 255 0 159 255 0 159 255 0 156 255 0 156 255 0 156 255 0 156 255 0 156 255 0 156 255 0 156 255 0 156 255 0 156 255 0 156 255 0 172 255 0 172 255 0 172 255 0 172 255 0 172 255 0 172 255 0 172 255 0 172 255 0 172 255 0 172 255 0 165 255 0 165 255 0 165 255 0 165 255 0 165 255 0 165 255 0 165 255 0 165 255 0 165 255 0 165 255 0 145 255 0 145 255 0 145 255 0 145 255 0 145 255 0 145 255 0 145 255 0 145 255 0 145 255 0 145 255 0 130 255 0 130 255 0 130 255 0 130 255 0 130 255 0 130 255 0 130 255 0 130 255 0 130 255 0 130 255 0 114 255 0 114 255 0 114 255 0 114 255 0 114 255 0 114 255 0 114 255 0 114 255 0 114 255 0 114 255 0 86 255 0 86 255 0 86 255 0 86 255 0 86 255 0 86 255 0 86 255 0 86 255 0 86 255 0 86 255 0 76 255 0 76 255 0 76 255 0 76 255 0 76 255 0 76 255 0 76 255 0 76 255 0 76 255 0 76 255 0 61 255 0 61 255 0 61 255 0 61 255 0 61 255 0 61 255 0 61 255 0 61 255 0 61 255 0 61 255 0 86 255 0 86 255 0 86 255 0 86 255 0 86 255 0 86 255 0 86 255 0 86 255 0 86 255 0 86 255 0 127 255 0 127 255 0 127 255 0 127 255 0 127 255 0 127 255 0 127 255 0 127 255 0 127 255 0 127 255 0 102 255 0 102 255 0 102 255 0 102 255 0 102 255 0 102 255 0 102 255 0 102 255 0 102 255 0 102 255 0 77 255 0 77 255 0 77 255 0 77 255 0 77 255 0 77 255 0 77 255 0 77 255 0 77 255 0 77 255 0 78 255 0 78 255 0 78 255 0 78 255 0 78 255 0 78 255 0 78 255 0 78 255 0 78 255 0 78 255 0 166 255 0 166 255 0 166 255 0 166 255 0 166 255 0 166 255 0 166 255 0 166 255 0 166 255 0 166 255 0 224 255 0 224 255 0 224 255 0 224 255 0 224 255 0 224 255 0 224 255 0 224 255 0 224 255 0 224 255 0 203 255 0 203 255 0 203 255 0 203 255 0 203 255 0 203 255 0 203 255 0 203 255 0 203 255 0 203 255 0 167 255 0 167 255 0 167 255 0 167 255 0 167 255 0 167 255 0 167 255 0 167 255 0 167 255 0 167 255 0 156 255 0 156 255 0 156 255 0 156 255 0 156 255 0 156 255 0 156 255 0 156 255 0 156 255 0 156 255 0 117 255 0 117 255 0 117 255 0 117 255 0 117 255 0 117 255 0 117 255 0 117 255 0 117 255 0 117 255 0 105 255 0 105 255 0 105 255 0 105 255 0 105 255 0 105 255 0 105 255 0 105 255 0 105 255 0 105 255 0 65 255 0 65 255 0 65 255 0 65 255 0 65 255 0 65 255 0 65 255 0 65 255 0 65 255 0 65 255 0 92 255 0 92 255 0 92 255 0 92 255 0 92 255 0 92 255 0 92 255 0 92 255 0 92 255 0 92 255 0 117 255 0 117 255 0 117 255 0 117 255 0 117 255 0 117 255 0 117 255 0 117 255 0 117 255 0 117 255 0 157 255 0 157 255 0 157 255 0 157 255 0 157 255 0 157 255 0 157 255 0 157 255 0 157 255 0 157 255 0 149 255 0 149 255 0 149 255 0 149 255 0 149 255 0 149 255 0 149 255 0 149 255 0 149 255 0 149 255 0 156 255 0 156 255 0 156 255 0 156 255 0 156 255 0 156 255 0 156 255 0 156 255 0 156 255 0 156 255 0 0 0 0 0 0 0 0 0 0 0 0 0 0 0 0 0 0 0 0 0 0 0 0 0 0 0 0 0 0 89 0 0 89 0 0 89 0 0 89 0 0 89 0 0 89 0 0 89 0 0 89 0 0 89 0 0 89 0 0 89 0 0 89 0 0 89 0 0 89 0 0 89 0 0 89 0 0 89 0 0 89 0 0 89 0 0 89 0 0 89 0 0 89 0 0 89 0 0 89 0 0 89 0 0 89 0 0 89 0 0 89 0 0 89 0 0 89 0 0 
0 159 255 0 159 255 0 159 255 0 159 255 0 159 255 0 159 255 0 159 255 0 159 255 0 159 255 0 159 255 0 156 255 0 156 255 0 156 255 0 156 255 0 156 255 0 156 255 0 156 255 0 156 255 0 156 255 0 156 255 0 172 255 0 172 255 0 172 255 0 172 255 0 172 255 0 172 255 0 172 255 0 172 255 0 172 255 0 172 255 0 165 255 0 165 255 0 165 255 0 165 255 0 165 255 0 165 255 0 165 255 0 165 255 0 165 255 0 165 255 0 145 255 0 145 255 0 145 255 0 145 255 0 145 255 0 145 255 0 145 255 0 145 255 0 145 255 0 145 255 0 130 255 0 130 255 0 130 255 0 130 255 0 130 255 0 130 255 0 130 255 0 130 255 0 130 255 0 130 255 0 114 255 0 114 255 0 114 255 0 114 255 0 114 255 0 114 255 0 114 255 0 114 255 0 114 255 0 114 255 0 86 255 0 86 255 0 86 255 0 86 255 0 86 255 0 86 255 0 86 255 0 86 255 0 86 255 0 86 255 0 76 255 0 76 255 0 76 255 0 76 255 0 76 255 0 76 255 0 76 255 0 76 255 0 76 255 0 76 255 0 61 255 0 61 255 0 61 255 0 61 255 0 61 255 0 61 255 0 61 255 0 61 255 0 61 255 0 61 255 0 86 255 0 86 255 0 86 255 0 86 255 0 86 255 0 86 255 0 86 255 0 86 255 0 86 255 0 86 255 0 127 255 0 127 255 0 127 255 0 127 255 0 127 255 0 127 255 0 127 255 0 127 255 0 127 255 0 127 255 0 102 255 0 102 255 0 102 255 0 102 255 0 102 255 0 102 255 0 102 255 0 102 255 0 102 255 0 102 255 0 77 255 0 77 255 0 77 255 0 77 255 0 77 255 0 77 255 0 77 255 0 77 255 0 77 255 0 77 255 0 78 255 0 78 255 0 78 255 0 78 255 0 78 255 0 78 255 0 78 255 0 78 255 0 78 255 0 78 255 0 166 255 0 166 255 0 166 255 0 166 255 0 166 255 0 166 255 0 166 255 0 166 255 0 166 255 0 166 255 0 224 255 0 224 255 0 224 255 0 224 255 0 224 255 0 224 255 0 224 255 0 224 255 0 224 255 0 224 255 0 203 255 0 203 255 0 203 255 0 203 255 0 203 255 0 203 255 0 203 255 0 203 255 0 203 255 0 203 255 0 167 255 0 167 255 0 167 255 0 167 255 0 167 255 0 167 255 0 167 255 0 167 255 0 167 255 0 167 255 0 156 255 0 156 255 0 156 255 0 156 255 0 156 255 0 156 255 0 156 255 0 156 255 0 156 255 0 156 255 0 117 255 0 117 255 0 117 255 0 117 255 0 117 255 0 117 255 0 117 255 0 117 255 0 117 255 0 117 255 0 105 255 0 105 255 0 105 255 0 105 255 0 105 255 0 105 255 0 105 255 0 105 255 0 105 255 0 105 255 0 65 255 0 65 255 0 65 255 0 65 255 0 65 255 0 65 255 0 65 255 0 65 255 0 65 255 0 65 255 0 92 255 0 92 255 0 92 255 0 92 255 0 92 255 0 92 255 0 92 255 0 92 255 0 92 255 0 92 255 0 117 255 0 117 255 0 117 255 0 117 255 0 117 255 0 117 255 0 117 255 0 117 255 0 117 255 0 117 255 0 157 255 0 157 255 0 157 255 0 157 255 0 157 255 0 157 255 0 157 255 0 157 255 0 157 255 0 157 255 0 149 255 0 149 255 0 149 255 0 149 255 0 149 255 0 149 255 0 149 255 0 149 255 0 149 255 0 149 255 0 156 255 0 156 255 0 156 255 0 156 255 0 156 255 0 156 255 0 156 255 0 156 255 0 156 255 0 156 255 0 0 0 0 0 0 0 0 0 0 0 0 0 0 0 0 0 0 0 0 0 0 0 0 0 0 0 0 0 0 85 0 0 85 0 0 85 0 0 85 0 0 85 0 0 85 0 0 85 0 0 85 0 0 85 0 0 85 0 0 85 0 0 85 0 0 85 0 0 85 0 0 85 0 0 85 0 0 85 0 0 85 0 0 85 0 0 85 0 0 85 0 0 85 0 0 85 0 0 85 0 0 85 0 0 85 0 0 85 0 0 85 0 0 85 0 0 85 0 0 
0 159 255 0 159 255 0 159 255 0 159 255 0 159 255 0 159 255 0 159 255 0 159 255 0 159 255 0 159 255 0 156 255 0 156 255 0 156 255 0 156 255 0 156 255 0 156 255 0 156 255 0 156 255 0 156 255 0 156 255 0 172 255 0 172 255 0 172 255 0 172 255 0 172 255 0 172 255 0 172 255 0 172 255 0 172 255 0 172 255 0 165 255 0 165 255 0 165 255 0 165 255 0 165 255 0 165 255 0 165 255 0 165 255 0 165 255 0 165 255 0 145 255 0 145 255 0 145 255 0 145 255 0 145 255 0 145 255 0 145 255 0 145 255 0 145 255 0 145 255 0 130 255 0 130 255 0 130 255 0 130 255 0 130 255 0 130 255 0 130 255 0 130 255 0 130 255 0 130 255 0 114 255 0 114 255 0 114 255 0 114 255 0 114 255 0 114 255 0 114 255 0 114 255 0 114 255 0 114 255 0 86 255 0 86 255 0 86 255 0 86 255 0 86 255 0 86 255 0 86 255 0 86 255 0 86 255 0 86 255 0 76 255 0 76 255 0 76 255 0 76 255 0 76 255 0 76 255 0 76 255 0 76 255 0 76 255 0 76 255 0 61 255 0 61 255 0 61 255 0 61 255 0 61 255 0 61 255 0 61 255 0 61 255 0 61 255 0 61 255 0 86 255 0 86 255 0 86 255 0 86 255 0 86 255 0 86 255 0 86 255 0 86 255 0 86 255 0 86 255 0 127 255 0 127 255 0 127 255 0 127 255 0 127 255 0 127 255 0 127 255 0 127 255 0 127 255 0 127 255 0 102 255 0 102 255 0 102 255 0 102 255 0 102 255 0 102 255 0 102 255 0 102 255 0 102 255 0 102 255 0 77 255 0 77 255 0 77 255 0 77 255 0 77 255 0 77 255 0 77 255 0 77 255 0 77 255 0 77 255 0 78 255 0 78 255 0 78 255 0 78 255 0 78 255 0 78 255 0 78 255 0 78 255 0 78 255 0 78 255 0 166 255 0 166 255 0 166 255 0 166 255 0 166 255 0 166 255 0 166 255 0 166 255 0 166 255 0 166 255 0 224 255 0 224 255 0 224 255 0 224 255 0 224 255 0 224 255 0 224 255 0 224 255 0 224 255 0 224 255 0 203 255 0 203 255 0 203 255 0 203 255 0 203 255 0 203 255 0 203 255 0 203 255 0 203 255 0 203 255 0 167 255 0 167 255 0 167 255 0 167 255 0 167 255 0 167 255 0 167 255 0 167 255 0 167 255 0 167 255 0 156 255 0 156 255 0 156 255 0 156 255 0 156 255 0 156 255 0 156 255 0 156 255 0 156 255 0 156 255 0 117 255 0 117 255 0 117 255 0 117 255 0 117 255 0 117 255 0 117 255 0 117 255 0 117 255 0 117 255 0 105 255 0 105 255 0 105 255 0 105 255 0 105 255 0 105 255 0 105 255 0 105 255 0 105 255 0 105 255 0 65 255 0 65 255 0 65 255 0 65 255 0 65 255 0 65 255 0 65 255 0 65 255 0 65 255 0 65 255 0 92 255 0 92 255 0 92 255 0 92 255 0 92 255 0 92 255 0 92 255 0 92 255 0 92 255 0 92 255 0 117 255 0 117 255 0 117 255 0 117 255 0 117 255 0 117 255 0 117 255 0 117 255 0 117 255 0 117 255 0 157 255 0 157 255 0 157 255 0 157 255 0 157 255 0 157 255 0 157 255 0 157 255 0 157 255 0 157 255 0 149 255 0 149 255 0 149 255 0 149 255 0 149 255 0 149 255 0 149 255 0 149 255 0 149 255 0 149 255 0 156 255 0 156 255 0 156 255 0 156 255 0 156 255 0 156 255 0 156 255 0 156 255 0 156 255 0 156 255 0 0 0 0 0 0 0 0 0 0 0 0 0 0 0 0 0 0 0 0 0 0 0 0 0 0 0 0 0 0 82 0 0 82 0 0 82 0 0 82 0 0 82 0 0 82 0 0 82 0 0 82 0 0 82 0 0 82 0 0 82 0 0 82 0 0 82 0 0 82 0 0 82 0 0 82 0 0 82 0 0 82 0 0 82 0 0 82 0 0 82 0 0 82 0 0 82 0 0 82 0 0 82 0 0 82 0 0 82 0 0 82 0 0 82 0 0 82 0 0 
0 159 255 0 159 255 0 159 255 0 159 255 0 159 255 0 159 255 0 159 255 0 159 255 0 159 255 0 159 255 0 156 255 0 156 255 0 156 255 0 156 255 0 156 255 0 156 255 0 156 255 0 156 255 0 156 255 0 156 255 0 172 255 0 172 255 0 172 255 0 172 255 0 172 255 0 172 255 0 172 255 0 172 255 0 172 255 0 172 255 0 165 255 0 165 255 0 165 255 0 165 255 0 165 255 0 165 255 0 165 255 0 165 255 0 165 255 0 165 255 0 145 255 0 145 255 0 145 255 0 145 255 0 145 255 0 145 255 0 145 255 0 145 255 0 145 255 0 145 255 0 130 255 0 130 255 0 130 255 0 130 255 0 130 255 0 130 255 0 130 255 0 130 255 0 130 255 0 130 255 0 114 255 0 114 255 0 114 255 0 114 255 0 114 255 0 114 255 0 114 255 0 114 255 0 114 255 0 114 255 0 86 255 0 86 255 0 86 255 0 86 255 0 86 255 0 86 255 0 86 255 0 86 255 0 86 255 0 86 255 0 76 255 0 76 255 0 76 255 0 76 255 0 76 255 0 76 255 0 76 255 0 76 255 0 76 255 0 76 255 0 61 255 0 61 255 0 61 255 0 61 255 0 61 255 0 61 255 0 61 255 0 61 255 0 61 255 0 61 255 0 86 255 0 86 255 0 86 255 0 86 255 0 86 255 0 86 255 0 86 255 0 86 255 0 86 255 0 86 255 0 127 255 0 127 255 0 127 255 0 127 255 0 127 255 0 127 255 0 127 255 0 127 255 0 127 255 0 127 255 0 102 255 0 102 255 0 102 255 0 102 255 0 102 255 0 102 255 0 102 255 0 102 255 0 102 255 0 102 255 0 77 255 0 77 255 0 77 255 0 77 255 0 77 255 0 77 255 0 77 255 0 77 255 0 77 255 0 77 255 0 78 255 0 78 255 0 78 255 0 78 255 0 78 255 0 78 255 0 78 255 0 78 255 0 78 255 0 78 255 0 166 255 0 166 255 0 166 255 0 166 255 0 166 255 0 166 255 0 166 255 0 166 255 0 166 255 0 166 255 0 224 255 0 224 255 0 224 255 0 224 255 0 224 255 0 224 255 0 224 255 0 224 255 0 224 255 0 224 255 0 203 255 0 203 255 0 203 255 0 203 255 0 203 255 0 203 255 0 203 255 0 203 255 0 203 255 0 203 255 0 167 255 0 167 255 0 167 255 0 167 255 0 167 255 0 167 255 0 167 255 0 167 255 0 167 255 0 167 255 0 156 255 0 156 255 0 156 255 0 156 255 0 156 255 0 156 255 0 156 255 0 156 255 0 156 255 0 156 255 0 117 255 0 117 255 0 117 255 0 117 255 0 117 255 0 117 255 0 117 255 0 117 255 0 117 255 0 117 255 0 105 255 0 105 255 0 105 255 0 105 255 0 105 255 0 105 255 0 105 255 0 105 255 0 105 255 0 105 255 0 65 255 0 65 255 0 65 255 0 65 255 0 65 255 0 65 255 0 65 255 0 65 255 0 65 255 0 65 255 0 92 255 0 92 255 0 92 255 0 92 255 0 92 255 0 92 255 0 92 255 0 92 255 0 92 255 0 92 255 0 117 255 0 117 255 0 117 255 0 117 255 0 117 255 0 117 255 0 117 255 0 117 255 0 117 255 0 117 255 0 157 255 0 157 255 0 157 255 0 157 255 0 157 255 0 157 255 0 157 255 0 157 255 0 157 255 0 157 255 0 149 255 0 149 255 0 149 255 0 149 255 0 149 255 0 149 255 0 149 255 0 149 255 0 149 255 0 149 255 0 156 255 0 156 255 0 156 255 0 156 255 0 156 255 0 156 255 0 156 255 0 156 255 0 156 255 0 156 255 0 0 0 0 0 0 0 0 0 0 0 0 0 0 0 0 0 0 0 0 0 0 0 0 0 0 0 0 0 0 78 0 0 78 0 0 78 0 0 78 0 0 78 0 0 78 0 0 78 0 0 78 0 0 78 0 0 78 0 0 78 0 0 78 0 0 78 0 0 78 0 0 78 0 0 78 0 0 78 0 0 78 0 0 78 0 0 78 0 0 78 0 0 78 0 0 78 0 0 78 0 0 78 0 0 78 0 0 78 0 0 78 0 0 78 0 0 78 0 0 
0 159 255 0 159 255 0 159 255 0 159 255 0 159 255 0 159 255 0 159 255 0 159 255 0 159 255 0 159 255 0 156 255 0 156 255 0 156 255 0 156 255 0 156 255 0 156 255 0 156 255 0 156 255 0 156 255 0 156 255 0 172 255 0 172 255 0 172 255 0 172 255 0 172 255 0 172 255 0 172 255 0 172 255 0 172 255 0 172 255 0 165 255 0 165 255 0 165 255 0 165 255 0 165 255 0 165 255 0 165 255 0 165 255 0 165 255 0 165 255 0 145 255 0 145 255 0 145 255 0 145 255 0 145 255 0 145 255 0 145 255 0 145 255 0 145 255 0 145 255 0 130 255 0 130 255 0 130 255 0 130 255 0 130 255 0 130 255 0 130 255 0 130 255 0 130 255 0 130 255 0 114 255 0 114 255 0 114 255 0 114 255 0 114 255 0 114 255 0 114 255 0 114 255 0 114 255 0 114 255 0 86 255 0 86 255 0 86 255 0 86 255 0 86 255 0 86 255 0 86 255 0 86 255 0 86 255 0 86 255 0 76 255 0 76 255 0 76 255 0 76 255 0 76 255 0 76 255 0 76 255 0 76 255 0 76 255 0 76 255 0 61 255 0 61 255 0 61 255 0 61 255 0 61 255 0 61 255 0 61 255 0 61 255 0 61 255 0 61 255 0 86 255 0 86 255 0 86 255 0 86 255 0 86 255 0 86 255 0 86 255 0 86 255 0 86 255 0 86 255 0 127 255 0 127 255 0 127 255 0 127 255 0 127 255 0 127 255 0 127 255 0 127 255 0 127 255 0 127 255 0 102 255 0 102 255 0 102 255 0 102 255 0 102 255 0 102 255 0 102 255 0 102 255 0 102 255 0 102 255 0 77 255 0 77 255 0 77 255 0 77 255 0 77 255 0 77 255 0 77 255 0 77 255 0 77 255 0 77 255 0 78 255 0 78 255 0 78 255 0 78 255 0 78 255 0 78 255 0 78 255 0 78 255 0 78 255 0 78 255 0 166 255 0 166 255 0 166 255 0 166 255 0 166 255 0 166 255 0 166 255 0 166 255 0 166 255 0 166 255 0 224 255 0 224 255 0 224 255 0 224 255 0 224 255 0 224 255 0 224 255 0 224 255 0 224 255 0 224 255 0 203 255 0 203 255 0 203 255 0 203 255 0 203 255 0 203 255 0 203 255 0 203 255 0 203 255 0 203 255 0 167 255 0 167 255 0 167 255 0 167 255 0 167 255 0 167 255 0 167 255 0 167 255 0 167 255 0 167 255 0 156 255 0 156 255 0 156 255 0 156 255 0 156 255 0 156 255 0 156 255 0 156 255 0 156 255 0 156 255 0 117 255 0 117 255 0 117 255 0 117 255 0 117 255 0 117 255 0 117 255 0 117 255 0 117 255 0 117 255 0 105 255 0 105 255 0 105 255 0 105 255 0 105 255 0 105 255 0 105 255 0 105 255 0 105 255 0 105 255 0 65 255 0 65 255 0 65 255 0 65 255 0 65 255 0 65 255 0 65 255 0 65 255 0 65 255 0 65 255 0 92 255 0 92 255 0 92 255 0 92 255 0 92 255 0 92 255 0 92 255 0 92 255 0 92 255 0 92 255 0 117 255 0 117 255 0 117 255 0 117 255 0 117 255 0 117 255 0 117 255 0 117 255 0 117 255 0 117 255 0 157 255 0 157 255 0 157 255 0 157 255 0 157 255 0 157 255 0 157 255 0 157 255 0 157 255 0 157 255 0 149 255 0 149 255 0 149 255 0 149 255 0 149 255 0 149 255 0 149 255 0 149 255 0 149 255 0 149 255 0 156 255 0 156 255 0 156 255 0 156 255 0 156 255 0 156 255 0 156 255 0 156 255 0 156 255 0 156 255 0 0 0 0 0 0 0 0 0 0 0 0 0 0 0 0 0 0 0 0 0 0 0 0 0 0 0 0 0 0 74 0 0 74 0 0 74 0 0 74 0 0 74 0 0 74 0 0 74 0 0 74 0 0 74 0 0 74 0 0 74 0 0 74 0 0 74 0 0 74 0 0 74 0 0 74 0 0 74 0 0 74 0 0 74 0 0 74 0 0 74 0 0 74 0 0 74 0 0 74 0 0 74 0 0 74 0 0 74 0 0 74 0 0 74 0 0 74 0 0 
0 171 255 0 171 255 0 171 255 0 171 255 0 171 255 0 171 255 0 171 255 0 171 255 0 171 255 0 171 255 0 166 255 0 166 255 0 166 255 0 166 255 0 166 255 0 166 255 0 166 255 0 166 255 0 166 255 0 166 255 0 167 255 0 167 255 0 167 255 0 167 255 0 167 255 0 167 255 0 167 255 0 167 255 0 167 255 0 167 255 0 152 255 0 152 255 0 152 255 0 152 255 0 152 255 0 152 255 0 152 255 0 152 255 0 152 255 0 152 255 0 144 255 0 144 255 0 144 255 0 144 255 0 144 255 0 144 255 0 144 255 0 144 255 0 144 255 0 144 255 0 139 255 0 139 255 0 139 255 0 139 255 0 139 255 0 139 255 0 139 255 0 139 255 0 139 255 0 139 255 0 130 255 0 130 255 0 130 255 0 130 255 0 130 255 0 130 255 0 130 255 0 130 255 0 130 255 0 130 255 0 111 255 0 111 255 0 111 255 0 111 255 0 111 255 0 111 255 0 111 255 0 111 255 0 111 255 0 111 255 0 128 255 0 128 255 0 128 255 0 128 255 0 128 255 0 128 255 0 128 255 0 128 255 0 128 255 0 128 255 0 114 255 0 114 255 0 114 255 0 114 255 0 114 255 0 114 255 0 114 255 0 114 255 0 114 255 0 114 255 0 160 255 0 160 255 0 160 255 0 160 255 0 160 255 0 160 255 0 160 255 0 160 255 0 160 255 0 160 255 0 155 255 0 155 255 0 155 255 0 155 255 0 155 255 0 155 255 0 155 255 0 155 255 0 155 255 0 155 255 0 115 255 0 115 255 0 115 255 0 115 255 0 115 255 0 115 255 0 115 255 0 115 255 0 115 255 0 115 255 0 29 255 0 29 255 0 29 255 0 29 255 0 29 255 0 29 255 0 29 255 0 29 255 0 29 255 0 29 255 0 71 255 0 71 255 0 71 255 0 71 255 0 71 255 0 71 255 0 71 255 0 71 255 0 71 255 0 71 255 0 149 255 0 149 255 0 149 255 0 149 255 0 149 255 0 149 255 0 149 255 0 149 255 0 149 255 0 149 255 0 167 255 0 167 255 0 167 255 0 167 255 0 167 255 0 167 255 0 167 255 0 167 255 0 167 255 0 167 255 0 158 255 0 158 255 0 158 255 0 158 255 0 158 255 0 158 255 0 158 255 0 158 255 0 158 255 0 158 255 0 170 255 0 170 255 0 170 255 0 170 255 0 170 255 0 170 255 0 170 255 0 170 255 0 170 255 0 170 255 0 121 255 0 121 255 0 121 255 0 121 255 0 121 255 0 121 255 0 121 255 0 121 255 0 121 255 0 121 255 0 89 255 0 89 255 0 89 255 0 89 255 0 89 255 0 89 255 0 89 255 0 89 255 0 89 255 0 89 255 0 69 255 0 69 255 0 69 255 0 69 255 0 69 255 0 69 255 0 69 255 0 69 255 0 69 255 0 69 255 0 96 255 0 96 255 0 96 255 0 96 255 0 96 255 0 96 255 0 96 255 0 96 255 0 96 255 0 96 255 0 99 255 0 99 255 0 99 255 0 99 255 0 99 255 0 99 255 0 99 255 0 99 255 0 99 255 0 99 255 0 117 255 0 117 255 0 117 255 0 117 255 0 117 255 0 117 255 0 117 255 0 117 255 0 117 255 0 117 255 0 137 255 0 137 255 0 137 255 0 137 255 0 137 255 0 137 255 0 137 255 0 137 255 0 137 255 0 137 255 0 147 255 0 147 255 0 147 255 0 147 255 0 147 255 0 147 255 0 147 255 0 147 255 0 147 255 0 147 255 0 170 255 0 170 255 0 170 255 0 170 255 0 170 255 0 170 255 0 170 255 0 170 255 0 170 255 0 170 255 0 0 0 0 0 0 0 0 0 0 0 0 0 0 0 0 0 0 0 0 0 0 0 0 0 0 0 0 0 0 71 0 0 71 0 0 71 0 0 71 0 0 71 0 0 71 0 0 71 0 0 71 0 0 71 0 0 71 0 0 71 0 0 71 0 0 71 0 0 71 0 0 71 0 0 71 0 0 71 0 0 71 0 0 71 0 0 71 0 0 71 0 0 71 0 0 71 0 0 71 0 0 71 0 0 71 0 0 71 0 0 71 0 0 71 0 0 71 0 0 
0 171 255 0 171 255 0 171 255 0 171 255 0 171 255 0 171 255 0 171 255 0 171 255 0 171 255 0 171 255 0 166 255 0 166 255 0 166 255 0 166 255 0 166 255 0 166 255 0 166 255 0 166 255 0 166 255 0 166 255 0 167 255 0 167 255 0 167 255 0 167 255 0 167 255 0 167 255 0 167 255 0 167 255 0 167 255 0 167 255 0 152 255 0 152 255 0 152 255 0 152 255 0 152 255 0 152 255 0 152 255 0 152 255 0 152 255 0 152 255 0 144 255 0 144 255 0 144 255 0 144 255 0 144 255 0 144 255 0 144 255 0 144 255 0 144 255 0 144 255 0 139 255 0 139 255 0 139 255 0 139 255 0 139 255 0 139 255 0 139 255 0 139 255 0 139 255 0 139 255 0 130 255 0 130 255 0 130 255 0 130 255 0 130 255 0 130 255 0 130 255 0 130 255 0 130 255 0 130 255 0 111 255 0 111 255 0 111 255 0 111 255 0 111 255 0 111 255 0 111 255 0 111 255 0 111 255 0 111 255 0 128 255 0 128 255 0 128 255 0 128 255 0 128 255 0 128 255 0 128 255 0 128 255 0 128 255 0 128 255 0 114 255 0 114 255 0 114 255 0 114 255 0 114 255 0 114 255 0 114 255 0 114 255 0 114 255 0 114 255 0 160 255 0 160 255 0 160 255 0 160 255 0 160 255 0 160 255 0 160 255 0 160 255 0 160 255 0 160 255 0 155 255 0 155 255 0 155 255 0 155 255 0 155 255 0 155 255 0 155 255 0 155 255 0 155 255 0 155 255 0 115 255 0 115 255 0 115 255 0 115 255 0 115 255 0 115 255 0 115 255 0 115 255 0 115 255 0 115 255 0 29 255 0 29 255 0 29 255 0 29 255 0 29 255 0 29 255 0 29 255 0 29 255 0 29 255 0 29 255 0 71 255 0 71 255 0 71 255 0 71 255 0 71 255 0 71 255 0 71 255 0 71 255 0 71 255 0 71 255 0 149 255 0 149 255 0 149 255 0 149 255 0 149 255 0 149 255 0 149 255 0 149 255 0 149 255 0 149 255 0 167 255 0 167 255 0 167 255 0 167 255 0 167 255 0 167 255 0 167 255 0 167 255 0 167 255 0 167 255 0 158 255 0 158 255 0 158 255 0 158 255 0 158 255 0 158 255 0 158 255 0 158 255 0 158 255 0 158 255 0 170 255 0 170 255 0 170 255 0 170 255 0 170 255 0 170 255 0 170 255 0 170 255 0 170 255 0 170 255 0 121 255 0 121 255 0 121 255 0 121 255 0 121 255 0 121 255 0 121 255 0 121 255 0 121 255 0 121 255 0 89 255 0 89 255 0 89 255 0 89 255 0 89 255 0 89 255 0 89 255 0 89 255 0 89 255 0 89 255 0 69 255 0 69 255 0 69 255 0 69 255 0 69 255 0 69 255 0 69 255 0 69 255 0 69 255 0 69 255 0 96 255 0 96 255 0 96 255 0 96 255 0 96 255 0 96 255 0 96 255 0 96 255 0 96 255 0 96 255 0 99 255 0 99 255 0 99 255 0 99 255 0 99 255 0 99 255 0 99 255 0 99 255 0 99 255 0 99 255 0 117 255 0 117 255 0 117 255 0 117 255 0 117 255 0 117 255 0 117 255 0 117 255 0 117 255 0 117 255 0 137 255 0 137 255 0 137 255 0 137 255 0 137 255 0 137 255 0 137 255 0 137 255 0 137 255 0 137 255 0 147 255 0 147 255 0 147 255 0 147 255 0 147 255 0 147 255 0 147 255 0 147 255 0 147 255 0 147 255 0 170 255 0 170 255 0 170 255 0 170 255 0 170 255 0 170 255 0 170 255 0 170 255 0 170 255 0 170 255 0 0 0 0 0 0 0 0 0 0 0 0 0 0 0 0 0 0 0 0 0 0 0 0 0 0 0 0 0 0 67 0 0 67 0 0 67 0 0 67 0 0 67 0 0 67 0 0 67 0 0 67 0 0 67 0 0 67 0 0 67 0 0 67 0 0 67 0 0 67 0 0 67 0 0 67 0 0 67 0 0 67 0 0 67 0 0 67 0 0 67 0 0 67 0 0 67 0 0 67 0 0 67 0 0 67 0 0 67 0 0 67 0 0 67 0 0 67 0 0 
0 171 255 0 171 255 0 171 255 0 171 255 0 171 255 0 171 255 0 171 255 0 171 255 0 171 255 0 171 255 0 166 255 0 166 255 0 166 255 0 166 255 0 166 255 0 166 255 0 166 255 0 166 255 0 166 255 0 166 255 0 167 255 0 167 255 0 167 255 0 167 255 0 167 255 0 167 255 0 167 255 0 167 255 0 167 255 0 167 255 0 152 255 0 152 255 0 152 255 0 152 255 0 152 255 0 152 255 0 152 255 0 152 255 0 152 255 0 152 255 0 144 255 0 144 255 0 144 255 0 144 255 0 144 255 0 144 255 0 144 255 0 144 255 0 144 255 0 144 255 0 139 255 0 139 255 0 139 255 0 139 255 0 139 255 0 139 255 0 139 255 0 139 255 0 139 255 0 139 255 0 130 255 0 130 255 0 130 255 0 130 255 0 130 255 0 130 255 0 130 255 0 130 255 0 130 255 0 130 255 0 111 255 0 111 255 0 111 255 0 111 255 0 111 255 0 111 255 0 111 255 0 111 255 0 111 255 0 111 255 0 128 255 0 128 255 0 128 255 0 128 255 0 128 255 0 128 255 0 128 255 0 128 255 0 128 255 0 128 255 0 114 255 0 114 255 0 114 255 0 114 255 0 114 255 0 114 255 0 114 255 0 114 255 0 114 255 0 114 255 0 160 255 0 160 255 0 160 255 0 160 255 0 160 255 0 160 255 0 160 255 0 160 255 0 160 255 0 160 255 0 155 255 0 155 255 0 155 255 0 155 255 0 155 255 0 155 255 0 155 255 0 155 255 0 155 255 0 155 255 0 115 255 0 115 255 0 115 255 0 115 255 0 115 255 0 115 255 0 115 255 0 115 255 0 115 255 0 115 255 0 29 255 0 29 255 0 29 255 0 29 255 0 29 255 0 29 255 0 29 255 0 29 255 0 29 255 0 29 255 0 71 255 0 71 255 0 71 255 0 71 255 0 71 255 0 71 255 0 71 255 0 71 255 0 71 255 0 71 255 0 149 255 0 149 255 0 149 255 0 149 255 0 149 255 0 149 255 0 149 255 0 149 255 0 149 255 0 149 255 0 167 255 0 167 255 0 167 255 0 167 255 0 167 255 0 167 255 0 167 255 0 167 255 0 167 255 0 167 255 0 158 255 0 158 255 0 158 255 0 158 255 0 158 255 0 158 255 0 158 255 0 158 255 0 158 255 0 158 255 0 170 255 0 170 255 0 170 255 0 170 255 0 170 255 0 170 255 0 170 255 0 170 255 0 170 255 0 170 255 0 121 255 0 121 255 0 121 255 0 121 255 0 121 255 0 121 255 0 121 255 0 121 255 0 121 255 0 121 255 0 89 255 0 89 255 0 89 255 0 89 255 0 89 255 0 89 255 0 89 255 0 89 255 0 89 255 0 89 255 0 69 255 0 69 255 0 69 255 0 69 255 0 69 255 0 69 255 0 69 255 0 69 255 0 69 255 0 69 255 0 96 255 0 96 255 0 96 255 0 96 255 0 96 255 0 96 255 0 96 255 0 96 255 0 96 255 0 96 255 0 99 255 0 99 255 0 99 255 0 99 255 0 99 255 0 99 255 0 99 255 0 99 255 0 99 255 0 99 255 0 117 255 0 117 255 0 117 255 0 117 255 0 117 255 0 117 255 0 117 255 0 117 255 0 117 255 0 117 255 0 137 255 0 137 255 0 137 255 0 137 255 0 137 255 0 137 255 0 137 255 0 137 255 0 137 255 0 137 255 0 147 255 0 147 255 0 147 255 0 147 255 0 147 255 0 147 255 0 147 255 0 147 255 0 147 255 0 147 255 0 170 255 0 170 255 0 170 255 0 170 255 0 170 255 0 170 255 0 170 255 0 170 255 0 170 255 0 170 255 0 0 0 0 0 0 0 0 0 0 0 0 0 0 0 0 0 0 0 0 0 0 0 0 0 0 0 0 0 0 63 0 0 63 0 0 63 0 0 63 0 0 63 0 0 63 0 0 63 0 0 63 0 0 63 0 0 63 0 0 63 0 0 63 0 0 63 0 0 63 0 0 63 0 0 63 0 0 63 0 0 63 0 0 63 0 0 63 0 0 63 0 0 63 0 0 63 0 0 63 0 0 63 0 0 63 0 0 63 0 0 63 0 0 63 0 0 63 0 0 
0 171 255 0 171 255 0 171 255 0 171 255 0 171 255 0 171 255 0 171 255 0 171 255 0 171 255 0 171 255 0 166 255 0 166 255 0 166 255 0 166 255 0 166 255 0 166 255 0 166 255 0 166 255 0 166 255 0 166 255 0 167 255 0 167 255 0 167 255 0 167 255 0 167 255 0 167 255 0 167 255 0 167 255 0 167 255 0 167 255 0 152 255 0 152 255 0 152 255 0 152 255 0 152 255 0 152 255 0 152 255 0 152 255 0 152 255 0 152 255 0 144 255 0 144 255 0 144 255 0 144 255 0 144 255 0 144 255 0 144 255 0 144 255 0 144 255 0 144 255 0 139 255 0 139 255 0 139 255 0 139 255 0 139 255 0 139 255 0 139 255 0 139 255 0 139 255 0 139 255 0 130 255 0 130 255 0 130 255 0 130 255 0 130 255 0 130 255 0 130 255 0 130 255 0 130 255 0 130 255 0 111 255 0 111 255 0 111 255 0 111 255 0 111 255 0 111 255 0 111 255 0 111 255 0 111 255 0 111 255 0 128 255 0 128 255 0 128 255 0 128 255 0 128 255 0 128 255 0 128 255 0 128 255 0 128 255 0 128 255 0 114 255 0 114 255 0 114 255 0 114 255 0 114 255 0 114 255 0 114 255 0 114 255 0 114 255 0 114 255 0 160 255 0 160 255 0 160 255 0 160 255 0 160 255 0 160 255 0 160 255 0 160 255 0 160 255 0 160 255 0 155 255 0 155 255 0 155 255 0 155 255 0 155 255 0 155 255 0 155 255 0 155 255 0 155 255 0 155 255 0 115 255 0 115 255 0 115 255 0 115 255 0 115 255 0 115 255 0 115 255 0 115 255 0 115 255 0 115 255 0 29 255 0 29 255 0 29 255 0 29 255 0 29 255 0 29 255 0 29 255 0 29 255 0 29 255 0 29 255 0 71 255 0 71 255 0 71 255 0 71 255 0 71 255 0 71 255 0 71 255 0 71 255 0 71 255 0 71 255 0 149 255 0 149 255 0 149 255 0 149 255 0 149 255 0 149 255 0 149 255 0 149 255 0 149 255 0 149 255 0 167 255 0 167 255 0 167 255 0 167 255 0 167 255 0 167 255 0 167 255 0 167 255 0 167 255 0 167 255 0 158 255 0 158 255 0 158 255 0 158 255 0 158 255 0 158 255 0 158 255 0 158 255 0 158 255 0 158 255 0 170 255 0 170 255 0 170 255 0 170 255 0 170 255 0 170 255 0 170 255 0 170 255 0 170 255 0 170 255 0 121 255 0 121 255 0 121 255 0 121 255 0 121 255 0 121 255 0 121 255 0 121 255 0 121 255 0 121 255 0 89 255 0 89 255 0 89 255 0 89 255 0 89 255 0 89 255 0 89 255 0 89 255 0 89 255 0 89 255 0 69 255 0 69 255 0 69 255 0 69 255 0 69 255 0 69 255 0 69 255 0 69 255 0 69 255 0 69 255 0 96 255 0 96 255 0 96 255 0 96 255 0 96 255 0 96 255 0 96 255 0 96 255 0 96 255 0 96 255 0 99 255 0 99 255 0 99 255 0 99 255 0 99 255 0 99 255 0 99 255 0 99 255 0 99 255 0 99 255 0 117 255 0 117 255 0 117 255 0 117 255 0 117 255 0 117 255 0 117 255 0 117 255 0 117 255 0 117 255 0 137 255 0 137 255 0 137 255 0 137 255 0 137 255 0 137 255 0 137 255 0 137 255 0 137 255 0 137 255 0 147 255 0 147 255 0 147 255 0 147 255 0 147 255 0 147 255 0 147 255 0 147 255 0 147 255 0 147 255 0 170 255 0 170 255 0 170 255 0 170 255 0 170 255 0 170 255 0 170 255 0 170 255 0 170 255 0 170 255 0 0 0 0 0 0 0 0 0 0 0 0 0 0 0 0 0 0 0 0 0 0 0 0 0 0 0 0 0 0 60 0 0 60 0 0 60 0 0 60 0 0 60 0 0 60 0 0 60 0 0 60 0 0 60 0 0 60 0 0 60 0 0 60 0 0 60 0 0 60 0 0 60 0 0 60 0 0 60 0 0 60 0 0 60 0 0 60 0 0 60 0 0 60 0 0 60 0 0 60 0 0 60 0 0 60 0 0 60 0 0 60 0 0 60 0 0 60 0 0 
0 171 255 0 171 255 0 171 255 0 171 255 0 171 255 0 171 255 0 171 255 0 171 255 0 171 255 0 171 255 0 166 255 0 166 255 0 166 255 0 166 255 0 166 255 0 166 255 0 166 255 0 166 255 0 166 255 0 166 255 0 167 255 0 167 255 0 167 255 0 167 255 0 167 255 0 167 255 0 167 255 0 167 255 0 167 255 0 167 255 0 152 255 0 152 255 0 152 255 0 152 255 0 152 255 0 152 255 0 152 255 0 152 255 0 152 255 0 152 255 0 144 255 0 144 255 0 144 255 0 144 255 0 144 255 0 144 255 0 144 255 0 144 255 0 144 255 0 144 255 0 139 255 0 139 255 0 139 255 0 139 255 0 139 255 0 139 255 0 139 255 0 139 255 0 139 255 0 139 255 0 130 255 0 130 255 0 130 255 0 130 255 0 130 255 0 130 255 0 130 255 0 130 255 0 130 255 0 130 255 0 111 255 0 111 255 0 111 255 0 111 255 0 111 255 0 111 255 0 111 255 0 111 255 0 111 255 0 111 255 0 128 255 0 128 255 0 128 255 0 128 255 0 128 255 0 128 255 0 128 255 0 128 255 0 128 255 0 128 255 0 114 255 0 114 255 0 114 255 0 114 255 0 114 255 0 114 255 0 114 255 0 114 255 0 114 255 0 114 255 0 160 255 0 160 255 0 160 255 0 160 255 0 160 255 0 160 255 0 160 255 0 160 255 0 160 255 0 160 255 0 155 255 0 155 255 0 155 255 0 155 255 0 155 255 0 155 255 0 155 255 0 155 255 0 155 255 0 155 255 0 115 255 0 115 255 0 115 255 0 115 255 0 115 255 0 115 255 0 115 255 0 115 255 0 115 255 0 115 255 0 29 255 0 29 255 0 29 255 0 29 255 0 29 255 0 29 255 0 29 255 0 29 255 0 29 255 0 29 255 0 71 255 0 71 255 0 71 255 0 71 255 0 71 255 0 71 255 0 71 255 0 71 255 0 71 255 0 71 255 0 149 255 0 149 255 0 149 255 0 149 255 0 149 255 0 149 255 0 149 255 0 149 255 0 149 255 0 149 255 0 167 255 0 167 255 0 167 255 0 167 255 0 167 255 0 167 255 0 167 255 0 167 255 0 167 255 0 167 255 0 158 255 0 158 255 0 158 255 0 158 255 0 158 255 0 158 255 0 158 255 0 158 255 0 158 255 0 158 255 0 170 255 0 170 255 0 170 255 0 170 255 0 170 255 0 170 255 0 170 255 0 170 255 0 170 255 0 170 255 0 121 255 0 121 255 0 121 255 0 121 255 0 121 255 0 121 255 0 121 255 0 121 255 0 121 255 0 121 255 0 89 255 0 89 255 0 89 255 0 89 255 0 89 255 0 89 255 0 89 255 0 89 255 0 89 255 0 89 255 0 69 255 0 69 255 0 69 255 0 69 255 0 69 255 0 69 255 0 69 255 0 69 255 0 69 255 0 69 255 0 96 255 0 96 255 0 96 255 0 96 255 0 96 255 0 96 255 0 96 255 0 96 255 0 96 255 0 96 255 0 99 255 0 99 255 0 99 255 0 99 255 0 99 255 0 99 255 0 99 255 0 99 255 0 99 255 0 99 255 0 117 255 0 117 255 0 117 255 0 117 255 0 117 255 0 117 255 0 117 255 0 117 255 0 117 255 0 117 255 0 137 255 0 137 255 0 137 255 0 137 255 0 137 255 0 137 255 0 137 255 0 137 255 0 137 255 0 137 255 0 147 255 0 147 255 0 147 255 0 147 255 0 147 255 0 147 255 0 147 255 0 147 255 0 147 255 0 147 255 0 170 255 0 170 255 0 170 255 0 170 255 0 170 255 0 170 255 0 170 255 0 170 255 0 170 255 0 170 255 0 0 0 0 0 0 0 0 0 0 0 0 0 0 0 0 0 0 0 0 0 0 0 0 0 0 0 0 0 0 56 0 0 56 0 0 56 0 0 56 0 0 56 0 0 56 0 0 56 0 0 56 0 0 56 0 0 56 0 0 56 0 0 56 0 0 56 0 0 56 0 0 56 0 0 56 0 0 56 0 0 56 0 0 56 0 0 56 0 0 56 0 0 56 0 0 56 0 0 56 0 0 56 0 0 56 0 0 56 0 0 56 0 0 56 0 0 56 0 0 
0 171 255 0 171 255 0 171 255 0 171 255 0 171 255 0 171 255 0 171 255 0 171 255 0 171 255 0 171 255 0 166 255 0 166 255 0 166 255 0 166 255 0 166 255 0 166 255 0 166 255 0 166 255 0 166 255 0 166 255 0 167 255 0 167 255 0 167 255 0 167 255 0 167 255 0 167 255 0 167 255 0 167 255 0 167 255 0 167 255 0 152 255 0 152 255 0 152 255 0 152 255 0 152 255 0 152 255 0 152 255 0 152 255 0 152 255 0 152 255 0 144 255 0 144 255 0 144 255 0 144 255 0 144 255 0 144 255 0 144 255 0 144 255 0 144 255 0 144 255 0 139 255 0 139 255 0 139 255 0 139 255 0 139 255 0 139 255 0 139 255 0 139 255 0 139 255 0 139 255 0 130 255 0 130 255 0 130 255 0 130 255 0 130 255 0 130 255 0 130 255 0 130 255 0 130 255 0 130 255 0 111 255 0 111 255 0 111 255 0 111 255 0 111 255 0 111 255 0 111 255 0 111 255 0 111 255 0 111 255 0 128 255 0 128 255 0 128 255 0 128 255 0 128 255 0 128 255 0 128 255 0 128 255 0 128 255 0 128 255 0 114 255 0 114 255 0 114 255 0 114 255 0 114 255 0 114 255 0 114 255 0 114 255 0 114 255 0 114 255 0 160 255 0 160 255 0 160 255 0 160 255 0 160 255 0 160 255 0 160 255 0 160 255 0 160 255 0 160 255 0 155 255 0 155 255 0 155 255 0 155 255 0 155 255 0 155 255 0 155 255 0 155 255 0 155 255 0 155 255 0 115 255 0 115 255 0 115 255 0 115 255 0 115 255 0 115 255 0 115 255 0 115 255 0 115 255 0 115 255 0 29 255 0 29 255 0 29 255 0 29 255 0 29 255 0 29 255 0 29 255 0 29 255 0 29 255 0 29 255 0 71 255 0 71 255 0 71 255 0 71 255 0 71 255 0 71 255 0 71 255 0 71 255 0 71 255 0 71 255 0 149 255 0 149 255 0 149 255 0 149 255 0 149 255 0 149 255 0 149 255 0 149 255 0 149 255 0 149 255 0 167 255 0 167 255 0 167 255 0 167 255 0 167 255 0 167 255 0 167 255 0 167 255 0 167 255 0 167 255 0 158 255 0 158 255 0 158 255 0 158 255 0 158 255 0 158 255 0 158 255 0 158 255 0 158 255 0 158 255 0 170 255 0 170 255 0 170 255 0 170 255 0 170 255 0 170 255 0 170 255 0 170 255 0 170 255 0 170 255 0 121 255 0 121 255 0 121 255 0 121 255 0 121 255 0 121 255 0 121 255 0 121 255 0 121 255 0 121 255 0 89 255 0 89 255 0 89 255 0 89 255 0 89 255 0 89 255 0 89 255 0 89 255 0 89 255 0 89 255 0 69 255 0 69 255 0 69 255 0 69 255 0 69 255 0 69 255 0 69 255 0 69 255 0 69 255 0 69 255 0 96 255 0 96 255 0 96 255 0 96 255 0 96 255 0 96 255 0 96 255 0 96 255 0 96 255 0 96 255 0 99 255 0 99 255 0 99 255 0 99 255 0 99 255 0 99 255 0 99 255 0 99 255 0 99 255 0 99 255 0 117 255 0 117 255 0 117 255 0 117 255 0 117 255 0 117 255 0 117 255 0 117 255 0 117 255 0 117 255 0 137 255 0 137 255 0 137 255 0 137 255 0 137 255 0 137 255 0 137 255 0 137 255 0 137 255 0 137 255 0 147 255 0 147 255 0 147 255 0 147 255 0 147 255 0 147 255 0 147 255 0 147 255 0 147 255 0 147 255 0 170 255 0 170 255 0 170 255 0 170 255 0 170 255 0 170 255 0 170 255 0 170 255 0 170 255 0 170 255 0 0 0 0 0 0 0 0 0 0 0 0 0 0 0 0 0 0 0 0 0 0 0 0 0 0 0 0 0 0 53 0 0 53 0 0 53 0 0 53 0 0 53 0 0 53 0 0 53 0 0 53 0 0 53 0 0 53 0 0 53 0 0 53 0 0 53 0 0 53 0 0 53 0 0 53 0 0 53 0 0 53 0 0 53 0 0 53 0 0 53 0 0 53 0 0 53 0 0 53 0 0 53 0 0 53 0 0 53 0 0 53 0 0 53 0 0 53 0 0 
0 171 255 0 171 255 0 171 255 0 171 255 0 171 255 0 171 255 0 171 255 0 171 255 0 171 255 0 171 255 0 166 255 0 166 255 0 166 255 0 166 255 0 166 255 0 166 255 0 166 255 0 166 255 0 166 255 0 166 255 0 167 255 0 167 255 0 167 255 0 167 255 0 167 255 0 167 255 0 167 255 0 167 255 0 167 255 0 167 255 0 152 255 0 152 255 0 152 255 0 152 255 0 152 255 0 152 255 0 152 255 0 152 255 0 152 255 0 152 255 0 144 255 0 144 255 0 144 255 0 144 255 0 144 255 0 144 255 0 144 255 0 144 255 0 144 255 0 144 255 0 139 255 0 139 255 0 139 255 0 139 255 0 139 255 0 139 255 0 139 255 0 139 255 0 139 255 0 139 255 0 130 255 0 130 255 0 130 255 0 130 255 0 130 255 0 130 255 0 130 255 0 130 255 0 130 255 0 130 255 0 111 255 0 111 255 0 111 255 0 111 255 0 111 255 0 111 255 0 111 255 0 111 255 0 111 255 0 111 255 0 128 255 0 128 255 0 128 255 0 128 255 0 128 255 0 128 255 0 128 255 0 128 255 0 128 255 0 128 255 0 114 255 0 114 255 0 114 255 0 114 255 0 114 255 0 114 255 0 114 255 0 114 255 0 114 255 0 114 255 0 160 255 0 160 255 0 160 255 0 160 255 0 160 255 0 160 255 0 160 255 0 160 255 0 160 255 0 160 255 0 155 255 0 155 255 0 155 255 0 155 255 0 155 255 0 155 255 0 155 255 0 155 255 0 155 255 0 155 255 0 115 255 0 115 255 0 115 255 0 115 255 0 115 255 0 115 255 0 115 255 0 115 255 0 115 255 0 115 255 0 29 255 0 29 255 0 29 255 0 29 255 0 29 255 0 29 255 0 29 255 0 29 255 0 29 255 0 29 255 0 71 255 0 71 255 0 71 255 0 71 255 0 71 255 0 71 255 0 71 255 0 71 255 0 71 255 0 71 255 0 149 255 0 149 255 0 149 255 0 149 255 0 149 255 0 149 255 0 149 255 0 149 255 0 149 255 0 149 255 0 167 255 0 167 255 0 167 255 0 167 255 0 167 255 0 167 255 0 167 255 0 167 255 0 167 255 0 167 255 0 158 255 0 158 255 0 158 255 0 158 255 0 158 255 0 158 255 0 158 255 0 158 255 0 158 255 0 158 255 0 170 255 0 170 255 0 170 255 0 170 255 0 170 255 0 170 255 0 170 255 0 170 255 0 170 255 0 170 255 0 121 255 0 121 255 0 121 255 0 121 255 0 121 255 0 121 255 0 121 255 0 121 255 0 121 255 0 121 255 0 89 255 0 89 255 0 89 255 0 89 255 0 89 255 0 89 255 0 89 255 0 89 255 0 89 255 0 89 255 0 69 255 0 69 255 0 69 255 0 69 255 0 69 255 0 69 255 0 69 255 0 69 255 0 69 255 0 69 255 0 96 255 0 96 255 0 96 255 0 96 255 0 96 255 0 96 255 0 96 255 0 96 255 0 96 255 0 96 255 0 99 255 0 99 255 0 99 255 0 99 255 0 99 255 0 99 255 0 99 255 0 99 255 0 99 255 0 99 255 0 117 255 0 117 255 0 117 255 0 117 255 0 117 255 0 117 255 0 117 255 0 117 255 0 117 255 0 117 255 0 137 255 0 137 255 0 137 255 0 137 255 0 137 255 0 137 255 0 137 255 0 137 255 0 137 255 0 137 255 0 147 255 0 147 255 0 147 255 0 147 255 0 147 255 0 147 255 0 147 255 0 147 255 0 147 255 0 147 255 0 170 255 0 170 255 0 170 255 0 170 255 0 170 255 0 170 255 0 170 255 0 170 255 0 170 255 0 170 255 0 0 0 0 0 0 0 0 0 0 0 0 0 0 0 0 0 0 0 0 0 0 0 0 0 0 0 0 0 0 49 0 0 49 0 0 49 0 0 49 0 0 49 0 0 49 0 0 49 0 0 49 0 0 49 0 0 49 0 0 49 0 0 49 0 0 49 0 0 49 0 0 49 0 0 49 0 0 49 0 0 49 0 0 49 0 0 49 0 0 49 0 0 49 0 0 49 0 0 49 0 0 49 0 0 49 0 0 49 0 0 49 0 0 49 0 0 49 0 0 
0 171 255 0 171 255 0 171 255 0 171 255 0 171 255 0 171 255 0 171 255 0 171 255 0 171 255 0 171 255 0 166 255 0 166 255 0 166 255 0 166 255 0 166 255 0 166 255 0 166 255 0 166 255 0 166 255 0 166 255 0 167 255 0 167 255 0 167 255 0 167 255 0 167 255 0 167 255 0 167 255 0 167 255 0 167 255 0 167 255 0 152 255 0 152 255 0 152 255 0 152 255 0 152 255 0 152 255 0 152 255 0 152 255 0 152 255 0 152 255 0 144 255 0 144 255 0 144 255 0 144 255 0 144 255 0 144 255 0 144 255 0 144 255 0 144 255 0 144 255 0 139 255 0 139 255 0 139 255 0 139 255 0 139 255 0 139 255 0 139 255 0 139 255 0 139 255 0 139 255 0 130 255 0 130 255 0 130 255 0 130 255 0 130 255 0 130 255 0 130 255 0 130 255 0 130 255 0 130 255 0 111 255 0 111 255 0 111 255 0 111 255 0 111 255 0 111 255 0 111 255 0 111 255 0 111 255 0 111 255 0 128 255 0 128 255 0 128 255 0 128 255 0 128 255 0 128 255 0 128 255 0 128 255 0 128 255 0 128 255 0 114 255 0 114 255 0 114 255 0 114 255 0 114 255 0 114 255 0 114 255 0 114 255 0 114 255 0 114 255 0 160 255 0 160 255 0 160 255 0 160 255 0 160 255 0 160 255 0 160 255 0 160 255 0 160 255 0 160 255 0 155 255 0 155 255 0 155 255 0 155 255 0 155 255 0 155 255 0 155 255 0 155 255 0 155 255 0 155 255 0 115 255 0 115 255 0 115 255 0 115 255 0 115 255 0 115 255 0 115 255 0 115 255 0 115 255 0 115 255 0 29 255 0 29 255 0 29 255 0 29 255 0 29 255 0 29 255 0 29 255 0 29 255 0 29 255 0 29 255 0 71 255 0 71 255 0 71 255 0 71 255 0 71 255 0 71 255 0 71 255 0 71 255 0 71 255 0 71 255 0 149 255 0 149 255 0 149 255 0 149 255 0 149 255 0 149 255 0 149 255 0 149 255 0 149 255 0 149 255 0 167 255 0 167 255 0 167 255 0 167 255 0 167 255 0 167 255 0 167 255 0 167 255 0 167 255 0 167 255 0 158 255 0 158 255 0 158 255 0 158 255 0 158 255 0 158 255 0 158 255 0 158 255 0 158 255 0 158 255 0 170 255 0 170 255 0 170 255 0 170 255 0 170 255 0 170 255 0 170 255 0 170 255 0 170 255 0 170 255 0 121 255 0 121 255 0 121 255 0 121 255 0 121 255 0 121 255 0 121 255 0 121 255 0 121 255 0 121 255 0 89 255 0 89 255 0 89 255 0 89 255 0 89 255 0 89 255 0 89 255 0 89 255 0 89 255 0 89 255 0 69 255 0 69 255 0 69 255 0 69 255 0 69 255 0 69 255 0 69 255 0 69 255 0 69 255 0 69 255 0 96 255 0 96 255 0 96 255 0 96 255 0 96 255 0 96 255 0 96 255 0 96 255 0 96 255 0 96 255 0 99 255 0 99 255 0 99 255 0 99 255 0 99 255 0 99 255 0 99 255 0 99 255 0 99 255 0 99 255 0 117 255 0 117 255 0 117 255 0 117 255 0 117 255 0 117 255 0 117 255 0 117 255 0 117 255 0 117 255 0 137 255 0 137 255 0 137 255 0 137 255 0 137 255 0 137 255 0 137 255 0 137 255 0 137 255 0 137 255 0 147 255 0 147 255 0 147 255 0 147 255 0 147 255 0 147 255 0 147 255 0 147 255 0 147 255 0 147 255 0 170 255 0 170 255 0 170 255 0 170 255 0 170 255 0 170 255 0 170 255 0 170 255 0 170 255 0 170 255 0 0 0 0 0 0 0 0 0 0 0 0 0 0 0 0 0 0 0 0 0 0 0 0 0 0 0 0 0 0 45 0 0 45 0 0 45 0 0 45 0 0 45 0 0 45 0 0 45 0 0 45 0 0 45 0 0 45 0 0 45 0 0 45 0 0 45 0 0 45 0 0 45 0 0 45 0 0 45 0 0 45 0 0 45 0 0 45 0 0 45 0 0 45 0 0 45 0 0 45 0 0 45 0 0 45 0 0 45 0 0 45 0 0 45 0 0 45 0 0 
0 171 255 0 171 255 0 171 255 0 171 255 0 171 255 0 171 255 0 171 255 0 171 255 0 171 255 0 171 255 0 166 255 0 166 255 0 166 255 0 166 255 0 166 255 0 166 255 0 166 255 0 166 255 0 166 255 0 166 255 0 167 255 0 167 255 0 167 255 0 167 255 0 167 255 0 167 255 0 167 255 0 167 255 0 167 255 0 167 255 0 152 255 0 152 255 0 152 255 0 152 255 0 152 255 0 152 255 0 152 255 0 152 255 0 152 255 0 152 255 0 144 255 0 144 255 0 144 255 0 144 255 0 144 255 0 144 255 0 144 255 0 144 255 0 144 255 0 144 255 0 139 255 0 139 255 0 139 255 0 139 255 0 139 255 0 139 255 0 139 255 0 139 255 0 139 255 0 139 255 0 130 255 0 130 255 0 130 255 0 130 255 0 130 255 0 130 255 0 130 255 0 130 255 0 130 255 0 130 255 0 111 255 0 111 255 0 111 255 0 111 255 0 111 255 0 111 255 0 111 255 0 111 255 0 111 255 0 111 255 0 128 255 0 128 255 0 128 255 0 128 255 0 128 255 0 128 255 0 128 255 0 128 255 0 128 255 0 128 255 0 114 255 0 114 255 0 114 255 0 114 255 0 114 255 0 114 255 0 114 255 0 114 255 0 114 255 0 114 255 0 160 255 0 160 255 0 160 255 0 160 255 0 160 255 0 160 255 0 160 255 0 160 255 0 160 255 0 160 255 0 155 255 0 155 255 0 155 255 0 155 255 0 155 255 0 155 255 0 155 255 0 155 255 0 155 255 0 155 255 0 115 255 0 115 255 0 115 255 0 115 255 0 115 255 0 115 255 0 115 255 0 115 255 0 115 255 0 115 255 0 29 255 0 29 255 0 29 255 0 29 255 0 29 255 0 29 255 0 29 255 0 29 255 0 29 255 0 29 255 0 71 255 0 71 255 0 71 255 0 71 255 0 71 255 0 71 255 0 71 255 0 71 255 0 71 255 0 71 255 0 149 255 0 149 255 0 149 255 0 149 255 0 149 255 0 149 255 0 149 255 0 149 255 0 149 255 0 149 255 0 167 255 0 167 255 0 167 255 0 167 255 0 167 255 0 167 255 0 167 255 0 167 255 0 167 255 0 167 255 0 158 255 0 158 255 0 158 255 0 158 255 0 158 255 0 158 255 0 158 255 0 158 255 0 158 255 0 158 255 0 170 255 0 170 255 0 170 255 0 170 255 0 170 255 0 170 255 0 170 255 0 170 255 0 170 255 0 170 255 0 121 255 0 121 255 0 121 255 0 121 255 0 121 255 0 121 255 0 121 255 0 121 255 0 121 255 0 121 255 0 89 255 0 89 255 0 89 255 0 89 255 0 89 255 0 89 255 0 89 255 0 89 255 0 89 255 0 89 255 0 69 255 0 69 255 0 69 255 0 69 255 0 69 255 0 69 255 0 69 255 0 69 255 0 69 255 0 69 255 0 96 255 0 96 255 0 96 255 0 96 255 0 96 255 0 96 255 0 96 255 0 96 255 0 96 255 0 96 255 0 99 255 0 99 255 0 99 255 0 99 255 0 99 255 0 99 255 0 99 255 0 99 255 0 99 255 0 99 255 0 117 255 0 117 255 0 117 255 0 117 255 0 117 255 0 117 255 0 117 255 0 117 255 0 117 255 0 117 255 0 137 255 0 137 255 0 137 255 0 137 255 0 137 255 0 137 255 0 137 255 0 137 255 0 137 255 0 137 255 0 147 255 0 147 255 0 147 255 0 147 255 0 147 255 0 147 255 0 147 255 0 147 255 0 147 255 0 147 255 0 170 255 0 170 255 0 170 255 0 170 255 0 170 255 0 170 255 0 170 255 0 170 255 0 170 255 0 170 255 0 0 0 0 0 0 0 0 0 0 0 0 0 0 0 0 0 0 0 0 0 0 0 0 0 0 0 0 0 0 42 0 0 42 0 0 42 0 0 42 0 0 42 0 0 42 0 0 42 0 0 42 0 0 42 0 0 42 0 0 42 0 0 42 0 0 42 0 0 42 0 0 42 0 0 42 0 0 42 0 0 42 0 0 42 0 0 42 0 0 42 0 0 42 0 0 42 0 0 42 0 0 42 0 0 42 0 0 42 0 0 42 0 0 42 0 0 42 0 0 
0 171 255 0 171 255 0 171 255 0 171 255 0 171 255 0 171 255 0 171 255 0 171 255 0 171 255 0 171 255 0 166 255 0 166 255 0 166 255 0 166 255 0 166 255 0 166 255 0 166 255 0 166 255 0 166 255 0 166 255 0 167 255 0 167 255 0 167 255 0 167 255 0 167 255 0 167 255 0 167 255 0 167 255 0 167 255 0 167 255 0 152 255 0 152 255 0 152 255 0 152 255 0 152 255 0 152 255 0 152 255 0 152 255 0 152 255 0 152 255 0 144 255 0 144 255 0 144 255 0 144 255 0 144 255 0 144 255 0 144 255 0 144 255 0 144 255 0 144 255 0 139 255 0 139 255 0 139 255 0 139 255 0 139 255 0 139 255 0 139 255 0 139 255 0 139 255 0 139 255 0 130 255 0 130 255 0 130 255 0 130 255 0 130 255 0 130 255 0 130 255 0 130 255 0 130 255 0 130 255 0 111 255 0 111 255 0 111 255 0 111 255 0 111 255 0 111 255 0 111 255 0 111 255 0 111 255 0 111 255 0 128 255 0 128 255 0 128 255 0 128 255 0 128 255 0 128 255 0 128 255 0 128 255 0 128 255 0 128 255 0 114 255 0 114 255 0 114 255 0 114 255 0 114 255 0 114 255 0 114 255 0 114 255 0 114 255 0 114 255 0 160 255 0 160 255 0 160 255 0 160 255 0 160 255 0 160 255 0 160 255 0 160 255 0 160 255 0 160 255 0 155 255 0 155 255 0 155 255 0 155 255 0 155 255 0 155 255 0 155 255 0 155 255 0 155 255 0 155 255 0 115 255 0 115 255 0 115 255 0 115 255 0 115 255 0 115 255 0 115 255 0 115 255 0 115 255 0 115 255 0 29 255 0 29 255 0 29 255 0 29 255 0 29 255 0 29 255 0 29 255 0 29 255 0 29 255 0 29 255 0 71 255 0 71 255 0 71 255 0 71 255 0 71 255 0 71 255 0 71 255 0 71 255 0 71 255 0 71 255 0 149 255 0 149 255 0 149 255 0 149 255 0 149 255 0 149 255 0 149 255 0 149 255 0 149 255 0 149 255 0 167 255 0 167 255 0 167 255 0 167 255 0 167 255 0 167 255 0 167 255 0 167 255 0 167 255 0 167 255 0 158 255 0 158 255 0 158 255 0 158 255 0 158 255 0 158 255 0 158 255 0 158 255 0 158 255 0 158 255 0 170 255 0 170 255 0 170 255 0 170 255 0 170 255 0 170 255 0 170 255 0 170 255 0 170 255 0 170 255 0 121 255 0 121 255 0 121 255 0 121 255 0 121 255 0 121 255 0 121 255 0 121 255 0 121 255 0 121 255 0 89 255 0 89 255 0 89 255 0 89 255 0 89 255 0 89 255 0 89 255 0 89 255 0 89 255 0 89 255 0 69 255 0 69 255 0 69 255 0 69 255 0 69 255 0 69 255 0 69 255 0 69 255 0 69 255 0 69 255 0 96 255 0 96 255 0 96 255 0 96 255 0 96 255 0 96 255 0 96 255 0 96 255 0 96 255 0 96 255 0 99 255 0 99 255 0 99 255 0 99 255 0 99 255 0 99 255 0 99 255 0 99 255 0 99 255 0 99 255 0 117 255 0 117 255 0 117 255 0 117 255 0 117 255 0 117 255 0 117 255 0 117 255 0 117 255 0 117 255 0 137 255 0 137 255 0 137 255 0 137 255 0 137 255 0 137 255 0 137 255 0 137 255 0 137 255 0 137 255 0 147 255 0 147 255 0 147 255 0 147 255 0 147 255 0 147 255 0 147 255 0 147 255 0 147 255 0 147 255 0 170 255 0 170 255 0 170 255 0 170 255 0 170 255 0 170 255 0 170 255 0 170 255 0 170 255 0 170 255 0 0 0 0 0 0 0 0 0 0 0 0 0 0 0 0 0 0 0 0 0 0 0 0 0 0 0 0 0 0 38 0 0 38 0 0 38 0 0 38 0 0 38 0 0 38 0 0 38 0 0 38 0 0 38 0 0 38 0 0 38 0 0 38 0 0 38 0 0 38 0 0 38 0 0 38 0 0 38 0 0 38 0 0 38 0 0 38 0 0 38 0 0 38 0 0 38 0 0 38 0 0 38 0 0 38 0 0 38 0 0 38 0 0 38 0 0 38 0 0 
0 171 255 0 171 255 0 171 255 0 171 255 0 171 255 0 171 255 0 171 255 0 171 255 0 171 255 0 171 255 0 151 255 0 151 255 0 151 255 0 151 255 0 151 255 0 151 255 0 151 255 0 151 255 0 151 255 0 151 255 0 156 255 0 156 255 0 156 255 0 156 255 0 156 255 0 156 255 0 156 255 0 156 255 0 156 255 0 156 255 0 156 255 0 156 255 0 156 255 0 156 255 0 156 255 0 156 255 0 156 255 0 156 255 0 156 255 0 156 255 0 166 255 0 166 255 0 166 255 0 166 255 0 166 255 0 166 255 0 166 255 0 166 255 0 166 255 0 166 255 0 183 255 0 183 255 0 183 255 0 183 255 0 183 255 0 183 255 0 183 255 0 183 255 0 183 255 0 183 255 0 174 255 0 174 255 0 174 255 0 174 255 0 174 255 0 174 255 0 174 255 0 174 255 0 174 255 0 174 255 0 181 255 0 181 255 0 181 255 0 181 255 0 181 255 0 181 255 0 181 255 0 181 255 0 181 255 0 181 255 0 164 255 0 164 255 0 164 255 0 164 255 0 164 255 0 164 255 0 164 255 0 164 255 0 164 255 0 164 255 0 155 255 0 155 255 0 155 255 0 155 255 0 155 255 0 155 255 0 155 255 0 155 255 0 155 255 0 155 255 0 187 255 0 187 255 0 187 255 0 187 255 0 187 255 0 187 255 0 187 255 0 187 255 0 187 255 0 187 255 0 147 255 0 147 255 0 147 255 0 147 255 0 147 255 0 147 255 0 147 255 0 147 255 0 147 255 0 147 255 0 90 255 0 90 255 0 90 255 0 90 255 0 90 255 0 90 255 0 90 255 0 90 255 0 90 255 0 90 255 0 48 255 0 48 255 0 48 255 0 48 255 0 48 255 0 48 255 0 48 255 0 48 255 0 48 255 0 48 255 0 132 255 0 132 255 0 132 255 0 132 255 0 132 255 0 132 255 0 132 255 0 132 255 0 132 255 0 132 255 0 97 255 0 97 255 0 97 255 0 97 255 0 97 255 0 97 255 0 97 255 0 97 255 0 97 255 0 97 255 0 138 255 0 138 255 0 138 255 0 138 255 0 138 255 0 138 255 0 138 255 0 138 255 0 138 255 0 138 255 0 180 255 0 180 255 0 180 255 0 180 255 0 180 255 0 180 255 0 180 255 0 180 255 0 180 255 0 180 255 0 150 255 0 150 255 0 150 255 0 150 255 0 150 255 0 150 255 0 150 255 0 150 255 0 150 255 0 150 255 0 141 255 0 141 255 0 141 255 0 141 255 0 141 255 0 141 255 0 141 255 0 141 255 0 141 255 0 141 255 0 126 255 0 126 255 0 126 255 0 126 255 0 126 255 0 126 255 0 126 255 0 126 255 0 126 255 0 126 255 0 159 255 0 159 255 0 159 255 0 159 255 0 159 255 0 159 255 0 159 255 0 159 255 0 159 255 0 159 255 0 154 255 0 154 255 0 154 255 0 154 255 0 154 255 0 154 255 0 154 255 0 154 255 0 154 255 0 154 255 0 158 255 0 158 255 0 158 255 0 158 255 0 158 255 0 158 255 0 158 255 0 158 255 0 158 255 0 158 255 0 148 255 0 148 255 0 148 255 0 148 255 0 148 255 0 148 255 0 148 255 0 148 255 0 148 255 0 148 255 0 162 255 0 162 255 0 162 255 0 162 255 0 162 255 0 162 255 0 162 255 0 162 255 0 162 255 0 162 255 0 162 255 0 162 255 0 162 255 0 162 255 0 162 255 0 162 255 0 162 255 0 162 255 0 162 255 0 162 255 0 155 255 0 155 255 0 155 255 0 155 255 0 155 255 0 155 255 0 155 255 0 155 255 0 155 255 0 155 255 0 0 0 0 0 0 0 0 0 0 0 0 0 0 0 0 0 0 0 0 0 0 0 0 0 0 0 0 0 0 34 0 0 34 0 0 34 0 0 34 0 0 34 0 0 34 0 0 34 0 0 34 0 0 34 0 0 34 0 0 34 0 0 34 0 0 34 0 0 34 0 0 34 0 0 34 0 0 34 0 0 34 0 0 34 0 0 34 0 0 34 0 0 34 0 0 34 0 0 34 0 0 34 0 0 34 0 0 34 0 0 34 0 0 34 0 0 34 0 0 
0 171 255 0 171 255 0 171 255 0 171 255 0 171 255 0 171 255 0 171 255 0 171 255 0 171 255 0 171 255 0 151 255 0 151 255 0 151 255 0 151 255 0 151 255 0 151 255 0 151 255 0 151 255 0 151 255 0 151 255 0 156 255 0 156 255 0 156 255 0 156 255 0 156 255 0 156 255 0 156 255 0 156 255 0 156 255 0 156 255 0 156 255 0 156 255 0 156 255 0 156 255 0 156 255 0 156 255 0 156 255 0 156 255 0 156 255 0 156 255 0 166 255 0 166 255 0 166 255 0 166 255 0 166 255 0 166 255 0 166 255 0 166 255 0 166 255 0 166 255 0 183 255 0 183 255 0 183 255 0 183 255 0 183 255 0 183 255 0 183 255 0 183 255 0 183 255 0 183 255 0 174 255 0 174 255 0 174 255 0 174 255 0 174 255 0 174 255 0 174 255 0 174 255 0 174 255 0 174 255 0 181 255 0 181 255 0 181 255 0 181 255 0 181 255 0 181 255 0 181 255 0 181 255 0 181 255 0 181 255 0 164 255 0 164 255 0 164 255 0 164 255 0 164 255 0 164 255 0 164 255 0 164 255 0 164 255 0 164 255 0 155 255 0 155 255 0 155 255 0 155 255 0 155 255 0 155 255 0 155 255 0 155 255 0 155 255 0 155 255 0 187 255 0 187 255 0 187 255 0 187 255 0 187 255 0 187 255 0 187 255 0 187 255 0 187 255 0 187 255 0 147 255 0 147 255 0 147 255 0 147 255 0 147 255 0 147 255 0 147 255 0 147 255 0 147 255 0 147 255 0 90 255 0 90 255 0 90 255 0 90 255 0 90 255 0 90 255 0 90 255 0 90 255 0 90 255 0 90 255 0 48 255 0 48 255 0 48 255 0 48 255 0 48 255 0 48 255 0 48 255 0 48 255 0 48 255 0 48 255 0 132 255 0 132 255 0 132 255 0 132 255 0 132 255 0 132 255 0 132 255 0 132 255 0 132 255 0 132 255 0 97 255 0 97 255 0 97 255 0 97 255 0 97 255 0 97 255 0 97 255 0 97 255 0 97 255 0 97 255 0 138 255 0 138 255 0 138 255 0 138 255 0 138 255 0 138 255 0 138 255 0 138 255 0 138 255 0 138 255 0 180 255 0 180 255 0 180 255 0 180 255 0 180 255 0 180 255 0 180 255 0 180 255 0 180 255 0 180 255 0 150 255 0 150 255 0 150 255 0 150 255 0 150 255 0 150 255 0 150 255 0 150 255 0 150 255 0 150 255 0 141 255 0 141 255 0 141 255 0 141 255 0 141 255 0 141 255 0 141 255 0 141 255 0 141 255 0 141 255 0 126 255 0 126 255 0 126 255 0 126 255 0 126 255 0 126 255 0 126 255 0 126 255 0 126 255 0 126 255 0 159 255 0 159 255 0 159 255 0 159 255 0 159 255 0 159 255 0 159 255 0 159 255 0 159 255 0 159 255 0 154 255 0 154 255 0 154 255 0 154 255 0 154 255 0 154 255 0 154 255 0 154 255 0 154 255 0 154 255 0 158 255 0 158 255 0 158 255 0 158 255 0 158 255 0 158 255 0 158 255 0 158 255 0 158 255 0 158 255 0 148 255 0 148 255 0 148 255 0 148 255 0 148 255 0 148 255 0 148 255 0 148 255 0 148 255 0 148 255 0 162 255 0 162 255 0 162 255 0 162 255 0 162 255 0 162 255 0 162 255 0 162 255 0 162 255 0 162 255 0 162 255 0 162 255 0 162 255 0 162 255 0 162 255 0 162 255 0 162 255 0 162 255 0 162 255 0 162 255 0 155 255 0 155 255 0 155 255 0 155 255 0 155 255 0 155 255 0 155 255 0 155 255 0 155 255 0 155 255 0 0 0 0 0 0 0 0 0 0 0 0 0 0 0 0 0 0 0 0 0 0 0 0 0 0 0 0 0 0 31 0 0 31 0 0 31 0 0 31 0 0 31 0 0 31 0 0 31 0 0 31 0 0 31 0 0 31 0 0 31 0 0 31 0 0 31 0 0 31 0 0 31 0 0 31 0 0 31 0 0 31 0 0 31 0 0 31 0 0 31 0 0 31 0 0 31 0 0 31 0 0 31 0 0 31 0 0 31 0 0 31 0 0 31 0 0 31 0 0 
0 171 255 0 171 255 0 171 255 0 171 255 0 171 255 0 171 255 0 171 255 0 171 255 0 171 255 0 171 255 0 151 255 0 151 255 0 151 255 0 151 255 0 151 255 0 151 255 0 151 255 0 151 255 0 151 255 0 151 255 0 156 255 0 156 255 0 156 255 0 156 255 0 156 255 0 156 255 0 156 255 0 156 255 0 156 255 0 156 255 0 156 255 0 156 255 0 156 255 0 156 255 0 156 255 0 156 255 0 156 255 0 156 255 0 156 255 0 156 255 0 166 255 0 166 255 0 166 255 0 166 255 0 166 255 0 166 255 0 166 255 0 166 255 0 166 255 0 166 255 0 183 255 0 183 255 0 183 255 0 183 255 0 183 255 0 183 255 0 183 255 0 183 255 0 183 255 0 183 255 0 174 255 0 174 255 0 174 255 0 174 255 0 174 255 0 174 255 0 174 255 0 174 255 0 174 255 0 174 255 0 181 255 0 181 255 0 181 255 0 181 255 0 181 255 0 181 255 0 181 255 0 181 255 0 181 255 0 181 255 0 164 255 0 164 255 0 164 255 0 164 255 0 164 255 0 164 255 0 164 255 0 164 255 0 164 255 0 164 255 0 155 255 0 155 255 0 155 255 0 155 255 0 155 255 0 155 255 0 155 255 0 155 255 0 155 255 0 155 255 0 187 255 0 187 255 0 187 255 0 187 255 0 187 255 0 187 255 0 187 255 0 187 255 0 187 255 0 187 255 0 147 255 0 147 255 0 147 255 0 147 255 0 147 255 0 147 255 0 147 255 0 147 255 0 147 255 0 147 255 0 90 255 0 90 255 0 90 255 0 90 255 0 90 255 0 90 255 0 90 255 0 90 255 0 90 255 0 90 255 0 48 255 0 48 255 0 48 255 0 48 255 0 48 255 0 48 255 0 48 255 0 48 255 0 48 255 0 48 255 0 132 255 0 132 255 0 132 255 0 132 255 0 132 255 0 132 255 0 132 255 0 132 255 0 132 255 0 132 255 0 97 255 0 97 255 0 97 255 0 97 255 0 97 255 0 97 255 0 97 255 0 97 255 0 97 255 0 97 255 0 138 255 0 138 255 0 138 255 0 138 255 0 138 255 0 138 255 0 138 255 0 138 255 0 138 255 0 138 255 0 180 255 0 180 255 0 180 255 0 180 255 0 180 255 0 180 255 0 180 255 0 180 255 0 180 255 0 180 255 0 150 255 0 150 255 0 150 255 0 150 255 0 150 255 0 150 255 0 150 255 0 150 255 0 150 255 0 150 255 0 141 255 0 141 255 0 141 255 0 141 255 0 141 255 0 141 255 0 141 255 0 141 255 0 141 255 0 141 255 0 126 255 0 126 255 0 126 255 0 126 255 0 126 255 0 126 255 0 126 255 0 126 255 0 126 255 0 126 255 0 159 255 0 159 255 0 159 255 0 159 255 0 159 255 0 159 255 0 159 255 0 159 255 0 159 255 0 159 255 0 154 255 0 154 255 0 154 255 0 154 255 0 154 255 0 154 255 0 154 255 0 154 255 0 154 255 0 154 255 0 158 255 0 158 255 0 158 255 0 158 255 0 158 255 0 158 255 0 158 255 0 158 255 0 158 255 0 158 255 0 148 255 0 148 255 0 148 255 0 148 255 0 148 255 0 148 255 0 148 255 0 148 255 0 148 255 0 148 255 0 162 255 0 162 255 0 162 255 0 162 255 0 162 255 0 162 255 0 162 255 0 162 255 0 162 255 0 162 255 0 162 255 0 162 255 0 162 255 0 162 255 0 162 255 0 162 255 0 162 255 0 162 255 0 162 255 0 162 255 0 155 255 0 155 255 0 155 255 0 155 255 0 155 255 0 155 255 0 155 255 0 155 255 0 155 255 0 155 255 0 0 0 0 0 0 0 0 0 0 0 0 0 0 0 0 0 0 0 0 0 0 0 0 0 0 0 0 0 0 27 0 0 27 0 0 27 0 0 27 0 0 27 0 0 27 0 0 27 0 0 27 0 0 27 0 0 27 0 0 27 0 0 27 0 0 27 0 0 27 0 0 27 0 0 27 0 0 27 0 0 27 0 0 27 0 0 27 0 0 27 0 0 27 0 0 27 0 0 27 0 0 27 0 0 27 0 0 27 0 0 27 0 0 27 0 0 27 0 0 
0 171 255 0 171 255 0 171 255 0 171 255 0 171 255 0 171 255 0 171 255 0 171 255 0 171 255 0 171 255 0 151 255 0 151 255 0 151 255 0 151 255 0 151 255 0 151 255 0 151 255 0 151 255 0 151 255 0 151 255 0 156 255 0 156 255 0 156 255 0 156 255 0 156 255 0 156 255 0 156 255 0 156 255 0 156 255 0 156 255 0 156 255 0 156 255 0 156 255 0 156 255 0 156 255 0 156 255 0 156 255 0 156 255 0 156 255 0 156 255 0 166 255 0 166 255 0 166 255 0 166 255 0 166 255 0 166 255 0 166 255 0 166 255 0 166 255 0 166 255 0 183 255 0 183 255 0 183 255 0 183 255 0 183 255 0 183 255 0 183 255 0 183 255 0 183 255 0 183 255 0 174 255 0 174 255 0 174 255 0 174 255 0 174 255 0 174 255 0 174 255 0 174 255 0 174 255 0 174 255 0 181 255 0 181 255 0 181 255 0 181 255 0 181 255 0 181 255 0 181 255 0 181 255 0 181 255 0 181 255 0 164 255 0 164 255 0 164 255 0 164 255 0 164 255 0 164 255 0 164 255 0 164 255 0 164 255 0 164 255 0 155 255 0 155 255 0 155 255 0 155 255 0 155 255 0 155 255 0 155 255 0 155 255 0 155 255 0 155 255 0 187 255 0 187 255 0 187 255 0 187 255 0 187 255 0 187 255 0 187 255 0 187 255 0 187 255 0 187 255 0 147 255 0 147 255 0 147 255 0 147 255 0 147 255 0 147 255 0 147 255 0 147 255 0 147 255 0 147 255 0 90 255 0 90 255 0 90 255 0 90 255 0 90 255 0 90 255 0 90 255 0 90 255 0 90 255 0 90 255 0 48 255 0 48 255 0 48 255 0 48 255 0 48 255 0 48 255 0 48 255 0 48 255 0 48 255 0 48 255 0 132 255 0 132 255 0 132 255 0 132 255 0 132 255 0 132 255 0 132 255 0 132 255 0 132 255 0 132 255 0 97 255 0 97 255 0 97 255 0 97 255 0 97 255 0 97 255 0 97 255 0 97 255 0 97 255 0 97 255 0 138 255 0 138 255 0 138 255 0 138 255 0 138 255 0 138 255 0 138 255 0 138 255 0 138 255 0 138 255 0 180 255 0 180 255 0 180 255 0 180 255 0 180 255 0 180 255 0 180 255 0 180 255 0 180 255 0 180 255 0 150 255 0 150 255 0 150 255 0 150 255 0 150 255 0 150 255 0 150 255 0 150 255 0 150 255 0 150 255 0 141 255 0 141 255 0 141 255 0 141 255 0 141 255 0 141 255 0 141 255 0 141 255 0 141 255 0 141 255 0 126 255 0 126 255 0 126 255 0 126 255 0 126 255 0 126 255 0 126 255 0 126 255 0 126 255 0 126 255 0 159 255 0 159 255 0 159 255 0 159 255 0 159 255 0 159 255 0 159 255 0 159 255 0 159 255 0 159 255 0 154 255 0 154 255 0 154 255 0 154 255 0 154 255 0 154 255 0 154 255 0 154 255 0 154 255 0 154 255 0 158 255 0 158 255 0 158 255 0 158 255 0 158 255 0 158 255 0 158 255 0 158 255 0 158 255 0 158 255 0 148 255 0 148 255 0 148 255 0 148 255 0 148 255 0 148 255 0 148 255 0 148 255 0 148 255 0 148 255 0 162 255 0 162 255 0 162 255 0 162 255 0 162 255 0 162 255 0 162 255 0 162 255 0 162 255 0 162 255 0 162 255 0 162 255 0 162 255 0 162 255 0 162 255 0 162 255 0 162 255 0 162 255 0 162 255 0 162 255 0 155 255 0 155 255 0 155 255 0 155 255 0 155 255 0 155 255 0 155 255 0 155 255 0 155 255 0 155 255 0 0 0 0 0 0 0 0 0 0 0 0 0 0 0 0 0 0 0 0 0 0 0 0 0 0 0 0 0 0 23 0 0 23 0 0 23 0 0 23 0 0 23 0 0 23 0 0 23 0 0 23 0 0 23 0 0 23 0 0 23 0 0 23 0 0 23 0 0 23 0 0 23 0 0 23 0 0 23 0 0 23 0 0 23 0 0 23 0 0 23 0 0 23 0 0 23 0 0 23 0 0 23 0 0 23 0 0 23 0 0 23 0 0 23 0 0 23 0 0 
0 171 255 0 171 255 0 171 255 0 171 255 0 171 255 0 171 255 0 171 255 0 171 255 0 171 255 0 171 255 0 151 255 0 151 255 0 151 255 0 151 255 0 151 255 0 151 255 0 151 255 0 151 255 0 151 255 0 151 255 0 156 255 0 156 255 0 156 255 0 156 255 0 156 255 0 156 255 0 156 255 0 156 255 0 156 255 0 156 255 0 156 255 0 156 255 0 156 255 0 156 255 0 156 255 0 156 255 0 156 255 0 156 255 0 156 255 0 156 255 0 166 255 0 166 255 0 166 255 0 166 255 0 166 255 0 166 255 0 166 255 0 166 255 0 166 255 0 166 255 0 183 255 0 183 255 0 183 255 0 183 255 0 183 255 0 183 255 0 183 255 0 183 255 0 183 255 0 183 255 0 174 255 0 174 255 0 174 255 0 174 255 0 174 255 0 174 255 0 174 255 0 174 255 0 174 255 0 174 255 0 181 255 0 181 255 0 181 255 0 181 255 0 181 255 0 181 255 0 181 255 0 181 255 0 181 255 0 181 255 0 164 255 0 164 255 0 164 255 0 164 255 0 164 255 0 164 255 0 164 255 0 164 255 0 164 255 0 164 255 0 155 255 0 155 255 0 155 255 0 155 255 0 155 255 0 155 255 0 155 255 0 155 255 0 155 255 0 155 255 0 187 255 0 187 255 0 187 255 0 187 255 0 187 255 0 187 255 0 187 255 0 187 255 0 187 255 0 187 255 0 147 255 0 147 255 0 147 255 0 147 255 0 147 255 0 147 255 0 147 255 0 147 255 0 147 255 0 147 255 0 90 255 0 90 255 0 90 255 0 90 255 0 90 255 0 90 255 0 90 255 0 90 255 0 90 255 0 90 255 0 48 255 0 48 255 0 48 255 0 48 255 0 48 255 0 48 255 0 48 255 0 48 255 0 48 255 0 48 255 0 132 255 0 132 255 0 132 255 0 132 255 0 132 255 0 132 255 0 132 255 0 132 255 0 132 255 0 132 255 0 97 255 0 97 255 0 97 255 0 97 255 0 97 255 0 97 255 0 97 255 0 97 255 0 97 255 0 97 255 0 138 255 0 138 255 0 138 255 0 138 255 0 138 255 0 138 255 0 138 255 0 138 255 0 138 255 0 138 255 0 180 255 0 180 255 0 180 255 0 180 255 0 180 255 0 180 255 0 180 255 0 180 255 0 180 255 0 180 255 0 150 255 0 150 255 0 150 255 0 150 255 0 150 255 0 150 255 0 150 255 0 150 255 0 150 255 0 150 255 0 141 255 0 141 255 0 141 255 0 141 255 0 141 255 0 141 255 0 141 255 0 141 255 0 141 255 0 141 255 0 126 255 0 126 255 0 126 255 0 126 255 0 126 255 0 126 255 0 126 255 0 126 255 0 126 255 0 126 255 0 159 255 0 159 255 0 159 255 0 159 255 0 159 255 0 159 255 0 159 255 0 159 255 0 159 255 0 159 255 0 154 255 0 154 255 0 154 255 0 154 255 0 154 255 0 154 255 0 154 255 0 154 255 0 154 255 0 154 255 0 158 255 0 158 255 0 158 255 0 158 255 0 158 255 0 158 255 0 158 255 0 158 255 0 158 255 0 158 255 0 148 255 0 148 255 0 148 255 0 148 255 0 148 255 0 148 255 0 148 255 0 148 255 0 148 255 0 148 255 0 162 255 0 162 255 0 162 255 0 162 255 0 162 255 0 162 255 0 162 255 0 162 255 0 162 255 0 162 255 0 162 255 0 162 255 0 162 255 0 162 255 0 162 255 0 162 255 0 162 255 0 162 255 0 162 255 0 162 255 0 155 255 0 155 255 0 155 255 0 155 255 0 155 255 0 155 255 0 155 255 0 155 255 0 155 255 0 155 255 0 0 0 0 0 0 0 0 0 0 0 0 0 0 0 0 0 0 0 0 0 0 0 0 0 0 0 0 0 0 20 0 0 20 0 0 20 0 0 20 0 0 20 0 0 20 0 0 20 0 0 20 0 0 20 0 0 20 0 0 20 0 0 20 0 0 20 0 0 20 0 0 20 0 0 20 0 0 20 0 0 20 0 0 20 0 0 20 0 0 20 0 0 20 0 0 20 0 0 20 0 0 20 0 0 20 0 0 20 0 0 20 0 0 20 0 0 20 0 0 
0 171 255 0 171 255 0 171 255 0 171 255 0 171 255 0 171 255 0 171 255 0 171 255 0 171 255 0 171 255 0 151 255 0 151 255 0 151 255 0 151 255 0 151 255 0 151 255 0 151 255 0 151 255 0 151 255 0 151 255 0 156 255 0 156 255 0 156 255 0 156 255 0 156 255 0 156 255 0 156 255 0 156 255 0 156 255 0 156 255 0 156 255 0 156 255 0 156 255 0 156 255 0 156 255 0 156 255 0 156 255 0 156 255 0 156 255 0 156 255 0 166 255 0 166 255 0 166 255 0 166 255 0 166 255 0 166 255 0 166 255 0 166 255 0 166 255 0 166 255 0 183 255 0 183 255 0 183 255 0 183 255 0 183 255 0 183 255 0 183 255 0 183 255 0 183 255 0 183 255 0 174 255 0 174 255 0 174 255 0 174 255 0 174 255 0 174 255 0 174 255 0 174 255 0 174 255 0 174 255 0 181 255 0 181 255 0 181 255 0 181 255 0 181 255 0 181 255 0 181 255 0 181 255 0 181 255 0 181 255 0 164 255 0 164 255 0 164 255 0 164 255 0 164 255 0 164 255 0 164 255 0 164 255 0 164 255 0 164 255 0 155 255 0 155 255 0 155 255 0 155 255 0 155 255 0 155 255 0 155 255 0 155 255 0 155 255 0 155 255 0 187 255 0 187 255 0 187 255 0 187 255 0 187 255 0 187 255 0 187 255 0 187 255 0 187 255 0 187 255 0 147 255 0 147 255 0 147 255 0 147 255 0 147 255 0 147 255 0 147 255 0 147 255 0 147 255 0 147 255 0 90 255 0 90 255 0 90 255 0 90 255 0 90 255 0 90 255 0 90 255 0 90 255 0 90 255 0 90 255 0 48 255 0 48 255 0 48 255 0 48 255 0 48 255 0 48 255 0 48 255 0 48 255 0 48 255 0 48 255 0 132 255 0 132 255 0 132 255 0 132 255 0 132 255 0 132 255 0 132 255 0 132 255 0 132 255 0 132 255 0 97 255 0 97 255 0 97 255 0 97 255 0 97 255 0 97 255 0 97 255 0 97 255 0 97 255 0 97 255 0 138 255 0 138 255 0 138 255 0 138 255 0 138 255 0 138 255 0 138 255 0 138 255 0 138 255 0 138 255 0 180 255 0 180 255 0 180 255 0 180 255 0 180 255 0 180 255 0 180 255 0 180 255 0 180 255 0 180 255 0 150 255 0 150 255 0 150 255 0 150 255 0 150 255 0 150 255 0 150 255 0 150 255 0 150 255 0 150 255 0 141 255 0 141 255 0 141 255 0 141 255 0 141 255 0 141 255 0 141 255 0 141 255 0 141 255 0 141 255 0 126 255 0 126 255 0 126 255 0 126 255 0 126 255 0 126 255 0 126 255 0 126 255 0 126 255 0 126 255 0 159 255 0 159 255 0 159 255 0 159 255 0 159 255 0 159 255 0 159 255 0 159 255 0 159 255 0 159 255 0 154 255 0 154 255 0 154 255 0 154 255 0 154 255 0 154 255 0 154 255 0 154 255 0 154 255 0 154 255 0 158 255 0 158 255 0 158 255 0 158 255 0 158 255 0 158 255 0 158 255 0 158 255 0 158 255 0 158 255 0 148 255 0 148 255 0 148 255 0 148 255 0 148 255 0 148 255 0 148 255 0 148 255 0 148 255 0 148 255 0 162 255 0 162 255 0 162 255 0 162 255 0 162 255 0 162 255 0 162 255 0 162 255 0 162 255 0 162 255 0 162 255 0 162 255 0 162 255 0 162 255 0 162 255 0 162 255 0 162 255 0 162 255 0 162 255 0 162 255 0 155 255 0 155 255 0 155 255 0 155 255 0 155 255 0 155 255 0 155 255 0 155 255 0 155 255 0 155 255 0 0 0 0 0 0 0 0 0 0 0 0 0 0 0 0 0 0 0 0 0 0 0 0 0 0 0 0 0 0 16 0 0 16 0 0 16 0 0 16 0 0 16 0 0 16 0 0 16 0 0 16 0 0 16 0 0 16 0 0 16 0 0 16 0 0 16 0 0 16 0 0 16 0 0 16 0 0 16 0 0 16 0 0 16 0 0 16 0 0 16 0 0 16 0 0 16 0 0 16 0 0 16 0 0 16 0 0 16 0 0 16 0 0 16 0 0 16 0 0 
0 171 255 0 171 255 0 171 255 0 171 255 0 171 255 0 171 255 0 171 255 0 171 255 0 171 255 0 171 255 0 151 255 0 151 255 0 151 255 0 151 255 0 151 255 0 151 255 0 151 255 0 151 255 0 151 255 0 151 255 0 156 255 0 156 255 0 156 255 0 156 255 0 156 255 0 156 255 0 156 255 0 156 255 0 156 255 0 156 255 0 156 255 0 156 255 0 156 255 0 156 255 0 156 255 0 156 255 0 156 255 0 156 255 0 156 255 0 156 255 0 166 255 0 166 255 0 166 255 0 166 255 0 166 255 0 166 255 0 166 255 0 166 255 0 166 255 0 166 255 0 183 255 0 183 255 0 183 255 0 183 255 0 183 255 0 183 255 0 183 255 0 183 255 0 183 255 0 183 255 0 174 255 0 174 255 0 174 255 0 174 255 0 174 255 0 174 255 0 174 255 0 174 255 0 174 255 0 174 255 0 181 255 0 181 255 0 181 255 0 181 255 0 181 255 0 181 255 0 181 255 0 181 255 0 181 255 0 181 255 0 164 255 0 164 255 0 164 255 0 164 255 0 164 255 0 164 255 0 164 255 0 164 255 0 164 255 0 164 255 0 155 255 0 155 255 0 155 255 0 155 255 0 155 255 0 155 255 0 155 255 0 155 255 0 155 255 0 155 255 0 187 255 0 187 255 0 187 255 0 187 255 0 187 255 0 187 255 0 187 255 0 187 255 0 187 255 0 187 255 0 147 255 0 147 255 0 147 255 0 147 255 0 147 255 0 147 255 0 147 255 0 147 255 0 147 255 0 147 255 0 90 255 0 90 255 0 90 255 0 90 255 0 90 255 0 90 255 0 90 255 0 90 255 0 90 255 0 90 255 0 48 255 0 48 255 0 48 255 0 48 255 0 48 255 0 48 255 0 48 255 0 48 255 0 48 255 0 48 255 0 132 255 0 132 255 0 132 255 0 132 255 0 132 255 0 132 255 0 132 255 0 132 255 0 132 255 0 132 255 0 97 255 0 97 255 0 97 255 0 97 255 0 97 255 0 97 255 0 97 255 0 97 255 0 97 255 0 97 255 0 138 255 0 138 255 0 138 255 0 138 255 0 138 255 0 138 255 0 138 255 0 138 255 0 138 255 0 138 255 0 180 255 0 180 255 0 180 255 0 180 255 0 180 255 0 180 255 0 180 255 0 180 255 0 180 255 0 180 255 0 150 255 0 150 255 0 150 255 0 150 255 0 150 255 0 150 255 0 150 255 0 150 255 0 150 255 0 150 255 0 141 255 0 141 255 0 141 255 0 141 255 0 141 255 0 141 255 0 141 255 0 141 255 0 141 255 0 141 255 0 126 255 0 126 255 0 126 255 0 126 255 0 126 255 0 126 255 0 126 255 0 126 255 0 126 255 0 126 255 0 159 255 0 159 255 0 159 255 0 159 255 0 159 255 0 159 255 0 159 255 0 159 255 0 159 255 0 159 255 0 154 255 0 154 255 0 154 255 0 154 255 0 154 255 0 154 255 0 154 255 0 154 255 0 154 255 0 154 255 0 158 255 0 158 255 0 158 255 0 158 255 0 158 255 0 158 255 0 158 255 0 158 255 0 158 255 0 158 255 0 148 255 0 148 255 0 148 255 0 148 255 0 148 255 0 148 255 0 148 255 0 148 255 0 148 255 0 148 255 0 162 255 0 162 255 0 162 255 0 162 255 0 162 255 0 162 255 0 162 255 0 162 255 0 162 255 0 162 255 0 162 255 0 162 255 0 162 255 0 162 255 0 162 255 0 162 255 0 162 255 0 162 255 0 162 255 0 162 255 0 155 255 0 155 255 0 155 255 0 155 255 0 155 255 0 155 255 0 155 255 0 155 255 0 155 255 0 155 255 0 0 0 0 0 0 0 0 0 0 0 0 0 0 0 0 0 0 0 0 0 0 0 0 0 0 0 0 0 0 12 0 0 12 0 0 12 0 0 12 0 0 12 0 0 12 0 0 12 0 0 12 0 0 12 0 0 12 0 0 12 0 0 12 0 0 12 0 0 12 0 0 12 0 0 12 0 0 12 0 0 12 0 0 12 0 0 12 0 0 12 0 0 12 0 0 12 0 0 12 0 0 12 0 0 12 0 0 12 0 0 12 0 0 12 0 0 12 0 0 
0 171 255 0 171 255 0 171 255 0 171 255 0 171 255 0 171 255 0 171 255 0 171 255 0 171 255 0 171 255 0 151 255 0 151 255 0 151 255 0 151 255 0 151 255 0 151 255 0 151 255 0 151 255 0 151 255 0 151 255 0 156 255 0 156 255 0 156 255 0 156 255 0 156 255 0 156 255 0 156 255 0 156 255 0 156 255 0 156 255 0 156 255 0 156 255 0 156 255 0 156 255 0 156 255 0 156 255 0 156 255 0 156 255 0 156 255 0 156 255 0 166 255 0 166 255 0 166 255 0 166 255 0 166 255 0 166 255 0 166 255 0 166 255 0 166 255 0 166 255 0 183 255 0 183 255 0 183 255 0 183 255 0 183 255 0 183 255 0 183 255 0 183 255 0 183 255 0 183 255 0 174 255 0 174 255 0 174 255 0 174 255 0 174 255 0 174 255 0 174 255 0 174 255 0 174 255 0 174 255 0 181 255 0 181 255 0 181 255 0 181 255 0 181 255 0 181 255 0 181 255 0 181 255 0 181 255 0 181 255 0 164 255 0 164 255 0 164 255 0 164 255 0 164 255 0 164 255 0 164 255 0 164 255 0 164 255 0 164 255 0 155 255 0 155 255 0 155 255 0 155 255 0 155 255 0 155 255 0 155 255 0 155 255 0 155 255 0 155 255 0 187 255 0 187 255 0 187 255 0 187 255 0 187 255 0 187 255 0 187 255 0 187 255 0 187 255 0 187 255 0 147 255 0 147 255 0 147 255 0 147 255 0 147 255 0 147 255 0 147 255 0 147 255 0 147 255 0 147 255 0 90 255 0 90 255 0 90 255 0 90 255 0 90 255 0 90 255 0 90 255 0 90 255 0 90 255 0 90 255 0 48 255 0 48 255 0 48 255 0 48 255 0 48 255 0 48 255 0 48 255 0 48 255 0 48 255 0 48 255 0 132 255 0 132 255 0 132 255 0 132 255 0 132 255 0 132 255 0 132 255 0 132 255 0 132 255 0 132 255 0 97 255 0 97 255 0 97 255 0 97 255 0 97 255 0 97 255 0 97 255 0 97 255 0 97 255 0 97 255 0 138 255 0 138 255 0 138 255 0 138 255 0 138 255 0 138 255 0 138 255 0 138 255 0 138 255 0 138 255 0 180 255 0 180 255 0 180 255 0 180 255 0 180 255 0 180 255 0 180 255 0 180 255 0 180 255 0 180 255 0 150 255 0 150 255 0 150 255 0 150 255 0 150 255 0 150 255 0 150 255 0 150 255 0 150 255 0 150 255 0 141 255 0 141 255 0 141 255 0 141 255 0 141 255 0 141 255 0 141 255 0 141 255 0 141 255 0 141 255 0 126 255 0 126 255 0 126 255 0 126 255 0 126 255 0 126 255 0 126 255 0 126 255 0 126 255 0 126 255 0 159 255 0 159 255 0 159 255 0 159 255 0 159 255 0 159 255 0 159 255 0 159 255 0 159 255 0 159 255 0 154 255 0 154 255 0 154 255 0 154 255 0 154 255 0 154 255 0 154 255 0 154 255 0 154 255 0 154 255 0 158 255 0 158 255 0 158 255 0 158 255 0 158 255 0 158 255 0 158 255 0 158 255 0 158 255 0 158 255 0 148 255 0 148 255 0 148 255 0 148 255 0 148 255 0 148 255 0 148 255 0 148 255 0 148 255 0 148 255 0 162 255 0 162 255 0 162 255 0 162 255 0 162 255 0 162 255 0 162 255 0 162 255 0 162 255 0 162 255 0 162 255 0 162 255 0 162 255 0 162 255 0 162 255 0 162 255 0 162 255 0 162 255 0 162 255 0 162 255 0 155 255 0 155 255 0 155 255 0 155 255 0 155 255 0 155 255 0 155 255 0 155 255 0 155 255 0 155 255 0 0 0 0 0 0 0 0 0 0 0 0 0 0 0 0 0 0 0 0 0 0 0 0 0 0 0 0 0 0 9 0 0 9 0 0 9 0 0 9 0 0 9 0 0 9 0 0 9 0 0 9 0 0 9 0 0 9 0 0 9 0 0 9 0 0 9 0 0 9 0 0 9 0 0 9 0 0 9 0 0 9 0 0 9 0 0 9 0 0 9 0 0 9 0 0 9 0 0 9 0 0 9 0 0 9 0 0 9 0 0 9 0 0 9 0 0 9 0 0 
0 171 255 0 171 255 0 171 255 0 171 255 0 171 255 0 171 255 0 171 255 0 171 255 0 171 255 0 171 255 0 151 255 0 151 255 0 151 255 0 151 255 0 151 255 0 151 255 0 151 255 0 151 255 0 151 255 0 151 255 0 156 255 0 156 255 0 156 255 0 156 255 0 156 255 0 156 255 0 156 255 0 156 255 0 156 255 0 156 255 0 156 255 0 156 255 0 156 255 0 156 255 0 156 255 0 156 255 0 156 255 0 156 255 0 156 255 0 156 255 0 166 255 0 166 255 0 166 255 0 166 255 0 166 255 0 166 255 0 166 255 0 166 255 0 166 255 0 166 255 0 183 255 0 183 255 0 183 255 0 183 255 0 183 255 0 183 255 0 183 255 0 183 255 0 183 255 0 183 255 0 174 255 0 174 255 0 174 255 0 174 255 0 174 255 0 174 255 0 174 255 0 174 255 0 174 255 0 174 255 0 181 255 0 181 255 0 181 255 0 181 255 0 181 255 0 181 255 0 181 255 0 181 255 0 181 255 0 181 255 0 164 255 0 164 255 0 164 255 0 164 255 0 164 255 0 164 255 0 164 255 0 164 255 0 164 255 0 164 255 0 155 255 0 155 255 0 155 255 0 155 255 0 155 255 0 155 255 0 155 255 0 155 255 0 155 255 0 155 255 0 187 255 0 187 255 0 187 255 0 187 255 0 187 255 0 187 255 0 187 255 0 187 255 0 187 255 0 187 255 0 147 255 0 147 255 0 147 255 0 147 255 0 147 255 0 147 255 0 147 255 0 147 255 0 147 255 0 147 255 0 90 255 0 90 255 0 90 255 0 90 255 0 90 255 0 90 255 0 90 255 0 90 255 0 90 255 0 90 255 0 48 255 0 48 255 0 48 255 0 48 255 0 48 255 0 48 255 0 48 255 0 48 255 0 48 255 0 48 255 0 132 255 0 132 255 0 132 255 0 132 255 0 132 255 0 132 255 0 132 255 0 132 255 0 132 255 0 132 255 0 97 255 0 97 255 0 97 255 0 97 255 0 97 255 0 97 255 0 97 255 0 97 255 0 97 255 0 97 255 0 138 255 0 138 255 0 138 255 0 138 255 0 138 255 0 138 255 0 138 255 0 138 255 0 138 255 0 138 255 0 180 255 0 180 255 0 180 255 0 180 255 0 180 255 0 180 255 0 180 255 0 180 255 0 180 255 0 180 255 0 150 255 0 150 255 0 150 255 0 150 255 0 150 255 0 150 255 0 150 255 0 150 255 0 150 255 0 150 255 0 141 255 0 141 255 0 141 255 0 141 255 0 141 255 0 141 255 0 141 255 0 141 255 0 141 255 0 141 255 0 126 255 0 126 255 0 126 255 0 126 255 0 126 255 0 126 255 0 126 255 0 126 255 0 126 255 0 126 255 0 159 255 0 159 255 0 159 255 0 159 255 0 159 255 0 159 255 0 159 255 0 159 255 0 159 255 0 159 255 0 154 255 0 154 255 0 154 255 0 154 255 0 154 255 0 154 255 0 154 255 0 154 255 0 154 255 0 154 255 0 158 255 0 158 255 0 158 255 0 158 255 0 158 255 0 158 255 0 158 255 0 158 255 0 158 255 0 158 255 0 148 255 0 148 255 0 148 255 0 148 255 0 148 255 0 148 255 0 148 255 0 148 255 0 148 255 0 148 255 0 162 255 0 162 255 0 162 255 0 162 255 0 162 255 0 162 255 0 162 255 0 162 255 0 162 255 0 162 255 0 162 255 0 162 255 0 162 255 0 162 255 0 162 255 0 162 255 0 162 255 0 162 255 0 162 255 0 162 255 0 155 255 0 155 255 0 155 255 0 155 255 0 155 255 0 155 255 0 155 255 0 155 255 0 155 255 0 155 255 0 0 0 0 0 0 0 0 0 0 0 0 0 0 0 0 0 0 0 0 0 0 0 0 0 0 0 0 0 0 5 0 0 5 0 0 5 0 0 5 0 0 5 0 0 5 0 0 5 0 0 5 0 0 5 0 0 5 0 0 5 0 0 5 0 0 5 0 0 5 0 0 5 0 0 5 0 0 5 0 0 5 0 0 5 0 0 5 0 0 5 0 0 5 0 0 5 0 0 5 0 0 5 0 0 5 0 0 5 0 0 5 0 0 5 0 0 5 0 0 
0 171 255 0 171 255 0 171 255 0 171 255 0 171 255 0 171 255 0 171 255 0 171 255 0 171 255 0 171 255 0 151 255 0 151 255 0 151 255 0 151 255 0 151 255 0 151 255 0 151 255 0 151 255 0 151 255 0 151 255 0 156 255 0 156 255 0 156 255 0 156 255 0 156 255 0 156 255 0 156 255 0 156 255 0 156 255 0 156 255 0 156 255 0 156 255 0 156 255 0 156 255 0 156 255 0 156 255 0 156 255 0 156 255 0 156 255 0 156 255 0 166 255 0 166 255 0 166 255 0 166 255 0 166 255 0 166 255 0 166 255 0 166 255 0 166 255 0 166 255 0 183 255 0 183 255 0 183 255 0 183 255 0 183 255 0 183 255 0 183 255 0 183 255 0 183 255 0 183 255 0 174 255 0 174 255 0 174 255 0 174 255 0 174 255 0 174 255 0 174 255 0 174 255 0 174 255 0 174 255 0 181 255 0 181 255 0 181 255 0 181 255 0 181 255 0 181 255 0 181 255 0 181 255 0 181 255 0 181 255 0 164 255 0 164 255 0 164 255 0 164 255 0 164 255 0 164 255 0 164 255 0 164 255 0 164 255 0 164 255 0 155 255 0 155 255 0 155 255 0 155 255 0 155 255 0 155 255 0 155 255 0 155 255 0 155 255 0 155 255 0 187 255 0 187 255 0 187 255 0 187 255 0 187 255 0 187 255 0 187 255 0 187 255 0 187 255 0 187 255 0 147 255 0 147 255 0 147 255 0 147 255 0 147 255 0 147 255 0 147 255 0 147 255 0 147 255 0 147 255 0 90 255 0 90 255 0 90 255 0 90 255 0 90 255 0 90 255 0 90 255 0 90 255 0 90 255 0 90 255 0 48 255 0 48 255 0 48 255 0 48 255 0 48 255 0 48 255 0 48 255 0 48 255 0 48 255 0 48 255 0 132 255 0 132 255 0 132 255 0 132 255 0 132 255 0 132 255 0 132 255 0 132 255 0 132 255 0 132 255 0 97 255 0 97 255 0 97 255 0 97 255 0 97 255 0 97 255 0 97 255 0 97 255 0 97 255 0 97 255 0 138 255 0 138 255 0 138 255 0 138 255 0 138 255 0 138 255 0 138 255 0 138 255 0 138 255 0 138 255 0 180 255 0 180 255 0 180 255 0 180 255 0 180 255 0 180 255 0 180 255 0 180 255 0 180 255 0 180 255 0 150 255 0 150 255 0 150 255 0 150 255 0 150 255 0 150 255 0 150 255 0 150 255 0 150 255 0 150 255 0 141 255 0 141 255 0 141 255 0 141 255 0 141 255 0 141 255 0 141 255 0 141 255 0 141 255 0 141 255 0 126 255 0 126 255 0 126 255 0 126 255 0 126 255 0 126 255 0 126 255 0 126 255 0 126 255 0 126 255 0 159 255 0 159 255 0 159 255 0 159 255 0 159 255 0 159 255 0 159 255 0 159 255 0 159 255 0 159 255 0 154 255 0 154 255 0 154 255 0 154 255 0 154 255 0 154 255 0 154 255 0 154 255 0 154 255 0 154 255 0 158 255 0 158 255 0 158 255 0 158 255 0 158 255 0 158 255 0 158 255 0 158 255 0 158 255 0 158 255 0 148 255 0 148 255 0 148 255 0 148 255 0 148 255 0 148 255 0 148 255 0 148 255 0 148 255 0 148 255 0 162 255 0 162 255 0 162 255 0 162 255 0 162 255 0 162 255 0 162 255 0 162 255 0 162 255 0 162 255 0 162 255 0 162 255 0 162 255 0 162 255 0 162 255 0 162 255 0 162 255 0 162 255 0 162 255 0 162 255 0 155 255 0 155 255 0 155 255 0 155 255 0 155 255 0 155 255 0 155 255 0 155 255 0 155 255 0 155 255 0 0 0 0 0 0 0 0 0 0 0 0 0 0 0 0 0 0 0 0 0 0 0 0 0 0 0 0 0 0 1 0 0 1 0 0 1 0 0 1 0 0 1 0 0 1 0 0 1 0 0 1 0 0 1 0 0 1 0 0 1 0 0 1 0 0 1 0 0 1 0 0 1 0 0 1 0 0 1 0 0 1 0 0 1 0 0 1 0 0 1 0 0 1 0 0 1 0 0 1 0 0 1 0 0 1 0 0 1 0 0 1 0 0 1 0 0 1 0 0 
0 167 255 0 167 255 0 167 255 0 167 255 0 167 255 0 167 255 0 167 255 0 167 255 0 167 255 0 167 255 0 168 255 0 168 255 0 168 255 0 168 255 0 168 255 0 168 255 0 168 255 0 168 255 0 168 255 0 168 255 0 153 255 0 153 255 0 153 255 0 153 255 0 153 255 0 153 255 0 153 255 0 153 255 0 153 255 0 153 255 0 146 255 0 146 255 0 146 255 0 146 255 0 146 255 0 146 255 0 146 255 0 146 255 0 146 255 0 146 255 0 186 255 0 186 255 0 186 255 0 186 255 0 186 255 0 186 255 0 186 255 0 186 255 0 186 255 0 186 255 0 192 255 0 192 255 0 192 255 0 192 255 0 192 255 0 192 255 0 192 255 0 192 255 0 192 255 0 192 255 0 198 255 0 198 255 0 198 255 0 198 255 0 198 255 0 198 255 0 198 255 0 198 255 0 198 255 0 198 255 0 238 255 0 238 255 0 238 255 0 238 255 0 238 255 0 238 255 0 238 255 0 238 255 0 238 255 0 238 255 0 225 255 0 225 255 0 225 255 0 225 255 0 225 255 0 225 255 0 225 255 0 225 255 0 225 255 0 225 255 0 196 255 0 196 255 0 196 255 0 196 255 0 196 255 0 196 255 0 196 255 0 196 255 0 196 255 0 196 255 0 186 255 0 186 255 0 186 255 0 186 255 0 186 255 0 186 255 0 186 255 0 186 255 0 186 255 0 186 255 0 108 255 0 108 255 0 108 255 0 108 255 0 108 255 0 108 255 0 108 255 0 108 255 0 108 255 0 108 255 0 99 255 0 99 255 0 99 255 0 99 255 0 99 255 0 99 255 0 99 255 0 99 255 0 99 255 0 99 255 0 65 255 0 65 255 0 65 255 0 65 255 0 65 255 0 65 255 0 65 255 0 65 255 0 65 255 0 65 255 0 95 255 0 95 255 0 95 255 0 95 255 0 95 255 0 95 255 0 95 255 0 95 255 0 95 255 0 95 255 0 129 255 0 129 255 0 129 255 0 129 255 0 129 255 0 129 255 0 129 255 0 129 255 0 129 255 0 129 255 0 171 255 0 171 255 0 171 255 0 171 255 0 171 255 0 171 255 0 171 255 0 171 255 0 171 255 0 171 255 0 165 255 0 165 255 0 165 255 0 165 255 0 165 255 0 165 255 0 165 255 0 165 255 0 165 255 0 165 255 0 164 255 0 164 255 0 164 255 0 164 255 0 164 255 0 164 255 0 164 255 0 164 255 0 164 255 0 164 255 0 180 255 0 180 255 0 180 255 0 180 255 0 180 255 0 180 255 0 180 255 0 180 255 0 180 255 0 180 255 0 210 255 0 210 255 0 210 255 0 210 255 0 210 255 0 210 255 0 210 255 0 210 255 0 210 255 0 210 255 0 218 255 0 218 255 0 218 255 0 218 255 0 218 255 0 218 255 0 218 255 0 218 255 0 218 255 0 218 255 0 227 255 0 227 255 0 227 255 0 227 255 0 227 255 0 227 255 0 227 255 0 227 255 0 227 255 0 227 255 0 199 255 0 199 255 0 199 255 0 199 255 0 199 255 0 199 255 0 199 255 0 199 255 0 199 255 0 199 255 0 168 255 0 168 255 0 168 255 0 168 255 0 168 255 0 168 255 0 168 255 0 168 255 0 168 255 0 168 255 0 156 255 0 156 255 0 156 255 0 156 255 0 156 255 0 156 255 0 156 255 0 156 255 0 156 255 0 156 255 0 157 255 0 157 255 0 157 255 0 157 255 0 157 255 0 157 255 0 157 255 0 157 255 0 157 255 0 157 255 0 165 255 0 165 255 0 165 255 0 165 255 0 165 255 0 165 255 0 165 255 0 165 255 0 165 255 0 165 255 0 0 0 0 0 0 0 0 0 0 0 0 0 0 0 0 0 0 0 0 0 0 0 0 0 0 0 0 0 0 0 0 1 0 0 1 0 0 1 0 0 1 0 0 1 0 0 1 0 0 1 0 0 1 0 0 1 0 0 1 0 0 1 0 0 1 0 0 1 0 0 1 0 0 1 0 0 1 0 0 1 0 0 1 0 0 1 0 0 1 0 0 1 0 0 1 0 0 1 0 0 1 0 0 1 0 0 1 0 0 1 0 0 1 0 0 1 0 0 1 
0 167 255 0 167 255 0 167 255 0 167 255 0 167 255 0 167 255 0 167 255 0 167 255 0 167 255 0 167 255 0 168 255 0 168 255 0 168 255 0 168 255 0 168 255 0 168 255 0 168 255 0 168 255 0 168 255 0 168 255 0 153 255 0 153 255 0 153 255 0 153 255 0 153 255 0 153 255 0 153 255 0 153 255 0 153 255 0 153 255 0 146 255 0 146 255 0 146 255 0 146 255 0 146 255 0 146 255 0 146 255 0 146 255 0 146 255 0 146 255 0 186 255 0 186 255 0 186 255 0 186 255 0 186 255 0 186 255 0 186 255 0 186 255 0 186 255 0 186 255 0 192 255 0 192 255 0 192 255 0 192 255 0 192 255 0 192 255 0 192 255 0 192 255 0 192 255 0 192 255 0 198 255 0 198 255 0 198 255 0 198 255 0 198 255 0 198 255 0 198 255 0 198 255 0 198 255 0 198 255 0 238 255 0 238 255 0 238 255 0 238 255 0 238 255 0 238 255 0 238 255 0 238 255 0 238 255 0 238 255 0 225 255 0 225 255 0 225 255 0 225 255 0 225 255 0 225 255 0 225 255 0 225 255 0 225 255 0 225 255 0 196 255 0 196 255 0 196 255 0 196 255 0 196 255 0 196 255 0 196 255 0 196 255 0 196 255 0 196 255 0 186 255 0 186 255 0 186 255 0 186 255 0 186 255 0 186 255 0 186 255 0 186 255 0 186 255 0 186 255 0 108 255 0 108 255 0 108 255 0 108 255 0 108 255 0 108 255 0 108 255 0 108 255 0 108 255 0 108 255 0 99 255 0 99 255 0 99 255 0 99 255 0 99 255 0 99 255 0 99 255 0 99 255 0 99 255 0 99 255 0 65 255 0 65 255 0 65 255 0 65 255 0 65 255 0 65 255 0 65 255 0 65 255 0 65 255 0 65 255 0 95 255 0 95 255 0 95 255 0 95 255 0 95 255 0 95 255 0 95 255 0 95 255 0 95 255 0 95 255 0 129 255 0 129 255 0 129 255 0 129 255 0 129 255 0 129 255 0 129 255 0 129 255 0 129 255 0 129 255 0 171 255 0 171 255 0 171 255 0 171 255 0 171 255 0 171 255 0 171 255 0 171 255 0 171 255 0 171 255 0 165 255 0 165 255 0 165 255 0 165 255 0 165 255 0 165 255 0 165 255 0 165 255 0 165 255 0 165 255 0 164 255 0 164 255 0 164 255 0 164 255 0 164 255 0 164 255 0 164 255 0 164 255 0 164 255 0 164 255 0 180 255 0 180 255 0 180 255 0 180 255 0 180 255 0 180 255 0 180 255 0 180 255 0 180 255 0 180 255 0 210 255 0 210 255 0 210 255 0 210 255 0 210 255 0 210 255 0 210 255 0 210 255 0 210 255 0 210 255 0 218 255 0 218 255 0 218 255 0 218 255 0 218 255 0 218 255 0 218 255 0 218 255 0 218 255 0 218 255 0 227 255 0 227 255 0 227 255 0 227 255 0 227 255 0 227 255 0 227 255 0 227 255 0 227 255 0 227 255 0 199 255 0 199 255 0 199 255 0 199 255 0 199 255 0 199 255 0 199 255 0 199 255 0 199 255 0 199 255 0 168 255 0 168 255 0 168 255 0 168 255 0 168 255 0 168 255 0 168 255 0 168 255 0 168 255 0 168 255 0 156 255 0 156 255 0 156 255 0 156 255 0 156 255 0 156 255 0 156 255 0 156 255 0 156 255 0 156 255 0 157 255 0 157 255 0 157 255 0 157 255 0 157 255 0 157 255 0 157 255 0 157 255 0 157 255 0 157 255 0 165 255 0 165 255 0 165 255 0 165 255 0 165 255 0 165 255 0 165 255 0 165 255 0 165 255 0 165 255 0 0 0 0 0 0 0 0 0 0 0 0 0 0 0 0 0 0 0 0 0 0 0 0 0 0 0 0 0 0 0 0 5 0 0 5 0 0 5 0 0 5 0 0 5 0 0 5 0 0 5 0 0 5 0 0 5 0 0 5 0 0 5 0 0 5 0 0 5 0 0 5 0 0 5 0 0 5 0 0 5 0 0 5 0 0 5 0 0 5 0 0 5 0 0 5 0 0 5 0 0 5 0 0 5 0 0 5 0 0 5 0 0 5 0 0 5 0 0 5 
0 167 255 0 167 255 0 167 255 0 167 255 0 167 255 0 167 255 0 167 255 0 167 255 0 167 255 0 167 255 0 168 255 0 168 255 0 168 255 0 168 255 0 168 255 0 168 255 0 168 255 0 168 255 0 168 255 0 168 255 0 153 255 0 153 255 0 153 255 0 153 255 0 153 255 0 153 255 0 153 255 0 153 255 0 153 255 0 153 255 0 146 255 0 146 255 0 146 255 0 146 255 0 146 255 0 146 255 0 146 255 0 146 255 0 146 255 0 146 255 0 186 255 0 186 255 0 186 255 0 186 255 0 186 255 0 186 255 0 186 255 0 186 255 0 186 255 0 186 255 0 192 255 0 192 255 0 192 255 0 192 255 0 192 255 0 192 255 0 192 255 0 192 255 0 192 255 0 192 255 0 198 255 0 198 255 0 198 255 0 198 255 0 198 255 0 198 255 0 198 255 0 198 255 0 198 255 0 198 255 0 238 255 0 238 255 0 238 255 0 238 255 0 238 255 0 238 255 0 238 255 0 238 255 0 238 255 0 238 255 0 225 255 0 225 255 0 225 255 0 225 255 0 225 255 0 225 255 0 225 255 0 225 255 0 225 255 0 225 255 0 196 255 0 196 255 0 196 255 0 196 255 0 196 255 0 196 255 0 196 255 0 196 255 0 196 255 0 196 255 0 186 255 0 186 255 0 186 255 0 186 255 0 186 255 0 186 255 0 186 255 0 186 255 0 186 255 0 186 255 0 108 255 0 108 255 0 108 255 0 108 255 0 108 255 0 108 255 0 108 255 0 108 255 0 108 255 0 108 255 0 99 255 0 99 255 0 99 255 0 99 255 0 99 255 0 99 255 0 99 255 0 99 255 0 99 255 0 99 255 0 65 255 0 65 255 0 65 255 0 65 255 0 65 255 0 65 255 0 65 255 0 65 255 0 65 255 0 65 255 0 95 255 0 95 255 0 95 255 0 95 255 0 95 255 0 95 255 0 95 255 0 95 255 0 95 255 0 95 255 0 129 255 0 129 255 0 129 255 0 129 255 0 129 255 0 129 255 0 129 255 0 129 255 0 129 255 0 129 255 0 171 255 0 171 255 0 171 255 0 171 255 0 171 255 0 171 255 0 171 255 0 171 255 0 171 255 0 171 255 0 165 255 0 165 255 0 165 255 0 165 255 0 165 255 0 165 255 0 165 255 0 165 255 0 165 255 0 165 255 0 164 255 0 164 255 0 164 255 0 164 255 0 164 255 0 164 255 0 164 255 0 164 255 0 164 255 0 164 255 0 180 255 0 180 255 0 180 255 0 180 255 0 180 255 0 180 255 0 180 255 0 180 255 0 180 255 0 180 255 0 210 255 0 210 255 0 210 255 0 210 255 0 210 255 0 210 255 0 210 255 0 210 255 0 210 255 0 210 255 0 218 255 0 218 255 0 218 255 0 218 255 0 218 255 0 218 255 0 218 255 0 218 255 0 218 255 0 218 255 0 227 255 0 227 255 0 227 255 0 227 255 0 227 255 0 227 255 0 227 255 0 227 255 0 227 255 0 227 255 0 199 255 0 199 255 0 199 255 0 199 255 0 199 255 0 199 255 0 199 255 0 199 255 0 199 255 0 199 255 0 168 255 0 168 255 0 168 255 0 168 255 0 168 255 0 168 255 0 168 255 0 168 255 0 168 255 0 168 255 0 156 255 0 156 255 0 156 255 0 156 255 0 156 255 0 156 255 0 156 255 0 156 255 0 156 255 0 156 255 0 157 255 0 157 255 0 157 255 0 157 255 0 157 255 0 157 255 0 157 255 0 157 255 0 157 255 0 157 255 0 165 255 0 165 255 0 165 255 0 165 255 0 165 255 0 165 255 0 165 255 0 165 255 0 165 255 0 165 255 0 0 0 0 0 0 0 0 0 0 0 0 0 0 0 0 0 0 0 0 0 0 0 0 0 0 0 0 0 0 0 0 9 0 0 9 0 0 9 0 0 9 0 0 9 0 0 9 0 0 9 0 0 9 0 0 9 0 0 9 0 0 9 0 0 9 0 0 9 0 0 9 0 0 9 0 0 9 0 0 9 0 0 9 0 0 9 0 0 9 0 0 9 0 0 9 0 0 9 0 0 9 0 0 9 0 0 9 0 0 9 0 0 9 0 0 9 0 0 9 
0 167 255 0 167 255 0 167 255 0 167 255 0 167 255 0 167 255 0 167 255 0 167 255 0 167 255 0 167 255 0 168 255 0 168 255 0 168 255 0 168 255 0 168 255 0 168 255 0 168 255 0 168 255 0 168 255 0 168 255 0 153 255 0 153 255 0 153 255 0 153 255 0 153 255 0 153 255 0 153 255 0 153 255 0 153 255 0 153 255 0 146 255 0 146 255 0 146 255 0 146 255 0 146 255 0 146 255 0 146 255 0 146 255 0 146 255 0 146 255 0 186 255 0 186 255 0 186 255 0 186 255 0 186 255 0 186 255 0 186 255 0 186 255 0 186 255 0 186 255 0 192 255 0 192 255 0 192 255 0 192 255 0 192 255 0 192 255 0 192 255 0 192 255 0 192 255 0 192 255 0 198 255 0 198 255 0 198 255 0 198 255 0 198 255 0 198 255 0 198 255 0 198 255 0 198 255 0 198 255 0 238 255 0 238 255 0 238 255 0 238 255 0 238 255 0 238 255 0 238 255 0 238 255 0 238 255 0 238 255 0 225 255 0 225 255 0 225 255 0 225 255 0 225 255 0 225 255 0 225 255 0 225 255 0 225 255 0 225 255 0 196 255 0 196 255 0 196 255 0 196 255 0 196 255 0 196 255 0 196 255 0 196 255 0 196 255 0 196 255 0 186 255 0 186 255 0 186 255 0 186 255 0 186 255 0 186 255 0 186 255 0 186 255 0 186 255 0 186 255 0 108 255 0 108 255 0 108 255 0 108 255 0 108 255 0 108 255 0 108 255 0 108 255 0 108 255 0 108 255 0 99 255 0 99 255 0 99 255 0 99 255 0 99 255 0 99 255 0 99 255 0 99 255 0 99 255 0 99 255 0 65 255 0 65 255 0 65 255 0 65 255 0 65 255 0 65 255 0 65 255 0 65 255 0 65 255 0 65 255 0 95 255 0 95 255 0 95 255 0 95 255 0 95 255 0 95 255 0 95 255 0 95 255 0 95 255 0 95 255 0 129 255 0 129 255 0 129 255 0 129 255 0 129 255 0 129 255 0 129 255 0 129 255 0 129 255 0 129 255 0 171 255 0 171 255 0 171 255 0 171 255 0 171 255 0 171 255 0 171 255 0 171 255 0 171 255 0 171 255 0 165 255 0 165 255 0 165 255 0 165 255 0 165 255 0 165 255 0 165 255 0 165 255 0 165 255 0 165 255 0 164 255 0 164 255 0 164 255 0 164 255 0 164 255 0 164 255 0 164 255 0 164 255 0 164 255 0 164 255 0 180 255 0 180 255 0 180 255 0 180 255 0 180 255 0 180 255 0 180 255 0 180 255 0 180 255 0 180 255 0 210 255 0 210 255 0 210 255 0 210 255 0 210 255 0 210 255 0 210 255 0 210 255 0 210 255 0 210 255 0 218 255 0 218 255 0 218 255 0 218 255 0 218 255 0 218 255 0 218 255 0 218 255 0 218 255 0 218 255 0 227 255 0 227 255 0 227 255 0 227 255 0 227 255 0 227 255 0 227 255 0 227 255 0 227 255 0 227 255 0 199 255 0 199 255 0 199 255 0 199 255 0 199 255 0 199 255 0 199 255 0 199 255 0 199 255 0 199 255 0 168 255 0 168 255 0 168 255 0 168 255 0 168 255 0 168 255 0 168 255 0 168 255 0 168 255 0 168 255 0 156 255 0 156 255 0 156 255 0 156 255 0 156 255 0 156 255 0 156 255 0 156 255 0 156 255 0 156 255 0 157 255 0 157 255 0 157 255 0 157 255 0 157 255 0 157 255 0 157 255 0 157 255 0 157 255 0 157 255 0 165 255 0 165 255 0 165 255 0 165 255 0 165 255 0 165 255 0 165 255 0 165 255 0 165 255 0 165 255 0 0 0 0 0 0 0 0 0 0 0 0 0 0 0 0 0 0 0 0 0 0 0 0 0 0 0 0 0 0 0 0 12 0 0 12 0 0 12 0 0 12 0 0 12 0 0 12 0 0 12 0 0 12 0 0 12 0 0 12 0 0 12 0 0 12 0 0 12 0 0 12 0 0 12 0 0 12 0 0 12 0 0 12 0 0 12 0 0 12 0 0 12 0 0 12 0 0 12 0 0 12 0 0 12 0 0 12 0 0 12 0 0 12 0 0 12 0 0 12 
0 167 255 0 167 255 0 167 255 0 167 255 0 167 255 0 167 255 0 167 255 0 167 255 0 167 255 0 167 255 0 168 255 0 168 255 0 168 255 0 168 255 0 168 255 0 168 255 0 168 255 0 168 255 0 168 255 0 168 255 0 153 255 0 153 255 0 153 255 0 153 255 0 153 255 0 153 255 0 153 255 0 153 255 0 153 255 0 153 255 0 146 255 0 146 255 0 146 255 0 146 255 0 146 255 0 146 255 0 146 255 0 146 255 0 146 255 0 146 255 0 186 255 0 186 255 0 186 255 0 186 255 0 186 255 0 186 255 0 186 255 0 186 255 0 186 255 0 186 255 0 192 255 0 192 255 0 192 255 0 192 255 0 192 255 0 192 255 0 192 255 0 192 255 0 192 255 0 192 255 0 198 255 0 198 255 0 198 255 0 198 255 0 198 255 0 198 255 0 198 255 0 198 255 0 198 255 0 198 255 0 238 255 0 238 255 0 238 255 0 238 255 0 238 255 0 238 255 0 238 255 0 238 255 0 238 255 0 238 255 0 225 255 0 225 255 0 225 255 0 225 255 0 225 255 0 225 255 0 225 255 0 225 255 0 225 255 0 225 255 0 196 255 0 196 255 0 196 255 0 196 255 0 196 255 0 196 255 0 196 255 0 196 255 0 196 255 0 196 255 0 186 255 0 186 255 0 186 255 0 186 255 0 186 255 0 186 255 0 186 255 0 186 255 0 186 255 0 186 255 0 108 255 0 108 255 0 108 255 0 108 255 0 108 255 0 108 255 0 108 255 0 108 255 0 108 255 0 108 255 0 99 255 0 99 255 0 99 255 0 99 255 0 99 255 0 99 255 0 99 255 0 99 255 0 99 255 0 99 255 0 65 255 0 65 255 0 65 255 0 65 255 0 65 255 0 65 255 0 65 255 0 65 255 0 65 255 0 65 255 0 95 255 0 95 255 0 95 255 0 95 255 0 95 255 0 95 255 0 95 255 0 95 255 0 95 255 0 95 255 0 129 255 0 129 255 0 129 255 0 129 255 0 129 255 0 129 255 0 129 255 0 129 255 0 129 255 0 129 255 0 171 255 0 171 255 0 171 255 0 171 255 0 171 255 0 171 255 0 171 255 0 171 255 0 171 255 0 171 255 0 165 255 0 165 255 0 165 255 0 165 255 0 165 255 0 165 255 0 165 255 0 165 255 0 165 255 0 165 255 0 164 255 0 164 255 0 164 255 0 164 255 0 164 255 0 164 255 0 164 255 0 164 255 0 164 255 0 164 255 0 180 255 0 180 255 0 180 255 0 180 255 0 180 255 0 180 255 0 180 255 0 180 255 0 180 255 0 180 255 0 210 255 0 210 255 0 210 255 0 210 255 0 210 255 0 210 255 0 210 255 0 210 255 0 210 255 0 210 255 0 218 255 0 218 255 0 218 255 0 218 255 0 218 255 0 218 255 0 218 255 0 218 255 0 218 255 0 218 255 0 227 255 0 227 255 0 227 255 0 227 255 0 227 255 0 227 255 0 227 255 0 227 255 0 227 255 0 227 255 0 199 255 0 199 255 0 199 255 0 199 255 0 199 255 0 199 255 0 199 255 0 199 255 0 199 255 0 199 255 0 168 255 0 168 255 0 168 255 0 168 255 0 168 255 0 168 255 0 168 255 0 168 255 0 168 255 0 168 255 0 156 255 0 156 255 0 156 255 0 156 255 0 156 255 0 156 255 0 156 255 0 156 255 0 156 255 0 156 255 0 157 255 0 157 255 0 157 255 0 157 255 0 157 255 0 157 255 0 157 255 0 157 255 0 157 255 0 157 255 0 165 255 0 165 255 0 165 255 0 165 255 0 165 255 0 165 255 0 165 255 0 165 255 0 165 255 0 165 255 0 0 0 0 0 0 0 0 0 0 0 0 0 0 0 0 0 0 0 0 0 0 0 0 0 0 0 0 0 0 0 0 16 0 0 16 0 0 16 0 0 16 0 0 16 0 0 16 0 0 16 0 0 16 0 0 16 0 0 16 0 0 16 0 0 16 0 0 16 0 0 16 0 0 16 0 0 16 0 0 16 0 0 16 0 0 16 0 0 16 0 0 16 0 0 16 0 0 16 0 0 16 0 0 16 0 0 16 0 0 16 0 0 16 0 0 16 0 0 16 
0 167 255 0 167 255 0 167 255 0 167 255 0 167 255 0 167 255 0 167 255 0 167 255 0 167 255 0 167 255 0 168 255 0 168 255 0 168 255 0 168 255 0 168 255 0 168 255 0 168 255 0 168 255 0 168 255 0 168 255 0 153 255 0 153 255 0 153 255 0 153 255 0 153 255 0 153 255 0 153 255 0 153 255 0 153 255 0 153 255 0 146 255 0 146 255 0 146 255 0 146 255 0 146 255 0 146 255 0 146 255 0 146 255 0 146 255 0 146 255 0 186 255 0 186 255 0 186 255 0 186 255 0 186 255 0 186 255 0 186 255 0 186 255 0 186 255 0 186 255 0 192 255 0 192 255 0 192 255 0 192 255 0 192 255 0 192 255 0 192 255 0 192 255 0 192 255 0 192 255 0 198 255 0 198 255 0 198 255 0 198 255 0 198 255 0 198 255 0 198 255 0 198 255 0 198 255 0 198 255 0 238 255 0 238 255 0 238 255 0 238 255 0 238 255 0 238 255 0 238 255 0 238 255 0 238 255 0 238 255 0 225 255 0 225 255 0 225 255 0 225 255 0 225 255 0 225 255 0 225 255 0 225 255 0 225 255 0 225 255 0 196 255 0 196 255 0 196 255 0 196 255 0 196 255 0 196 255 0 196 255 0 196 255 0 196 255 0 196 255 0 186 255 0 186 255 0 186 255 0 186 255 0 186 255 0 186 255 0 186 255 0 186 255 0 186 255 0 186 255 0 108 255 0 108 255 0 108 255 0 108 255 0 108 255 0 108 255 0 108 255 0 108 255 0 108 255 0 108 255 0 99 255 0 99 255 0 99 255 0 99 255 0 99 255 0 99 255 0 99 255 0 99 255 0 99 255 0 99 255 0 65 255 0 65 255 0 65 255 0 65 255 0 65 255 0 65 255 0 65 255 0 65 255 0 65 255 0 65 255 0 95 255 0 95 255 0 95 255 0 95 255 0 95 255 0 95 255 0 95 255 0 95 255 0 95 255 0 95 255 0 129 255 0 129 255 0 129 255 0 129 255 0 129 255 0 129 255 0 129 255 0 129 255 0 129 255 0 129 255 0 171 255 0 171 255 0 171 255 0 171 255 0 171 255 0 171 255 0 171 255 0 171 255 0 171 255 0 171 255 0 165 255 0 165 255 0 165 255 0 165 255 0 165 255 0 165 255 0 165 255 0 165 255 0 165 255 0 165 255 0 164 255 0 164 255 0 164 255 0 164 255 0 164 255 0 164 255 0 164 255 0 164 255 0 164 255 0 164 255 0 180 255 0 180 255 0 180 255 0 180 255 0 180 255 0 180 255 0 180 255 0 180 255 0 180 255 0 180 255 0 210 255 0 210 255 0 210 255 0 210 255 0 210 255 0 210 255 0 210 255 0 210 255 0 210 255 0 210 255 0 218 255 0 218 255 0 218 255 0 218 255 0 218 255 0 218 255 0 218 255 0 218 255 0 218 255 0 218 255 0 227 255 0 227 255 0 227 255 0 227 255 0 227 255 0 227 255 0 227 255 0 227 255 0 227 255 0 227 255 0 199 255 0 199 255 0 199 255 0 199 255 0 199 255 0 199 255 0 199 255 0 199 255 0 199 255 0 199 255 0 168 255 0 168 255 0 168 255 0 168 255 0 168 255 0 168 255 0 168 255 0 168 255 0 168 255 0 168 255 0 156 255 0 156 255 0 156 255 0 156 255 0 156 255 0 156 255 0 156 255 0 156 255 0 156 255 0 156 255 0 157 255 0 157 255 0 157 255 0 157 255 0 157 255 0 157 255 0 157 255 0 157 255 0 157 255 0 157 255 0 165 255 0 165 255 0 165 255 0 165 255 0 165 255 0 165 255 0 165 255 0 165 255 0 165 255 0 165 255 0 0 0 0 0 0 0 0 0 0 0 0 0 0 0 0 0 0 0 0 0 0 0 0 0 0 0 0 0 0 0 0 20 0 0 20 0 0 20 0 0 20 0 0 20 0 0 20 0 0 20 0 0 20 0 0 20 0 0 20 0 0 20 0 0 20 0 0 20 0 0 20 0 0 20 0 0 20 0 0 20 0 0 20 0 0 20 0 0 20 0 0 20 0 0 20 0 0 20 0 0 20 0 0 20 0 0 20 0 0 20 0 0 20 0 0 20 0 0 20 
0 167 255 0 167 255 0 167 255 0 167 255 0 167 255 0 167 255 0 167 255 0 167 255 0 167 255 0 167 255 0 168 255 0 168 255 0 168 255 0 168 255 0 168 255 0 168 255 0 168 255 0 168 255 0 168 255 0 168 255 0 153 255 0 153 255 0 153 255 0 153 255 0 153 255 0 153 255 0 153 255 0 153 255 0 153 255 0 153 255 0 146 255 0 146 255 0 146 255 0 146 255 0 146 255 0 146 255 0 146 255 0 146 255 0 146 255 0 146 255 0 186 255 0 186 255 0 186 255 0 186 255 0 186 255 0 186 255 0 186 255 0 186 255 0 186 255 0 186 255 0 192 255 0 192 255 0 192 255 0 192 255 0 192 255 0 192 255 0 192 255 0 192 255 0 192 255 0 192 255 0 198 255 0 198 255 0 198 255 0 198 255 0 198 255 0 198 255 0 198 255 0 198 255 0 198 255 0 198 255 0 238 255 0 238 255 0 238 255 0 238 255 0 238 255 0 238 255 0 238 255 0 238 255 0 238 255 0 238 255 0 225 255 0 225 255 0 225 255 0 225 255 0 225 255 0 225 255 0 225 255 0 225 255 0 225 255 0 225 255 0 196 255 0 196 255 0 196 255 0 196 255 0 196 255 0 196 255 0 196 255 0 196 255 0 196 255 0 196 255 0 186 255 0 186 255 0 186 255 0 186 255 0 186 255 0 186 255 0 186 255 0 186 255 0 186 255 0 186 255 0 108 255 0 108 255 0 108 255 0 108 255 0 108 255 0 108 255 0 108 255 0 108 255 0 108 255 0 108 255 0 99 255 0 99 255 0 99 255 0 99 255 0 99 255 0 99 255 0 99 255 0 99 255 0 99 255 0 99 255 0 65 255 0 65 255 0 65 255 0 65 255 0 65 255 0 65 255 0 65 255 0 65 255 0 65 255 0 65 255 0 95 255 0 95 255 0 95 255 0 95 255 0 95 255 0 95 255 0 95 255 0 95 255 0 95 255 0 95 255 0 129 255 0 129 255 0 129 255 0 129 255 0 129 255 0 129 255 0 129 255 0 129 255 0 129 255 0 129 255 0 171 255 0 171 255 0 171 255 0 171 255 0 171 255 0 171 255 0 171 255 0 171 255 0 171 255 0 171 255 0 165 255 0 165 255 0 165 255 0 165 255 0 165 255 0 165 255 0 165 255 0 165 255 0 165 255 0 165 255 0 164 255 0 164 255 0 164 255 0 164 255 0 164 255 0 164 255 0 164 255 0 164 255 0 164 255 0 164 255 0 180 255 0 180 255 0 180 255 0 180 255 0 180 255 0 180 255 0 180 255 0 180 255 0 180 255 0 180 255 0 210 255 0 210 255 0 210 255 0 210 255 0 210 255 0 210 255 0 210 255 0 210 255 0 210 255 0 210 255 0 218 255 0 218 255 0 218 255 0 218 255 0 218 255 0 218 255 0 218 255 0 218 255 0 218 255 0 218 255 0 227 255 0 227 255 0 227 255 0 227 255 0 227 255 0 227 255 0 227 255 0 227 255 0 227 255 0 227 255 0 199 255 0 199 255 0 199 255 0 199 255 0 199 255 0 199 255 0 199 255 0 199 255 0 199 255 0 199 255 0 168 255 0 168 255 0 168 255 0 168 255 0 168 255 0 168 255 0 168 255 0 168 255 0 168 255 0 168 255 0 156 255 0 156 255 0 156 255 0 156 255 0 156 255 0 156 255 0 156 255 0 156 255 0 156 255 0 156 255 0 157 255 0 157 255 0 157 255 0 157 255 0 157 255 0 157 255 0 157 255 0 157 255 0 157 255 0 157 255 0 165 255 0 165 255 0 165 255 0 165 255 0 165 255 0 165 255 0 165 255 0 165 255 0 165 255 0 165 255 0 0 0 0 0 0 0 0 0 0 0 0 0 0 0 0 0 0 0 0 0 0 0 0 0 0 0 0 0 0 0 0 23 0 0 23 0 0 23 0 0 23 0 0 23 0 0 23 0 0 23 0 0 23 0 0 23 0 0 23 0 0 23 0 0 23 0 0 23 0 0 23 0 0 23 0 0 23 0 0 23 0 0 23 0 0 23 0 0 23 0 0 23 0 0 23 0 0 23 0 0 23 0 0 23 0 0 23 0 0 23 0 0 23 0 0 23 0 0 23 
0 167 255 0 167 255 0 167 255 0 167 255 0 167 255 0 167 255 0 167 255 0 167 255 0 167 255 0 167 255 0 168 255 0 168 255 0 168 255 0 168 255 0 168 255 0 168 255 0 168 255 0 168 255 0 168 255 0 168 255 0 153 255 0 153 255 0 153 255 0 153 255 0 153 255 0 153 255 0 153 255 0 153 255 0 153 255 0 153 255 0 146 255 0 146 255 0 146 255 0 146 255 0 146 255 0 146 255 0 146 255 0 146 255 0 146 255 0 146 255 0 186 255 0 186 255 0 186 255 0 186 255 0 186 255 0 186 255 0 186 255 0 186 255 0 186 255 0 186 255 0 192 255 0 192 255 0 192 255 0 192 255 0 192 255 0 192 255 0 192 255 0 192 255 0 192 255 0 192 255 0 198 255 0 198 255 0 198 255 0 198 255 0 198 255 0 198 255 0 198 255 0 198 255 0 198 255 0 198 255 0 238 255 0 238 255 0 238 255 0 238 255 0 238 255 0 238 255 0 238 255 0 238 255 0 238 255 0 238 255 0 225 255 0 225 255 0 225 255 0 225 255 0 225 255 0 225 255 0 225 255 0 225 255 0 225 255 0 225 255 0 196 255 0 196 255 0 196 255 0 196 255 0 196 255 0 196 255 0 196 255 0 196 255 0 196 255 0 196 255 0 186 255 0 186 255 0 186 255 0 186 255 0 186 255 0 186 255 0 186 255 0 186 255 0 186 255 0 186 255 0 108 255 0 108 255 0 108 255 0 108 255 0 108 255 0 108 255 0 108 255 0 108 255 0 108 255 0 108 255 0 99 255 0 99 255 0 99 255 0 99 255 0 99 255 0 99 255 0 99 255 0 99 255 0 99 255 0 99 255 0 65 255 0 65 255 0 65 255 0 65 255 0 65 255 0 65 255 0 65 255 0 65 255 0 65 255 0 65 255 0 95 255 0 95 255 0 95 255 0 95 255 0 95 255 0 95 255 0 95 255 0 95 255 0 95 255 0 95 255 0 129 255 0 129 255 0 129 255 0 129 255 0 129 255 0 129 255 0 129 255 0 129 255 0 129 255 0 129 255 0 171 255 0 171 255 0 171 255 0 171 255 0 171 255 0 171 255 0 171 255 0 171 255 0 171 255 0 171 255 0 165 255 0 165 255 0 165 255 0 165 255 0 165 255 0 165 255 0 165 255 0 165 255 0 165 255 0 165 255 0 164 255 0 164 255 0 164 255 0 164 255 0 164 255 0 164 255 0 164 255 0 164 255 0 164 255 0 164 255 0 180 255 0 180 255 0 180 255 0 180 255 0 180 255 0 180 255 0 180 255 0 180 255 0 180 255 0 180 255 0 210 255 0 210 255 0 210 255 0 210 255 0 210 255 0 210 255 0 210 255 0 210 255 0 210 255 0 210 255 0 218 255 0 218 255 0 218 255 0 218 255 0 218 255 0 218 255 0 218 255 0 218 255 0 218 255 0 218 255 0 227 255 0 227 255 0 227 255 0 227 255 0 227 255 0 227 255 0 227 255 0 227 255 0 227 255 0 227 255 0 199 255 0 199 255 0 199 255 0 199 255 0 199 255 0 199 255 0 199 255 0 199 255 0 199 255 0 199 255 0 168 255 0 168 255 0 168 255 0 168 255 0 168 255 0 168 255 0 168 255 0 168 255 0 168 255 0 168 255 0 156 255 0 156 255 0 156 255 0 156 255 0 156 255 0 156 255 0 156 255 0 156 255 0 156 255 0 156 255 0 157 255 0 157 255 0 157 255 0 157 255 0 157 255 0 157 255 0 157 255 0 157 255 0 157 255 0 157 255 0 165 255 0 165 255 0 165 255 0 165 255 0 165 255 0 165 255 0 165 255 0 165 255 0 165 255 0 165 255 0 0 0 0 0 0 0 0 0 0 0 0 0 0 0 0 0 0 0 0 0 0 0 0 0 0 0 0 0 0 0 0 27 0 0 27 0 0 27 0 0 27 0 0 27 0 0 27 0 0 27 0 0 27 0 0 27 0 0 27 0 0 27 0 0 27 0 0 27 0 0 27 0 0 27 0 0 27 0 0 27 0 0 27 0 0 27 0 0 27 0 0 27 0 0 27 0 0 27 0 0 27 0 0 27 0 0 27 0 0 27 0 0 27 0 0 27 0 0 27 
0 167 255 0 167 255 0 167 255 0 167 255 0 167 255 0 167 255 0 167 255 0 167 255 0 167 255 0 167 255 0 168 255 0 168 255 0 168 255 0 168 255 0 168 255 0 168 255 0 168 255 0 168 255 0 168 255 0 168 255 0 153 255 0 153 255 0 153 255 0 153 255 0 153 255 0 153 255 0 153 255 0 153 255 0 153 255 0 153 255 0 146 255 0 146 255 0 146 255 0 146 255 0 146 255 0 146 255 0 146 255 0 146 255 0 146 255 0 146 255 0 186 255 0 186 255 0 186 255 0 186 255 0 186 255 0 186 255 0 186 255 0 186 255 0 186 255 0 186 255 0 192 255 0 192 255 0 192 255 0 192 255 0 192 255 0 192 255 0 192 255 0 192 255 0 192 255 0 192 255 0 198 255 0 198 255 0 198 255 0 198 255 0 198 255 0 198 255 0 198 255 0 198 255 0 198 255 0 198 255 0 238 255 0 238 255 0 238 255 0 238 255 0 238 255 0 238 255 0 238 255 0 238 255 0 238 255 0 238 255 0 225 255 0 225 255 0 225 255 0 225 255 0 225 255 0 225 255 0 225 255 0 225 255 0 225 255 0 225 255 0 196 255 0 196 255 0 196 255 0 196 255 0 196 255 0 196 255 0 196 255 0 196 255 0 196 255 0 196 255 0 186 255 0 186 255 0 186 255 0 186 255 0 186 255 0 186 255 0 186 255 0 186 255 0 186 255 0 186 255 0 108 255 0 108 255 0 108 255 0 108 255 0 108 255 0 108 255 0 108 255 0 108 255 0 108 255 0 108 255 0 99 255 0 99 255 0 99 255 0 99 255 0 99 255 0 99 255 0 99 255 0 99 255 0 99 255 0 99 255 0 65 255 0 65 255 0 65 255 0 65 255 0 65 255 0 65 255 0 65 255 0 65 255 0 65 255 0 65 255 0 95 255 0 95 255 0 95 255 0 95 255 0 95 255 0 95 255 0 95 255 0 95 255 0 95 255 0 95 255 0 129 255 0 129 255 0 129 255 0 129 255 0 129 255 0 129 255 0 129 255 0 129 255 0 129 255 0 129 255 0 171 255 0 171 255 0 171 255 0 171 255 0 171 255 0 171 255 0 171 255 0 171 255 0 171 255 0 171 255 0 165 255 0 165 255 0 165 255 0 165 255 0 165 255 0 165 255 0 165 255 0 165 255 0 165 255 0 165 255 0 164 255 0 164 255 0 164 255 0 164 255 0 164 255 0 164 255 0 164 255 0 164 255 0 164 255 0 164 255 0 180 255 0 180 255 0 180 255 0 180 255 0 180 255 0 180 255 0 180 255 0 180 255 0 180 255 0 180 255 0 210 255 0 210 255 0 210 255 0 210 255 0 210 255 0 210 255 0 210 255 0 210 255 0 210 255 0 210 255 0 218 255 0 218 255 0 218 255 0 218 255 0 218 255 0 218 255 0 218 255 0 218 255 0 218 255 0 218 255 0 227 255 0 227 255 0 227 255 0 227 255 0 227 255 0 227 255 0 227 255 0 227 255 0 227 255 0 227 255 0 199 255 0 199 255 0 199 255 0 199 255 0 199 255 0 199 255 0 199 255 0 199 255 0 199 255 0 199 255 0 168 255 0 168 255 0 168 255 0 168 255 0 168 255 0 168 255 0 168 255 0 168 255 0 168 255 0 168 255 0 156 255 0 156 255 0 156 255 0 156 255 0 156 255 0 156 255 0 156 255 0 156 255 0 156 255 0 156 255 0 157 255 0 157 255 0 157 255 0 157 255 0 157 255 0 157 255 0 157 255 0 157 255 0 157 255 0 157 255 0 165 255 0 165 255 0 165 255 0 165 255 0 165 255 0 165 255 0 165 255 0 165 255 0 165 255 0 165 255 0 0 0 0 0 0 0 0 0 0 0 0 0 0 0 0 0 0 0 0 0 0 0 0 0 0 0 0 0 0 0 0 31 0 0 31 0 0 31 0 0 31 0 0 31 0 0 31 0 0 31 0 0 31 0 0 31 0 0 31 0 0 31 0 0 31 0 0 31 0 0 31 0 0 31 0 0 31 0 0 31 0 0 31 0 0 31 0 0 31 0 0 31 0 0 31 0 0 31 0 0 31 0 0 31 0 0 31 0 0 31 0 0 31 0 0 31 0 0 31 
0 167 255 0 167 255 0 167 255 0 167 255 0 167 255 0 167 255 0 167 255 0 167 255 0 167 255 0 167 255 0 168 255 0 168 255 0 168 255 0 168 255 0 168 255 0 168 255 0 168 255 0 168 255 0 168 255 0 168 255 0 153 255 0 153 255 0 153 255 0 153 255 0 153 255 0 153 255 0 153 255 0 153 255 0 153 255 0 153 255 0 146 255 0 146 255 0 146 255 0 146 255 0 146 255 0 146 255 0 146 255 0 146 255 0 146 255 0 146 255 0 186 255 0 186 255 0 186 255 0 186 255 0 186 255 0 186 255 0 186 255 0 186 255 0 186 255 0 186 255 0 192 255 0 192 255 0 192 255 0 192 255 0 192 255 0 192 255 0 192 255 0 192 255 0 192 255 0 192 255 0 198 255 0 198 255 0 198 255 0 198 255 0 198 255 0 198 255 0 198 255 0 198 255 0 198 255 0 198 255 0 238 255 0 238 255 0 238 255 0 238 255 0 238 255 0 238 255 0 238 255 0 238 255 0 238 255 0 238 255 0 225 255 0 225 255 0 225 255 0 225 255 0 225 255 0 225 255 0 225 255 0 225 255 0 225 255 0 225 255 0 196 255 0 196 255 0 196 255 0 196 255 0 196 255 0 196 255 0 196 255 0 196 255 0 196 255 0 196 255 0 186 255 0 186 255 0 186 255 0 186 255 0 186 255 0 186 255 0 186 255 0 186 255 0 186 255 0 186 255 0 108 255 0 108 255 0 108 255 0 108 255 0 108 255 0 108 255 0 108 255 0 108 255 0 108 255 0 108 255 0 99 255 0 99 255 0 99 255 0 99 255 0 99 255 0 99 255 0 99 255 0 99 255 0 99 255 0 99 255 0 65 255 0 65 255 0 65 255 0 65 255 0 65 255 0 65 255 0 65 255 0 65 255 0 65 255 0 65 255 0 95 255 0 95 255 0 95 255 0 95 255 0 95 255 0 95 255 0 95 255 0 95 255 0 95 255 0 95 255 0 129 255 0 129 255 0 129 255 0 129 255 0 129 255 0 129 255 0 129 255 0 129 255 0 129 255 0 129 255 0 171 255 0 171 255 0 171 255 0 171 255 0 171 255 0 171 255 0 171 255 0 171 255 0 171 255 0 171 255 0 165 255 0 165 255 0 165 255 0 165 255 0 165 255 0 165 255 0 165 255 0 165 255 0 165 255 0 165 255 0 164 255 0 164 255 0 164 255 0 164 255 0 164 255 0 164 255 0 164 255 0 164 255 0 164 255 0 164 255 0 180 255 0 180 255 0 180 255 0 180 255 0 180 255 0 180 255 0 180 255 0 180 255 0 180 255 0 180 255 0 210 255 0 210 255 0 210 255 0 210 255 0 210 255 0 210 255 0 210 255 0 210 255 0 210 255 0 210 255 0 218 255 0 218 255 0 218 255 0 218 255 0 218 255 0 218 255 0 218 255 0 218 255 0 218 255 0 218 255 0 227 255 0 227 255 0 227 255 0 227 255 0 227 255 0 227 255 0 227 255 0 227 255 0 227 255 0 227 255 0 199 255 0 199 255 0 199 255 0 199 255 0 199 255 0 199 255 0 199 255 0 199 255 0 199 255 0 199 255 0 168 255 0 168 255 0 168 255 0 168 255 0 168 255 0 168 255 0 168 255 0 168 255 0 168 255 0 168 255 0 156 255 0 156 255 0 156 255 0 156 255 0 156 255 0 156 255 0 156 255 0 156 255 0 156 255 0 156 255 0 157 255 0 157 255 0 157 255 0 157 255 0 157 255 0 157 255 0 157 255 0 157 255 0 157 255 0 157 255 0 165 255 0 165 255 0 165 255 0 165 255 0 165 255 0 165 255 0 165 255 0 165 255 0 165 255 0 165 255 0 0 0 0 0 0 0 0 0 0 0 0 0 0 0 0 0 0 0 0 0 0 0 0 0 0 0 0 0 0 0 0 34 0 0 34 0 0 34 0 0 34 0 0 34 0 0 34 0 0 34 0 0 34 0 0 34 0 0 34 0 0 34 0 0 34 0 0 34 0 0 34 0 0 34 0 0 34 0 0 34 0 0 34 0 0 34 0 0 34 0 0 34 0 0 34 0 0 34 0 0 34 0 0 34 0 0 34 0 0 34 0 0 34 0 0 34 0 0 34 
0 151 255 0 151 255 0 151 255 0 151 255 0 151 255 0 151 255 0 151 255 0 151 255 0 151 255 0 151 255 0 157 255 0 157 255 0 157 255 0 157 255 0 157 255 0 157 255 0 157 255 0 157 255 0 157 255 0 157 255 0 174 255 0 174 255 0 174 255 0 174 255 0 174 255 0 174 255 0 174 255 0 174 255 0 174 255 0 174 255 0 147 255 0 147 255 0 147 255 0 147 255 0 147 255 0 147 255 0 147 255 0 147 255 0 147 255 0 147 255 0 169 255 0 169 255 0 169 255 0 169 255 0 169 255 0 169 255 0 169 255 0 169 255 0 169 255 0 169 255 0 199 255 0 199 255 0 199 255 0 199 255 0 199 255 0 199 255 0 199 255 0 199 255 0 199 255 0 199 255 0 226 255 0 226 255 0 226 255 0 226 255 0 226 255 0 226 255 0 226 255 0 226 255 0 226 255 0 226 255 0 217 255 0 217 255 0 217 255 0 217 255 0 217 255 0 217 255 0 217 255 0 217 255 0 217 255 0 217 255 0 221 255 0 221 255 0 221 255 0 221 255 0 221 255 0 221 255 0 221 255 0 221 255 0 221 255 0 221 255 0 171 255 0 171 255 0 171 255 0 171 255 0 171 255 0 171 255 0 171 255 0 171 255 0 171 255 0 171 255 0 185 255 0 185 255 0 185 255 0 185 255 0 185 255 0 185 255 0 185 255 0 185 255 0 185 255 0 185 255 0 155 255 0 155 255 0 155 255 0 155 255 0 155 255 0 155 255 0 155 255 0 155 255 0 155 255 0 155 255 0 96 255 0 96 255 0 96 255 0 96 255 0 96 255 0 96 255 0 96 255 0 96 255 0 96 255 0 96 255 0 47 255 0 47 255 0 47 255 0 47 255 0 47 255 0 47 255 0 47 255 0 47 255 0 47 255 0 47 255 0 83 255 0 83 255 0 83 255 0 83 255 0 83 255 0 83 255 0 83 255 0 83 255 0 83 255 0 83 255 0 140 255 0 140 255 0 140 255 0 140 255 0 140 255 0 140 255 0 140 255 0 140 255 0 140 255 0 140 255 0 193 255 0 193 255 0 193 255 0 193 255 0 193 255 0 193 255 0 193 255 0 193 255 0 193 255 0 193 255 0 197 255 0 197 255 0 197 255 0 197 255 0 197 255 0 197 255 0 197 255 0 197 255 0 197 255 0 197 255 0 203 255 0 203 255 0 203 255 0 203 255 0 203 255 0 203 255 0 203 255 0 203 255 0 203 255 0 203 255 0 215 255 0 215 255 0 215 255 0 215 255 0 215 255 0 215 255 0 215 255 0 215 255 0 215 255 0 215 255 0 231 255 0 231 255 0 231 255 0 231 255 0 231 255 0 231 255 0 231 255 0 231 255 0 231 255 0 231 255 0 237 255 0 237 255 0 237 255 0 237 255 0 237 255 0 237 255 0 237 255 0 237 255 0 237 255 0 237 255 0 222 255 0 222 255 0 222 255 0 222 255 0 222 255 0 222 255 0 222 255 0 222 255 0 222 255 0 222 255 0 218 255 0 218 255 0 218 255 0 218 255 0 218 255 0 218 255 0 218 255 0 218 255 0 218 255 0 218 255 0 189 255 0 189 255 0 189 255 0 189 255 0 189 255 0 189 255 0 189 255 0 189 255 0 189 255 0 189 255 0 164 255 0 164 255 0 164 255 0 164 255 0 164 255 0 164 255 0 164 255 0 164 255 0 164 255 0 164 255 0 154 255 0 154 255 0 154 255 0 154 255 0 154 255 0 154 255 0 154 255 0 154 255 0 154 255 0 154 255 0 156 255 0 156 255 0 156 255 0 156 255 0 156 255 0 156 255 0 156 255 0 156 255 0 156 255 0 156 255 0 0 0 0 0 0 0 0 0 0 0 0 0 0 0 0 0 0 0 0 0 0 0 0 0 0 0 0 0 0 0 0 38 0 0 38 0 0 38 0 0 38 0 0 38 0 0 38 0 0 38 0 0 38 0 0 38 0 0 38 0 0 38 0 0 38 0 0 38 0 0 38 0 0 38 0 0 38 0 0 38 0 0 38 0 0 38 0 0 38 0 0 38 0 0 38 0 0 38 0 0 38 0 0 38 0 0 38 0 0 38 0 0 38 0 0 38 0 0 38 
0 151 255 0 151 255 0 151 255 0 151 255 0 151 255 0 151 255 0 151 255 0 151 255 0 151 255 0 151 255 0 157 255 0 157 255 0 157 255 0 157 255 0 157 255 0 157 255 0 157 255 0 157 255 0 157 255 0 157 255 0 174 255 0 174 255 0 174 255 0 174 255 0 174 255 0 174 255 0 174 255 0 174 255 0 174 255 0 174 255 0 147 255 0 147 255 0 147 255 0 147 255 0 147 255 0 147 255 0 147 255 0 147 255 0 147 255 0 147 255 0 169 255 0 169 255 0 169 255 0 169 255 0 169 255 0 169 255 0 169 255 0 169 255 0 169 255 0 169 255 0 199 255 0 199 255 0 199 255 0 199 255 0 199 255 0 199 255 0 199 255 0 199 255 0 199 255 0 199 255 0 226 255 0 226 255 0 226 255 0 226 255 0 226 255 0 226 255 0 226 255 0 226 255 0 226 255 0 226 255 0 217 255 0 217 255 0 217 255 0 217 255 0 217 255 0 217 255 0 217 255 0 217 255 0 217 255 0 217 255 0 221 255 0 221 255 0 221 255 0 221 255 0 221 255 0 221 255 0 221 255 0 221 255 0 221 255 0 221 255 0 171 255 0 171 255 0 171 255 0 171 255 0 171 255 0 171 255 0 171 255 0 171 255 0 171 255 0 171 255 0 185 255 0 185 255 0 185 255 0 185 255 0 185 255 0 185 255 0 185 255 0 185 255 0 185 255 0 185 255 0 155 255 0 155 255 0 155 255 0 155 255 0 155 255 0 155 255 0 155 255 0 155 255 0 155 255 0 155 255 0 96 255 0 96 255 0 96 255 0 96 255 0 96 255 0 96 255 0 96 255 0 96 255 0 96 255 0 96 255 0 47 255 0 47 255 0 47 255 0 47 255 0 47 255 0 47 255 0 47 255 0 47 255 0 47 255 0 47 255 0 83 255 0 83 255 0 83 255 0 83 255 0 83 255 0 83 255 0 83 255 0 83 255 0 83 255 0 83 255 0 140 255 0 140 255 0 140 255 0 140 255 0 140 255 0 140 255 0 140 255 0 140 255 0 140 255 0 140 255 0 193 255 0 193 255 0 193 255 0 193 255 0 193 255 0 193 255 0 193 255 0 193 255 0 193 255 0 193 255 0 197 255 0 197 255 0 197 255 0 197 255 0 197 255 0 197 255 0 197 255 0 197 255 0 197 255 0 197 255 0 203 255 0 203 255 0 203 255 0 203 255 0 203 255 0 203 255 0 203 255 0 203 255 0 203 255 0 203 255 0 215 255 0 215 255 0 215 255 0 215 255 0 215 255 0 215 255 0 215 255 0 215 255 0 215 255 0 215 255 0 231 255 0 231 255 0 231 255 0 231 255 0 231 255 0 231 255 0 231 255 0 231 255 0 231 255 0 231 255 0 237 255 0 237 255 0 237 255 0 237 255 0 237 255 0 237 255 0 237 255 0 237 255 0 237 255 0 237 255 0 222 255 0 222 255 0 222 255 0 222 255 0 222 255 0 222 255 0 222 255 0 222 255 0 222 255 0 222 255 0 218 255 0 218 255 0 218 255 0 218 255 0 218 255 0 218 255 0 218 255 0 218 255 0 218 255 0 218 255 0 189 255 0 189 255 0 189 255 0 189 255 0 189 255 0 189 255 0 189 255 0 189 255 0 189 255 0 189 255 0 164 255 0 164 255 0 164 255 0 164 255 0 164 255 0 164 255 0 164 255 0 164 255 0 164 255 0 164 255 0 154 255 0 154 255 0 154 255 0 154 255 0 154 255 0 154 255 0 154 255 0 154 255 0 154 255 0 154 255 0 156 255 0 156 255 0 156 255 0 156 255 0 156 255 0 156 255 0 156 255 0 156 255 0 156 255 0 156 255 0 0 0 0 0 0 0 0 0 0 0 0 0 0 0 0 0 0 0 0 0 0 0 0 0 0 0 0 0 0 0 0 42 0 0 42 0 0 42 0 0 42 0 0 42 0 0 42 0 0 42 0 0 42 0 0 42 0 0 42 0 0 42 0 0 42 0 0 42 0 0 42 0 0 42 0 0 42 0 0 42 0 0 42 0 0 42 0 0 42 0 0 42 0 0 42 0 0 42 0 0 42 0 0 42 0 0 42 0 0 42 0 0 42 0 0 42 0 0 42 
0 151 255 0 151 255 0 151 255 0 151 255 0 151 255 0 151 255 0 151 255 0 151 255 0 151 255 0 151 255 0 157 255 0 157 255 0 157 255 0 157 255 0 157 255 0 157 255 0 157 255 0 157 255 0 157 255 0 157 255 0 174 255 0 174 255 0 174 255 0 174 255 0 174 255 0 174 255 0 174 255 0 174 255 0 174 255 0 174 255 0 147 255 0 147 255 0 147 255 0 147 255 0 147 255 0 147 255 0 147 255 0 147 255 0 147 255 0 147 255 0 169 255 0 169 255 0 169 255 0 169 255 0 169 255 0 169 255 0 169 255 0 169 255 0 169 255 0 169 255 0 199 255 0 199 255 0 199 255 0 199 255 0 199 255 0 199 255 0 199 255 0 199 255 0 199 255 0 199 255 0 226 255 0 226 255 0 226 255 0 226 255 0 226 255 0 226 255 0 226 255 0 226 255 0 226 255 0 226 255 0 217 255 0 217 255 0 217 255 0 217 255 0 217 255 0 217 255 0 217 255 0 217 255 0 217 255 0 217 255 0 221 255 0 221 255 0 221 255 0 221 255 0 221 255 0 221 255 0 221 255 0 221 255 0 221 255 0 221 255 0 171 255 0 171 255 0 171 255 0 171 255 0 171 255 0 171 255 0 171 255 0 171 255 0 171 255 0 171 255 0 185 255 0 185 255 0 185 255 0 185 255 0 185 255 0 185 255 0 185 255 0 185 255 0 185 255 0 185 255 0 155 255 0 155 255 0 155 255 0 155 255 0 155 255 0 155 255 0 155 255 0 155 255 0 155 255 0 155 255 0 96 255 0 96 255 0 96 255 0 96 255 0 96 255 0 96 255 0 96 255 0 96 255 0 96 255 0 96 255 0 47 255 0 47 255 0 47 255 0 47 255 0 47 255 0 47 255 0 47 255 0 47 255 0 47 255 0 47 255 0 83 255 0 83 255 0 83 255 0 83 255 0 83 255 0 83 255 0 83 255 0 83 255 0 83 255 0 83 255 0 140 255 0 140 255 0 140 255 0 140 255 0 140 255 0 140 255 0 140 255 0 140 255 0 140 255 0 140 255 0 193 255 0 193 255 0 193 255 0 193 255 0 193 255 0 193 255 0 193 255 0 193 255 0 193 255 0 193 255 0 197 255 0 197 255 0 197 255 0 197 255 0 197 255 0 197 255 0 197 255 0 197 255 0 197 255 0 197 255 0 203 255 0 203 255 0 203 255 0 203 255 0 203 255 0 203 255 0 203 255 0 203 255 0 203 255 0 203 255 0 215 255 0 215 255 0 215 255 0 215 255 0 215 255 0 215 255 0 215 255 0 215 255 0 215 255 0 215 255 0 231 255 0 231 255 0 231 255 0 231 255 0 231 255 0 231 255 0 231 255 0 231 255 0 231 255 0 231 255 0 237 255 0 237 255 0 237 255 0 237 255 0 237 255 0 237 255 0 237 255 0 237 255 0 237 255 0 237 255 0 222 255 0 222 255 0 222 255 0 222 255 0 222 255 0 222 255 0 222 255 0 222 255 0 222 255 0 222 255 0 218 255 0 218 255 0 218 255 0 218 255 0 218 255 0 218 255 0 218 255 0 218 255 0 218 255 0 218 255 0 189 255 0 189 255 0 189 255 0 189 255 0 189 255 0 189 255 0 189 255 0 189 255 0 189 255 0 189 255 0 164 255 0 164 255 0 164 255 0 164 255 0 164 255 0 164 255 0 164 255 0 164 255 0 164 255 0 164 255 0 154 255 0 154 255 0 154 255 0 154 255 0 154 255 0 154 255 0 154 255 0 154 255 0 154 255 0 154 255 0 156 255 0 156 255 0 156 255 0 156 255 0 156 255 0 156 255 0 156 255 0 156 255 0 156 255 0 156 255 0 0 0 0 0 0 0 0 0 0 0 0 0 0 0 0 0 0 0 0 0 0 0 0 0 0 0 0 0 0 0 0 45 0 0 45 0 0 45 0 0 45 0 0 45 0 0 45 0 0 45 0 0 45 0 0 45 0 0 45 0 0 45 0 0 45 0 0 45 0 0 45 0 0 45 0 0 45 0 0 45 0 0 45 0 0 45 0 0 45 0 0 45 0 0 45 0 0 45 0 0 45 0 0 45 0 0 45 0 0 45 0 0 45 0 0 45 0 0 45 
0 151 255 0 151 255 0 151 255 0 151 255 0 151 255 0 151 255 0 151 255 0 151 255 0 151 255 0 151 255 0 157 255 0 157 255 0 157 255 0 157 255 0 157 255 0 157 255 0 157 255 0 157 255 0 157 255 0 157 255 0 174 255 0 174 255 0 174 255 0 174 255 0 174 255 0 174 255 0 174 255 0 174 255 0 174 255 0 174 255 0 147 255 0 147 255 0 147 255 0 147 255 0 147 255 0 147 255 0 147 255 0 147 255 0 147 255 0 147 255 0 169 255 0 169 255 0 169 255 0 169 255 0 169 255 0 169 255 0 169 255 0 169 255 0 169 255 0 169 255 0 199 255 0 199 255 0 199 255 0 199 255 0 199 255 0 199 255 0 199 255 0 199 255 0 199 255 0 199 255 0 226 255 0 226 255 0 226 255 0 226 255 0 226 255 0 226 255 0 226 255 0 226 255 0 226 255 0 226 255 0 217 255 0 217 255 0 217 255 0 217 255 0 217 255 0 217 255 0 217 255 0 217 255 0 217 255 0 217 255 0 221 255 0 221 255 0 221 255 0 221 255 0 221 255 0 221 255 0 221 255 0 221 255 0 221 255 0 221 255 0 171 255 0 171 255 0 171 255 0 171 255 0 171 255 0 171 255 0 171 255 0 171 255 0 171 255 0 171 255 0 185 255 0 185 255 0 185 255 0 185 255 0 185 255 0 185 255 0 185 255 0 185 255 0 185 255 0 185 255 0 155 255 0 155 255 0 155 255 0 155 255 0 155 255 0 155 255 0 155 255 0 155 255 0 155 255 0 155 255 0 96 255 0 96 255 0 96 255 0 96 255 0 96 255 0 96 255 0 96 255 0 96 255 0 96 255 0 96 255 0 47 255 0 47 255 0 47 255 0 47 255 0 47 255 0 47 255 0 47 255 0 47 255 0 47 255 0 47 255 0 83 255 0 83 255 0 83 255 0 83 255 0 83 255 0 83 255 0 83 255 0 83 255 0 83 255 0 83 255 0 140 255 0 140 255 0 140 255 0 140 255 0 140 255 0 140 255 0 140 255 0 140 255 0 140 255 0 140 255 0 193 255 0 193 255 0 193 255 0 193 255 0 193 255 0 193 255 0 193 255 0 193 255 0 193 255 0 193 255 0 197 255 0 197 255 0 197 255 0 197 255 0 197 255 0 197 255 0 197 255 0 197 255 0 197 255 0 197 255 0 203 255 0 203 255 0 203 255 0 203 255 0 203 255 0 203 255 0 203 255 0 203 255 0 203 255 0 203 255 0 215 255 0 215 255 0 215 255 0 215 255 0 215 255 0 215 255 0 215 255 0 215 255 0 215 255 0 215 255 0 231 255 0 231 255 0 231 255 0 231 255 0 231 255 0 231 255 0 231 255 0 231 255 0 231 255 0 231 255 0 237 255 0 237 255 0 237 255 0 237 255 0 237 255 0 237 255 0 237 255 0 237 255 0 237 255 0 237 255 0 222 255 0 222 255 0 222 255 0 222 255 0 222 255 0 222 255 0 222 255 0 222 255 0 222 255 0 222 255 0 218 255 0 218 255 0 218 255 0 218 255 0 218 255 0 218 255 0 218 255 0 218 255 0 218 255 0 218 255 0 189 255 0 189 255 0 189 255 0 189 255 0 189 255 0 189 255 0 189 255 0 189 255 0 189 255 0 189 255 0 164 255 0 164 255 0 164 255 0 164 255 0 164 255 0 164 255 0 164 255 0 164 255 0 164 255 0 164 255 0 154 255 0 154 255 0 154 255 0 154 255 0 154 255 0 154 255 0 154 255 0 154 255 0 154 255 0 154 255 0 156 255 0 156 255 0 156 255 0 156 255 0 156 255 0 156 255 0 156 255 0 156 255 0 156 255 0 156 255 0 0 0 0 0 0 0 0 0 0 0 0 0 0 0 0 0 0 0 0 0 0 0 0 0 0 0 0 0 0 0 0 49 0 0 49 0 0 49 0 0 49 0 0 49 0 0 49 0 0 49 0 0 49 0 0 49 0 0 49 0 0 49 0 0 49 0 0 49 0 0 49 0 0 49 0 0 49 0 0 49 0 0 49 0 0 49 0 0 49 0 0 49 0 0 49 0 0 49 0 0 49 0 0 49 0 0 49 0 0 49 0 0 49 0 0 49 0 0 49 
0 151 255 0 151 255 0 151 255 0 151 255 0 151 255 0 151 255 0 151 255 0 151 255 0 151 255 0 151 255 0 157 255 0 157 255 0 157 255 0 157 255 0 157 255 0 157 255 0 157 255 0 157 255 0 157 255 0 157 255 0 174 255 0 174 255 0 174 255 0 174 255 0 174 255 0 174 255 0 174 255 0 174 255 0 174 255 0 174 255 0 147 255 0 147 255 0 147 255 0 147 255 0 147 255 0 147 255 0 147 255 0 147 255 0 147 255 0 147 255 0 169 255 0 169 255 0 169 255 0 169 255 0 169 255 0 169 255 0 169 255 0 169 255 0 169 255 0 169 255 0 199 255 0 199 255 0 199 255 0 199 255 0 199 255 0 199 255 0 199 255 0 199 255 0 199 255 0 199 255 0 226 255 0 226 255 0 226 255 0 226 255 0 226 255 0 226 255 0 226 255 0 226 255 0 226 255 0 226 255 0 217 255 0 217 255 0 217 255 0 217 255 0 217 255 0 217 255 0 217 255 0 217 255 0 217 255 0 217 255 0 221 255 0 221 255 0 221 255 0 221 255 0 221 255 0 221 255 0 221 255 0 221 255 0 221 255 0 221 255 0 171 255 0 171 255 0 171 255 0 171 255 0 171 255 0 171 255 0 171 255 0 171 255 0 171 255 0 171 255 0 185 255 0 185 255 0 185 255 0 185 255 0 185 255 0 185 255 0 185 255 0 185 255 0 185 255 0 185 255 0 155 255 0 155 255 0 155 255 0 155 255 0 155 255 0 155 255 0 155 255 0 155 255 0 155 255 0 155 255 0 96 255 0 96 255 0 96 255 0 96 255 0 96 255 0 96 255 0 96 255 0 96 255 0 96 255 0 96 255 0 47 255 0 47 255 0 47 255 0 47 255 0 47 255 0 47 255 0 47 255 0 47 255 0 47 255 0 47 255 0 83 255 0 83 255 0 83 255 0 83 255 0 83 255 0 83 255 0 83 255 0 83 255 0 83 255 0 83 255 0 140 255 0 140 255 0 140 255 0 140 255 0 140 255 0 140 255 0 140 255 0 140 255 0 140 255 0 140 255 0 193 255 0 193 255 0 193 255 0 193 255 0 193 255 0 193 255 0 193 255 0 193 255 0 193 255 0 193 255 0 197 255 0 197 255 0 197 255 0 197 255 0 197 255 0 197 255 0 197 255 0 197 255 0 197 255 0 197 255 0 203 255 0 203 255 0 203 255 0 203 255 0 203 255 0 203 255 0 203 255 0 203 255 0 203 255 0 203 255 0 215 255 0 215 255 0 215 255 0 215 255 0 215 255 0 215 255 0 215 255 0 215 255 0 215 255 0 215 255 0 231 255 0 231 255 0 231 255 0 231 255 0 231 255 0 231 255 0 231 255 0 231 255 0 231 255 0 231 255 0 237 255 0 237 255 0 237 255 0 237 255 0 237 255 0 237 255 0 237 255 0 237 255 0 237 255 0 237 255 0 222 255 0 222 255 0 222 255 0 222 255 0 222 255 0 222 255 0 222 255 0 222 255 0 222 255 0 222 255 0 218 255 0 218 255 0 218 255 0 218 255 0 218 255 0 218 255 0 218 255 0 218 255 0 218 255 0 218 255 0 189 255 0 189 255 0 189 255 0 189 255 0 189 255 0 189 255 0 189 255 0 189 255 0 189 255 0 189 255 0 164 255 0 164 255 0 164 255 0 164 255 0 164 255 0 164 255 0 164 255 0 164 255 0 164 255 0 164 255 0 154 255 0 154 255 0 154 255 0 154 255 0 154 255 0 154 255 0 154 255 0 154 255 0 154 255 0 154 255 0 156 255 0 156 255 0 156 255 0 156 255 0 156 255 0 156 255 0 156 255 0 156 255 0 156 255 0 156 255 0 0 0 0 0 0 0 0 0 0 0 0 0 0 0 0 0 0 0 0 0 0 0 0 0 0 0 0 0 0 0 0 53 0 0 53 0 0 53 0 0 53 0 0 53 0 0 53 0 0 53 0 0 53 0 0 53 0 0 53 0 0 53 0 0 53 0 0 53 0 0 53 0 0 53 0 0 53 0 0 53 0 0 53 0 0 53 0 0 53 0 0 53 0 0 53 0 0 53 0 0 53 0 0 53 0 0 53 0 0 53 0 0 53 0 0 53 0 0 53 
0 151 255 0 151 255 0 151 255 0 151 255 0 151 255 0 151 255 0 151 255 0 151 255 0 151 255 0 151 255 0 157 255 0 157 255 0 157 255 0 157 255 0 157 255 0 157 255 0 157 255 0 157 255 0 157 255 0 157 255 0 174 255 0 174 255 0 174 255 0 174 255 0 174 255 0 174 255 0 174 255 0 174 255 0 174 255 0 174 255 0 147 255 0 147 255 0 147 255 0 147 255 0 147 255 0 147 255 0 147 255 0 147 255 0 147 255 0 147 255 0 169 255 0 169 255 0 169 255 0 169 255 0 169 255 0 169 255 0 169 255 0 169 255 0 169 255 0 169 255 0 199 255 0 199 255 0 199 255 0 199 255 0 199 255 0 199 255 0 199 255 0 199 255 0 199 255 0 199 255 0 226 255 0 226 255 0 226 255 0 226 255 0 226 255 0 226 255 0 226 255 0 226 255 0 226 255 0 226 255 0 217 255 0 217 255 0 217 255 0 217 255 0 217 255 0 217 255 0 217 255 0 217 255 0 217 255 0 217 255 0 221 255 0 221 255 0 221 255 0 221 255 0 221 255 0 221 255 0 221 255 0 221 255 0 221 255 0 221 255 0 171 255 0 171 255 0 171 255 0 171 255 0 171 255 0 171 255 0 171 255 0 171 255 0 171 255 0 171 255 0 185 255 0 185 255 0 185 255 0 185 255 0 185 255 0 185 255 0 185 255 0 185 255 0 185 255 0 185 255 0 155 255 0 155 255 0 155 255 0 155 255 0 155 255 0 155 255 0 155 255 0 155 255 0 155 255 0 155 255 0 96 255 0 96 255 0 96 255 0 96 255 0 96 255 0 96 255 0 96 255 0 96 255 0 96 255 0 96 255 0 47 255 0 47 255 0 47 255 0 47 255 0 47 255 0 47 255 0 47 255 0 47 255 0 47 255 0 47 255 0 83 255 0 83 255 0 83 255 0 83 255 0 83 255 0 83 255 0 83 255 0 83 255 0 83 255 0 83 255 0 140 255 0 140 255 0 140 255 0 140 255 0 140 255 0 140 255 0 140 255 0 140 255 0 140 255 0 140 255 0 193 255 0 193 255 0 193 255 0 193 255 0 193 255 0 193 255 0 193 255 0 193 255 0 193 255 0 193 255 0 197 255 0 197 255 0 197 255 0 197 255 0 197 255 0 197 255 0 197 255 0 197 255 0 197 255 0 197 255 0 203 255 0 203 255 0 203 255 0 203 255 0 203 255 0 203 255 0 203 255 0 203 255 0 203 255 0 203 255 0 215 255 0 215 255 0 215 255 0 215 255 0 215 255 0 215 255 0 215 255 0 215 255 0 215 255 0 215 255 0 231 255 0 231 255 0 231 255 0 231 255 0 231 255 0 231 255 0 231 255 0 231 255 0 231 255 0 231 255 0 237 255 0 237 255 0 237 255 0 237 255 0 237 255 0 237 255 0 237 255 0 237 255 0 237 255 0 237 255 0 222 255 0 222 255 0 222 255 0 222 255 0 222 255 0 222 255 0 222 255 0 222 255 0 222 255 0 222 255 0 218 255 0 218 255 0 218 255 0 218 255 0 218 255 0 218 255 0 218 255 0 218 255 0 218 255 0 218 255 0 189 255 0 189 255 0 189 255 0 189 255 0 189 255 0 189 255 0 189 255 0 189 255 0 189 255 0 189 255 0 164 255 0 164 255 0 164 255 0 164 255 0 164 255 0 164 255 0 164 255 0 164 255 0 164 255 0 164 255 0 154 255 0 154 255 0 154 255 0 154 255 0 154 255 0 154 255 0 154 255 0 154 255 0 154 255 0 154 255 0 156 255 0 156 255 0 156 255 0 156 255 0 156 255 0 156 255 0 156 255 0 156 255 0 156 255 0 156 255 0 0 0 0 0 0 0 0 0 0 0 0 0 0 0 0 0 0 0 0 0 0 0 0 0 0 0 0 0 0 0 0 56 0 0 56 0 0 56 0 0 56 0 0 56 0 0 56 0 0 56 0 0 56 0 0 56 0 0 56 0 0 56 0 0 56 0 0 56 0 0 56 0 0 56 0 0 56 0 0 56 0 0 56 0 0 56 0 0 56 0 0 56 0 0 56 0 0 56 0 0 56 0 0 56 0 0 56 0 0 56 0 0 56 0 0 56 0 0 56 
0 151 255 0 151 255 0 151 255 0 151 255 0 151 255 0 151 255 0 151 255 0 151 255 0 151 255 0 151 255 0 157 255 0 157 255 0 157 255 0 157 255 0 157 255 0 157 255 0 157 255 0 157 255 0 157 255 0 157 255 0 174 255 0 174 255 0 174 255 0 174 255 0 174 255 0 174 255 0 174 255 0 174 255 0 174 255 0 174 255 0 147 255 0 147 255 0 147 255 0 147 255 0 147 255 0 147 255 0 147 255 0 147 255 0 147 255 0 147 255 0 169 255 0 169 255 0 169 255 0 169 255 0 169 255 0 169 255 0 169 255 0 169 255 0 169 255 0 169 255 0 199 255 0 199 255 0 199 255 0 199 255 0 199 255 0 199 255 0 199 255 0 199 255 0 199 255 0 199 255 0 226 255 0 226 255 0 226 255 0 226 255 0 226 255 0 226 255 0 226 255 0 226 255 0 226 255 0 226 255 0 217 255 0 217 255 0 217 255 0 217 255 0 217 255 0 217 255 0 217 255 0 217 255 0 217 255 0 217 255 0 221 255 0 221 255 0 221 255 0 221 255 0 221 255 0 221 255 0 221 255 0 221 255 0 221 255 0 221 255 0 171 255 0 171 255 0 171 255 0 171 255 0 171 255 0 171 255 0 171 255 0 171 255 0 171 255 0 171 255 0 185 255 0 185 255 0 185 255 0 185 255 0 185 255 0 185 255 0 185 255 0 185 255 0 185 255 0 185 255 0 155 255 0 155 255 0 155 255 0 155 255 0 155 255 0 155 255 0 155 255 0 155 255 0 155 255 0 155 255 0 96 255 0 96 255 0 96 255 0 96 255 0 96 255 0 96 255 0 96 255 0 96 255 0 96 255 0 96 255 0 47 255 0 47 255 0 47 255 0 47 255 0 47 255 0 47 255 0 47 255 0 47 255 0 47 255 0 47 255 0 83 255 0 83 255 0 83 255 0 83 255 0 83 255 0 83 255 0 83 255 0 83 255 0 83 255 0 83 255 0 140 255 0 140 255 0 140 255 0 140 255 0 140 255 0 140 255 0 140 255 0 140 255 0 140 255 0 140 255 0 193 255 0 193 255 0 193 255 0 193 255 0 193 255 0 193 255 0 193 255 0 193 255 0 193 255 0 193 255 0 197 255 0 197 255 0 197 255 0 197 255 0 197 255 0 197 255 0 197 255 0 197 255 0 197 255 0 197 255 0 203 255 0 203 255 0 203 255 0 203 255 0 203 255 0 203 255 0 203 255 0 203 255 0 203 255 0 203 255 0 215 255 0 215 255 0 215 255 0 215 255 0 215 255 0 215 255 0 215 255 0 215 255 0 215 255 0 215 255 0 231 255 0 231 255 0 231 255 0 231 255 0 231 255 0 231 255 0 231 255 0 231 255 0 231 255 0 231 255 0 237 255 0 237 255 0 237 255 0 237 255 0 237 255 0 237 255 0 237 255 0 237 255 0 237 255 0 237 255 0 222 255 0 222 255 0 222 255 0 222 255 0 222 255 0 222 255 0 222 255 0 222 255 0 222 255 0 222 255 0 218 255 0 218 255 0 218 255 0 218 255 0 218 255 0 218 255 0 218 255 0 218 255 0 218 255 0 218 255 0 189 255 0 189 255 0 189 255 0 189 255 0 189 255 0 189 255 0 189 255 0 189 255 0 189 255 0 189 255 0 164 255 0 164 255 0 164 255 0 164 255 0 164 255 0 164 255 0 164 255 0 164 255 0 164 255 0 164 255 0 154 255 0 154 255 0 154 255 0 154 255 0 154 255 0 154 255 0 154 255 0 154 255 0 154 255 0 154 255 0 156 255 0 156 255 0 156 255 0 156 255 0 156 255 0 156 255 0 156 255 0 156 255 0 156 255 0 156 255 0 0 0 0 0 0 0 0 0 0 0 0 0 0 0 0 0 0 0 0 0 0 0 0 0 0 0 0 0 0 0 0 60 0 0 60 0 0 60 0 0 60 0 0 60 0 0 60 0 0 60 0 0 60 0 0 60 0 0 60 0 0 60 0 0 60 0 0 60 0 0 60 0 0 60 0 0 60 0 0 60 0 0 60 0 0 60 0 0 60 0 0 60 0 0 60 0 0 60 0 0 60 0 0 60 0 0 60 0 0 60 0 0 60 0 0 60 0 0 60 
0 151 255 0 151 255 0 151 255 0 151 255 0 151 255 0 151 255 0 151 255 0 151 255 0 151 255 0 151 255 0 157 255 0 157 255 0 157 255 0 157 255 0 157 255 0 157 255 0 157 255 0 157 255 0 157 255 0 157 255 0 174 255 0 174 255 0 174 255 0 174 255 0 174 255 0 174 255 0 174 255 0 174 255 0 174 255 0 174 255 0 147 255 0 147 255 0 147 255 0 147 255 0 147 255 0 147 255 0 147 255 0 147 255 0 147 255 0 147 255 0 169 255 0 169 255 0 169 255 0 169 255 0 169 255 0 169 255 0 169 255 0 169 255 0 169 255 0 169 255 0 199 255 0 199 255 0 199 255 0 199 255 0 199 255 0 199 255 0 199 255 0 199 255 0 199 255 0 199 255 0 226 255 0 226 255 0 226 255 0 226 255 0 226 255 0 226 255 0 226 255 0 226 255 0 226 255 0 226 255 0 217 255 0 217 255 0 217 255 0 217 255 0 217 255 0 217 255 0 217 255 0 217 255 0 217 255 0 217 255 0 221 255 0 221 255 0 221 255 0 221 255 0 221 255 0 221 255 0 221 255 0 221 255 0 221 255 0 221 255 0 171 255 0 171 255 0 171 255 0 171 255 0 171 255 0 171 255 0 171 255 0 171 255 0 171 255 0 171 255 0 185 255 0 185 255 0 185 255 0 185 255 0 185 255 0 185 255 0 185 255 0 185 255 0 185 255 0 185 255 0 155 255 0 155 255 0 155 255 0 155 255 0 155 255 0 155 255 0 155 255 0 155 255 0 155 255 0 155 255 0 96 255 0 96 255 0 96 255 0 96 255 0 96 255 0 96 255 0 96 255 0 96 255 0 96 255 0 96 255 0 47 255 0 47 255 0 47 255 0 47 255 0 47 255 0 47 255 0 47 255 0 47 255 0 47 255 0 47 255 0 83 255 0 83 255 0 83 255 0 83 255 0 83 255 0 83 255 0 83 255 0 83 255 0 83 255 0 83 255 0 140 255 0 140 255 0 140 255 0 140 255 0 140 255 0 140 255 0 140 255 0 140 255 0 140 255 0 140 255 0 193 255 0 193 255 0 193 255 0 193 255 0 193 255 0 193 255 0 193 255 0 193 255 0 193 255 0 193 255 0 197 255 0 197 255 0 197 255 0 197 255 0 197 255 0 197 255 0 197 255 0 197 255 0 197 255 0 197 255 0 203 255 0 203 255 0 203 255 0 203 255 0 203 255 0 203 255 0 203 255 0 203 255 0 203 255 0 203 255 0 215 255 0 215 255 0 215 255 0 215 255 0 215 255 0 215 255 0 215 255 0 215 255 0 215 255 0 215 255 0 231 255 0 231 255 0 231 255 0 231 255 0 231 255 0 231 255 0 231 255 0 231 255 0 231 255 0 231 255 0 237 255 0 237 255 0 237 255 0 237 255 0 237 255 0 237 255 0 237 255 0 237 255 0 237 255 0 237 255 0 222 255 0 222 255 0 222 255 0 222 255 0 222 255 0 222 255 0 222 255 0 222 255 0 222 255 0 222 255 0 218 255 0 218 255 0 218 255 0 218 255 0 218 255 0 218 255 0 218 255 0 218 255 0 218 255 0 218 255 0 189 255 0 189 255 0 189 255 0 189 255 0 189 255 0 189 255 0 189 255 0 189 255 0 189 255 0 189 255 0 164 255 0 164 255 0 164 255 0 164 255 0 164 255 0 164 255 0 164 255 0 164 255 0 164 255 0 164 255 0 154 255 0 154 255 0 154 255 0 154 255 0 154 255 0 154 255 0 154 255 0 154 255 0 154 255 0 154 255 0 156 255 0 156 255 0 156 255 0 156 255 0 156 255 0 156 255 0 156 255 0 156 255 0 156 255 0 156 255 0 0 0 0 0 0 0 0 0 0 0 0 0 0 0 0 0 0 0 0 0 0 0 0 0 0 0 0 0 0 0 0 63 0 0 63 0 0 63 0 0 63 0 0 63 0 0 63 0 0 63 0 0 63 0 0 63 0 0 63 0 0 63 0 0 63 0 0 63 0 0 63 0 0 63 0 0 63 0 0 63 0 0 63 0 0 63 0 0 63 0 0 63 0 0 63 0 0 63 0 0 63 0 0 63 0 0 63 0 0 63 0 0 63 0 0 63 0 0 63 
0 151 255 0 151 255 0 151 255 0 151 255 0 151 255 0 151 255 0 151 255 0 151 255 0 151 255 0 151 255 0 157 255 0 157 255 0 157 255 0 157 255 0 157 255 0 157 255 0 157 255 0 157 255 0 157 255 0 157 255 0 174 255 0 174 255 0 174 255 0 174 255 0 174 255 0 174 255 0 174 255 0 174 255 0 174 255 0 174 255 0 147 255 0 147 255 0 147 255 0 147 255 0 147 255 0 147 255 0 147 255 0 147 255 0 147 255 0 147 255 0 169 255 0 169 255 0 169 255 0 169 255 0 169 255 0 169 255 0 169 255 0 169 255 0 169 255 0 169 255 0 199 255 0 199 255 0 199 255 0 199 255 0 199 255 0 199 255 0 199 255 0 199 255 0 199 255 0 199 255 0 226 255 0 226 255 0 226 255 0 226 255 0 226 255 0 226 255 0 226 255 0 226 255 0 226 255 0 226 255 0 217 255 0 217 255 0 217 255 0 217 255 0 217 255 0 217 255 0 217 255 0 217 255 0 217 255 0 217 255 0 221 255 0 221 255 0 221 255 0 221 255 0 221 255 0 221 255 0 221 255 0 221 255 0 221 255 0 221 255 0 171 255 0 171 255 0 171 255 0 171 255 0 171 255 0 171 255 0 171 255 0 171 255 0 171 255 0 171 255 0 185 255 0 185 255 0 185 255 0 185 255 0 185 255 0 185 255 0 185 255 0 185 255 0 185 255 0 185 255 0 155 255 0 155 255 0 155 255 0 155 255 0 155 255 0 155 255 0 155 255 0 155 255 0 155 255 0 155 255 0 96 255 0 96 255 0 96 255 0 96 255 0 96 255 0 96 255 0 96 255 0 96 255 0 96 255 0 96 255 0 47 255 0 47 255 0 47 255 0 47 255 0 47 255 0 47 255 0 47 255 0 47 255 0 47 255 0 47 255 0 83 255 0 83 255 0 83 255 0 83 255 0 83 255 0 83 255 0 83 255 0 83 255 0 83 255 0 83 255 0 140 255 0 140 255 0 140 255 0 140 255 0 140 255 0 140 255 0 140 255 0 140 255 0 140 255 0 140 255 0 193 255 0 193 255 0 193 255 0 193 255 0 193 255 0 193 255 0 193 255 0 193 255 0 193 255 0 193 255 0 197 255 0 197 255 0 197 255 0 197 255 0 197 255 0 197 255 0 197 255 0 197 255 0 197 255 0 197 255 0 203 255 0 203 255 0 203 255 0 203 255 0 203 255 0 203 255 0 203 255 0 203 255 0 203 255 0 203 255 0 215 255 0 215 255 0 215 255 0 215 255 0 215 255 0 215 255 0 215 255 0 215 255 0 215 255 0 215 255 0 231 255 0 231 255 0 231 255 0 231 255 0 231 255 0 231 255 0 231 255 0 231 255 0 231 255 0 231 255 0 237 255 0 237 255 0 237 255 0 237 255 0 237 255 0 237 255 0 237 255 0 237 255 0 237 255 0 237 255 0 222 255 0 222 255 0 222 255 0 222 255 0 222 255 0 222 255 0 222 255 0 222 255 0 222 255 0 222 255 0 218 255 0 218 255 0 218 255 0 218 255 0 218 255 0 218 255 0 218 255 0 218 255 0 218 255 0 218 255 0 189 255 0 189 255 0 189 255 0 189 255 0 189 255 0 189 255 0 189 255 0 189 255 0 189 255 0 189 255 0 164 255 0 164 255 0 164 255 0 164 255 0 164 255 0 164 255 0 164 255 0 164 255 0 164 255 0 164 255 0 154 255 0 154 255 0 154 255 0 154 255 0 154 255 0 154 255 0 154 255 0 154 255 0 154 255 0 154 255 0 156 255 0 156 255 0 156 255 0 156 255 0 156 255 0 156 255 0 156 255 0 156 255 0 156 255 0 156 255 0 0 0 0 0 0 0 0 0 0 0 0 0 0 0 0 0 0 0 0 0 0 0 0 0 0 0 0 0 0 0 0 67 0 0 67 0 0 67 0 0 67 0 0 67 0 0 67 0 0 67 0 0 67 0 0 67 0 0 67 0 0 67 0 0 67 0 0 67 0 0 67 0 0 67 0 0 67 0 0 67 0 0 67 0 0 67 0 0 67 0 0 67 0 0 67 0 0 67 0 0 67 0 0 67 0 0 67 0 0 67 0 0 67 0 0 67 0 0 67 
0 151 255 0 151 255 0 151 255 0 151 255 0 151 255 0 151 255 0 151 255 0 151 255 0 151 255 0 151 255 0 157 255 0 157 255 0 157 255 0 157 255 0 157 255 0 157 255 0 157 255 0 157 255 0 157 255 0 157 255 0 174 255 0 174 255 0 174 255 0 174 255 0 174 255 0 174 255 0 174 255 0 174 255 0 174 255 0 174 255 0 147 255 0 147 255 0 147 255 0 147 255 0 147 255 0 147 255 0 147 255 0 147 255 0 147 255 0 147 255 0 169 255 0 169 255 0 169 255 0 169 255 0 169 255 0 169 255 0 169 255 0 169 255 0 169 255 0 169 255 0 199 255 0 199 255 0 199 255 0 199 255 0 199 255 0 199 255 0 199 255 0 199 255 0 199 255 0 199 255 0 226 255 0 226 255 0 226 255 0 226 255 0 226 255 0 226 255 0 226 255 0 226 255 0 226 255 0 226 255 0 217 255 0 217 255 0 217 255 0 217 255 0 217 255 0 217 255 0 217 255 0 217 255 0 217 255 0 217 255 0 221 255 0 221 255 0 221 255 0 221 255 0 221 255 0 221 255 0 221 255 0 221 255 0 221 255 0 221 255 0 171 255 0 171 255 0 171 255 0 171 255 0 171 255 0 171 255 0 171 255 0 171 255 0 171 255 0 171 255 0 185 255 0 185 255 0 185 255 0 185 255 0 185 255 0 185 255 0 185 255 0 185 255 0 185 255 0 185 255 0 155 255 0 155 255 0 155 255 0 155 255 0 155 255 0 155 255 0 155 255 0 155 255 0 155 255 0 155 255 0 96 255 0 96 255 0 96 255 0 96 255 0 96 255 0 96 255 0 96 255 0 96 255 0 96 255 0 96 255 0 47 255 0 47 255 0 47 255 0 47 255 0 47 255 0 47 255 0 47 255 0 47 255 0 47 255 0 47 255 0 83 255 0 83 255 0 83 255 0 83 255 0 83 255 0 83 255 0 83 255 0 83 255 0 83 255 0 83 255 0 140 255 0 140 255 0 140 255 0 140 255 0 140 255 0 140 255 0 140 255 0 140 255 0 140 255 0 140 255 0 193 255 0 193 255 0 193 255 0 193 255 0 193 255 0 193 255 0 193 255 0 193 255 0 193 255 0 193 255 0 197 255 0 197 255 0 197 255 0 197 255 0 197 255 0 197 255 0 197 255 0 197 255 0 197 255 0 197 255 0 203 255 0 203 255 0 203 255 0 203 255 0 203 255 0 203 255 0 203 255 0 203 255 0 203 255 0 203 255 0 215 255 0 215 255 0 215 255 0 215 255 0 215 255 0 215 255 0 215 255 0 215 255 0 215 255 0 215 255 0 231 255 0 231 255 0 231 255 0 231 255 0 231 255 0 231 255 0 231 255 0 231 255 0 231 255 0 231 255 0 237 255 0 237 255 0 237 255 0 237 255 0 237 255 0 237 255 0 237 255 0 237 255 0 237 255 0 237 255 0 222 255 0 222 255 0 222 255 0 222 255 0 222 255 0 222 255 0 222 255 0 222 255 0 222 255 0 222 255 0 218 255 0 218 255 0 218 255 0 218 255 0 218 255 0 218 255 0 218 255 0 218 255 0 218 255 0 218 255 0 189 255 0 189 255 0 189 255 0 189 255 0 189 255 0 189 255 0 189 255 0 189 255 0 189 255 0 189 255 0 164 255 0 164 255 0 164 255 0 164 255 0 164 255 0 164 255 0 164 255 0 164 255 0 164 255 0 164 255 0 154 255 0 154 255 0 154 255 0 154 255 0 154 255 0 154 255 0 154 255 0 154 255 0 154 255 0 154 255 0 156 255 0 156 255 0 156 255 0 156 255 0 156 255 0 156 255 0 156 255 0 156 255 0 156 255 0 156 255 0 0 0 0 0 0 0 0 0 0 0 0 0 0 0 0 0 0 0 0 0 0 0 0 0 0 0 0 0 0 0 0 71 0 0 71 0 0 71 0 0 71 0 0 71 0 0 71 0 0 71 0 0 71 0 0 71 0 0 71 0 0 71 0 0 71 0 0 71 0 0 71 0 0 71 0 0 71 0 0 71 0 0 71 0 0 71 0 0 71 0 0 71 0 0 71 0 0 71 0 0 71 0 0 71 0 0 71 0 0 71 0 0 71 0 0 71 0 0 71 
0 150 255 0 150 255 0 150 255 0 150 255 0 150 255 0 150 255 0 150 255 0 150 255 0 150 255 0 150 255 0 147 255 0 147 255 0 147 255 0 147 255 0 147 255 0 147 255 0 147 255 0 147 255 0 147 255 0 147 255 0 170 255 0 170 255 0 170 255 0 170 255 0 170 255 0 170 255 0 170 255 0 170 255 0 170 255 0 170 255 0 162 255 0 162 255 0 162 255 0 162 255 0 162 255 0 162 255 0 162 255 0 162 255 0 162 255 0 162 255 0 184 255 0 184 255 0 184 255 0 184 255 0 184 255 0 184 255 0 184 255 0 184 255 0 184 255 0 184 255 0 200 255 0 200 255 0 200 255 0 200 255 0 200 255 0 200 255 0 200 255 0 200 255 0 200 255 0 200 255 0 208 255 0 208 255 0 208 255 0 208 255 0 208 255 0 208 255 0 208 255 0 208 255 0 208 255 0 208 255 0 173 255 0 173 255 0 173 255 0 173 255 0 173 255 0 173 255 0 173 255 0 173 255 0 173 255 0 173 255 0 142 255 0 142 255 0 142 255 0 142 255 0 142 255 0 142 255 0 142 255 0 142 255 0 142 255 0 142 255 0 137 255 0 137 255 0 137 255 0 137 255 0 137 255 0 137 255 0 137 255 0 137 255 0 137 255 0 137 255 0 142 255 0 142 255 0 142 255 0 142 255 0 142 255 0 142 255 0 142 255 0 142 255 0 142 255 0 142 255 0 153 255 0 153 255 0 153 255 0 153 255 0 153 255 0 153 255 0 153 255 0 153 255 0 153 255 0 153 255 0 71 255 0 71 255 0 71 255 0 71 255 0 71 255 0 71 255 0 71 255 0 71 255 0 71 255 0 71 255 0 89 255 0 89 255 0 89 255 0 89 255 0 89 255 0 89 255 0 89 255 0 89 255 0 89 255 0 89 255 0 138 255 0 138 255 0 138 255 0 138 255 0 138 255 0 138 255 0 138 255 0 138 255 0 138 255 0 138 255 0 139 255 0 139 255 0 139 255 0 139 255 0 139 255 0 139 255 0 139 255 0 139 255 0 139 255 0 139 255 0 169 255 0 169 255 0 169 255 0 169 255 0 169 255 0 169 255 0 169 255 0 169 255 0 169 255 0 169 255 0 207 255 0 207 255 0 207 255 0 207 255 0 207 255 0 207 255 0 207 255 0 207 255 0 207 255 0 207 255 0 242 255 0 242 255 0 242 255 0 242 255 0 242 255 0 242 255 0 242 255 0 242 255 0 242 255 0 242 255 0 254 255 0 254 255 0 254 255 0 254 255 0 254 255 0 254 255 0 254 255 0 254 255 0 254 255 0 254 255 0 229 255 0 229 255 0 229 255 0 229 255 0 229 255 0 229 255 0 229 255 0 229 255 0 229 255 0 229 255 0 227 255 0 227 255 0 227 255 0 227 255 0 227 255 0 227 255 0 227 255 0 227 255 0 227 255 0 227 255 0 233 255 0 233 255 0 233 255 0 233 255 0 233 255 0 233 255 0 233 255 0 233 255 0 233 255 0 233 255 0 193 255 0 193 255 0 193 255 0 193 255 0 193 255 0 193 255 0 193 255 0 193 255 0 193 255 0 193 255 0 185 255 0 185 255 0 185 255 0 185 255 0 185 255 0 185 255 0 185 255 0 185 255 0 185 255 0 185 255 0 176 255 0 176 255 0 176 255 0 176 255 0 176 255 0 176 255 0 176 255 0 176 255 0 176 255 0 176 255 0 165 255 0 165 255 0 165 255 0 165 255 0 165 255 0 165 255 0 165 255 0 165 255 0 165 255 0 165 255 0 152 255 0 152 255 0 152 255 0 152 255 0 152 255 0 152 255 0 152 255 0 152 255 0 152 255 0 152 255 0 0 0 0 0 0 0 0 0 0 0 0 0 0 0 0 0 0 0 0 0 0 0 0 0 0 0 0 0 0 0 0 74 0 0 74 0 0 74 0 0 74 0 0 74 0 0 74 0 0 74 0 0 74 0 0 74 0 0 74 0 0 74 0 0 74 0 0 74 0 0 74 0 0 74 0 0 74 0 0 74 0 0 74 0 0 74 0 0 74 0 0 74 0 0 74 0 0 74 0 0 74 0 0 74 0 0 74 0 0 74 0 0 74 0 0 74 0 0 74 
0 150 255 0 150 255 0 150 255 0 150 255 0 150 255 0 150 255 0 150 255 0 150 255 0 150 255 0 150 255 0 147 255 0 147 255 0 147 255 0 147 255 0 147 255 0 147 255 0 147 255 0 147 255 0 147 255 0 147 255 0 170 255 0 170 255 0 170 255 0 170 255 0 170 255 0 170 255 0 170 255 0 170 255 0 170 255 0 170 255 0 162 255 0 162 255 0 162 255 0 162 255 0 162 255 0 162 255 0 162 255 0 162 255 0 162 255 0 162 255 0 184 255 0 184 255 0 184 255 0 184 255 0 184 255 0 184 255 0 184 255 0 184 255 0 184 255 0 184 255 0 200 255 0 200 255 0 200 255 0 200 255 0 200 255 0 200 255 0 200 255 0 200 255 0 200 255 0 200 255 0 208 255 0 208 255 0 208 255 0 208 255 0 208 255 0 208 255 0 208 255 0 208 255 0 208 255 0 208 255 0 173 255 0 173 255 0 173 255 0 173 255 0 173 255 0 173 255 0 173 255 0 173 255 0 173 255 0 173 255 0 142 255 0 142 255 0 142 255 0 142 255 0 142 255 0 142 255 0 142 255 0 142 255 0 142 255 0 142 255 0 137 255 0 137 255 0 137 255 0 137 255 0 137 255 0 137 255 0 137 255 0 137 255 0 137 255 0 137 255 0 142 255 0 142 255 0 142 255 0 142 255 0 142 255 0 142 255 0 142 255 0 142 255 0 142 255 0 142 255 0 153 255 0 153 255 0 153 255 0 153 255 0 153 255 0 153 255 0 153 255 0 153 255 0 153 255 0 153 255 0 71 255 0 71 255 0 71 255 0 71 255 0 71 255 0 71 255 0 71 255 0 71 255 0 71 255 0 71 255 0 89 255 0 89 255 0 89 255 0 89 255 0 89 255 0 89 255 0 89 255 0 89 255 0 89 255 0 89 255 0 138 255 0 138 255 0 138 255 0 138 255 0 138 255 0 138 255 0 138 255 0 138 255 0 138 255 0 138 255 0 139 255 0 139 255 0 139 255 0 139 255 0 139 255 0 139 255 0 139 255 0 139 255 0 139 255 0 139 255 0 169 255 0 169 255 0 169 255 0 169 255 0 169 255 0 169 255 0 169 255 0 169 255 0 169 255 0 169 255 0 207 255 0 207 255 0 207 255 0 207 255 0 207 255 0 207 255 0 207 255 0 207 255 0 207 255 0 207 255 0 242 255 0 242 255 0 242 255 0 242 255 0 242 255 0 242 255 0 242 255 0 242 255 0 242 255 0 242 255 0 254 255 0 254 255 0 254 255 0 254 255 0 254 255 0 254 255 0 254 255 0 254 255 0 254 255 0 254 255 0 229 255 0 229 255 0 229 255 0 229 255 0 229 255 0 229 255 0 229 255 0 229 255 0 229 255 0 229 255 0 227 255 0 227 255 0 227 255 0 227 255 0 227 255 0 227 255 0 227 255 0 227 255 0 227 255 0 227 255 0 233 255 0 233 255 0 233 255 0 233 255 0 233 255 0 233 255 0 233 255 0 233 255 0 233 255 0 233 255 0 193 255 0 193 255 0 193 255 0 193 255 0 193 255 0 193 255 0 193 255 0 193 255 0 193 255 0 193 255 0 185 255 0 185 255 0 185 255 0 185 255 0 185 255 0 185 255 0 185 255 0 185 255 0 185 255 0 185 255 0 176 255 0 176 255 0 176 255 0 176 255 0 176 255 0 176 255 0 176 255 0 176 255 0 176 255 0 176 255 0 165 255 0 165 255 0 165 255 0 165 255 0 165 255 0 165 255 0 165 255 0 165 255 0 165 255 0 165 255 0 152 255 0 152 255 0 152 255 0 152 255 0 152 255 0 152 255 0 152 255 0 152 255 0 152 255 0 152 255 0 0 0 0 0 0 0 0 0 0 0 0 0 0 0 0 0 0 0 0 0 0 0 0 0 0 0 0 0 0 0 0 78 0 0 78 0 0 78 0 0 78 0 0 78 0 0 78 0 0 78 0 0 78 0 0 78 0 0 78 0 0 78 0 0 78 0 0 78 0 0 78 0 0 78 0 0 78 0 0 78 0 0 78 0 0 78 0 0 78 0 0 78 0 0 78 0 0 78 0 0 78 0 0 78 0 0 78 0 0 78 0 0 78 0 0 78 0 0 78 
0 150 255 0 150 255 0 150 255 0 150 255 0 150 255 0 150 255 0 150 255 0 150 255 0 150 255 0 150 255 0 147 255 0 147 255 0 147 255 0 147 255 0 147 255 0 147 255 0 147 255 0 147 255 0 147 255 0 147 255 0 170 255 0 170 255 0 170 255 0 170 255 0 170 255 0 170 255 0 170 255 0 170 255 0 170 255 0 170 255 0 162 255 0 162 255 0 162 255 0 162 255 0 162 255 0 162 255 0 162 255 0 162 255 0 162 255 0 162 255 0 184 255 0 184 255 0 184 255 0 184 255 0 184 255 0 184 255 0 184 255 0 184 255 0 184 255 0 184 255 0 200 255 0 200 255 0 200 255 0 200 255 0 200 255 0 200 255 0 200 255 0 200 255 0 200 255 0 200 255 0 208 255 0 208 255 0 208 255 0 208 255 0 208 255 0 208 255 0 208 255 0 208 255 0 208 255 0 208 255 0 173 255 0 173 255 0 173 255 0 173 255 0 173 255 0 173 255 0 173 255 0 173 255 0 173 255 0 173 255 0 142 255 0 142 255 0 142 255 0 142 255 0 142 255 0 142 255 0 142 255 0 142 255 0 142 255 0 142 255 0 137 255 0 137 255 0 137 255 0 137 255 0 137 255 0 137 255 0 137 255 0 137 255 0 137 255 0 137 255 0 142 255 0 142 255 0 142 255 0 142 255 0 142 255 0 142 255 0 142 255 0 142 255 0 142 255 0 142 255 0 153 255 0 153 255 0 153 255 0 153 255 0 153 255 0 153 255 0 153 255 0 153 255 0 153 255 0 153 255 0 71 255 0 71 255 0 71 255 0 71 255 0 71 255 0 71 255 0 71 255 0 71 255 0 71 255 0 71 255 0 89 255 0 89 255 0 89 255 0 89 255 0 89 255 0 89 255 0 89 255 0 89 255 0 89 255 0 89 255 0 138 255 0 138 255 0 138 255 0 138 255 0 138 255 0 138 255 0 138 255 0 138 255 0 138 255 0 138 255 0 139 255 0 139 255 0 139 255 0 139 255 0 139 255 0 139 255 0 139 255 0 139 255 0 139 255 0 139 255 0 169 255 0 169 255 0 169 255 0 169 255 0 169 255 0 169 255 0 169 255 0 169 255 0 169 255 0 169 255 0 207 255 0 207 255 0 207 255 0 207 255 0 207 255 0 207 255 0 207 255 0 207 255 0 207 255 0 207 255 0 242 255 0 242 255 0 242 255 0 242 255 0 242 255 0 242 255 0 242 255 0 242 255 0 242 255 0 242 255 0 254 255 0 254 255 0 254 255 0 254 255 0 254 255 0 254 255 0 254 255 0 254 255 0 254 255 0 254 255 0 229 255 0 229 255 0 229 255 0 229 255 0 229 255 0 229 255 0 229 255 0 229 255 0 229 255 0 229 255 0 227 255 0 227 255 0 227 255 0 227 255 0 227 255 0 227 255 0 227 255 0 227 255 0 227 255 0 227 255 0 233 255 0 233 255 0 233 255 0 233 255 0 233 255 0 233 255 0 233 255 0 233 255 0 233 255 0 233 255 0 193 255 0 193 255 0 193 255 0 193 255 0 193 255 0 193 255 0 193 255 0 193 255 0 193 255 0 193 255 0 185 255 0 185 255 0 185 255 0 185 255 0 185 255 0 185 255 0 185 255 0 185 255 0 185 255 0 185 255 0 176 255 0 176 255 0 176 255 0 176 255 0 176 255 0 176 255 0 176 255 0 176 255 0 176 255 0 176 255 0 165 255 0 165 255 0 165 255 0 165 255 0 165 255 0 165 255 0 165 255 0 165 255 0 165 255 0 165 255 0 152 255 0 152 255 0 152 255 0 152 255 0 152 255 0 152 255 0 152 255 0 152 255 0 152 255 0 152 255 0 0 0 0 0 0 0 0 0 0 0 0 0 0 0 0 0 0 0 0 0 0 0 0 0 0 0 0 0 0 0 0 82 0 0 82 0 0 82 0 0 82 0 0 82 0 0 82 0 0 82 0 0 82 0 0 82 0 0 82 0 0 82 0 0 82 0 0 82 0 0 82 0 0 82 0 0 82 0 0 82 0 0 82 0 0 82 0 0 82 0 0 82 0 0 82 0 0 82 0 0 82 0 0 82 0 0 82 0 0 82 0 0 82 0 0 82 0 0 82 
0 150 255 0 150 255 0 150 255 0 150 255 0 150 255 0 150 255 0 150 255 0 150 255 0 150 255 0 150 255 0 147 255 0 147 255 0 147 255 0 147 255 0 147 255 0 147 255 0 147 255 0 147 255 0 147 255 0 147 255 0 170 255 0 170 255 0 170 255 0 170 255 0 170 255 0 170 255 0 170 255 0 170 255 0 170 255 0 170 255 0 162 255 0 162 255 0 162 255 0 162 255 0 162 255 0 162 255 0 162 255 0 162 255 0 162 255 0 162 255 0 184 255 0 184 255 0 184 255 0 184 255 0 184 255 0 184 255 0 184 255 0 184 255 0 184 255 0 184 255 0 200 255 0 200 255 0 200 255 0 200 255 0 200 255 0 200 255 0 200 255 0 200 255 0 200 255 0 200 255 0 208 255 0 208 255 0 208 255 0 208 255 0 208 255 0 208 255 0 208 255 0 208 255 0 208 255 0 208 255 0 173 255 0 173 255 0 173 255 0 173 255 0 173 255 0 173 255 0 173 255 0 173 255 0 173 255 0 173 255 0 142 255 0 142 255 0 142 255 0 142 255 0 142 255 0 142 255 0 142 255 0 142 255 0 142 255 0 142 255 0 137 255 0 137 255 0 137 255 0 137 255 0 137 255 0 137 255 0 137 255 0 137 255 0 137 255 0 137 255 0 142 255 0 142 255 0 142 255 0 142 255 0 142 255 0 142 255 0 142 255 0 142 255 0 142 255 0 142 255 0 153 255 0 153 255 0 153 255 0 153 255 0 153 255 0 153 255 0 153 255 0 153 255 0 153 255 0 153 255 0 71 255 0 71 255 0 71 255 0 71 255 0 71 255 0 71 255 0 71 255 0 71 255 0 71 255 0 71 255 0 89 255 0 89 255 0 89 255 0 89 255 0 89 255 0 89 255 0 89 255 0 89 255 0 89 255 0 89 255 0 138 255 0 138 255 0 138 255 0 138 255 0 138 255 0 138 255 0 138 255 0 138 255 0 138 255 0 138 255 0 139 255 0 139 255 0 139 255 0 139 255 0 139 255 0 139 255 0 139 255 0 139 255 0 139 255 0 139 255 0 169 255 0 169 255 0 169 255 0 169 255 0 169 255 0 169 255 0 169 255 0 169 255 0 169 255 0 169 255 0 207 255 0 207 255 0 207 255 0 207 255 0 207 255 0 207 255 0 207 255 0 207 255 0 207 255 0 207 255 0 242 255 0 242 255 0 242 255 0 242 255 0 242 255 0 242 255 0 242 255 0 242 255 0 242 255 0 242 255 0 254 255 0 254 255 0 254 255 0 254 255 0 254 255 0 254 255 0 254 255 0 254 255 0 254 255 0 254 255 0 229 255 0 229 255 0 229 255 0 229 255 0 229 255 0 229 255 0 229 255 0 229 255 0 229 255 0 229 255 0 227 255 0 227 255 0 227 255 0 227 255 0 227 255 0 227 255 0 227 255 0 227 255 0 227 255 0 227 255 0 233 255 0 233 255 0 233 255 0 233 255 0 233 255 0 233 255 0 233 255 0 233 255 0 233 255 0 233 255 0 193 255 0 193 255 0 193 255 0 193 255 0 193 255 0 193 255 0 193 255 0 193 255 0 193 255 0 193 255 0 185 255 0 185 255 0 185 255 0 185 255 0 185 255 0 185 255 0 185 255 0 185 255 0 185 255 0 185 255 0 176 255 0 176 255 0 176 255 0 176 255 0 176 255 0 176 255 0 176 255 0 176 255 0 176 255 0 176 255 0 165 255 0 165 255 0 165 255 0 165 255 0 165 255 0 165 255 0 165 255 0 165 255 0 165 255 0 165 255 0 152 255 0 152 255 0 152 255 0 152 255 0 152 255 0 152 255 0 152 255 0 152 255 0 152 255 0 152 255 0 0 0 0 0 0 0 0 0 0 0 0 0 0 0 0 0 0 0 0 0 0 0 0 0 0 0 0 0 0 0 0 85 0 0 85 0 0 85 0 0 85 0 0 85 0 0 85 0 0 85 0 0 85 0 0 85 0 0 85 0 0 85 0 0 85 0 0 85 0 0 85 0 0 85 0 0 85 0 0 85 0 0 85 0 0 85 0 0 85 0 0 85 0 0 85 0 0 85 0 0 85 0 0 85 0 0 85 0 0 85 0 0 85 0 0 85 0 0 85 
0 150 255 0 150 255 0 150 255 0 150 255 0 150 255 0 150 255 0 150 255 0 150 255 0 150 255 0 150 255 0 147 255 0 147 255 0 147 255 0 147 255 0 147 255 0 147 255 0 147 255 0 147 255 0 147 255 0 147 255 0 170 255 0 170 255 0 170 255 0 170 255 0 170 255 0 170 255 0 170 255 0 170 255 0 170 255 0 170 255 0 162 255 0 162 255 0 162 255 0 162 255 0 162 255 0 162 255 0 162 255 0 162 255 0 162 255 0 162 255 0 184 255 0 184 255 0 184 255 0 184 255 0 184 255 0 184 255 0 184 255 0 184 255 0 184 255 0 184 255 0 200 255 0 200 255 0 200 255 0 200 255 0 200 255 0 200 255 0 200 255 0 200 255 0 200 255 0 200 255 0 208 255 0 208 255 0 208 255 0 208 255 0 208 255 0 208 255 0 208 255 0 208 255 0 208 255 0 208 255 0 173 255 0 173 255 0 173 255 0 173 255 0 173 255 0 173 255 0 173 255 0 173 255 0 173 255 0 173 255 0 142 255 0 142 255 0 142 255 0 142 255 0 142 255 0 142 255 0 142 255 0 142 255 0 142 255 0 142 255 0 137 255 0 137 255 0 137 255 0 137 255 0 137 255 0 137 255 0 137 255 0 137 255 0 137 255 0 137 255 0 142 255 0 142 255 0 142 255 0 142 255 0 142 255 0 142 255 0 142 255 0 142 255 0 142 255 0 142 255 0 153 255 0 153 255 0 153 255 0 153 255 0 153 255 0 153 255 0 153 255 0 153 255 0 153 255 0 153 255 0 71 255 0 71 255 0 71 255 0 71 255 0 71 255 0 71 255 0 71 255 0 71 255 0 71 255 0 71 255 0 89 255 0 89 255 0 89 255 0 89 255 0 89 255 0 89 255 0 89 255 0 89 255 0 89 255 0 89 255 0 138 255 0 138 255 0 138 255 0 138 255 0 138 255 0 138 255 0 138 255 0 138 255 0 138 255 0 138 255 0 139 255 0 139 255 0 139 255 0 139 255 0 139 255 0 139 255 0 139 255 0 139 255 0 139 255 0 139 255 0 169 255 0 169 255 0 169 255 0 169 255 0 169 255 0 169 255 0 169 255 0 169 255 0 169 255 0 169 255 0 207 255 0 207 255 0 207 255 0 207 255 0 207 255 0 207 255 0 207 255 0 207 255 0 207 255 0 207 255 0 242 255 0 242 255 0 242 255 0 242 255 0 242 255 0 242 255 0 242 255 0 242 255 0 242 255 0 242 255 0 254 255 0 254 255 0 254 255 0 254 255 0 254 255 0 254 255 0 254 255 0 254 255 0 254 255 0 254 255 0 229 255 0 229 255 0 229 255 0 229 255 0 229 255 0 229 255 0 229 255 0 229 255 0 229 255 0 229 255 0 227 255 0 227 255 0 227 255 0 227 255 0 227 255 0 227 255 0 227 255 0 227 255 0 227 255 0 227 255 0 233 255 0 233 255 0 233 255 0 233 255 0 233 255 0 233 255 0 233 255 0 233 255 0 233 255 0 233 255 0 193 255 0 193 255 0 193 255 0 193 255 0 193 255 0 193 255 0 193 255 0 193 255 0 193 255 0 193 255 0 185 255 0 185 255 0 185 255 0 185 255 0 185 255 0 185 255 0 185 255 0 185 255 0 185 255 0 185 255 0 176 255 0 176 255 0 176 255 0 176 255 0 176 255 0 176 255 0 176 255 0 176 255 0 176 255 0 176 255 0 165 255 0 165 255 0 165 255 0 165 255 0 165 255 0 165 255 0 165 255 0 165 255 0 165 255 0 165 255 0 152 255 0 152 255 0 152 255 0 152 255 0 152 255 0 152 255 0 152 255 0 152 255 0 152 255 0 152 255 0 0 0 0 0 0 0 0 0 0 0 0 0 0 0 0 0 0 0 0 0 0 0 0 0 0 0 0 0 0 0 0 89 0 0 89 0 0 89 0 0 89 0 0 89 0 0 89 0 0 89 0 0 89 0 0 89 0 0 89 0 0 89 0 0 89 0 0 89 0 0 89 0 0 89 0 0 89 0 0 89 0 0 89 0 0 89 0 0 89 0 0 89 0 0 89 0 0 89 0 0 89 0 0 89 0 0 89 0 0 89 0 0 89 0 0 89 0 0 89 
0 150 255 0 150 255 0 150 255 0 150 255 0 150 255 0 150 255 0 150 255 0 150 255 0 150 255 0 150 255 0 147 255 0 147 255 0 147 255 0 147 255 0 147 255 0 147 255 0 147 255 0 147 255 0 147 255 0 147 255 0 170 255 0 170 255 0 170 255 0 170 255 0 170 255 0 170 255 0 170 255 0 170 255 0 170 255 0 170 255 0 162 255 0 162 255 0 162 255 0 162 255 0 162 255 0 162 255 0 162 255 0 162 255 0 162 255 0 162 255 0 184 255 0 184 255 0 184 255 0 184 255 0 184 255 0 184 255 0 184 255 0 184 255 0 184 255 0 184 255 0 200 255 0 200 255 0 200 255 0 200 255 0 200 255 0 200 255 0 200 255 0 200 255 0 200 255 0 200 255 0 208 255 0 208 255 0 208 255 0 208 255 0 208 255 0 208 255 0 208 255 0 208 255 0 208 255 0 208 255 0 173 255 0 173 255 0 173 255 0 173 255 0 173 255 0 173 255 0 173 255 0 173 255 0 173 255 0 173 255 0 142 255 0 142 255 0 142 255 0 142 255 0 142 255 0 142 255 0 142 255 0 142 255 0 142 255 0 142 255 0 137 255 0 137 255 0 137 255 0 137 255 0 137 255 0 137 255 0 137 255 0 137 255 0 137 255 0 137 255 0 142 255 0 142 255 0 142 255 0 142 255 0 142 255 0 142 255 0 142 255 0 142 255 0 142 255 0 142 255 0 153 255 0 153 255 0 153 255 0 153 255 0 153 255 0 153 255 0 153 255 0 153 255 0 153 255 0 153 255 0 71 255 0 71 255 0 71 255 0 71 255 0 71 255 0 71 255 0 71 255 0 71 255 0 71 255 0 71 255 0 89 255 0 89 255 0 89 255 0 89 255 0 89 255 0 89 255 0 89 255 0 89 255 0 89 255 0 89 255 0 138 255 0 138 255 0 138 255 0 138 255 0 138 255 0 138 255 0 138 255 0 138 255 0 138 255 0 138 255 0 139 255 0 139 255 0 139 255 0 139 255 0 139 255 0 139 255 0 139 255 0 139 255 0 139 255 0 139 255 0 169 255 0 169 255 0 169 255 0 169 255 0 169 255 0 169 255 0 169 255 0 169 255 0 169 255 0 169 255 0 207 255 0 207 255 0 207 255 0 207 255 0 207 255 0 207 255 0 207 255 0 207 255 0 207 255 0 207 255 0 242 255 0 242 255 0 242 255 0 242 255 0 242 255 0 242 255 0 242 255 0 242 255 0 242 255 0 242 255 0 254 255 0 254 255 0 254 255 0 254 255 0 254 255 0 254 255 0 254 255 0 254 255 0 254 255 0 254 255 0 229 255 0 229 255 0 229 255 0 229 255 0 229 255 0 229 255 0 229 255 0 229 255 0 229 255 0 229 255 0 227 255 0 227 255 0 227 255 0 227 255 0 227 255 0 227 255 0 227 255 0 227 255 0 227 255 0 227 255 0 233 255 0 233 255 0 233 255 0 233 255 0 233 255 0 233 255 0 233 255 0 233 255 0 233 255 0 233 255 0 193 255 0 193 255 0 193 255 0 193 255 0 193 255 0 193 255 0 193 255 0 193 255 0 193 255 0 193 255 0 185 255 0 185 255 0 185 255 0 185 255 0 185 255 0 185 255 0 185 255 0 185 255 0 185 255 0 185 255 0 176 255 0 176 255 0 176 255 0 176 255 0 176 255 0 176 255 0 176 255 0 176 255 0 176 255 0 176 255 0 165 255 0 165 255 0 165 255 0 165 255 0 165 255 0 165 255 0 165 255 0 165 255 0 165 255 0 165 255 0 152 255 0 152 255 0 152 255 0 152 255 0 152 255 0 152 255 0 152 255 0 152 255 0 152 255 0 152 255 0 0 0 0 0 0 0 0 0 0 0 0 0 0 0 0 0 0 0 0 0 0 0 0 0 0 0 0 0 0 0 0 93 0 0 93 0 0 93 0 0 93 0 0 93 0 0 93 0 0 93 0 0 93 0 0 93 0 0 93 0 0 93 0 0 93 0 0 93 0 0 93 0 0 93 0 0 93 0 0 93 0 0 93 0 0 93 0 0 93 0 0 93 0 0 93 0 0 93 0 0 93 0 0 93 0 0 93 0 0 93 0 0 93 0 0 93 0 0 93 
0 150 255 0 150 255 0 150 255 0 150 255 0 150 255 0 150 255 0 150 255 0 150 255 0 150 255 0 150 255 0 147 255 0 147 255 0 147 255 0 147 255 0 147 255 0 147 255 0 147 255 0 147 255 0 147 255 0 147 255 0 170 255 0 170 255 0 170 255 0 170 255 0 170 255 0 170 255 0 170 255 0 170 255 0 170 255 0 170 255 0 162 255 0 162 255 0 162 255 0 162 255 0 162 255 0 162 255 0 162 255 0 162 255 0 162 255 0 162 255 0 184 255 0 184 255 0 184 255 0 184 255 0 184 255 0 184 255 0 184 255 0 184 255 0 184 255 0 184 255 0 200 255 0 200 255 0 200 255 0 200 255 0 200 255 0 200 255 0 200 255 0 200 255 0 200 255 0 200 255 0 208 255 0 208 255 0 208 255 0 208 255 0 208 255 0 208 255 0 208 255 0 208 255 0 208 255 0 208 255 0 173 255 0 173 255 0 173 255 0 173 255 0 173 255 0 173 255 0 173 255 0 173 255 0 173 255 0 173 255 0 142 255 0 142 255 0 142 255 0 142 255 0 142 255 0 142 255 0 142 255 0 142 255 0 142 255 0 142 255 0 137 255 0 137 255 0 137 255 0 137 255 0 137 255 0 137 255 0 137 255 0 137 255 0 137 255 0 137 255 0 142 255 0 142 255 0 142 255 0 142 255 0 142 255 0 142 255 0 142 255 0 142 255 0 142 255 0 142 255 0 153 255 0 153 255 0 153 255 0 153 255 0 153 255 0 153 255 0 153 255 0 153 255 0 153 255 0 153 255 0 71 255 0 71 255 0 71 255 0 71 255 0 71 255 0 71 255 0 71 255 0 71 255 0 71 255 0 71 255 0 89 255 0 89 255 0 89 255 0 89 255 0 89 255 0 89 255 0 89 255 0 89 255 0 89 255 0 89 255 0 138 255 0 138 255 0 138 255 0 138 255 0 138 255 0 138 255 0 138 255 0 138 255 0 138 255 0 138 255 0 139 255 0 139 255 0 139 255 0 139 255 0 139 255 0 139 255 0 139 255 0 139 255 0 139 255 0 139 255 0 169 255 0 169 255 0 169 255 0 169 255 0 169 255 0 169 255 0 169 255 0 169 255 0 169 255 0 169 255 0 207 255 0 207 255 0 207 255 0 207 255 0 207 255 0 207 255 0 207 255 0 207 255 0 207 255 0 207 255 0 242 255 0 242 255 0 242 255 0 242 255 0 242 255 0 242 255 0 242 255 0 242 255 0 242 255 0 242 255 0 254 255 0 254 255 0 254 255 0 254 255 0 254 255 0 254 255 0 254 255 0 254 255 0 254 255 0 254 255 0 229 255 0 229 255 0 229 255 0 229 255 0 229 255 0 229 255 0 229 255 0 229 255 0 229 255 0 229 255 0 227 255 0 227 255 0 227 255 0 227 255 0 227 255 0 227 255 0 227 255 0 227 255 0 227 255 0 227 255 0 233 255 0 233 255 0 233 255 0 233 255 0 233 255 0 233 255 0 233 255 0 233 255 0 233 255 0 233 255 0 193 255 0 193 255 0 193 255 0 193 255 0 193 255 0 193 255 0 193 255 0 193 255 0 193 255 0 193 255 0 185 255 0 185 255 0 185 255 0 185 255 0 185 255 0 185 255 0 185 255 0 185 255 0 185 255 0 185 255 0 176 255 0 176 255 0 176 255 0 176 255 0 176 255 0 176 255 0 176 255 0 176 255 0 176 255 0 176 255 0 165 255 0 165 255 0 165 255 0 165 255 0 165 255 0 165 255 0 165 255 0 165 255 0 165 255 0 165 255 0 152 255 0 152 255 0 152 255 0 152 255 0 152 255 0 152 255 0 152 255 0 152 255 0 152 255 0 152 255 0 0 0 0 0 0 0 0 0 0 0 0 0 0 0 0 0 0 0 0 0 0 0 0 0 0 0 0 0 0 0 0 96 0 0 96 0 0 96 0 0 96 0 0 96 0 0 96 0 0 96 0 0 96 0 0 96 0 0 96 0 0 96 0 0 96 0 0 96 0 0 96 0 0 96 0 0 96 0 0 96 0 0 96 0 0 96 0 0 96 0 0 96 0 0 96 0 0 96 0 0 96 0 0 96 0 0 96 0 0 96 0 0 96 0 0 96 0 0 96 
0 150 255 0 150 255 0 150 255 0 150 255 0 150 255 0 150 255 0 150 255 0 150 255 0 150 255 0 150 255 0 147 255 0 147 255 0 147 255 0 147 255 0 147 255 0 147 255 0 147 255 0 147 255 0 147 255 0 147 255 0 170 255 0 170 255 0 170 255 0 170 255 0 170 255 0 170 255 0 170 255 0 170 255 0 170 255 0 170 255 0 162 255 0 162 255 0 162 255 0 162 255 0 162 255 0 162 255 0 162 255 0 162 255 0 162 255 0 162 255 0 184 255 0 184 255 0 184 255 0 184 255 0 184 255 0 184 255 0 184 255 0 184 255 0 184 255 0 184 255 0 200 255 0 200 255 0 200 255 0 200 255 0 200 255 0 200 255 0 200 255 0 200 255 0 200 255 0 200 255 0 208 255 0 208 255 0 208 255 0 208 255 0 208 255 0 208 255 0 208 255 0 208 255 0 208 255 0 208 255 0 173 255 0 173 255 0 173 255 0 173 255 0 173 255 0 173 255 0 173 255 0 173 255 0 173 255 0 173 255 0 142 255 0 142 255 0 142 255 0 142 255 0 142 255 0 142 255 0 142 255 0 142 255 0 142 255 0 142 255 0 137 255 0 137 255 0 137 255 0 137 255 0 137 255 0 137 255 0 137 255 0 137 255 0 137 255 0 137 255 0 142 255 0 142 255 0 142 255 0 142 255 0 142 255 0 142 255 0 142 255 0 142 255 0 142 255 0 142 255 0 153 255 0 153 255 0 153 255 0 153 255 0 153 255 0 153 255 0 153 255 0 153 255 0 153 255 0 153 255 0 71 255 0 71 255 0 71 255 0 71 255 0 71 255 0 71 255 0 71 255 0 71 255 0 71 255 0 71 255 0 89 255 0 89 255 0 89 255 0 89 255 0 89 255 0 89 255 0 89 255 0 89 255 0 89 255 0 89 255 0 138 255 0 138 255 0 138 255 0 138 255 0 138 255 0 138 255 0 138 255 0 138 255 0 138 255 0 138 255 0 139 255 0 139 255 0 139 255 0 139 255 0 139 255 0 139 255 0 139 255 0 139 255 0 139 255 0 139 255 0 169 255 0 169 255 0 169 255 0 169 255 0 169 255 0 169 255 0 169 255 0 169 255 0 169 255 0 169 255 0 207 255 0 207 255 0 207 255 0 207 255 0 207 255 0 207 255 0 207 255 0 207 255 0 207 255 0 207 255 0 242 255 0 242 255 0 242 255 0 242 255 0 242 255 0 242 255 0 242 255 0 242 255 0 242 255 0 242 255 0 254 255 0 254 255 0 254 255 0 254 255 0 254 255 0 254 255 0 254 255 0 254 255 0 254 255 0 254 255 0 229 255 0 229 255 0 229 255 0 229 255 0 229 255 0 229 255 0 229 255 0 229 255 0 229 255 0 229 255 0 227 255 0 227 255 0 227 255 0 227 255 0 227 255 0 227 255 0 227 255 0 227 255 0 227 255 0 227 255 0 233 255 0 233 255 0 233 255 0 233 255 0 233 255 0 233 255 0 233 255 0 233 255 0 233 255 0 233 255 0 193 255 0 193 255 0 193 255 0 193 255 0 193 255 0 193 255 0 193 255 0 193 255 0 193 255 0 193 255 0 185 255 0 185 255 0 185 255 0 185 255 0 185 255 0 185 255 0 185 255 0 185 255 0 185 255 0 185 255 0 176 255 0 176 255 0 176 255 0 176 255 0 176 255 0 176 255 0 176 255 0 176 255 0 176 255 0 176 255 0 165 255 0 165 255 0 165 255 0 165 255 0 165 255 0 165 255 0 165 255 0 165 255 0 165 255 0 165 255 0 152 255 0 152 255 0 152 255 0 152 255 0 152 255 0 152 255 0 152 255 0 152 255 0 152 255 0 152 255 0 0 0 0 0 0 0 0 0 0 0 0 0 0 0 0 0 0 0 0 0 0 0 0 0 0 0 0 0 0 0 0 100 0 0 100 0 0 100 0 0 100 0 0 100 0 0 100 0 0 100 0 0 100 0 0 100 0 0 100 0 0 100 0 0 100 0 0 100 0 0 100 0 0 100 0 0 100 0 0 100 0 0 100 0 0 100 0 0 100 0 0 100 0 0 100 0 0 100 0 0 100 0 0 100 0 0 100 0 0 100 0 0 100 0 0 100 0 0 100 
0 150 255 0 150 255 0 150 255 0 150 255 0 150 255 0 150 255 0 150 255 0 150 255 0 150 255 0 150 255 0 147 255 0 147 255 0 147 255 0 147 255 0 147 255 0 147 255 0 147 255 0 147 255 0 147 255 0 147 255 0 170 255 0 170 255 0 170 255 0 170 255 0 170 255 0 170 255 0 170 255 0 170 255 0 170 255 0 170 255 0 162 255 0 162 255 0 162 255 0 162 255 0 162 255 0 162 255 0 162 255 0 162 255 0 162 255 0 162 255 0 184 255 0 184 255 0 184 255 0 184 255 0 184 255 0 184 255 0 184 255 0 184 255 0 184 255 0 184 255 0 200 255 0 200 255 0 200 255 0 200 255 0 200 255 0 200 255 0 200 255 0 200 255 0 200 255 0 200 255 0 208 255 0 208 255 0 208 255 0 208 255 0 208 255 0 208 255 0 208 255 0 208 255 0 208 255 0 208 255 0 173 255 0 173 255 0 173 255 0 173 255 0 173 255 0 173 255 0 173 255 0 173 255 0 173 255 0 173 255 0 142 255 0 142 255 0 142 255 0 142 255 0 142 255 0 142 255 0 142 255 0 142 255 0 142 255 0 142 255 0 137 255 0 137 255 0 137 255 0 137 255 0 137 255 0 137 255 0 137 255 0 137 255 0 137 255 0 137 255 0 142 255 0 142 255 0 142 255 0 142 255 0 142 255 0 142 255 0 142 255 0 142 255 0 142 255 0 142 255 0 153 255 0 153 255 0 153 255 0 153 255 0 153 255 0 153 255 0 153 255 0 153 255 0 153 255 0 153 255 0 71 255 0 71 255 0 71 255 0 71 255 0 71 255 0 71 255 0 71 255 0 71 255 0 71 255 0 71 255 0 89 255 0 89 255 0 89 255 0 89 255 0 89 255 0 89 255 0 89 255 0 89 255 0 89 255 0 89 255 0 138 255 0 138 255 0 138 255 0 138 255 0 138 255 0 138 255 0 138 255 0 138 255 0 138 255 0 138 255 0 139 255 0 139 255 0 139 255 0 139 255 0 139 255 0 139 255 0 139 255 0 139 255 0 139 255 0 139 255 0 169 255 0 169 255 0 169 255 0 169 255 0 169 255 0 169 255 0 169 255 0 169 255 0 169 255 0 169 255 0 207 255 0 207 255 0 207 255 0 207 255 0 207 255 0 207 255 0 207 255 0 207 255 0 207 255 0 207 255 0 242 255 0 242 255 0 242 255 0 242 255 0 242 255 0 242 255 0 242 255 0 242 255 0 242 255 0 242 255 0 254 255 0 254 255 0 254 255 0 254 255 0 254 255 0 254 255 0 254 255 0 254 255 0 254 255 0 254 255 0 229 255 0 229 255 0 229 255 0 229 255 0 229 255 0 229 255 0 229 255 0 229 255 0 229 255 0 229 255 0 227 255 0 227 255 0 227 255 0 227 255 0 227 255 0 227 255 0 227 255 0 227 255 0 227 255 0 227 255 0 233 255 0 233 255 0 233 255 0 233 255 0 233 255 0 233 255 0 233 255 0 233 255 0 233 255 0 233 255 0 193 255 0 193 255 0 193 255 0 193 255 0 193 255 0 193 255 0 193 255 0 193 255 0 193 255 0 193 255 0 185 255 0 185 255 0 185 255 0 185 255 0 185 255 0 185 255 0 185 255 0 185 255 0 185 255 0 185 255 0 176 255 0 176 255 0 176 255 0 176 255 0 176 255 0 176 255 0 176 255 0 176 255 0 176 255 0 176 255 0 165 255 0 165 255 0 165 255 0 165 255 0 165 255 0 165 255 0 165 255 0 165 255 0 165 255 0 165 255 0 152 255 0 152 255 0 152 255 0 152 255 0 152 255 0 152 255 0 152 255 0 152 255 0 152 255 0 152 255 0 0 0 0 0 0 0 0 0 0 0 0 0 0 0 0 0 0 0 0 0 0 0 0 0 0 0 0 0 0 0 0 104 0 0 104 0 0 104 0 0 104 0 0 104 0 0 104 0 0 104 0 0 104 0 0 104 0 0 104 0 0 104 0 0 104 0 0 104 0 0 104 0 0 104 0 0 104 0 0 104 0 0 104 0 0 104 0 0 104 0 0 104 0 0 104 0 0 104 0 0 104 0 0 104 0 0 104 0 0 104 0 0 104 0 0 104 0 0 104 
0 150 255 0 150 255 0 150 255 0 150 255 0 150 255 0 150 255 0 150 255 0 150 255 0 150 255 0 150 255 0 147 255 0 147 255 0 147 255 0 147 255 0 147 255 0 147 255 0 147 255 0 147 255 0 147 255 0 147 255 0 170 255 0 170 255 0 170 255 0 170 255 0 170 255 0 170 255 0 170 255 0 170 255 0 170 255 0 170 255 0 162 255 0 162 255 0 162 255 0 162 255 0 162 255 0 162 255 0 162 255 0 162 255 0 162 255 0 162 255 0 184 255 0 184 255 0 184 255 0 184 255 0 184 255 0 184 255 0 184 255 0 184 255 0 184 255 0 184 255 0 200 255 0 200 255 0 200 255 0 200 255 0 200 255 0 200 255 0 200 255 0 200 255 0 200 255 0 200 255 0 208 255 0 208 255 0 208 255 0 208 255 0 208 255 0 208 255 0 208 255 0 208 255 0 208 255 0 208 255 0 173 255 0 173 255 0 173 255 0 173 255 0 173 255 0 173 255 0 173 255 0 173 255 0 173 255 0 173 255 0 142 255 0 142 255 0 142 255 0 142 255 0 142 255 0 142 255 0 142 255 0 142 255 0 142 255 0 142 255 0 137 255 0 137 255 0 137 255 0 137 255 0 137 255 0 137 255 0 137 255 0 137 255 0 137 255 0 137 255 0 142 255 0 142 255 0 142 255 0 142 255 0 142 255 0 142 255 0 142 255 0 142 255 0 142 255 0 142 255 0 153 255 0 153 255 0 153 255 0 153 255 0 153 255 0 153 255 0 153 255 0 153 255 0 153 255 0 153 255 0 71 255 0 71 255 0 71 255 0 71 255 0 71 255 0 71 255 0 71 255 0 71 255 0 71 255 0 71 255 0 89 255 0 89 255 0 89 255 0 89 255 0 89 255 0 89 255 0 89 255 0 89 255 0 89 255 0 89 255 0 138 255 0 138 255 0 138 255 0 138 255 0 138 255 0 138 255 0 138 255 0 138 255 0 138 255 0 138 255 0 139 255 0 139 255 0 139 255 0 139 255 0 139 255 0 139 255 0 139 255 0 139 255 0 139 255 0 139 255 0 169 255 0 169 255 0 169 255 0 169 255 0 169 255 0 169 255 0 169 255 0 169 255 0 169 255 0 169 255 0 207 255 0 207 255 0 207 255 0 207 255 0 207 255 0 207 255 0 207 255 0 207 255 0 207 255 0 207 255 0 242 255 0 242 255 0 242 255 0 242 255 0 242 255 0 242 255 0 242 255 0 242 255 0 242 255 0 242 255 0 254 255 0 254 255 0 254 255 0 254 255 0 254 255 0 254 255 0 254 255 0 254 255 0 254 255 0 254 255 0 229 255 0 229 255 0 229 255 0 229 255 0 229 255 0 229 255 0 229 255 0 229 255 0 229 255 0 229 255 0 227 255 0 227 255 0 227 255 0 227 255 0 227 255 0 227 255 0 227 255 0 227 255 0 227 255 0 227 255 0 233 255 0 233 255 0 233 255 0 233 255 0 233 255 0 233 255 0 233 255 0 233 255 0 233 255 0 233 255 0 193 255 0 193 255 0 193 255 0 193 255 0 193 255 0 193 255 0 193 255 0 193 255 0 193 255 0 193 255 0 185 255 0 185 255 0 185 255 0 185 255 0 185 255 0 185 255 0 185 255 0 185 255 0 185 255 0 185 255 0 176 255 0 176 255 0 176 255 0 176 255 0 176 255 0 176 255 0 176 255 0 176 255 0 176 255 0 176 255 0 165 255 0 165 255 0 165 255 0 165 255 0 165 255 0 165 255 0 165 255 0 165 255 0 165 255 0 165 255 0 152 255 0 152 255 0 152 255 0 152 255 0 152 255 0 152 255 0 152 255 0 152 255 0 152 255 0 152 255 0 0 0 0 0 0 0 0 0 0 0 0 0 0 0 0 0 0 0 0 0 0 0 0 0 0 0 0 0 0 0 0 107 0 0 107 0 0 107 0 0 107 0 0 107 0 0 107 0 0 107 0 0 107 0 0 107 0 0 107 0 0 107 0 0 107 0 0 107 0 0 107 0 0 107 0 0 107 0 0 107 0 0 107 0 0 107 0 0 107 0 0 107 0 0 107 0 0 107 0 0 107 0 0 107 0 0 107 0 0 107 0 0 107 0 0 107 0 0 107 
0 168 255 0 168 255 0 168 255 0 168 255 0 168 255 0 168 255 0 168 255 0 168 255 0 168 255 0 168 255 0 159 255 0 159 255 0 159 255 0 159 255 0 159 255 0 159 255 0 159 255 0 159 255 0 159 255 0 159 255 0 155 255 0 155 255 0 155 255 0 155 255 0 155 255 0 155 255 0 155 255 0 155 255 0 155 255 0 155 255 0 167 255 0 167 255 0 167 255 0 167 255 0 167 255 0 167 255 0 167 255 0 167 255 0 167 255 0 167 255 0 184 255 0 184 255 0 184 255 0 184 255 0 184 255 0 184 255 0 184 255 0 184 255 0 184 255 0 184 255 0 201 255 0 201 255 0 201 255 0 201 255 0 201 255 0 201 255 0 201 255 0 201 255 0 201 255 0 201 255 0 206 255 0 206 255 0 206 255 0 206 255 0 206 255 0 206 255 0 206 255 0 206 255 0 206 255 0 206 255 0 131 255 0 131 255 0 131 255 0 131 255 0 131 255 0 131 255 0 131 255 0 131 255 0 131 255 0 131 255 0 100 255 0 100 255 0 100 255 0 100 255 0 100 255 0 100 255 0 100 255 0 100 255 0 100 255 0 100 255 0 97 255 0 97 255 0 97 255 0 97 255 0 97 255 0 97 255 0 97 255 0 97 255 0 97 255 0 97 255 0 140 255 0 140 255 0 140 255 0 140 255 0 140 255 0 140 255 0 140 255 0 140 255 0 140 255 0 140 255 0 96 255 0 96 255 0 96 255 0 96 255 0 96 255 0 96 255 0 96 255 0 96 255 0 96 255 0 96 255 0 57 255 0 57 255 0 57 255 0 57 255 0 57 255 0 57 255 0 57 255 0 57 255 0 57 255 0 57 255 0 94 255 0 94 255 0 94 255 0 94 255 0 94 255 0 94 255 0 94 255 0 94 255 0 94 255 0 94 255 0 155 255 0 155 255 0 155 255 0 155 255 0 155 255 0 155 255 0 155 255 0 155 255 0 155 255 0 155 255 0 169 255 0 169 255 0 169 255 0 169 255 0 169 255 0 169 255 0 169 255 0 169 255 0 169 255 0 169 255 0 155 255 0 155 255 0 155 255 0 155 255 0 155 255 0 155 255 0 155 255 0 155 255 0 155 255 0 155 255 0 196 255 0 196 255 0 196 255 0 196 255 0 196 255 0 196 255 0 196 255 0 196 255 0 196 255 0 196 255 0 233 255 0 233 255 0 233 255 0 233 255 0 233 255 0 233 255 0 233 255 0 233 255 0 233 255 0 233 255 0 205 255 0 205 255 0 205 255 0 205 255 0 205 255 0 205 255 0 205 255 0 205 255 0 205 255 0 205 255 0 177 255 0 177 255 0 177 255 0 177 255 0 177 255 0 177 255 0 177 255 0 177 255 0 177 255 0 177 255 0 205 255 0 205 255 0 205 255 0 205 255 0 205 255 0 205 255 0 205 255 0 205 255 0 205 255 0 205 255 0 188 255 0 188 255 0 188 255 0 188 255 0 188 255 0 188 255 0 188 255 0 188 255 0 188 255 0 188 255 0 198 255 0 198 255 0 198 255 0 198 255 0 198 255 0 198 255 0 198 255 0 198 255 0 198 255 0 198 255 0 193 255 0 193 255 0 193 255 0 193 255 0 193 255 0 193 255 0 193 255 0 193 255 0 193 255 0 193 255 0 192 255 0 192 255 0 192 255 0 192 255 0 192 255 0 192 255 0 192 255 0 192 255 0 192 255 0 192 255 0 149 255 0 149 255 0 149 255 0 149 255 0 149 255 0 149 255 0 149 255 0 149 255 0 149 255 0 149 255 0 144 255 0 144 255 0 144 255 0 144 255 0 144 255 0 144 255 0 144 255 0 144 255 0 144 255 0 144 255 0 0 0 0 0 0 0 0 0 0 0 0 0 0 0 0 0 0 0 0 0 0 0 0 0 0 0 0 0 0 0 0 111 0 0 111 0 0 111 0 0 111 0 0 111 0 0 111 0 0 111 0 0 111 0 0 111 0 0 111 0 0 111 0 0 111 0 0 111 0 0 111 0 0 111 0 0 111 0 0 111 0 0 111 0 0 111 0 0 111 0 0 111 0 0 111 0 0 111 0 0 111 0 0 111 0 0 111 0 0 111 0 0 111 0 0 111 0 0 111 
0 168 255 0 168 255 0 168 255 0 168 255 0 168 255 0 168 255 0 168 255 0 168 255 0 168 255 0 168 255 0 159 255 0 159 255 0 159 255 0 159 255 0 159 255 0 159 255 0 159 255 0 159 255 0 159 255 0 159 255 0 155 255 0 155 255 0 155 255 0 155 255 0 155 255 0 155 255 0 155 255 0 155 255 0 155 255 0 155 255 0 167 255 0 167 255 0 167 255 0 167 255 0 167 255 0 167 255 0 167 255 0 167 255 0 167 255 0 167 255 0 184 255 0 184 255 0 184 255 0 184 255 0 184 255 0 184 255 0 184 255 0 184 255 0 184 255 0 184 255 0 201 255 0 201 255 0 201 255 0 201 255 0 201 255 0 201 255 0 201 255 0 201 255 0 201 255 0 201 255 0 206 255 0 206 255 0 206 255 0 206 255 0 206 255 0 206 255 0 206 255 0 206 255 0 206 255 0 206 255 0 131 255 0 131 255 0 131 255 0 131 255 0 131 255 0 131 255 0 131 255 0 131 255 0 131 255 0 131 255 0 100 255 0 100 255 0 100 255 0 100 255 0 100 255 0 100 255 0 100 255 0 100 255 0 100 255 0 100 255 0 97 255 0 97 255 0 97 255 0 97 255 0 97 255 0 97 255 0 97 255 0 97 255 0 97 255 0 97 255 0 140 255 0 140 255 0 140 255 0 140 255 0 140 255 0 140 255 0 140 255 0 140 255 0 140 255 0 140 255 0 96 255 0 96 255 0 96 255 0 96 255 0 96 255 0 96 255 0 96 255 0 96 255 0 96 255 0 96 255 0 57 255 0 57 255 0 57 255 0 57 255 0 57 255 0 57 255 0 57 255 0 57 255 0 57 255 0 57 255 0 94 255 0 94 255 0 94 255 0 94 255 0 94 255 0 94 255 0 94 255 0 94 255 0 94 255 0 94 255 0 155 255 0 155 255 0 155 255 0 155 255 0 155 255 0 155 255 0 155 255 0 155 255 0 155 255 0 155 255 0 169 255 0 169 255 0 169 255 0 169 255 0 169 255 0 169 255 0 169 255 0 169 255 0 169 255 0 169 255 0 155 255 0 155 255 0 155 255 0 155 255 0 155 255 0 155 255 0 155 255 0 155 255 0 155 255 0 155 255 0 196 255 0 196 255 0 196 255 0 196 255 0 196 255 0 196 255 0 196 255 0 196 255 0 196 255 0 196 255 0 233 255 0 233 255 0 233 255 0 233 255 0 233 255 0 233 255 0 233 255 0 233 255 0 233 255 0 233 255 0 205 255 0 205 255 0 205 255 0 205 255 0 205 255 0 205 255 0 205 255 0 205 255 0 205 255 0 205 255 0 177 255 0 177 255 0 177 255 0 177 255 0 177 255 0 177 255 0 177 255 0 177 255 0 177 255 0 177 255 0 205 255 0 205 255 0 205 255 0 205 255 0 205 255 0 205 255 0 205 255 0 205 255 0 205 255 0 205 255 0 188 255 0 188 255 0 188 255 0 188 255 0 188 255 0 188 255 0 188 255 0 188 255 0 188 255 0 188 255 0 198 255 0 198 255 0 198 255 0 198 255 0 198 255 0 198 255 0 198 255 0 198 255 0 198 255 0 198 255 0 193 255 0 193 255 0 193 255 0 193 255 0 193 255 0 193 255 0 193 255 0 193 255 0 193 255 0 193 255 0 192 255 0 192 255 0 192 255 0 192 255 0 192 255 0 192 255 0 192 255 0 192 255 0 192 255 0 192 255 0 149 255 0 149 255 0 149 255 0 149 255 0 149 255 0 149 255 0 149 255 0 149 255 0 149 255 0 149 255 0 144 255 0 144 255 0 144 255 0 144 255 0 144 255 0 144 255 0 144 255 0 144 255 0 144 255 0 144 255 0 0 0 0 0 0 0 0 0 0 0 0 0 0 0 0 0 0 0 0 0 0 0 0 0 0 0 0 0 0 0 0 115 0 0 115 0 0 115 0 0 115 0 0 115 0 0 115 0 0 115 0 0 115 0 0 115 0 0 115 0 0 115 0 0 115 0 0 115 0 0 115 0 0 115 0 0 115 0 0 115 0 0 115 0 0 115 0 0 115 0 0 115 0 0 115 0 0 115 0 0 115 0 0 115 0 0 115 0 0 115 0 0 115 0 0 115 0 0 115 
0 168 255 0 168 255 0 168 255 0 168 255 0 168 255 0 168 255 0 168 255 0 168 255 0 168 255 0 168 255 0 159 255 0 159 255 0 159 255 0 159 255 0 159 255 0 159 255 0 159 255 0 159 255 0 159 255 0 159 255 0 155 255 0 155 255 0 155 255 0 155 255 0 155 255 0 155 255 0 155 255 0 155 255 0 155 255 0 155 255 0 167 255 0 167 255 0 167 255 0 167 255 0 167 255 0 167 255 0 167 255 0 167 255 0 167 255 0 167 255 0 184 255 0 184 255 0 184 255 0 184 255 0 184 255 0 184 255 0 184 255 0 184 255 0 184 255 0 184 255 0 201 255 0 201 255 0 201 255 0 201 255 0 201 255 0 201 255 0 201 255 0 201 255 0 201 255 0 201 255 0 206 255 0 206 255 0 206 255 0 206 255 0 206 255 0 206 255 0 206 255 0 206 255 0 206 255 0 206 255 0 131 255 0 131 255 0 131 255 0 131 255 0 131 255 0 131 255 0 131 255 0 131 255 0 131 255 0 131 255 0 100 255 0 100 255 0 100 255 0 100 255 0 100 255 0 100 255 0 100 255 0 100 255 0 100 255 0 100 255 0 97 255 0 97 255 0 97 255 0 97 255 0 97 255 0 97 255 0 97 255 0 97 255 0 97 255 0 97 255 0 140 255 0 140 255 0 140 255 0 140 255 0 140 255 0 140 255 0 140 255 0 140 255 0 140 255 0 140 255 0 96 255 0 96 255 0 96 255 0 96 255 0 96 255 0 96 255 0 96 255 0 96 255 0 96 255 0 96 255 0 57 255 0 57 255 0 57 255 0 57 255 0 57 255 0 57 255 0 57 255 0 57 255 0 57 255 0 57 255 0 94 255 0 94 255 0 94 255 0 94 255 0 94 255 0 94 255 0 94 255 0 94 255 0 94 255 0 94 255 0 155 255 0 155 255 0 155 255 0 155 255 0 155 255 0 155 255 0 155 255 0 155 255 0 155 255 0 155 255 0 169 255 0 169 255 0 169 255 0 169 255 0 169 255 0 169 255 0 169 255 0 169 255 0 169 255 0 169 255 0 155 255 0 155 255 0 155 255 0 155 255 0 155 255 0 155 255 0 155 255 0 155 255 0 155 255 0 155 255 0 196 255 0 196 255 0 196 255 0 196 255 0 196 255 0 196 255 0 196 255 0 196 255 0 196 255 0 196 255 0 233 255 0 233 255 0 233 255 0 233 255 0 233 255 0 233 255 0 233 255 0 233 255 0 233 255 0 233 255 0 205 255 0 205 255 0 205 255 0 205 255 0 205 255 0 205 255 0 205 255 0 205 255 0 205 255 0 205 255 0 177 255 0 177 255 0 177 255 0 177 255 0 177 255 0 177 255 0 177 255 0 177 255 0 177 255 0 177 255 0 205 255 0 205 255 0 205 255 0 205 255 0 205 255 0 205 255 0 205 255 0 205 255 0 205 255 0 205 255 0 188 255 0 188 255 0 188 255 0 188 255 0 188 255 0 188 255 0 188 255 0 188 255 0 188 255 0 188 255 0 198 255 0 198 255 0 198 255 0 198 255 0 198 255 0 198 255 0 198 255 0 198 255 0 198 255 0 198 255 0 193 255 0 193 255 0 193 255 0 193 255 0 193 255 0 193 255 0 193 255 0 193 255 0 193 255 0 193 255 0 192 255 0 192 255 0 192 255 0 192 255 0 192 255 0 192 255 0 192 255 0 192 255 0 192 255 0 192 255 0 149 255 0 149 255 0 149 255 0 149 255 0 149 255 0 149 255 0 149 255 0 149 255 0 149 255 0 149 255 0 144 255 0 144 255 0 144 255 0 144 255 0 144 255 0 144 255 0 144 255 0 144 255 0 144 255 0 144 255 0 0 0 0 0 0 0 0 0 0 0 0 0 0 0 0 0 0 0 0 0 0 0 0 0 0 0 0 0 0 0 0 118 0 0 118 0 0 118 0 0 118 0 0 118 0 0 118 0 0 118 0 0 118 0 0 118 0 0 118 0 0 118 0 0 118 0 0 118 0 0 118 0 0 118 0 0 118 0 0 118 0 0 118 0 0 118 0 0 118 0 0 118 0 0 118 0 0 118 0 0 118 0 0 118 0 0 118 0 0 118 0 0 118 0 0 118 0 0 118 
0 168 255 0 168 255 0 168 255 0 168 255 0 168 255 0 168 255 0 168 255 0 168 255 0 168 255 0 168 255 0 159 255 0 159 255 0 159 255 0 159 255 0 159 255 0 159 255 0 159 255 0 159 255 0 159 255 0 159 255 0 155 255 0 155 255 0 155 255 0 155 255 0 155 255 0 155 255 0 155 255 0 155 255 0 155 255 0 155 255 0 167 255 0 167 255 0 167 255 0 167 255 0 167 255 0 167 255 0 167 255 0 167 255 0 167 255 0 167 255 0 184 255 0 184 255 0 184 255 0 184 255 0 184 255 0 184 255 0 184 255 0 184 255 0 184 255 0 184 255 0 201 255 0 201 255 0 201 255 0 201 255 0 201 255 0 201 255 0 201 255 0 201 255 0 201 255 0 201 255 0 206 255 0 206 255 0 206 255 0 206 255 0 206 255 0 206 255 0 206 255 0 206 255 0 206 255 0 206 255 0 131 255 0 131 255 0 131 255 0 131 255 0 131 255 0 131 255 0 131 255 0 131 255 0 131 255 0 131 255 0 100 255 0 100 255 0 100 255 0 100 255 0 100 255 0 100 255 0 100 255 0 100 255 0 100 255 0 100 255 0 97 255 0 97 255 0 97 255 0 97 255 0 97 255 0 97 255 0 97 255 0 97 255 0 97 255 0 97 255 0 140 255 0 140 255 0 140 255 0 140 255 0 140 255 0 140 255 0 140 255 0 140 255 0 140 255 0 140 255 0 96 255 0 96 255 0 96 255 0 96 255 0 96 255 0 96 255 0 96 255 0 96 255 0 96 255 0 96 255 0 57 255 0 57 255 0 57 255 0 57 255 0 57 255 0 57 255 0 57 255 0 57 255 0 57 255 0 57 255 0 94 255 0 94 255 0 94 255 0 94 255 0 94 255 0 94 255 0 94 255 0 94 255 0 94 255 0 94 255 0 155 255 0 155 255 0 155 255 0 155 255 0 155 255 0 155 255 0 155 255 0 155 255 0 155 255 0 155 255 0 169 255 0 169 255 0 169 255 0 169 255 0 169 255 0 169 255 0 169 255 0 169 255 0 169 255 0 169 255 0 155 255 0 155 255 0 155 255 0 155 255 0 155 255 0 155 255 0 155 255 0 155 255 0 155 255 0 155 255 0 196 255 0 196 255 0 196 255 0 196 255 0 196 255 0 196 255 0 196 255 0 196 255 0 196 255 0 196 255 0 233 255 0 233 255 0 233 255 0 233 255 0 233 255 0 233 255 0 233 255 0 233 255 0 233 255 0 233 255 0 205 255 0 205 255 0 205 255 0 205 255 0 205 255 0 205 255 0 205 255 0 205 255 0 205 255 0 205 255 0 177 255 0 177 255 0 177 255 0 177 255 0 177 255 0 177 255 0 177 255 0 177 255 0 177 255 0 177 255 0 205 255 0 205 255 0 205 255 0 205 255 0 205 255 0 205 255 0 205 255 0 205 255 0 205 255 0 205 255 0 188 255 0 188 255 0 188 255 0 188 255 0 188 255 0 188 255 0 188 255 0 188 255 0 188 255 0 188 255 0 198 255 0 198 255 0 198 255 0 198 255 0 198 255 0 198 255 0 198 255 0 198 255 0 198 255 0 198 255 0 193 255 0 193 255 0 193 255 0 193 255 0 193 255 0 193 255 0 193 255 0 193 255 0 193 255 0 193 255 0 192 255 0 192 255 0 192 255 0 192 255 0 192 255 0 192 255 0 192 255 0 192 255 0 192 255 0 192 255 0 149 255 0 149 255 0 149 255 0 149 255 0 149 255 0 149 255 0 149 255 0 149 255 0 149 255 0 149 255 0 144 255 0 144 255 0 144 255 0 144 255 0 144 255 0 144 255 0 144 255 0 144 255 0 144 255 0 144 255 0 0 0 0 0 0 0 0 0 0 0 0 0 0 0 0 0 0 0 0 0 0 0 0 0 0 0 0 0 0 0 0 122 0 0 122 0 0 122 0 0 122 0 0 122 0 0 122 0 0 122 0 0 122 0 0 122 0 0 122 0 0 122 0 0 122 0 0 122 0 0 122 0 0 122 0 0 122 0 0 122 0 0 122 0 0 122 0 0 122 0 0 122 0 0 122 0 0 122 0 0 122 0 0 122 0 0 122 0 0 122 0 0 122 0 0 122 0 0 122 
0 168 255 0 168 255 0 168 255 0 168 255 0 168 255 0 168 255 0 168 255 0 168 255 0 168 255 0 168 255 0 159 255 0 159 255 0 159 255 0 159 255 0 159 255 0 159 255 0 159 255 0 159 255 0 159 255 0 159 255 0 155 255 0 155 255 0 155 255 0 155 255 0 155 255 0 155 255 0 155 255 0 155 255 0 155 255 0 155 255 0 167 255 0 167 255 0 167 255 0 167 255 0 167 255 0 167 255 0 167 255 0 167 255 0 167 255 0 167 255 0 184 255 0 184 255 0 184 255 0 184 255 0 184 255 0 184 255 0 184 255 0 184 255 0 184 255 0 184 255 0 201 255 0 201 255 0 201 255 0 201 255 0 201 255 0 201 255 0 201 255 0 201 255 0 201 255 0 201 255 0 206 255 0 206 255 0 206 255 0 206 255 0 206 255 0 206 255 0 206 255 0 206 255 0 206 255 0 206 255 0 131 255 0 131 255 0 131 255 0 131 255 0 131 255 0 131 255 0 131 255 0 131 255 0 131 255 0 131 255 0 100 255 0 100 255 0 100 255 0 100 255 0 100 255 0 100 255 0 100 255 0 100 255 0 100 255 0 100 255 0 97 255 0 97 255 0 97 255 0 97 255 0 97 255 0 97 255 0 97 255 0 97 255 0 97 255 0 97 255 0 140 255 0 140 255 0 140 255 0 140 255 0 140 255 0 140 255 0 140 255 0 140 255 0 140 255 0 140 255 0 96 255 0 96 255 0 96 255 0 96 255 0 96 255 0 96 255 0 96 255 0 96 255 0 96 255 0 96 255 0 57 255 0 57 255 0 57 255 0 57 255 0 57 255 0 57 255 0 57 255 0 57 255 0 57 255 0 57 255 0 94 255 0 94 255 0 94 255 0 94 255 0 94 255 0 94 255 0 94 255 0 94 255 0 94 255 0 94 255 0 155 255 0 155 255 0 155 255 0 155 255 0 155 255 0 155 255 0 155 255 0 155 255 0 155 255 0 155 255 0 169 255 0 169 255 0 169 255 0 169 255 0 169 255 0 169 255 0 169 255 0 169 255 0 169 255 0 169 255 0 155 255 0 155 255 0 155 255 0 155 255 0 155 255 0 155 255 0 155 255 0 155 255 0 155 255 0 155 255 0 196 255 0 196 255 0 196 255 0 196 255 0 196 255 0 196 255 0 196 255 0 196 255 0 196 255 0 196 255 0 233 255 0 233 255 0 233 255 0 233 255 0 233 255 0 233 255 0 233 255 0 233 255 0 233 255 0 233 255 0 205 255 0 205 255 0 205 255 0 205 255 0 205 255 0 205 255 0 205 255 0 205 255 0 205 255 0 205 255 0 177 255 0 177 255 0 177 255 0 177 255 0 177 255 0 177 255 0 177 255 0 177 255 0 177 255 0 177 255 0 205 255 0 205 255 0 205 255 0 205 255 0 205 255 0 205 255 0 205 255 0 205 255 0 205 255 0 205 255 0 188 255 0 188 255 0 188 255 0 188 255 0 188 255 0 188 255 0 188 255 0 188 255 0 188 255 0 188 255 0 198 255 0 198 255 0 198 255 0 198 255 0 198 255 0 198 255 0 198 255 0 198 255 0 198 255 0 198 255 0 193 255 0 193 255 0 193 255 0 193 255 0 193 255 0 193 255 0 193 255 0 193 255 0 193 255 0 193 255 0 192 255 0 192 255 0 192 255 0 192 255 0 192 255 0 192 255 0 192 255 0 192 255 0 192 255 0 192 255 0 149 255 0 149 255 0 149 255 0 149 255 0 149 255 0 149 255 0 149 255 0 149 255 0 149 255 0 149 255 0 144 255 0 144 255 0 144 255 0 144 255 0 144 255 0 144 255 0 144 255 0 144 255 0 144 255 0 144 255 0 0 0 0 0 0 0 0 0 0 0 0 0 0 0 0 0 0 0 0 0 0 0 0 0 0 0 0 0 0 0 0 126 0 0 126 0 0 126 0 0 126 0 0 126 0 0 126 0 0 126 0 0 126 0 0 126 0 0 126 0 0 126 0 0 126 0 0 126 0 0 126 0 0 126 0 0 126 0 0 126 0 0 126 0 0 126 0 0 126 0 0 126 0 0 126 0 0 126 0 0 126 0 0 126 0 0 126 0 0 126 0 0 126 0 0 126 0 0 126 
0 168 255 0 168 255 0 168 255 0 168 255 0 168 255 0 168 255 0 168 255 0 168 255 0 168 255 0 168 255 0 159 255 0 159 255 0 159 255 0 159 255 0 159 255 0 159 255 0 159 255 0 159 255 0 159 255 0 159 255 0 155 255 0 155 255 0 155 255 0 155 255 0 155 255 0 155 255 0 155 255 0 155 255 0 155 255 0 155 255 0 167 255 0 167 255 0 167 255 0 167 255 0 167 255 0 167 255 0 167 255 0 167 255 0 167 255 0 167 255 0 184 255 0 184 255 0 184 255 0 184 255 0 184 255 0 184 255 0 184 255 0 184 255 0 184 255 0 184 255 0 201 255 0 201 255 0 201 255 0 201 255 0 201 255 0 201 255 0 201 255 0 201 255 0 201 255 0 201 255 0 206 255 0 206 255 0 206 255 0 206 255 0 206 255 0 206 255 0 206 255 0 206 255 0 206 255 0 206 255 0 131 255 0 131 255 0 131 255 0 131 255 0 131 255 0 131 255 0 131 255 0 131 255 0 131 255 0 131 255 0 100 255 0 100 255 0 100 255 0 100 255 0 100 255 0 100 255 0 100 255 0 100 255 0 100 255 0 100 255 0 97 255 0 97 255 0 97 255 0 97 255 0 97 255 0 97 255 0 97 255 0 97 255 0 97 255 0 97 255 0 140 255 0 140 255 0 140 255 0 140 255 0 140 255 0 140 255 0 140 255 0 140 255 0 140 255 0 140 255 0 96 255 0 96 255 0 96 255 0 96 255 0 96 255 0 96 255 0 96 255 0 96 255 0 96 255 0 96 255 0 57 255 0 57 255 0 57 255 0 57 255 0 57 255 0 57 255 0 57 255 0 57 255 0 57 255 0 57 255 0 94 255 0 94 255 0 94 255 0 94 255 0 94 255 0 94 255 0 94 255 0 94 255 0 94 255 0 94 255 0 155 255 0 155 255 0 155 255 0 155 255 0 155 255 0 155 255 0 155 255 0 155 255 0 155 255 0 155 255 0 169 255 0 169 255 0 169 255 0 169 255 0 169 255 0 169 255 0 169 255 0 169 255 0 169 255 0 169 255 0 155 255 0 155 255 0 155 255 0 155 255 0 155 255 0 155 255 0 155 255 0 155 255 0 155 255 0 155 255 0 196 255 0 196 255 0 196 255 0 196 255 0 196 255 0 196 255 0 196 255 0 196 255 0 196 255 0 196 255 0 233 255 0 233 255 0 233 255 0 233 255 0 233 255 0 233 255 0 233 255 0 233 255 0 233 255 0 233 255 0 205 255 0 205 255 0 205 255 0 205 255 0 205 255 0 205 255 0 205 255 0 205 255 0 205 255 0 205 255 0 177 255 0 177 255 0 177 255 0 177 255 0 177 255 0 177 255 0 177 255 0 177 255 0 177 255 0 177 255 0 205 255 0 205 255 0 205 255 0 205 255 0 205 255 0 205 255 0 205 255 0 205 255 0 205 255 0 205 255 0 188 255 0 188 255 0 188 255 0 188 255 0 188 255 0 188 255 0 188 255 0 188 255 0 188 255 0 188 255 0 198 255 0 198 255 0 198 255 0 198 255 0 198 255 0 198 255 0 198 255 0 198 255 0 198 255 0 198 255 0 193 255 0 193 255 0 193 255 0 193 255 0 193 255 0 193 255 0 193 255 0 193 255 0 193 255 0 193 255 0 192 255 0 192 255 0 192 255 0 192 255 0 192 255 0 192 255 0 192 255 0 192 255 0 192 255 0 192 255 0 149 255 0 149 255 0 149 255 0 149 255 0 149 255 0 149 255 0 149 255 0 149 255 0 149 255 0 149 255 0 144 255 0 144 255 0 144 255 0 144 255 0 144 255 0 144 255 0 144 255 0 144 255 0 144 255 0 144 255 0 0 0 0 0 0 0 0 0 0 0 0 0 0 0 0 0 0 0 0 0 0 0 0 0 0 0 0 0 0 0 0 129 0 0 129 0 0 129 0 0 129 0 0 129 0 0 129 0 0 129 0 0 129 0 0 129 0 0 129 0 0 129 0 0 129 0 0 129 0 0 129 0 0 129 0 0 129 0 0 129 0 0 129 0 0 129 0 0 129 0 0 129 0 0 129 0 0 129 0 0 129 0 0 129 0 0 129 0 0 129 0 0 129 0 0 129 0 0 129 
0 168 255 0 168 255 0 168 255 0 168 255 0 168 255 0 168 255 0 168 255 0 168 255 0 168 255 0 168 255 0 159 255 0 159 255 0 159 255 0 159 255 0 159 255 0 159 255 0 159 255 0 159 255 0 159 255 0 159 255 0 155 255 0 155 255 0 155 255 0 155 255 0 155 255 0 155 255 0 155 255 0 155 255 0 155 255 0 155 255 0 167 255 0 167 255 0 167 255 0 167 255 0 167 255 0 167 255 0 167 255 0 167 255 0 167 255 0 167 255 0 184 255 0 184 255 0 184 255 0 184 255 0 184 255 0 184 255 0 184 255 0 184 255 0 184 255 0 184 255 0 201 255 0 201 255 0 201 255 0 201 255 0 201 255 0 201 255 0 201 255 0 201 255 0 201 255 0 201 255 0 206 255 0 206 255 0 206 255 0 206 255 0 206 255 0 206 255 0 206 255 0 206 255 0 206 255 0 206 255 0 131 255 0 131 255 0 131 255 0 131 255 0 131 255 0 131 255 0 131 255 0 131 255 0 131 255 0 131 255 0 100 255 0 100 255 0 100 255 0 100 255 0 100 255 0 100 255 0 100 255 0 100 255 0 100 255 0 100 255 0 97 255 0 97 255 0 97 255 0 97 255 0 97 255 0 97 255 0 97 255 0 97 255 0 97 255 0 97 255 0 140 255 0 140 255 0 140 255 0 140 255 0 140 255 0 140 255 0 140 255 0 140 255 0 140 255 0 140 255 0 96 255 0 96 255 0 96 255 0 96 255 0 96 255 0 96 255 0 96 255 0 96 255 0 96 255 0 96 255 0 57 255 0 57 255 0 57 255 0 57 255 0 57 255 0 57 255 0 57 255 0 57 255 0 57 255 0 57 255 0 94 255 0 94 255 0 94 255 0 94 255 0 94 255 0 94 255 0 94 255 0 94 255 0 94 255 0 94 255 0 155 255 0 155 255 0 155 255 0 155 255 0 155 255 0 155 255 0 155 255 0 155 255 0 155 255 0 155 255 0 169 255 0 169 255 0 169 255 0 169 255 0 169 255 0 169 255 0 169 255 0 169 255 0 169 255 0 169 255 0 155 255 0 155 255 0 155 255 0 155 255 0 155 255 0 155 255 0 155 255 0 155 255 0 155 255 0 155 255 0 196 255 0 196 255 0 196 255 0 196 255 0 196 255 0 196 255 0 196 255 0 196 255 0 196 255 0 196 255 0 233 255 0 233 255 0 233 255 0 233 255 0 233 255 0 233 255 0 233 255 0 233 255 0 233 255 0 233 255 0 205 255 0 205 255 0 205 255 0 205 255 0 205 255 0 205 255 0 205 255 0 205 255 0 205 255 0 205 255 0 177 255 0 177 255 0 177 255 0 177 255 0 177 255 0 177 255 0 177 255 0 177 255 0 177 255 0 177 255 0 205 255 0 205 255 0 205 255 0 205 255 0 205 255 0 205 255 0 205 255 0 205 255 0 205 255 0 205 255 0 188 255 0 188 255 0 188 255 0 188 255 0 188 255 0 188 255 0 188 255 0 188 255 0 188 255 0 188 255 0 198 255 0 198 255 0 198 255 0 198 255 0 198 255 0 198 255 0 198 255 0 198 255 0 198 255 0 198 255 0 193 255 0 193 255 0 193 255 0 193 255 0 193 255 0 193 255 0 193 255 0 193 255 0 193 255 0 193 255 0 192 255 0 192 255 0 192 255 0 192 255 0 192 255 0 192 255 0 192 255 0 192 255 0 192 255 0 192 255 0 149 255 0 149 255 0 149 255 0 149 255 0 149 255 0 149 255 0 149 255 0 149 255 0 149 255 0 149 255 0 144 255 0 144 255 0 144 255 0 144 255 0 144 255 0 144 255 0 144 255 0 144 255 0 144 255 0 144 255 0 0 0 0 0 0 0 0 0 0 0 0 0 0 0 0 0 0 0 0 0 0 0 0 0 0 0 0 0 0 0 0 133 0 0 133 0 0 133 0 0 133 0 0 133 0 0 133 0 0 133 0 0 133 0 0 133 0 0 133 0 0 133 0 0 133 0 0 133 0 0 133 0 0 133 0 0 133 0 0 133 0 0 133 0 0 133 0 0 133 0 0 133 0 0 133 0 0 133 0 0 133 0 0 133 0 0 133 0 0 133 0 0 133 0 0 133 0 0 133 
0 168 255 0 168 255 0 168 255 0 168 255 0 168 255 0 168 255 0 168 255 0 168 255 0 168 255 0 168 255 0 159 255 0 159 255 0 159 255 0 159 255 0 159 255 0 159 255 0 159 255 0 159 255 0 159 255 0 159 255 0 155 255 0 155 255 0 155 255 0 155 255 0 155 255 0 155 255 0 155 255 0 155 255 0 155 255 0 155 255 0 167 255 0 167 255 0 167 255 0 167 255 0 167 255 0 167 255 0 167 255 0 167 255 0 167 255 0 167 255 0 184 255 0 184 255 0 184 255 0 184 255 0 184 255 0 184 255 0 184 255 0 184 255 0 184 255 0 184 255 0 201 255 0 201 255 0 201 255 0 201 255 0 201 255 0 201 255 0 201 255 0 201 255 0 201 255 0 201 255 0 206 255 0 206 255 0 206 255 0 206 255 0 206 255 0 206 255 0 206 255 0 206 255 0 206 255 0 206 255 0 131 255 0 131 255 0 131 255 0 131 255 0 131 255 0 131 255 0 131 255 0 131 255 0 131 255 0 131 255 0 100 255 0 100 255 0 100 255 0 100 255 0 100 255 0 100 255 0 100 255 0 100 255 0 100 255 0 100 255 0 97 255 0 97 255 0 97 255 0 97 255 0 97 255 0 97 255 0 97 255 0 97 255 0 97 255 0 97 255 0 140 255 0 140 255 0 140 255 0 140 255 0 140 255 0 140 255 0 140 255 0 140 255 0 140 255 0 140 255 0 96 255 0 96 255 0 96 255 0 96 255 0 96 255 0 96 255 0 96 255 0 96 255 0 96 255 0 96 255 0 57 255 0 57 255 0 57 255 0 57 255 0 57 255 0 57 255 0 57 255 0 57 255 0 57 255 0 57 255 0 94 255 0 94 255 0 94 255 0 94 255 0 94 255 0 94 255 0 94 255 0 94 255 0 94 255 0 94 255 0 155 255 0 155 255 0 155 255 0 155 255 0 155 255 0 155 255 0 155 255 0 155 255 0 155 255 0 155 255 0 169 255 0 169 255 0 169 255 0 169 255 0 169 255 0 169 255 0 169 255 0 169 255 0 169 255 0 169 255 0 155 255 0 155 255 0 155 255 0 155 255 0 155 255 0 155 255 0 155 255 0 155 255 0 155 255 0 155 255 0 196 255 0 196 255 0 196 255 0 196 255 0 196 255 0 196 255 0 196 255 0 196 255 0 196 255 0 196 255 0 233 255 0 233 255 0 233 255 0 233 255 0 233 255 0 233 255 0 233 255 0 233 255 0 233 255 0 233 255 0 205 255 0 205 255 0 205 255 0 205 255 0 205 255 0 205 255 0 205 255 0 205 255 0 205 255 0 205 255 0 177 255 0 177 255 0 177 255 0 177 255 0 177 255 0 177 255 0 177 255 0 177 255 0 177 255 0 177 255 0 205 255 0 205 255 0 205 255 0 205 255 0 205 255 0 205 255 0 205 255 0 205 255 0 205 255 0 205 255 0 188 255 0 188 255 0 188 255 0 188 255 0 188 255 0 188 255 0 188 255 0 188 255 0 188 255 0 188 255 0 198 255 0 198 255 0 198 255 0 198 255 0 198 255 0 198 255 0 198 255 0 198 255 0 198 255 0 198 255 0 193 255 0 193 255 0 193 255 0 193 255 0 193 255 0 193 255 0 193 255 0 193 255 0 193 255 0 193 255 0 192 255 0 192 255 0 192 255 0 192 255 0 192 255 0 192 255 0 192 255 0 192 255 0 192 255 0 192 255 0 149 255 0 149 255 0 149 255 0 149 255 0 149 255 0 149 255 0 149 255 0 149 255 0 149 255 0 149 255 0 144 255 0 144 255 0 144 255 0 144 255 0 144 255 0 144 255 0 144 255 0 144 255 0 144 255 0 144 255 0 0 0 0 0 0 0 0 0 0 0 0 0 0 0 0 0 0 0 0 0 0 0 0 0 0 0 0 0 0 0 0 137 0 0 137 0 0 137 0 0 137 0 0 137 0 0 137 0 0 137 0 0 137 0 0 137 0 0 137 0 0 137 0 0 137 0 0 137 0 0 137 0 0 137 0 0 137 0 0 137 0 0 137 0 0 137 0 0 137 0 0 137 0 0 137 0 0 137 0 0 137 0 0 137 0 0 137 0 0 137 0 0 137 0 0 137 0 0 137 
0 168 255 0 168 255 0 168 255 0 168 255 0 168 255 0 168 255 0 168 255 0 168 255 0 168 255 0 168 255 0 159 255 0 159 255 0 159 255 0 159 255 0 159 255 0 159 255 0 159 255 0 159 255 0 159 255 0 159 255 0 155 255 0 155 255 0 155 255 0 155 255 0 155 255 0 155 255 0 155 255 0 155 255 0 155 255 0 155 255 0 167 255 0 167 255 0 167 255 0 167 255 0 167 255 0 167 255 0 167 255 0 167 255 0 167 255 0 167 255 0 184 255 0 184 255 0 184 255 0 184 255 0 184 255 0 184 255 0 184 255 0 184 255 0 184 255 0 184 255 0 201 255 0 201 255 0 201 255 0 201 255 0 201 255 0 201 255 0 201 255 0 201 255 0 201 255 0 201 255 0 206 255 0 206 255 0 206 255 0 206 255 0 206 255 0 206 255 0 206 255 0 206 255 0 206 255 0 206 255 0 131 255 0 131 255 0 131 255 0 131 255 0 131 255 0 131 255 0 131 255 0 131 255 0 131 255 0 131 255 0 100 255 0 100 255 0 100 255 0 100 255 0 100 255 0 100 255 0 100 255 0 100 255 0 100 255 0 100 255 0 97 255 0 97 255 0 97 255 0 97 255 0 97 255 0 97 255 0 97 255 0 97 255 0 97 255 0 97 255 0 140 255 0 140 255 0 140 255 0 140 255 0 140 255 0 140 255 0 140 255 0 140 255 0 140 255 0 140 255 0 96 255 0 96 255 0 96 255 0 96 255 0 96 255 0 96 255 0 96 255 0 96 255 0 96 255 0 96 255 0 57 255 0 57 255 0 57 255 0 57 255 0 57 255 0 57 255 0 57 255 0 57 255 0 57 255 0 57 255 0 94 255 0 94 255 0 94 255 0 94 255 0 94 255 0 94 255 0 94 255 0 94 255 0 94 255 0 94 255 0 155 255 0 155 255 0 155 255 0 155 255 0 155 255 0 155 255 0 155 255 0 155 255 0 155 255 0 155 255 0 169 255 0 169 255 0 169 255 0 169 255 0 169 255 0 169 255 0 169 255 0 169 255 0 169 255 0 169 255 0 155 255 0 155 255 0 155 255 0 155 255 0 155 255 0 155 255 0 155 255 0 155 255 0 155 255 0 155 255 0 196 255 0 196 255 0 196 255 0 196 255 0 196 255 0 196 255 0 196 255 0 196 255 0 196 255 0 196 255 0 233 255 0 233 255 0 233 255 0 233 255 0 233 255 0 233 255 0 233 255 0 233 255 0 233 255 0 233 255 0 205 255 0 205 255 0 205 255 0 205 255 0 205 255 0 205 255 0 205 255 0 205 255 0 205 255 0 205 255 0 177 255 0 177 255 0 177 255 0 177 255 0 177 255 0 177 255 0 177 255 0 177 255 0 177 255 0 177 255 0 205 255 0 205 255 0 205 255 0 205 255 0 205 255 0 205 255 0 205 255 0 205 255 0 205 255 0 205 255 0 188 255 0 188 255 0 188 255 0 188 255 0 188 255 0 188 255 0 188 255 0 188 255 0 188 255 0 188 255 0 198 255 0 198 255 0 198 255 0 198 255 0 198 255 0 198 255 0 198 255 0 198 255 0 198 255 0 198 255 0 193 255 0 193 255 0 193 255 0 193 255 0 193 255 0 193 255 0 193 255 0 193 255 0 193 255 0 193 255 0 192 255 0 192 255 0 192 255 0 192 255 0 192 255 0 192 255 0 192 255 0 192 255 0 192 255 0 192 255 0 149 255 0 149 255 0 149 255 0 149 255 0 149 255 0 149 255 0 149 255 0 149 255 0 149 255 0 149 255 0 144 255 0 144 255 0 144 255 0 144 255 0 144 255 0 144 255 0 144 255 0 144 255 0 144 255 0 144 255 0 0 0 0 0 0 0 0 0 0 0 0 0 0 0 0 0 0 0 0 0 0 0 0 0 0 0 0 0 0 0 0 140 0 0 140 0 0 140 0 0 140 0 0 140 0 0 140 0 0 140 0 0 140 0 0 140 0 0 140 0 0 140 0 0 140 0 0 140 0 0 140 0 0 140 0 0 140 0 0 140 0 0 140 0 0 140 0 0 140 0 0 140 0 0 140 0 0 140 0 0 140 0 0 140 0 0 140 0 0 140 0 0 140 0 0 140 0 0 140 
0 168 255 0 168 255 0 168 255 0 168 255 0 168 255 0 168 255 0 168 255 0 168 255 0 168 255 0 168 255 0 159 255 0 159 255 0 159 255 0 159 255 0 159 255 0 159 255 0 159 255 0 159 255 0 159 255 0 159 255 0 155 255 0 155 255 0 155 255 0 155 255 0 155 255 0 155 255 0 155 255 0 155 255 0 155 255 0 155 255 0 167 255 0 167 255 0 167 255 0 167 255 0 167 255 0 167 255 0 167 255 0 167 255 0 167 255 0 167 255 0 184 255 0 184 255 0 184 255 0 184 255 0 184 255 0 184 255 0 184 255 0 184 255 0 184 255 0 184 255 0 201 255 0 201 255 0 201 255 0 201 255 0 201 255 0 201 255 0 201 255 0 201 255 0 201 255 0 201 255 0 206 255 0 206 255 0 206 255 0 206 255 0 206 255 0 206 255 0 206 255 0 206 255 0 206 255 0 206 255 0 131 255 0 131 255 0 131 255 0 131 255 0 131 255 0 131 255 0 131 255 0 131 255 0 131 255 0 131 255 0 100 255 0 100 255 0 100 255 0 100 255 0 100 255 0 100 255 0 100 255 0 100 255 0 100 255 0 100 255 0 97 255 0 97 255 0 97 255 0 97 255 0 97 255 0 97 255 0 97 255 0 97 255 0 97 255 0 97 255 0 140 255 0 140 255 0 140 255 0 140 255 0 140 255 0 140 255 0 140 255 0 140 255 0 140 255 0 140 255 0 96 255 0 96 255 0 96 255 0 96 255 0 96 255 0 96 255 0 96 255 0 96 255 0 96 255 0 96 255 0 57 255 0 57 255 0 57 255 0 57 255 0 57 255 0 57 255 0 57 255 0 57 255 0 57 255 0 57 255 0 94 255 0 94 255 0 94 255 0 94 255 0 94 255 0 94 255 0 94 255 0 94 255 0 94 255 0 94 255 0 155 255 0 155 255 0 155 255 0 155 255 0 155 255 0 155 255 0 155 255 0 155 255 0 155 255 0 155 255 0 169 255 0 169 255 0 169 255 0 169 255 0 169 255 0 169 255 0 169 255 0 169 255 0 169 255 0 169 255 0 155 255 0 155 255 0 155 255 0 155 255 0 155 255 0 155 255 0 155 255 0 155 255 0 155 255 0 155 255 0 196 255 0 196 255 0 196 255 0 196 255 0 196 255 0 196 255 0 196 255 0 196 255 0 196 255 0 196 255 0 233 255 0 233 255 0 233 255 0 233 255 0 233 255 0 233 255 0 233 255 0 233 255 0 233 255 0 233 255 0 205 255 0 205 255 0 205 255 0 205 255 0 205 255 0 205 255 0 205 255 0 205 255 0 205 255 0 205 255 0 177 255 0 177 255 0 177 255 0 177 255 0 177 255 0 177 255 0 177 255 0 177 255 0 177 255 0 177 255 0 205 255 0 205 255 0 205 255 0 205 255 0 205 255 0 205 255 0 205 255 0 205 255 0 205 255 0 205 255 0 188 255 0 188 255 0 188 255 0 188 255 0 188 255 0 188 255 0 188 255 0 188 255 0 188 255 0 188 255 0 198 255 0 198 255 0 198 255 0 198 255 0 198 255 0 198 255 0 198 255 0 198 255 0 198 255 0 198 255 0 193 255 0 193 255 0 193 255 0 193 255 0 193 255 0 193 255 0 193 255 0 193 255 0 193 255 0 193 255 0 192 255 0 192 255 0 192 255 0 192 255 0 192 255 0 192 255 0 192 255 0 192 255 0 192 255 0 192 255 0 149 255 0 149 255 0 149 255 0 149 255 0 149 255 0 149 255 0 149 255 0 149 255 0 149 255 0 149 255 0 144 255 0 144 255 0 144 255 0 144 255 0 144 255 0 144 255 0 144 255 0 144 255 0 144 255 0 144 255 0 0 0 0 0 0 0 0 0 0 0 0 0 0 0 0 0 0 0 0 0 0 0 0 0 0 0 0 0 0 0 0 144 0 0 144 0 0 144 0 0 144 0 0 144 0 0 144 0 0 144 0 0 144 0 0 144 0 0 144 0 0 144 0 0 144 0 0 144 0 0 144 0 0 144 0 0 144 0 0 144 0 0 144 0 0 144 0 0 144 0 0 144 0 0 144 0 0 144 0 0 144 0 0 144 0 0 144 0 0 144 0 0 144 0 0 144 0 0 144 
0 151 255 0 151 255 0 151 255 0 151 255 0 151 255 0 151 255 0 151 255 0 151 255 0 151 255 0 151 255 0 168 255 0 168 255 0 168 255 0 168 255 0 168 255 0 168 255 0 168 255 0 168 255 0 168 255 0 168 255 0 160 255 0 160 255 0 160 255 0 160 255 0 160 255 0 160 255 0 160 255 0 160 255 0 160 255 0 160 255 0 170 255 0 170 255 0 170 255 0 170 255 0 170 255 0 170 255 0 170 255 0 170 255 0 170 255 0 170 255 0 209 255 0 209 255 0 209 255 0 209 255 0 209 255 0 209 255 0 209 255 0 209 255 0 209 255 0 209 255 0 198 255 0 198 255 0 198 255 0 198 255 0 198 255 0 198 255 0 198 255 0 198 255 0 198 255 0 198 255 0 166 255 0 166 255 0 166 255 0 166 255 0 166 255 0 166 255 0 166 255 0 166 255 0 166 255 0 166 255 0 134 255 0 134 255 0 134 255 0 134 255 0 134 255 0 134 255 0 134 255 0 134 255 0 134 255 0 134 255 0 114 255 0 114 255 0 114 255 0 114 255 0 114 255 0 114 255 0 114 255 0 114 255 0 114 255 0 114 255 0 76 255 0 76 255 0 76 255 0 76 255 0 76 255 0 76 255 0 76 255 0 76 255 0 76 255 0 76 255 0 79 255 0 79 255 0 79 255 0 79 255 0 79 255 0 79 255 0 79 255 0 79 255 0 79 255 0 79 255 0 74 255 0 74 255 0 74 255 0 74 255 0 74 255 0 74 255 0 74 255 0 74 255 0 74 255 0 74 255 0 85 255 0 85 255 0 85 255 0 85 255 0 85 255 0 85 255 0 85 255 0 85 255 0 85 255 0 85 255 0 138 255 0 138 255 0 138 255 0 138 255 0 138 255 0 138 255 0 138 255 0 138 255 0 138 255 0 138 255 0 176 255 0 176 255 0 176 255 0 176 255 0 176 255 0 176 255 0 176 255 0 176 255 0 176 255 0 176 255 0 169 255 0 169 255 0 169 255 0 169 255 0 169 255 0 169 255 0 169 255 0 169 255 0 169 255 0 169 255 0 195 255 0 195 255 0 195 255 0 195 255 0 195 255 0 195 255 0 195 255 0 195 255 0 195 255 0 195 255 0 210 255 0 210 255 0 210 255 0 210 255 0 210 255 0 210 255 0 210 255 0 210 255 0 210 255 0 210 255 0 192 255 0 192 255 0 192 255 0 192 255 0 192 255 0 192 255 0 192 255 0 192 255 0 192 255 0 192 255 0 179 255 0 179 255 0 179 255 0 179 255 0 179 255 0 179 255 0 179 255 0 179 255 0 179 255 0 179 255 0 178 255 0 178 255 0 178 255 0 178 255 0 178 255 0 178 255 0 178 255 0 178 255 0 178 255 0 178 255 0 178 255 0 178 255 0 178 255 0 178 255 0 178 255 0 178 255 0 178 255 0 178 255 0 178 255 0 178 255 0 158 255 0 158 255 0 158 255 0 158 255 0 158 255 0 158 255 0 158 255 0 158 255 0 158 255 0 158 255 0 177 255 0 177 255 0 177 255 0 177 255 0 177 255 0 177 255 0 177 255 0 177 255 0 177 255 0 177 255 0 164 255 0 164 255 0 164 255 0 164 255 0 164 255 0 164 255 0 164 255 0 164 255 0 164 255 0 164 255 0 169 255 0 169 255 0 169 255 0 169 255 0 169 255 0 169 255 0 169 255 0 169 255 0 169 255 0 169 255 0 162 255 0 162 255 0 162 255 0 162 255 0 162 255 0 162 255 0 162 255 0 162 255 0 162 255 0 162 255 0 144 255 0 144 255 0 144 255 0 144 255 0 144 255 0 144 255 0 144 255 0 144 255 0 144 255 0 144 255 0 0 0 0 0 0 0 0 0 0 0 0 0 0 0 0 0 0 0 0 0 0 0 0 0 0 0 0 0 0 0 0 148 0 0 148 0 0 148 0 0 148 0 0 148 0 0 148 0 0 148 0 0 148 0 0 148 0 0 148 0 0 148 0 0 148 0 0 148 0 0 148 0 0 148 0 0 148 0 0 148 0 0 148 0 0 148 0 0 148 0 0 148 0 0 148 0 0 148 0 0 148 0 0 148 0 0 148 0 0 148 0 0 148 0 0 148 0 0 148 
0 151 255 0 151 255 0 151 255 0 151 255 0 151 255 0 151 255 0 151 255 0 151 255 0 151 255 0 151 255 0 168 255 0 168 255 0 168 255 0 168 255 0 168 255 0 168 255 0 168 255 0 168 255 0 168 255 0 168 255 0 160 255 0 160 255 0 160 255 0 160 255 0 160 255 0 160 255 0 160 255 0 160 255 0 160 255 0 160 255 0 170 255 0 170 255 0 170 255 0 170 255 0 170 255 0 170 255 0 170 255 0 170 255 0 170 255 0 170 255 0 209 255 0 209 255 0 209 255 0 209 255 0 209 255 0 209 255 0 209 255 0 209 255 0 209 255 0 209 255 0 198 255 0 198 255 0 198 255 0 198 255 0 198 255 0 198 255 0 198 255 0 198 255 0 198 255 0 198 255 0 166 255 0 166 255 0 166 255 0 166 255 0 166 255 0 166 255 0 166 255 0 166 255 0 166 255 0 166 255 0 134 255 0 134 255 0 134 255 0 134 255 0 134 255 0 134 255 0 134 255 0 134 255 0 134 255 0 134 255 0 114 255 0 114 255 0 114 255 0 114 255 0 114 255 0 114 255 0 114 255 0 114 255 0 114 255 0 114 255 0 76 255 0 76 255 0 76 255 0 76 255 0 76 255 0 76 255 0 76 255 0 76 255 0 76 255 0 76 255 0 79 255 0 79 255 0 79 255 0 79 255 0 79 255 0 79 255 0 79 255 0 79 255 0 79 255 0 79 255 0 74 255 0 74 255 0 74 255 0 74 255 0 74 255 0 74 255 0 74 255 0 74 255 0 74 255 0 74 255 0 85 255 0 85 255 0 85 255 0 85 255 0 85 255 0 85 255 0 85 255 0 85 255 0 85 255 0 85 255 0 138 255 0 138 255 0 138 255 0 138 255 0 138 255 0 138 255 0 138 255 0 138 255 0 138 255 0 138 255 0 176 255 0 176 255 0 176 255 0 176 255 0 176 255 0 176 255 0 176 255 0 176 255 0 176 255 0 176 255 0 169 255 0 169 255 0 169 255 0 169 255 0 169 255 0 169 255 0 169 255 0 169 255 0 169 255 0 169 255 0 195 255 0 195 255 0 195 255 0 195 255 0 195 255 0 195 255 0 195 255 0 195 255 0 195 255 0 195 255 0 210 255 0 210 255 0 210 255 0 210 255 0 210 255 0 210 255 0 210 255 0 210 255 0 210 255 0 210 255 0 192 255 0 192 255 0 192 255 0 192 255 0 192 255 0 192 255 0 192 255 0 192 255 0 192 255 0 192 255 0 179 255 0 179 255 0 179 255 0 179 255 0 179 255 0 179 255 0 179 255 0 179 255 0 179 255 0 179 255 0 178 255 0 178 255 0 178 255 0 178 255 0 178 255 0 178 255 0 178 255 0 178 255 0 178 255 0 178 255 0 178 255 0 178 255 0 178 255 0 178 255 0 178 255 0 178 255 0 178 255 0 178 255 0 178 255 0 178 255 0 158 255 0 158 255 0 158 255 0 158 255 0 158 255 0 158 255 0 158 255 0 158 255 0 158 255 0 158 255 0 177 255 0 177 255 0 177 255 0 177 255 0 177 255 0 177 255 0 177 255 0 177 255 0 177 255 0 177 255 0 164 255 0 164 255 0 164 255 0 164 255 0 164 255 0 164 255 0 164 255 0 164 255 0 164 255 0 164 255 0 169 255 0 169 255 0 169 255 0 169 255 0 169 255 0 169 255 0 169 255 0 169 255 0 169 255 0 169 255 0 162 255 0 162 255 0 162 255 0 162 255 0 162 255 0 162 255 0 162 255 0 162 255 0 162 255 0 162 255 0 144 255 0 144 255 0 144 255 0 144 255 0 144 255 0 144 255 0 144 255 0 144 255 0 144 255 0 144 255 0 0 0 0 0 0 0 0 0 0 0 0 0 0 0 0 0 0 0 0 0 0 0 0 0 0 0 0 0 0 0 0 151 0 0 151 0 0 151 0 0 151 0 0 151 0 0 151 0 0 151 0 0 151 0 0 151 0 0 151 0 0 151 0 0 151 0 0 151 0 0 151 0 0 151 0 0 151 0 0 151 0 0 151 0 0 151 0 0 151 0 0 151 0 0 151 0 0 151 0 0 151 0 0 151 0 0 151 0 0 151 0 0 151 0 0 151 0 0 151 
0 151 255 0 151 255 0 151 255 0 151 255 0 151 255 0 151 255 0 151 255 0 151 255 0 151 255 0 151 255 0 168 255 0 168 255 0 168 255 0 168 255 0 168 255 0 168 255 0 168 255 0 168 255 0 168 255 0 168 255 0 160 255 0 160 255 0 160 255 0 160 255 0 160 255 0 160 255 0 160 255 0 160 255 0 160 255 0 160 255 0 170 255 0 170 255 0 170 255 0 170 255 0 170 255 0 170 255 0 170 255 0 170 255 0 170 255 0 170 255 0 209 255 0 209 255 0 209 255 0 209 255 0 209 255 0 209 255 0 209 255 0 209 255 0 209 255 0 209 255 0 198 255 0 198 255 0 198 255 0 198 255 0 198 255 0 198 255 0 198 255 0 198 255 0 198 255 0 198 255 0 166 255 0 166 255 0 166 255 0 166 255 0 166 255 0 166 255 0 166 255 0 166 255 0 166 255 0 166 255 0 134 255 0 134 255 0 134 255 0 134 255 0 134 255 0 134 255 0 134 255 0 134 255 0 134 255 0 134 255 0 114 255 0 114 255 0 114 255 0 114 255 0 114 255 0 114 255 0 114 255 0 114 255 0 114 255 0 114 255 0 76 255 0 76 255 0 76 255 0 76 255 0 76 255 0 76 255 0 76 255 0 76 255 0 76 255 0 76 255 0 79 255 0 79 255 0 79 255 0 79 255 0 79 255 0 79 255 0 79 255 0 79 255 0 79 255 0 79 255 0 74 255 0 74 255 0 74 255 0 74 255 0 74 255 0 74 255 0 74 255 0 74 255 0 74 255 0 74 255 0 85 255 0 85 255 0 85 255 0 85 255 0 85 255 0 85 255 0 85 255 0 85 255 0 85 255 0 85 255 0 138 255 0 138 255 0 138 255 0 138 255 0 138 255 0 138 255 0 138 255 0 138 255 0 138 255 0 138 255 0 176 255 0 176 255 0 176 255 0 176 255 0 176 255 0 176 255 0 176 255 0 176 255 0 176 255 0 176 255 0 169 255 0 169 255 0 169 255 0 169 255 0 169 255 0 169 255 0 169 255 0 169 255 0 169 255 0 169 255 0 195 255 0 195 255 0 195 255 0 195 255 0 195 255 0 195 255 0 195 255 0 195 255 0 195 255 0 195 255 0 210 255 0 210 255 0 210 255 0 210 255 0 210 255 0 210 255 0 210 255 0 210 255 0 210 255 0 210 255 0 192 255 0 192 255 0 192 255 0 192 255 0 192 255 0 192 255 0 192 255 0 192 255 0 192 255 0 192 255 0 179 255 0 179 255 0 179 255 0 179 255 0 179 255 0 179 255 0 179 255 0 179 255 0 179 255 0 179 255 0 178 255 0 178 255 0 178 255 0 178 255 0 178 255 0 178 255 0 178 255 0 178 255 0 178 255 0 178 255 0 178 255 0 178 255 0 178 255 0 178 255 0 178 255 0 178 255 0 178 255 0 178 255 0 178 255 0 178 255 0 158 255 0 158 255 0 158 255 0 158 255 0 158 255 0 158 255 0 158 255 0 158 255 0 158 255 0 158 255 0 177 255 0 177 255 0 177 255 0 177 255 0 177 255 0 177 255 0 177 255 0 177 255 0 177 255 0 177 255 0 164 255 0 164 255 0 164 255 0 164 255 0 164 255 0 164 255 0 164 255 0 164 255 0 164 255 0 164 255 0 169 255 0 169 255 0 169 255 0 169 255 0 169 255 0 169 255 0 169 255 0 169 255 0 169 255 0 169 255 0 162 255 0 162 255 0 162 255 0 162 255 0 162 255 0 162 255 0 162 255 0 162 255 0 162 255 0 162 255 0 144 255 0 144 255 0 144 255 0 144 255 0 144 255 0 144 255 0 144 255 0 144 255 0 144 255 0 144 255 0 0 0 0 0 0 0 0 0 0 0 0 0 0 0 0 0 0 0 0 0 0 0 0 0 0 0 0 0 0 0 0 155 0 0 155 0 0 155 0 0 155 0 0 155 0 0 155 0 0 155 0 0 155 0 0 155 0 0 155 0 0 155 0 0 155 0 0 155 0 0 155 0 0 155 0 0 155 0 0 155 0 0 155 0 0 155 0 0 155 0 0 155 0 0 155 0 0 155 0 0 155 0 0 155 0 0 155 0 0 155 0 0 155 0 0 155 0 0 155 
0 151 255 0 151 255 0 151 255 0 151 255 0 151 255 0 151 255 0 151 255 0 151 255 0 151 255 0 151 255 0 168 255 0 168 255 0 168 255 0 168 255 0 168 255 0 168 255 0 168 255 0 168 255 0 168 255 0 168 255 0 160 255 0 160 255 0 160 255 0 160 255 0 160 255 0 160 255 0 160 255 0 160 255 0 160 255 0 160 255 0 170 255 0 170 255 0 170 255 0 170 255 0 170 255 0 170 255 0 170 255 0 170 255 0 170 255 0 170 255 0 209 255 0 209 255 0 209 255 0 209 255 0 209 255 0 209 255 0 209 255 0 209 255 0 209 255 0 209 255 0 198 255 0 198 255 0 198 255 0 198 255 0 198 255 0 198 255 0 198 255 0 198 255 0 198 255 0 198 255 0 166 255 0 166 255 0 166 255 0 166 255 0 166 255 0 166 255 0 166 255 0 166 255 0 166 255 0 166 255 0 134 255 0 134 255 0 134 255 0 134 255 0 134 255 0 134 255 0 134 255 0 134 255 0 134 255 0 134 255 0 114 255 0 114 255 0 114 255 0 114 255 0 114 255 0 114 255 0 114 255 0 114 255 0 114 255 0 114 255 0 76 255 0 76 255 0 76 255 0 76 255 0 76 255 0 76 255 0 76 255 0 76 255 0 76 255 0 76 255 0 79 255 0 79 255 0 79 255 0 79 255 0 79 255 0 79 255 0 79 255 0 79 255 0 79 255 0 79 255 0 74 255 0 74 255 0 74 255 0 74 255 0 74 255 0 74 255 0 74 255 0 74 255 0 74 255 0 74 255 0 85 255 0 85 255 0 85 255 0 85 255 0 85 255 0 85 255 0 85 255 0 85 255 0 85 255 0 85 255 0 138 255 0 138 255 0 138 255 0 138 255 0 138 255 0 138 255 0 138 255 0 138 255 0 138 255 0 138 255 0 176 255 0 176 255 0 176 255 0 176 255 0 176 255 0 176 255 0 176 255 0 176 255 0 176 255 0 176 255 0 169 255 0 169 255 0 169 255 0 169 255 0 169 255 0 169 255 0 169 255 0 169 255 0 169 255 0 169 255 0 195 255 0 195 255 0 195 255 0 195 255 0 195 255 0 195 255 0 195 255 0 195 255 0 195 255 0 195 255 0 210 255 0 210 255 0 210 255 0 210 255 0 210 255 0 210 255 0 210 255 0 210 255 0 210 255 0 210 255 0 192 255 0 192 255 0 192 255 0 192 255 0 192 255 0 192 255 0 192 255 0 192 255 0 192 255 0 192 255 0 179 255 0 179 255 0 179 255 0 179 255 0 179 255 0 179 255 0 179 255 0 179 255 0 179 255 0 179 255 0 178 255 0 178 255 0 178 255 0 178 255 0 178 255 0 178 255 0 178 255 0 178 255 0 178 255 0 178 255 0 178 255 0 178 255 0 178 255 0 178 255 0 178 255 0 178 255 0 178 255 0 178 255 0 178 255 0 178 255 0 158 255 0 158 255 0 158 255 0 158 255 0 158 255 0 158 255 0 158 255 0 158 255 0 158 255 0 158 255 0 177 255 0 177 255 0 177 255 0 177 255 0 177 255 0 177 255 0 177 255 0 177 255 0 177 255 0 177 255 0 164 255 0 164 255 0 164 255 0 164 255 0 164 255 0 164 255 0 164 255 0 164 255 0 164 255 0 164 255 0 169 255 0 169 255 0 169 255 0 169 255 0 169 255 0 169 255 0 169 255 0 169 255 0 169 255 0 169 255 0 162 255 0 162 255 0 162 255 0 162 255 0 162 255 0 162 255 0 162 255 0 162 255 0 162 255 0 162 255 0 144 255 0 144 255 0 144 255 0 144 255 0 144 255 0 144 255 0 144 255 0 144 255 0 144 255 0 144 255 0 0 0 0 0 0 0 0 0 0 0 0 0 0 0 0 0 0 0 0 0 0 0 0 0 0 0 0 0 0 0 0 159 0 0 159 0 0 159 0 0 159 0 0 159 0 0 159 0 0 159 0 0 159 0 0 159 0 0 159 0 0 159 0 0 159 0 0 159 0 0 159 0 0 159 0 0 159 0 0 159 0 0 159 0 0 159 0 0 159 0 0 159 0 0 159 0 0 159 0 0 159 0 0 159 0 0 159 0 0 159 0 0 159 0 0 159 0 0 159 
0 151 255 0 151 255 0 151 255 0 151 255 0 151 255 0 151 255 0 151 255 0 151 255 0 151 255 0 151 255 0 168 255 0 168 255 0 168 255 0 168 255 0 168 255 0 168 255 0 168 255 0 168 255 0 168 255 0 168 255 0 160 255 0 160 255 0 160 255 0 160 255 0 160 255 0 160 255 0 160 255 0 160 255 0 160 255 0 160 255 0 170 255 0 170 255 0 170 255 0 170 255 0 170 255 0 170 255 0 170 255 0 170 255 0 170 255 0 170 255 0 209 255 0 209 255 0 209 255 0 209 255 0 209 255 0 209 255 0 209 255 0 209 255 0 209 255 0 209 255 0 198 255 0 198 255 0 198 255 0 198 255 0 198 255 0 198 255 0 198 255 0 198 255 0 198 255 0 198 255 0 166 255 0 166 255 0 166 255 0 166 255 0 166 255 0 166 255 0 166 255 0 166 255 0 166 255 0 166 255 0 134 255 0 134 255 0 134 255 0 134 255 0 134 255 0 134 255 0 134 255 0 134 255 0 134 255 0 134 255 0 114 255 0 114 255 0 114 255 0 114 255 0 114 255 0 114 255 0 114 255 0 114 255 0 114 255 0 114 255 0 76 255 0 76 255 0 76 255 0 76 255 0 76 255 0 76 255 0 76 255 0 76 255 0 76 255 0 76 255 0 79 255 0 79 255 0 79 255 0 79 255 0 79 255 0 79 255 0 79 255 0 79 255 0 79 255 0 79 255 0 74 255 0 74 255 0 74 255 0 74 255 0 74 255 0 74 255 0 74 255 0 74 255 0 74 255 0 74 255 0 85 255 0 85 255 0 85 255 0 85 255 0 85 255 0 85 255 0 85 255 0 85 255 0 85 255 0 85 255 0 138 255 0 138 255 0 138 255 0 138 255 0 138 255 0 138 255 0 138 255 0 138 255 0 138 255 0 138 255 0 176 255 0 176 255 0 176 255 0 176 255 0 176 255 0 176 255 0 176 255 0 176 255 0 176 255 0 176 255 0 169 255 0 169 255 0 169 255 0 169 255 0 169 255 0 169 255 0 169 255 0 169 255 0 169 255 0 169 255 0 195 255 0 195 255 0 195 255 0 195 255 0 195 255 0 195 255 0 195 255 0 195 255 0 195 255 0 195 255 0 210 255 0 210 255 0 210 255 0 210 255 0 210 255 0 210 255 0 210 255 0 210 255 0 210 255 0 210 255 0 192 255 0 192 255 0 192 255 0 192 255 0 192 255 0 192 255 0 192 255 0 192 255 0 192 255 0 192 255 0 179 255 0 179 255 0 179 255 0 179 255 0 179 255 0 179 255 0 179 255 0 179 255 0 179 255 0 179 255 0 178 255 0 178 255 0 178 255 0 178 255 0 178 255 0 178 255 0 178 255 0 178 255 0 178 255 0 178 255 0 178 255 0 178 255 0 178 255 0 178 255 0 178 255 0 178 255 0 178 255 0 178 255 0 178 255 0 178 255 0 158 255 0 158 255 0 158 255 0 158 255 0 158 255 0 158 255 0 158 255 0 158 255 0 158 255 0 158 255 0 177 255 0 177 255 0 177 255 0 177 255 0 177 255 0 177 255 0 177 255 0 177 255 0 177 255 0 177 255 0 164 255 0 164 255 0 164 255 0 164 255 0 164 255 0 164 255 0 164 255 0 164 255 0 164 255 0 164 255 0 169 255 0 169 255 0 169 255 0 169 255 0 169 255 0 169 255 0 169 255 0 169 255 0 169 255 0 169 255 0 162 255 0 162 255 0 162 255 0 162 255 0 162 255 0 162 255 0 162 255 0 162 255 0 162 255 0 162 255 0 144 255 0 144 255 0 144 255 0 144 255 0 144 255 0 144 255 0 144 255 0 144 255 0 144 255 0 144 255 0 0 0 0 0 0 0 0 0 0 0 0 0 0 0 0 0 0 0 0 0 0 0 0 0 0 0 0 0 0 0 0 162 0 0 162 0 0 162 0 0 162 0 0 162 0 0 162 0 0 162 0 0 162 0 0 162 0 0 162 0 0 162 0 0 162 0 0 162 0 0 162 0 0 162 0 0 162 0 0 162 0 0 162 0 0 162 0 0 162 0 0 162 0 0 162 0 0 162 0 0 162 0 0 162 0 0 162 0 0 162 0 0 162 0 0 162 0 0 162 
0 151 255 0 151 255 0 151 255 0 151 255 0 151 255 0 151 255 0 151 255 0 151 255 0 151 255 0 151 255 0 168 255 0 168 255 0 168 255 0 168 255 0 168 255 0 168 255 0 168 255 0 168 255 0 168 255 0 168 255 0 160 255 0 160 255 0 160 255 0 160 255 0 160 255 0 160 255 0 160 255 0 160 255 0 160 255 0 160 255 0 170 255 0 170 255 0 170 255 0 170 255 0 170 255 0 170 255 0 170 255 0 170 255 0 170 255 0 170 255 0 209 255 0 209 255 0 209 255 0 209 255 0 209 255 0 209 255 0 209 255 0 209 255 0 209 255 0 209 255 0 198 255 0 198 255 0 198 255 0 198 255 0 198 255 0 198 255 0 198 255 0 198 255 0 198 255 0 198 255 0 166 255 0 166 255 0 166 255 0 166 255 0 166 255 0 166 255 0 166 255 0 166 255 0 166 255 0 166 255 0 134 255 0 134 255 0 134 255 0 134 255 0 134 255 0 134 255 0 134 255 0 134 255 0 134 255 0 134 255 0 114 255 0 114 255 0 114 255 0 114 255 0 114 255 0 114 255 0 114 255 0 114 255 0 114 255 0 114 255 0 76 255 0 76 255 0 76 255 0 76 255 0 76 255 0 76 255 0 76 255 0 76 255 0 76 255 0 76 255 0 79 255 0 79 255 0 79 255 0 79 255 0 79 255 0 79 255 0 79 255 0 79 255 0 79 255 0 79 255 0 74 255 0 74 255 0 74 255 0 74 255 0 74 255 0 74 255 0 74 255 0 74 255 0 74 255 0 74 255 0 85 255 0 85 255 0 85 255 0 85 255 0 85 255 0 85 255 0 85 255 0 85 255 0 85 255 0 85 255 0 138 255 0 138 255 0 138 255 0 138 255 0 138 255 0 138 255 0 138 255 0 138 255 0 138 255 0 138 255 0 176 255 0 176 255 0 176 255 0 176 255 0 176 255 0 176 255 0 176 255 0 176 255 0 176 255 0 176 255 0 169 255 0 169 255 0 169 255 0 169 255 0 169 255 0 169 255 0 169 255 0 169 255 0 169 255 0 169 255 0 195 255 0 195 255 0 195 255 0 195 255 0 195 255 0 195 255 0 195 255 0 195 255 0 195 255 0 195 255 0 210 255 0 210 255 0 210 255 0 210 255 0 210 255 0 210 255 0 210 255 0 210 255 0 210 255 0 210 255 0 192 255 0 192 255 0 192 255 0 192 255 0 192 255 0 192 255 0 192 255 0 192 255 0 192 255 0 192 255 0 179 255 0 179 255 0 179 255 0 179 255 0 179 255 0 179 255 0 179 255 0 179 255 0 179 255 0 179 255 0 178 255 0 178 255 0 178 255 0 178 255 0 178 255 0 178 255 0 178 255 0 178 255 0 178 255 0 178 255 0 178 255 0 178 255 0 178 255 0 178 255 0 178 255 0 178 255 0 178 255 0 178 255 0 178 255 0 178 255 0 158 255 0 158 255 0 158 255 0 158 255 0 158 255 0 158 255 0 158 255 0 158 255 0 158 255 0 158 255 0 177 255 0 177 255 0 177 255 0 177 255 0 177 255 0 177 255 0 177 255 0 177 255 0 177 255 0 177 255 0 164 255 0 164 255 0 164 255 0 164 255 0 164 255 0 164 255 0 164 255 0 164 255 0 164 255 0 164 255 0 169 255 0 169 255 0 169 255 0 169 255 0 169 255 0 169 255 0 169 255 0 169 255 0 169 255 0 169 255 0 162 255 0 162 255 0 162 255 0 162 255 0 162 255 0 162 255 0 162 255 0 162 255 0 162 255 0 162 255 0 144 255 0 144 255 0 144 255 0 144 255 0 144 255 0 144 255 0 144 255 0 144 255 0 144 255 0 144 255 0 0 0 0 0 0 0 0 0 0 0 0 0 0 0 0 0 0 0 0 0 0 0 0 0 0 0 0 0 0 0 0 166 0 0 166 0 0 166 0 0 166 0 0 166 0 0 166 0 0 166 0 0 166 0 0 166 0 0 166 0 0 166 0 0 166 0 0 166 0 0 166 0 0 166 0 0 166 0 0 166 0 0 166 0 0 166 0 0 166 0 0 166 0 0 166 0 0 166 0 0 166 0 0 166 0 0 166 0 0 166 0 0 166 0 0 166 0 0 166 
0 151 255 0 151 255 0 151 255 0 151 255 0 151 255 0 151 255 0 151 255 0 151 255 0 151 255 0 151 255 0 168 255 0 168 255 0 168 255 0 168 255 0 168 255 0 168 255 0 168 255 0 168 255 0 168 255 0 168 255 0 160 255 0 160 255 0 160 255 0 160 255 0 160 255 0 160 255 0 160 255 0 160 255 0 160 255 0 160 255 0 170 255 0 170 255 0 170 255 0 170 255 0 170 255 0 170 255 0 170 255 0 170 255 0 170 255 0 170 255 0 209 255 0 209 255 0 209 255 0 209 255 0 209 255 0 209 255 0 209 255 0 209 255 0 209 255 0 209 255 0 198 255 0 198 255 0 198 255 0 198 255 0 198 255 0 198 255 0 198 255 0 198 255 0 198 255 0 198 255 0 166 255 0 166 255 0 166 255 0 166 255 0 166 255 0 166 255 0 166 255 0 166 255 0 166 255 0 166 255 0 134 255 0 134 255 0 134 255 0 134 255 0 134 255 0 134 255 0 134 255 0 134 255 0 134 255 0 134 255 0 114 255 0 114 255 0 114 255 0 114 255 0 114 255 0 114 255 0 114 255 0 114 255 0 114 255 0 114 255 0 76 255 0 76 255 0 76 255 0 76 255 0 76 255 0 76 255 0 76 255 0 76 255 0 76 255 0 76 255 0 79 255 0 79 255 0 79 255 0 79 255 0 79 255 0 79 255 0 79 255 0 79 255 0 79 255 0 79 255 0 74 255 0 74 255 0 74 255 0 74 255 0 74 255 0 74 255 0 74 255 0 74 255 0 74 255 0 74 255 0 85 255 0 85 255 0 85 255 0 85 255 0 85 255 0 85 255 0 85 255 0 85 255 0 85 255 0 85 255 0 138 255 0 138 255 0 138 255 0 138 255 0 138 255 0 138 255 0 138 255 0 138 255 0 138 255 0 138 255 0 176 255 0 176 255 0 176 255 0 176 255 0 176 255 0 176 255 0 176 255 0 176 255 0 176 255 0 176 255 0 169 255 0 169 255 0 169 255 0 169 255 0 169 255 0 169 255 0 169 255 0 169 255 0 169 255 0 169 255 0 195 255 0 195 255 0 195 255 0 195 255 0 195 255 0 195 255 0 195 255 0 195 255 0 195 255 0 195 255 0 210 255 0 210 255 0 210 255 0 210 255 0 210 255 0 210 255 0 210 255 0 210 255 0 210 255 0 210 255 0 192 255 0 192 255 0 192 255 0 192 255 0 192 255 0 192 255 0 192 255 0 192 255 0 192 255 0 192 255 0 179 255 0 179 255 0 179 255 0 179 255 0 179 255 0 179 255 0 179 255 0 179 255 0 179 255 0 179 255 0 178 255 0 178 255 0 178 255 0 178 255 0 178 255 0 178 255 0 178 255 0 178 255 0 178 255 0 178 255 0 178 255 0 178 255 0 178 255 0 178 255 0 178 255 0 178 255 0 178 255 0 178 255 0 178 255 0 178 255 0 158 255 0 158 255 0 158 255 0 158 255 0 158 255 0 158 255 0 158 255 0 158 255 0 158 255 0 158 255 0 177 255 0 177 255 0 177 255 0 177 255 0 177 255 0 177 255 0 177 255 0 177 255 0 177 255 0 177 255 0 164 255 0 164 255 0 164 255 0 164 255 0 164 255 0 164 255 0 164 255 0 164 255 0 164 255 0 164 255 0 169 255 0 169 255 0 169 255 0 169 255 0 169 255 0 169 255 0 169 255 0 169 255 0 169 255 0 169 255 0 162 255 0 162 255 0 162 255 0 162 255 0 162 255 0 162 255 0 162 255 0 162 255 0 162 255 0 162 255 0 144 255 0 144 255 0 144 255 0 144 255 0 144 255 0 144 255 0 144 255 0 144 255 0 144 255 0 144 255 0 0 0 0 0 0 0 0 0 0 0 0 0 0 0 0 0 0 0 0 0 0 0 0 0 0 0 0 0 0 0 0 170 0 0 170 0 0 170 0 0 170 0 0 170 0 0 170 0 0 170 0 0 170 0 0 170 0 0 170 0 0 170 0 0 170 0 0 170 0 0 170 0 0 170 0 0 170 0 0 170 0 0 170 0 0 170 0 0 170 0 0 170 0 0 170 0 0 170 0 0 170 0 0 170 0 0 170 0 0 170 0 0 170 0 0 170 0 0 170 
0 151 255 0 151 255 0 151 255 0 151 255 0 151 255 0 151 255 0 151 255 0 151 255 0 151 255 0 151 255 0 168 255 0 168 255 0 168 255 0 168 255 0 168 255 0 168 255 0 168 255 0 168 255 0 168 255 0 168 255 0 160 255 0 160 255 0 160 255 0 160 255 0 160 255 0 160 255 0 160 255 0 160 255 0 160 255 0 160 255 0 170 255 0 170 255 0 170 255 0 170 255 0 170 255 0 170 255 0 170 255 0 170 255 0 170 255 0 170 255 0 209 255 0 209 255 0 209 255 0 209 255 0 209 255 0 209 255 0 209 255 0 209 255 0 209 255 0 209 255 0 198 255 0 198 255 0 198 255 0 198 255 0 198 255 0 198 255 0 198 255 0 198 255 0 198 255 0 198 255 0 166 255 0 166 255 0 166 255 0 166 255 0 166 255 0 166 255 0 166 255 0 166 255 0 166 255 0 166 255 0 134 255 0 134 255 0 134 255 0 134 255 0 134 255 0 134 255 0 134 255 0 134 255 0 134 255 0 134 255 0 114 255 0 114 255 0 114 255 0 114 255 0 114 255 0 114 255 0 114 255 0 114 255 0 114 255 0 114 255 0 76 255 0 76 255 0 76 255 0 76 255 0 76 255 0 76 255 0 76 255 0 76 255 0 76 255 0 76 255 0 79 255 0 79 255 0 79 255 0 79 255 0 79 255 0 79 255 0 79 255 0 79 255 0 79 255 0 79 255 0 74 255 0 74 255 0 74 255 0 74 255 0 74 255 0 74 255 0 74 255 0 74 255 0 74 255 0 74 255 0 85 255 0 85 255 0 85 255 0 85 255 0 85 255 0 85 255 0 85 255 0 85 255 0 85 255 0 85 255 0 138 255 0 138 255 0 138 255 0 138 255 0 138 255 0 138 255 0 138 255 0 138 255 0 138 255 0 138 255 0 176 255 0 176 255 0 176 255 0 176 255 0 176 255 0 176 255 0 176 255 0 176 255 0 176 255 0 176 255 0 169 255 0 169 255 0 169 255 0 169 255 0 169 255 0 169 255 0 169 255 0 169 255 0 169 255 0 169 255 0 195 255 0 195 255 0 195 255 0 195 255 0 195 255 0 195 255 0 195 255 0 195 255 0 195 255 0 195 255 0 210 255 0 210 255 0 210 255 0 210 255 0 210 255 0 210 255 0 210 255 0 210 255 0 210 255 0 210 255 0 192 255 0 192 255 0 192 255 0 192 255 0 192 255 0 192 255 0 192 255 0 192 255 0 192 255 0 192 255 0 179 255 0 179 255 0 179 255 0 179 255 0 179 255 0 179 255 0 179 255 0 179 255 0 179 255 0 179 255 0 178 255 0 178 255 0 178 255 0 178 255 0 178 255 0 178 255 0 178 255 0 178 255 0 178 255 0 178 255 0 178 255 0 178 255 0 178 255 0 178 255 0 178 255 0 178 255 0 178 255 0 178 255 0 178 255 0 178 255 0 158 255 0 158 255 0 158 255 0 158 255 0 158 255 0 158 255 0 158 255 0 158 255 0 158 255 0 158 255 0 177 255 0 177 255 0 177 255 0 177 255 0 177 255 0 177 255 0 177 255 0 177 255 0 177 255 0 177 255 0 164 255 0 164 255 0 164 255 0 164 255 0 164 255 0 164 255 0 164 255 0 164 255 0 164 255 0 164 255 0 169 255 0 169 255 0 169 255 0 169 255 0 169 255 0 169 255 0 169 255 0 169 255 0 169 255 0 169 255 0 162 255 0 162 255 0 162 255 0 162 255 0 162 255 0 162 255 0 162 255 0 162 255 0 162 255 0 162 255 0 144 255 0 144 255 0 144 255 0 144 255 0 144 255 0 144 255 0 144 255 0 144 255 0 144 255 0 144 255 0 0 0 0 0 0 0 0 0 0 0 0 0 0 0 0 0 0 0 0 0 0 0 0 0 0 0 0 0 0 0 0 173 0 0 173 0 0 173 0 0 173 0 0 173 0 0 173 0 0 173 0 0 173 0 0 173 0 0 173 0 0 173 0 0 173 0 0 173 0 0 173 0 0 173 0 0 173 0 0 173 0 0 173 0 0 173 0 0 173 0 0 173 0 0 173 0 0 173 0 0 173 0 0 173 0 0 173 0 0 173 0 0 173 0 0 173 0 0 173 
0 151 255 0 151 255 0 151 255 0 151 255 0 151 255 0 151 255 0 151 255 0 151 255 0 151 255 0 151 255 0 168 255 0 168 255 0 168 255 0 168 255 0 168 255 0 168 255 0 168 255 0 168 255 0 168 255 0 168 255 0 160 255 0 160 255 0 160 255 0 160 255 0 160 255 0 160 255 0 160 255 0 160 255 0 160 255 0 160 255 0 170 255 0 170 255 0 170 255 0 170 255 0 170 255 0 170 255 0 170 255 0 170 255 0 170 255 0 170 255 0 209 255 0 209 255 0 209 255 0 209 255 0 209 255 0 209 255 0 209 255 0 209 255 0 209 255 0 209 255 0 198 255 0 198 255 0 198 255 0 198 255 0 198 255 0 198 255 0 198 255 0 198 255 0 198 255 0 198 255 0 166 255 0 166 255 0 166 255 0 166 255 0 166 255 0 166 255 0 166 255 0 166 255 0 166 255 0 166 255 0 134 255 0 134 255 0 134 255 0 134 255 0 134 255 0 134 255 0 134 255 0 134 255 0 134 255 0 134 255 0 114 255 0 114 255 0 114 255 0 114 255 0 114 255 0 114 255 0 114 255 0 114 255 0 114 255 0 114 255 0 76 255 0 76 255 0 76 255 0 76 255 0 76 255 0 76 255 0 76 255 0 76 255 0 76 255 0 76 255 0 79 255 0 79 255 0 79 255 0 79 255 0 79 255 0 79 255 0 79 255 0 79 255 0 79 255 0 79 255 0 74 255 0 74 255 0 74 255 0 74 255 0 74 255 0 74 255 0 74 255 0 74 255 0 74 255 0 74 255 0 85 255 0 85 255 0 85 255 0 85 255 0 85 255 0 85 255 0 85 255 0 85 255 0 85 255 0 85 255 0 138 255 0 138 255 0 138 255 0 138 255 0 138 255 0 138 255 0 138 255 0 138 255 0 138 255 0 138 255 0 176 255 0 176 255 0 176 255 0 176 255 0 176 255 0 176 255 0 176 255 0 176 255 0 176 255 0 176 255 0 169 255 0 169 255 0 169 255 0 169 255 0 169 255 0 169 255 0 169 255 0 169 255 0 169 255 0 169 255 0 195 255 0 195 255 0 195 255 0 195 255 0 195 255 0 195 255 0 195 255 0 195 255 0 195 255 0 195 255 0 210 255 0 210 255 0 210 255 0 210 255 0 210 255 0 210 255 0 210 255 0 210 255 0 210 255 0 210 255 0 192 255 0 192 255 0 192 255 0 192 255 0 192 255 0 192 255 0 192 255 0 192 255 0 192 255 0 192 255 0 179 255 0 179 255 0 179 255 0 179 255 0 179 255 0 179 255 0 179 255 0 179 255 0 179 255 0 179 255 0 178 255 0 178 255 0 178 255 0 178 255 0 178 255 0 178 255 0 178 255 0 178 255 0 178 255 0 178 255 0 178 255 0 178 255 0 178 255 0 178 255 0 178 255 0 178 255 0 178 255 0 178 255 0 178 255 0 178 255 0 158 255 0 158 255 0 158 255 0 158 255 0 158 255 0 158 255 0 158 255 0 158 255 0 158 255 0 158 255 0 177 255 0 177 255 0 177 255 0 177 255 0 177 255 0 177 255 0 177 255 0 177 255 0 177 255 0 177 255 0 164 255 0 164 255 0 164 255 0 164 255 0 164 255 0 164 255 0 164 255 0 164 255 0 164 255 0 164 255 0 169 255 0 169 255 0 169 255 0 169 255 0 169 255 0 169 255 0 169 255 0 169 255 0 169 255 0 169 255 0 162 255 0 162 255 0 162 255 0 162 255 0 162 255 0 162 255 0 162 255 0 162 255 0 162 255 0 162 255 0 144 255 0 144 255 0 144 255 0 144 255 0 144 255 0 144 255 0 144 255 0 144 255 0 144 255 0 144 255 0 0 0 0 0 0 0 0 0 0 0 0 0 0 0 0 0 0 0 0 0 0 0 0 0 0 0 0 0 0 0 0 177 0 0 177 0 0 177 0 0 177 0 0 177 0 0 177 0 0 177 0 0 177 0 0 177 0 0 177 0 0 177 0 0 177 0 0 177 0 0 177 0 0 177 0 0 177 0 0 177 0 0 177 0 0 177 0 0 177 0 0 177 0 0 177 0 0 177 0 0 177 0 0 177 0 0 177 0 0 177 0 0 177 0 0 177 0 0 177 
0 151 255 0 151 255 0 151 255 0 151 255 0 151 255 0 151 255 0 151 255 0 151 255 0 151 255 0 151 255 0 168 255 0 168 255 0 168 255 0 168 255 0 168 255 0 168 255 0 168 255 0 168 255 0 168 255 0 168 255 0 160 255 0 160 255 0 160 255 0 160 255 0 160 255 0 160 255 0 160 255 0 160 255 0 160 255 0 160 255 0 170 255 0 170 255 0 170 255 0 170 255 0 170 255 0 170 255 0 170 255 0 170 255 0 170 255 0 170 255 0 209 255 0 209 255 0 209 255 0 209 255 0 209 255 0 209 255 0 209 255 0 209 255 0 209 255 0 209 255 0 198 255 0 198 255 0 198 255 0 198 255 0 198 255 0 198 255 0 198 255 0 198 255 0 198 255 0 198 255 0 166 255 0 166 255 0 166 255 0 166 255 0 166 255 0 166 255 0 166 255 0 166 255 0 166 255 0 166 255 0 134 255 0 134 255 0 134 255 0 134 255 0 134 255 0 134 255 0 134 255 0 134 255 0 134 255 0 134 255 0 114 255 0 114 255 0 114 255 0 114 255 0 114 255 0 114 255 0 114 255 0 114 255 0 114 255 0 114 255 0 76 255 0 76 255 0 76 255 0 76 255 0 76 255 0 76 255 0 76 255 0 76 255 0 76 255 0 76 255 0 79 255 0 79 255 0 79 255 0 79 255 0 79 255 0 79 255 0 79 255 0 79 255 0 79 255 0 79 255 0 74 255 0 74 255 0 74 255 0 74 255 0 74 255 0 74 255 0 74 255 0 74 255 0 74 255 0 74 255 0 85 255 0 85 255 0 85 255 0 85 255 0 85 255 0 85 255 0 85 255 0 85 255 0 85 255 0 85 255 0 138 255 0 138 255 0 138 255 0 138 255 0 138 255 0 138 255 0 138 255 0 138 255 0 138 255 0 138 255 0 176 255 0 176 255 0 176 255 0 176 255 0 176 255 0 176 255 0 176 255 0 176 255 0 176 255 0 176 255 0 169 255 0 169 255 0 169 255 0 169 255 0 169 255 0 169 255 0 169 255 0 169 255 0 169 255 0 169 255 0 195 255 0 195 255 0 195 255 0 195 255 0 195 255 0 195 255 0 195 255 0 195 255 0 195 255 0 195 255 0 210 255 0 210 255 0 210 255 0 210 255 0 210 255 0 210 255 0 210 255 0 210 255 0 210 255 0 210 255 0 192 255 0 192 255 0 192 255 0 192 255 0 192 255 0 192 255 0 192 255 0 192 255 0 192 255 0 192 255 0 179 255 0 179 255 0 179 255 0 179 255 0 179 255 0 179 255 0 179 255 0 179 255 0 179 255 0 179 255 0 178 255 0 178 255 0 178 255 0 178 255 0 178 255 0 178 255 0 178 255 0 178 255 0 178 255 0 178 255 0 178 255 0 178 255 0 178 255 0 178 255 0 178 255 0 178 255 0 178 255 0 178 255 0 178 255 0 178 255 0 158 255 0 158 255 0 158 255 0 158 255 0 158 255 0 158 255 0 158 255 0 158 255 0 158 255 0 158 255 0 177 255 0 177 255 0 177 255 0 177 255 0 177 255 0 177 255 0 177 255 0 177 255 0 177 255 0 177 255 0 164 255 0 164 255 0 164 255 0 164 255 0 164 255 0 164 255 0 164 255 0 164 255 0 164 255 0 164 255 0 169 255 0 169 255 0 169 255 0 169 255 0 169 255 0 169 255 0 169 255 0 169 255 0 169 255 0 169 255 0 162 255 0 162 255 0 162 255 0 162 255 0 162 255 0 162 255 0 162 255 0 162 255 0 162 255 0 162 255 0 144 255 0 144 255 0 144 255 0 144 255 0 144 255 0 144 255 0 144 255 0 144 255 0 144 255 0 144 255 0 0 0 0 0 0 0 0 0 0 0 0 0 0 0 0 0 0 0 0 0 0 0 0 0 0 0 0 0 0 0 0 180 0 0 180 0 0 180 0 0 180 0 0 180 0 0 180 0 0 180 0 0 180 0 0 180 0 0 180 0 0 180 0 0 180 0 0 180 0 0 180 0 0 180 0 0 180 0 0 180 0 0 180 0 0 180 0 0 180 0 0 180 0 0 180 0 0 180 0 0 180 0 0 180 0 0 180 0 0 180 0 0 180 0 0 180 0 0 180 
0 155 255 0 155 255 0 155 255 0 155 255 0 155 255 0 155 255 0 155 255 0 155 255 0 155 255 0 155 255 0 150 255 0 150 255 0 150 255 0 150 255 0 150 255 0 150 255 0 150 255 0 150 255 0 150 255 0 150 255 0 170 255 0 170 255 0 170 255 0 170 255 0 170 255 0 170 255 0 170 255 0 170 255 0 170 255 0 170 255 0 174 255 0 174 255 0 174 255 0 174 255 0 174 255 0 174 255 0 174 255 0 174 255 0 174 255 0 174 255 0 191 255 0 191 255 0 191 255 0 191 255 0 191 255 0 191 255 0 191 255 0 191 255 0 191 255 0 191 255 0 153 255 0 153 255 0 153 255 0 153 255 0 153 255 0 153 255 0 153 255 0 153 255 0 153 255 0 153 255 0 135 255 0 135 255 0 135 255 0 135 255 0 135 255 0 135 255 0 135 255 0 135 255 0 135 255 0 135 255 0 111 255 0 111 255 0 111 255 0 111 255 0 111 255 0 111 255 0 111 255 0 111 255 0 111 255 0 111 255 0 121 255 0 121 255 0 121 255 0 121 255 0 121 255 0 121 255 0 121 255 0 121 255 0 121 255 0 121 255 0 101 255 0 101 255 0 101 255 0 101 255 0 101 255 0 101 255 0 101 255 0 101 255 0 101 255 0 101 255 0 110 255 0 110 255 0 110 255 0 110 255 0 110 255 0 110 255 0 110 255 0 110 255 0 110 255 0 110 255 0 152 255 0 152 255 0 152 255 0 152 255 0 152 255 0 152 255 0 152 255 0 152 255 0 152 255 0 152 255 0 152 255 0 152 255 0 152 255 0 152 255 0 152 255 0 152 255 0 152 255 0 152 255 0 152 255 0 152 255 0 189 255 0 189 255 0 189 255 0 189 255 0 189 255 0 189 255 0 189 255 0 189 255 0 189 255 0 189 255 0 203 255 0 203 255 0 203 255 0 203 255 0 203 255 0 203 255 0 203 255 0 203 255 0 203 255 0 203 255 0 170 255 0 170 255 0 170 255 0 170 255 0 170 255 0 170 255 0 170 255 0 170 255 0 170 255 0 170 255 0 166 255 0 166 255 0 166 255 0 166 255 0 166 255 0 166 255 0 166 255 0 166 255 0 166 255 0 166 255 0 160 255 0 160 255 0 160 255 0 160 255 0 160 255 0 160 255 0 160 255 0 160 255 0 160 255 0 160 255 0 162 255 0 162 255 0 162 255 0 162 255 0 162 255 0 162 255 0 162 255 0 162 255 0 162 255 0 162 255 0 157 255 0 157 255 0 157 255 0 157 255 0 157 255 0 157 255 0 157 255 0 157 255 0 157 255 0 157 255 0 162 255 0 162 255 0 162 255 0 162 255 0 162 255 0 162 255 0 162 255 0 162 255 0 162 255 0 162 255 0 148 255 0 148 255 0 148 255 0 148 255 0 148 255 0 148 255 0 148 255 0 148 255 0 148 255 0 148 255 0 130 255 0 130 255 0 130 255 0 130 255 0 130 255 0 130 255 0 130 255 0 130 255 0 130 255 0 130 255 0 149 255 0 149 255 0 149 255 0 149 255 0 149 255 0 149 255 0 149 255 0 149 255 0 149 255 0 149 255 0 183 255 0 183 255 0 183 255 0 183 255 0 183 255 0 183 255 0 183 255 0 183 255 0 183 255 0 183 255 0 178 255 0 178 255 0 178 255 0 178 255 0 178 255 0 178 255 0 178 255 0 178 255 0 178 255 0 178 255 0 151 255 0 151 255 0 151 255 0 151 255 0 151 255 0 151 255 0 151 255 0 151 255 0 151 255 0 151 255 0 159 255 0 159 255 0 159 255 0 159 255 0 159 255 0 159 255 0 159 255 0 159 255 0 159 255 0 159 255 0 0 0 0 0 0 0 0 0 0 0 0 0 0 0 0 0 0 0 0 0 0 0 0 0 0 0 0 0 0 0 0 184 0 0 184 0 0 184 0 0 184 0 0 184 0 0 184 0 0 184 0 0 184 0 0 184 0 0 184 0 0 184 0 0 184 0 0 184 0 0 184 0 0 184 0 0 184 0 0 184 0 0 184 0 0 184 0 0 184 0 0 184 0 0 184 0 0 184 0 0 184 0 0 184 0 0 184 0 0 184 0 0 184 0 0 184 0 0 184 
0 155 255 0 155 255 0 155 255 0 155 255 0 155 255 0 155 255 0 155 255 0 155 255 0 155 255 0 155 255 0 150 255 0 150 255 0 150 255 0 150 255 0 150 255 0 150 255 0 150 255 0 150 255 0 150 255 0 150 255 0 170 255 0 170 255 0 170 255 0 170 255 0 170 255 0 170 255 0 170 255 0 170 255 0 170 255 0 170 255 0 174 255 0 174 255 0 174 255 0 174 255 0 174 255 0 174 255 0 174 255 0 174 255 0 174 255 0 174 255 0 191 255 0 191 255 0 191 255 0 191 255 0 191 255 0 191 255 0 191 255 0 191 255 0 191 255 0 191 255 0 153 255 0 153 255 0 153 255 0 153 255 0 153 255 0 153 255 0 153 255 0 153 255 0 153 255 0 153 255 0 135 255 0 135 255 0 135 255 0 135 255 0 135 255 0 135 255 0 135 255 0 135 255 0 135 255 0 135 255 0 111 255 0 111 255 0 111 255 0 111 255 0 111 255 0 111 255 0 111 255 0 111 255 0 111 255 0 111 255 0 121 255 0 121 255 0 121 255 0 121 255 0 121 255 0 121 255 0 121 255 0 121 255 0 121 255 0 121 255 0 101 255 0 101 255 0 101 255 0 101 255 0 101 255 0 101 255 0 101 255 0 101 255 0 101 255 0 101 255 0 110 255 0 110 255 0 110 255 0 110 255 0 110 255 0 110 255 0 110 255 0 110 255 0 110 255 0 110 255 0 152 255 0 152 255 0 152 255 0 152 255 0 152 255 0 152 255 0 152 255 0 152 255 0 152 255 0 152 255 0 152 255 0 152 255 0 152 255 0 152 255 0 152 255 0 152 255 0 152 255 0 152 255 0 152 255 0 152 255 0 189 255 0 189 255 0 189 255 0 189 255 0 189 255 0 189 255 0 189 255 0 189 255 0 189 255 0 189 255 0 203 255 0 203 255 0 203 255 0 203 255 0 203 255 0 203 255 0 203 255 0 203 255 0 203 255 0 203 255 0 170 255 0 170 255 0 170 255 0 170 255 0 170 255 0 170 255 0 170 255 0 170 255 0 170 255 0 170 255 0 166 255 0 166 255 0 166 255 0 166 255 0 166 255 0 166 255 0 166 255 0 166 255 0 166 255 0 166 255 0 160 255 0 160 255 0 160 255 0 160 255 0 160 255 0 160 255 0 160 255 0 160 255 0 160 255 0 160 255 0 162 255 0 162 255 0 162 255 0 162 255 0 162 255 0 162 255 0 162 255 0 162 255 0 162 255 0 162 255 0 157 255 0 157 255 0 157 255 0 157 255 0 157 255 0 157 255 0 157 255 0 157 255 0 157 255 0 157 255 0 162 255 0 162 255 0 162 255 0 162 255 0 162 255 0 162 255 0 162 255 0 162 255 0 162 255 0 162 255 0 148 255 0 148 255 0 148 255 0 148 255 0 148 255 0 148 255 0 148 255 0 148 255 0 148 255 0 148 255 0 130 255 0 130 255 0 130 255 0 130 255 0 130 255 0 130 255 0 130 255 0 130 255 0 130 255 0 130 255 0 149 255 0 149 255 0 149 255 0 149 255 0 149 255 0 149 255 0 149 255 0 149 255 0 149 255 0 149 255 0 183 255 0 183 255 0 183 255 0 183 255 0 183 255 0 183 255 0 183 255 0 183 255 0 183 255 0 183 255 0 178 255 0 178 255 0 178 255 0 178 255 0 178 255 0 178 255 0 178 255 0 178 255 0 178 255 0 178 255 0 151 255 0 151 255 0 151 255 0 151 255 0 151 255 0 151 255 0 151 255 0 151 255 0 151 255 0 151 255 0 159 255 0 159 255 0 159 255 0 159 255 0 159 255 0 159 255 0 159 255 0 159 255 0 159 255 0 159 255 0 0 0 0 0 0 0 0 0 0 0 0 0 0 0 0 0 0 0 0 0 0 0 0 0 0 0 0 0 0 0 0 188 0 0 188 0 0 188 0 0 188 0 0 188 0 0 188 0 0 188 0 0 188 0 0 188 0 0 188 0 0 188 0 0 188 0 0 188 0 0 188 0 0 188 0 0 188 0 0 188 0 0 188 0 0 188 0 0 188 0 0 188 0 0 188 0 0 188 0 0 188 0 0 188 0 0 188 0 0 188 0 0 188 0 0 188 0 0 188 
0 155 255 0 155 255 0 155 255 0 155 255 0 155 255 0 155 255 0 155 255 0 155 255 0 155 255 0 155 255 0 150 255 0 150 255 0 150 255 0 150 255 0 150 255 0 150 255 0 150 255 0 150 255 0 150 255 0 150 255 0 170 255 0 170 255 0 170 255 0 170 255 0 170 255 0 170 255 0 170 255 0 170 255 0 170 255 0 170 255 0 174 255 0 174 255 0 174 255 0 174 255 0 174 255 0 174 255 0 174 255 0 174 255 0 174 255 0 174 255 0 191 255 0 191 255 0 191 255 0 191 255 0 191 255 0 191 255 0 191 255 0 191 255 0 191 255 0 191 255 0 153 255 0 153 255 0 153 255 0 153 255 0 153 255 0 153 255 0 153 255 0 153 255 0 153 255 0 153 255 0 135 255 0 135 255 0 135 255 0 135 255 0 135 255 0 135 255 0 135 255 0 135 255 0 135 255 0 135 255 0 111 255 0 111 255 0 111 255 0 111 255 0 111 255 0 111 255 0 111 255 0 111 255 0 111 255 0 111 255 0 121 255 0 121 255 0 121 255 0 121 255 0 121 255 0 121 255 0 121 255 0 121 255 0 121 255 0 121 255 0 101 255 0 101 255 0 101 255 0 101 255 0 101 255 0 101 255 0 101 255 0 101 255 0 101 255 0 101 255 0 110 255 0 110 255 0 110 255 0 110 255 0 110 255 0 110 255 0 110 255 0 110 255 0 110 255 0 110 255 0 152 255 0 152 255 0 152 255 0 152 255 0 152 255 0 152 255 0 152 255 0 152 255 0 152 255 0 152 255 0 152 255 0 152 255 0 152 255 0 152 255 0 152 255 0 152 255 0 152 255 0 152 255 0 152 255 0 152 255 0 189 255 0 189 255 0 189 255 0 189 255 0 189 255 0 189 255 0 189 255 0 189 255 0 189 255 0 189 255 0 203 255 0 203 255 0 203 255 0 203 255 0 203 255 0 203 255 0 203 255 0 203 255 0 203 255 0 203 255 0 170 255 0 170 255 0 170 255 0 170 255 0 170 255 0 170 255 0 170 255 0 170 255 0 170 255 0 170 255 0 166 255 0 166 255 0 166 255 0 166 255 0 166 255 0 166 255 0 166 255 0 166 255 0 166 255 0 166 255 0 160 255 0 160 255 0 160 255 0 160 255 0 160 255 0 160 255 0 160 255 0 160 255 0 160 255 0 160 255 0 162 255 0 162 255 0 162 255 0 162 255 0 162 255 0 162 255 0 162 255 0 162 255 0 162 255 0 162 255 0 157 255 0 157 255 0 157 255 0 157 255 0 157 255 0 157 255 0 157 255 0 157 255 0 157 255 0 157 255 0 162 255 0 162 255 0 162 255 0 162 255 0 162 255 0 162 255 0 162 255 0 162 255 0 162 255 0 162 255 0 148 255 0 148 255 0 148 255 0 148 255 0 148 255 0 148 255 0 148 255 0 148 255 0 148 255 0 148 255 0 130 255 0 130 255 0 130 255 0 130 255 0 130 255 0 130 255 0 130 255 0 130 255 0 130 255 0 130 255 0 149 255 0 149 255 0 149 255 0 149 255 0 149 255 0 149 255 0 149 255 0 149 255 0 149 255 0 149 255 0 183 255 0 183 255 0 183 255 0 183 255 0 183 255 0 183 255 0 183 255 0 183 255 0 183 255 0 183 255 0 178 255 0 178 255 0 178 255 0 178 255 0 178 255 0 178 255 0 178 255 0 178 255 0 178 255 0 178 255 0 151 255 0 151 255 0 151 255 0 151 255 0 151 255 0 151 255 0 151 255 0 151 255 0 151 255 0 151 255 0 159 255 0 159 255 0 159 255 0 159 255 0 159 255 0 159 255 0 159 255 0 159 255 0 159 255 0 159 255 0 0 0 0 0 0 0 0 0 0 0 0 0 0 0 0 0 0 0 0 0 0 0 0 0 0 0 0 0 0 0 0 191 0 0 191 0 0 191 0 0 191 0 0 191 0 0 191 0 0 191 0 0 191 0 0 191 0 0 191 0 0 191 0 0 191 0 0 191 0 0 191 0 0 191 0 0 191 0 0 191 0 0 191 0 0 191 0 0 191 0 0 191 0 0 191 0 0 191 0 0 191 0 0 191 0 0 191 0 0 191 0 0 191 0 0 191 0 0 191 
0 155 255 0 155 255 0 155 255 0 155 255 0 155 255 0 155 255 0 155 255 0 155 255 0 155 255 0 155 255 0 150 255 0 150 255 0 150 255 0 150 255 0 150 255 0 150 255 0 150 255 0 150 255 0 150 255 0 150 255 0 170 255 0 170 255 0 170 255 0 170 255 0 170 255 0 170 255 0 170 255 0 170 255 0 170 255 0 170 255 0 174 255 0 174 255 0 174 255 0 174 255 0 174 255 0 174 255 0 174 255 0 174 255 0 174 255 0 174 255 0 191 255 0 191 255 0 191 255 0 191 255 0 191 255 0 191 255 0 191 255 0 191 255 0 191 255 0 191 255 0 153 255 0 153 255 0 153 255 0 153 255 0 153 255 0 153 255 0 153 255 0 153 255 0 153 255 0 153 255 0 135 255 0 135 255 0 135 255 0 135 255 0 135 255 0 135 255 0 135 255 0 135 255 0 135 255 0 135 255 0 111 255 0 111 255 0 111 255 0 111 255 0 111 255 0 111 255 0 111 255 0 111 255 0 111 255 0 111 255 0 121 255 0 121 255 0 121 255 0 121 255 0 121 255 0 121 255 0 121 255 0 121 255 0 121 255 0 121 255 0 101 255 0 101 255 0 101 255 0 101 255 0 101 255 0 101 255 0 101 255 0 101 255 0 101 255 0 101 255 0 110 255 0 110 255 0 110 255 0 110 255 0 110 255 0 110 255 0 110 255 0 110 255 0 110 255 0 110 255 0 152 255 0 152 255 0 152 255 0 152 255 0 152 255 0 152 255 0 152 255 0 152 255 0 152 255 0 152 255 0 152 255 0 152 255 0 152 255 0 152 255 0 152 255 0 152 255 0 152 255 0 152 255 0 152 255 0 152 255 0 189 255 0 189 255 0 189 255 0 189 255 0 189 255 0 189 255 0 189 255 0 189 255 0 189 255 0 189 255 0 203 255 0 203 255 0 203 255 0 203 255 0 203 255 0 203 255 0 203 255 0 203 255 0 203 255 0 203 255 0 170 255 0 170 255 0 170 255 0 170 255 0 170 255 0 170 255 0 170 255 0 170 255 0 170 255 0 170 255 0 166 255 0 166 255 0 166 255 0 166 255 0 166 255 0 166 255 0 166 255 0 166 255 0 166 255 0 166 255 0 160 255 0 160 255 0 160 255 0 160 255 0 160 255 0 160 255 0 160 255 0 160 255 0 160 255 0 160 255 0 162 255 0 162 255 0 162 255 0 162 255 0 162 255 0 162 255 0 162 255 0 162 255 0 162 255 0 162 255 0 157 255 0 157 255 0 157 255 0 157 255 0 157 255 0 157 255 0 157 255 0 157 255 0 157 255 0 157 255 0 162 255 0 162 255 0 162 255 0 162 255 0 162 255 0 162 255 0 162 255 0 162 255 0 162 255 0 162 255 0 148 255 0 148 255 0 148 255 0 148 255 0 148 255 0 148 255 0 148 255 0 148 255 0 148 255 0 148 255 0 130 255 0 130 255 0 130 255 0 130 255 0 130 255 0 130 255 0 130 255 0 130 255 0 130 255 0 130 255 0 149 255 0 149 255 0 149 255 0 149 255 0 149 255 0 149 255 0 149 255 0 149 255 0 149 255 0 149 255 0 183 255 0 183 255 0 183 255 0 183 255 0 183 255 0 183 255 0 183 255 0 183 255 0 183 255 0 183 255 0 178 255 0 178 255 0 178 255 0 178 255 0 178 255 0 178 255 0 178 255 0 178 255 0 178 255 0 178 255 0 151 255 0 151 255 0 151 255 0 151 255 0 151 255 0 151 255 0 151 255 0 151 255 0 151 255 0 151 255 0 159 255 0 159 255 0 159 255 0 159 255 0 159 255 0 159 255 0 159 255 0 159 255 0 159 255 0 159 255 0 0 0 0 0 0 0 0 0 0 0 0 0 0 0 0 0 0 0 0 0 0 0 0 0 0 0 0 0 0 0 0 195 0 0 195 0 0 195 0 0 195 0 0 195 0 0 195 0 0 195 0 0 195 0 0 195 0 0 195 0 0 195 0 0 195 0 0 195 0 0 195 0 0 195 0 0 195 0 0 195 0 0 195 0 0 195 0 0 195 0 0 195 0 0 195 0 0 195 0 0 195 0 0 195 0 0 195 0 0 195 0 0 195 0 0 195 0 0 195 
0 155 255 0 155 255 0 155 255 0 155 255 0 155 255 0 155 255 0 155 255 0 155 255 0 155 255 0 155 255 0 150 255 0 150 255 0 150 255 0 150 255 0 150 255 0 150 255 0 150 255 0 150 255 0 150 255 0 150 255 0 170 255 0 170 255 0 170 255 0 170 255 0 170 255 0 170 255 0 170 255 0 170 255 0 170 255 0 170 255 0 174 255 0 174 255 0 174 255 0 174 255 0 174 255 0 174 255 0 174 255 0 174 255 0 174 255 0 174 255 0 191 255 0 191 255 0 191 255 0 191 255 0 191 255 0 191 255 0 191 255 0 191 255 0 191 255 0 191 255 0 153 255 0 153 255 0 153 255 0 153 255 0 153 255 0 153 255 0 153 255 0 153 255 0 153 255 0 153 255 0 135 255 0 135 255 0 135 255 0 135 255 0 135 255 0 135 255 0 135 255 0 135 255 0 135 255 0 135 255 0 111 255 0 111 255 0 111 255 0 111 255 0 111 255 0 111 255 0 111 255 0 111 255 0 111 255 0 111 255 0 121 255 0 121 255 0 121 255 0 121 255 0 121 255 0 121 255 0 121 255 0 121 255 0 121 255 0 121 255 0 101 255 0 101 255 0 101 255 0 101 255 0 101 255 0 101 255 0 101 255 0 101 255 0 101 255 0 101 255 0 110 255 0 110 255 0 110 255 0 110 255 0 110 255 0 110 255 0 110 255 0 110 255 0 110 255 0 110 255 0 152 255 0 152 255 0 152 255 0 152 255 0 152 255 0 152 255 0 152 255 0 152 255 0 152 255 0 152 255 0 152 255 0 152 255 0 152 255 0 152 255 0 152 255 0 152 255 0 152 255 0 152 255 0 152 255 0 152 255 0 189 255 0 189 255 0 189 255 0 189 255 0 189 255 0 189 255 0 189 255 0 189 255 0 189 255 0 189 255 0 203 255 0 203 255 0 203 255 0 203 255 0 203 255 0 203 255 0 203 255 0 203 255 0 203 255 0 203 255 0 170 255 0 170 255 0 170 255 0 170 255 0 170 255 0 170 255 0 170 255 0 170 255 0 170 255 0 170 255 0 166 255 0 166 255 0 166 255 0 166 255 0 166 255 0 166 255 0 166 255 0 166 255 0 166 255 0 166 255 0 160 255 0 160 255 0 160 255 0 160 255 0 160 255 0 160 255 0 160 255 0 160 255 0 160 255 0 160 255 0 162 255 0 162 255 0 162 255 0 162 255 0 162 255 0 162 255 0 162 255 0 162 255 0 162 255 0 162 255 0 157 255 0 157 255 0 157 255 0 157 255 0 157 255 0 157 255 0 157 255 0 157 255 0 157 255 0 157 255 0 162 255 0 162 255 0 162 255 0 162 255 0 162 255 0 162 255 0 162 255 0 162 255 0 162 255 0 162 255 0 148 255 0 148 255 0 148 255 0 148 255 0 148 255 0 148 255 0 148 255 0 148 255 0 148 255 0 148 255 0 130 255 0 130 255 0 130 255 0 130 255 0 130 255 0 130 255 0 130 255 0 130 255 0 130 255 0 130 255 0 149 255 0 149 255 0 149 255 0 149 255 0 149 255 0 149 255 0 149 255 0 149 255 0 149 255 0 149 255 0 183 255 0 183 255 0 183 255 0 183 255 0 183 255 0 183 255 0 183 255 0 183 255 0 183 255 0 183 255 0 178 255 0 178 255 0 178 255 0 178 255 0 178 255 0 178 255 0 178 255 0 178 255 0 178 255 0 178 255 0 151 255 0 151 255 0 151 255 0 151 255 0 151 255 0 151 255 0 151 255 0 151 255 0 151 255 0 151 255 0 159 255 0 159 255 0 159 255 0 159 255 0 159 255 0 159 255 0 159 255 0 159 255 0 159 255 0 159 255 0 0 0 0 0 0 0 0 0 0 0 0 0 0 0 0 0 0 0 0 0 0 0 0 0 0 0 0 0 0 0 0 199 0 0 199 0 0 199 0 0 199 0 0 199 0 0 199 0 0 199 0 0 199 0 0 199 0 0 199 0 0 199 0 0 199 0 0 199 0 0 199 0 0 199 0 0 199 0 0 199 0 0 199 0 0 199 0 0 199 0 0 199 0 0 199 0 0 199 0 0 199 0 0 199 0 0 199 0 0 199 0 0 199 0 0 199 0 0 199 
0 155 255 0 155 255 0 155 255 0 155 255 0 155 255 0 155 255 0 155 255 0 155 255 0 155 255 0 155 255 0 150 255 0 150 255 0 150 255 0 150 255 0 150 255 0 150 255 0 150 255 0 150 255 0 150 255 0 150 255 0 170 255 0 170 255 0 170 255 0 170 255 0 170 255 0 170 255 0 170 255 0 170 255 0 170 255 0 170 255 0 174 255 0 174 255 0 174 255 0 174 255 0 174 255 0 174 255 0 174 255 0 174 255 0 174 255 0 174 255 0 191 255 0 191 255 0 191 255 0 191 255 0 191 255 0 191 255 0 191 255 0 191 255 0 191 255 0 191 255 0 153 255 0 153 255 0 153 255 0 153 255 0 153 255 0 153 255 0 153 255 0 153 255 0 153 255 0 153 255 0 135 255 0 135 255 0 135 255 0 135 255 0 135 255 0 135 255 0 135 255 0 135 255 0 135 255 0 135 255 0 111 255 0 111 255 0 111 255 0 111 255 0 111 255 0 111 255 0 111 255 0 111 255 0 111 255 0 111 255 0 121 255 0 121 255 0 121 255 0 121 255 0 121 255 0 121 255 0 121 255 0 121 255 0 121 255 0 121 255 0 101 255 0 101 255 0 101 255 0 101 255 0 101 255 0 101 255 0 101 255 0 101 255 0 101 255 0 101 255 0 110 255 0 110 255 0 110 255 0 110 255 0 110 255 0 110 255 0 110 255 0 110 255 0 110 255 0 110 255 0 152 255 0 152 255 0 152 255 0 152 255 0 152 255 0 152 255 0 152 255 0 152 255 0 152 255 0 152 255 0 152 255 0 152 255 0 152 255 0 152 255 0 152 255 0 152 255 0 152 255 0 152 255 0 152 255 0 152 255 0 189 255 0 189 255 0 189 255 0 189 255 0 189 255 0 189 255 0 189 255 0 189 255 0 189 255 0 189 255 0 203 255 0 203 255 0 203 255 0 203 255 0 203 255 0 203 255 0 203 255 0 203 255 0 203 255 0 203 255 0 170 255 0 170 255 0 170 255 0 170 255 0 170 255 0 170 255 0 170 255 0 170 255 0 170 255 0 170 255 0 166 255 0 166 255 0 166 255 0 166 255 0 166 255 0 166 255 0 166 255 0 166 255 0 166 255 0 166 255 0 160 255 0 160 255 0 160 255 0 160 255 0 160 255 0 160 255 0 160 255 0 160 255 0 160 255 0 160 255 0 162 255 0 162 255 0 162 255 0 162 255 0 162 255 0 162 255 0 162 255 0 162 255 0 162 255 0 162 255 0 157 255 0 157 255 0 157 255 0 157 255 0 157 255 0 157 255 0 157 255 0 157 255 0 157 255 0 157 255 0 162 255 0 162 255 0 162 255 0 162 255 0 162 255 0 162 255 0 162 255 0 162 255 0 162 255 0 162 255 0 148 255 0 148 255 0 148 255 0 148 255 0 148 255 0 148 255 0 148 255 0 148 255 0 148 255 0 148 255 0 130 255 0 130 255 0 130 255 0 130 255 0 130 255 0 130 255 0 130 255 0 130 255 0 130 255 0 130 255 0 149 255 0 149 255 0 149 255 0 149 255 0 149 255 0 149 255 0 149 255 0 149 255 0 149 255 0 149 255 0 183 255 0 183 255 0 183 255 0 183 255 0 183 255 0 183 255 0 183 255 0 183 255 0 183 255 0 183 255 0 178 255 0 178 255 0 178 255 0 178 255 0 178 255 0 178 255 0 178 255 0 178 255 0 178 255 0 178 255 0 151 255 0 151 255 0 151 255 0 151 255 0 151 255 0 151 255 0 151 255 0 151 255 0 151 255 0 151 255 0 159 255 0 159 255 0 159 255 0 159 255 0 159 255 0 159 255 0 159 255 0 159 255 0 159 255 0 159 255 0 0 0 0 0 0 0 0 0 0 0 0 0 0 0 0 0 0 0 0 0 0 0 0 0 0 0 0 0 0 0 0 202 0 0 202 0 0 202 0 0 202 0 0 202 0 0 202 0 0 202 0 0 202 0 0 202 0 0 202 0 0 202 0 0 202 0 0 202 0 0 202 0 0 202 0 0 202 0 0 202 0 0 202 0 0 202 0 0 202 0 0 202 0 0 202 0 0 202 0 0 202 0 0 202 0 0 202 0 0 202 0 0 202 0 0 202 0 0 202 
0 155 255 0 155 255 0 155 255 0 155 255 0 155 255 0 155 255 0 155 255 0 155 255 0 155 255 0 155 255 0 150 255 0 150 255 0 150 255 0 150 255 0 150 255 0 150 255 0 150 255 0 150 255 0 150 255 0 150 255 0 170 255 0 170 255 0 170 255 0 170 255 0 170 255 0 170 255 0 170 255 0 170 255 0 170 255 0 170 255 0 174 255 0 174 255 0 174 255 0 174 255 0 174 255 0 174 255 0 174 255 0 174 255 0 174 255 0 174 255 0 191 255 0 191 255 0 191 255 0 191 255 0 191 255 0 191 255 0 191 255 0 191 255 0 191 255 0 191 255 0 153 255 0 153 255 0 153 255 0 153 255 0 153 255 0 153 255 0 153 255 0 153 255 0 153 255 0 153 255 0 135 255 0 135 255 0 135 255 0 135 255 0 135 255 0 135 255 0 135 255 0 135 255 0 135 255 0 135 255 0 111 255 0 111 255 0 111 255 0 111 255 0 111 255 0 111 255 0 111 255 0 111 255 0 111 255 0 111 255 0 121 255 0 121 255 0 121 255 0 121 255 0 121 255 0 121 255 0 121 255 0 121 255 0 121 255 0 121 255 0 101 255 0 101 255 0 101 255 0 101 255 0 101 255 0 101 255 0 101 255 0 101 255 0 101 255 0 101 255 0 110 255 0 110 255 0 110 255 0 110 255 0 110 255 0 110 255 0 110 255 0 110 255 0 110 255 0 110 255 0 152 255 0 152 255 0 152 255 0 152 255 0 152 255 0 152 255 0 152 255 0 152 255 0 152 255 0 152 255 0 152 255 0 152 255 0 152 255 0 152 255 0 152 255 0 152 255 0 152 255 0 152 255 0 152 255 0 152 255 0 189 255 0 189 255 0 189 255 0 189 255 0 189 255 0 189 255 0 189 255 0 189 255 0 189 255 0 189 255 0 203 255 0 203 255 0 203 255 0 203 255 0 203 255 0 203 255 0 203 255 0 203 255 0 203 255 0 203 255 0 170 255 0 170 255 0 170 255 0 170 255 0 170 255 0 170 255 0 170 255 0 170 255 0 170 255 0 170 255 0 166 255 0 166 255 0 166 255 0 166 255 0 166 255 0 166 255 0 166 255 0 166 255 0 166 255 0 166 255 0 160 255 0 160 255 0 160 255 0 160 255 0 160 255 0 160 255 0 160 255 0 160 255 0 160 255 0 160 255 0 162 255 0 162 255 0 162 255 0 162 255 0 162 255 0 162 255 0 162 255 0 162 255 0 162 255 0 162 255 0 157 255 0 157 255 0 157 255 0 157 255 0 157 255 0 157 255 0 157 255 0 157 255 0 157 255 0 157 255 0 162 255 0 162 255 0 162 255 0 162 255 0 162 255 0 162 255 0 162 255 0 162 255 0 162 255 0 162 255 0 148 255 0 148 255 0 148 255 0 148 255 0 148 255 0 148 255 0 148 255 0 148 255 0 148 255 0 148 255 0 130 255 0 130 255 0 130 255 0 130 255 0 130 255 0 130 255 0 130 255 0 130 255 0 130 255 0 130 255 0 149 255 0 149 255 0 149 255 0 149 255 0 149 255 0 149 255 0 149 255 0 149 255 0 149 255 0 149 255 0 183 255 0 183 255 0 183 255 0 183 255 0 183 255 0 183 255 0 183 255 0 183 255 0 183 255 0 183 255 0 178 255 0 178 255 0 178 255 0 178 255 0 178 255 0 178 255 0 178 255 0 178 255 0 178 255 0 178 255 0 151 255 0 151 255 0 151 255 0 151 255 0 151 255 0 151 255 0 151 255 0 151 255 0 151 255 0 151 255 0 159 255 0 159 255 0 159 255 0 159 255 0 159 255 0 159 255 0 159 255 0 159 255 0 159 255 0 159 255 0 0 0 0 0 0 0 0 0 0 0 0 0 0 0 0 0 0 0 0 0 0 0 0 0 0 0 0 0 0 0 0 206 0 0 206 0 0 206 0 0 206 0 0 206 0 0 206 0 0 206 0 0 206 0 0 206 0 0 206 0 0 206 0 0 206 0 0 206 0 0 206 0 0 206 0 0 206 0 0 206 0 0 206 0 0 206 0 0 206 0 0 206 0 0 206 0 0 206 0 0 206 0 0 206 0 0 206 0 0 206 0 0 206 0 0 206 0 0 206 
0 155 255 0 155 255 0 155 255 0 155 255 0 155 255 0 155 255 0 155 255 0 155 255 0 155 255 0 155 255 0 150 255 0 150 255 0 150 255 0 150 255 0 150 255 0 150 255 0 150 255 0 150 255 0 150 255 0 150 255 0 170 255 0 170 255 0 170 255 0 170 255 0 170 255 0 170 255 0 170 255 0 170 255 0 170 255 0 170 255 0 174 255 0 174 255 0 174 255 0 174 255 0 174 255 0 174 255 0 174 255 0 174 255 0 174 255 0 174 255 0 191 255 0 191 255 0 191 255 0 191 255 0 191 255 0 191 255 0 191 255 0 191 255 0 191 255 0 191 255 0 153 255 0 153 255 0 153 255 0 153 255 0 153 255 0 153 255 0 153 255 0 153 255 0 153 255 0 153 255 0 135 255 0 135 255 0 135 255 0 135 255 0 135 255 0 135 255 0 135 255 0 135 255 0 135 255 0 135 255 0 111 255 0 111 255 0 111 255 0 111 255 0 111 255 0 111 255 0 111 255 0 111 255 0 111 255 0 111 255 0 121 255 0 121 255 0 121 255 0 121 255 0 121 255 0 121 255 0 121 255 0 121 255 0 121 255 0 121 255 0 101 255 0 101 255 0 101 255 0 101 255 0 101 255 0 101 255 0 101 255 0 101 255 0 101 255 0 101 255 0 110 255 0 110 255 0 110 255 0 110 255 0 110 255 0 110 255 0 110 255 0 110 255 0 110 255 0 110 255 0 152 255 0 152 255 0 152 255 0 152 255 0 152 255 0 152 255 0 152 255 0 152 255 0 152 255 0 152 255 0 152 255 0 152 255 0 152 255 0 152 255 0 152 255 0 152 255 0 152 255 0 152 255 0 152 255 0 152 255 0 189 255 0 189 255 0 189 255 0 189 255 0 189 255 0 189 255 0 189 255 0 189 255 0 189 255 0 189 255 0 203 255 0 203 255 0 203 255 0 203 255 0 203 255 0 203 255 0 203 255 0 203 255 0 203 255 0 203 255 0 170 255 0 170 255 0 170 255 0 170 255 0 170 255 0 170 255 0 170 255 0 170 255 0 170 255 0 170 255 0 166 255 0 166 255 0 166 255 0 166 255 0 166 255 0 166 255 0 166 255 0 166 255 0 166 255 0 166 255 0 160 255 0 160 255 0 160 255 0 160 255 0 160 255 0 160 255 0 160 255 0 160 255 0 160 255 0 160 255 0 162 255 0 162 255 0 162 255 0 162 255 0 162 255 0 162 255 0 162 255 0 162 255 0 162 255 0 162 255 0 157 255 0 157 255 0 157 255 0 157 255 0 157 255 0 157 255 0 157 255 0 157 255 0 157 255 0 157 255 0 162 255 0 162 255 0 162 255 0 162 255 0 162 255 0 162 255 0 162 255 0 162 255 0 162 255 0 162 255 0 148 255 0 148 255 0 148 255 0 148 255 0 148 255 0 148 255 0 148 255 0 148 255 0 148 255 0 148 255 0 130 255 0 130 255 0 130 255 0 130 255 0 130 255 0 130 255 0 130 255 0 130 255 0 130 255 0 130 255 0 149 255 0 149 255 0 149 255 0 149 255 0 149 255 0 149 255 0 149 255 0 149 255 0 149 255 0 149 255 0 183 255 0 183 255 0 183 255 0 183 255 0 183 255 0 183 255 0 183 255 0 183 255 0 183 255 0 183 255 0 178 255 0 178 255 0 178 255 0 178 255 0 178 255 0 178 255 0 178 255 0 178 255 0 178 255 0 178 255 0 151 255 0 151 255 0 151 255 0 151 255 0 151 255 0 151 255 0 151 255 0 151 255 0 151 255 0 151 255 0 159 255 0 159 255 0 159 255 0 159 255 0 159 255 0 159 255 0 159 255 0 159 255 0 159 255 0 159 255 0 0 0 0 0 0 0 0 0 0 0 0 0 0 0 0 0 0 0 0 0 0 0 0 0 0 0 0 0 0 0 0 210 0 0 210 0 0 210 0 0 210 0 0 210 0 0 210 0 0 210 0 0 210 0 0 210 0 0 210 0 0 210 0 0 210 0 0 210 0 0 210 0 0 210 0 0 210 0 0 210 0 0 210 0 0 210 0 0 210 0 0 210 0 0 210 0 0 210 0 0 210 0 0 210 0 0 210 0 0 210 0 0 210 0 0 210 0 0 210 
0 155 255 0 155 255 0 155 255 0 155 255 0 155 255 0 155 255 0 155 255 0 155 255 0 155 255 0 155 255 0 150 255 0 150 255 0 150 255 0 150 255 0 150 255 0 150 255 0 150 255 0 150 255 0 150 255 0 150 255 0 170 255 0 170 255 0 170 255 0 170 255 0 170 255 0 170 255 0 170 255 0 170 255 0 170 255 0 170 255 0 174 255 0 174 255 0 174 255 0 174 255 0 174 255 0 174 255 0 174 255 0 174 255 0 174 255 0 174 255 0 191 255 0 191 255 0 191 255 0 191 255 0 191 255 0 191 255 0 191 255 0 191 255 0 191 255 0 191 255 0 153 255 0 153 255 0 153 255 0 153 255 0 153 255 0 153 255 0 153 255 0 153 255 0 153 255 0 153 255 0 135 255 0 135 255 0 135 255 0 135 255 0 135 255 0 135 255 0 135 255 0 135 255 0 135 255 0 135 255 0 111 255 0 111 255 0 111 255 0 111 255 0 111 255 0 111 255 0 111 255 0 111 255 0 111 255 0 111 255 0 121 255 0 121 255 0 121 255 0 121 255 0 121 255 0 121 255 0 121 255 0 121 255 0 121 255 0 121 255 0 101 255 0 101 255 0 101 255 0 101 255 0 101 255 0 101 255 0 101 255 0 101 255 0 101 255 0 101 255 0 110 255 0 110 255 0 110 255 0 110 255 0 110 255 0 110 255 0 110 255 0 110 255 0 110 255 0 110 255 0 152 255 0 152 255 0 152 255 0 152 255 0 152 255 0 152 255 0 152 255 0 152 255 0 152 255 0 152 255 0 152 255 0 152 255 0 152 255 0 152 255 0 152 255 0 152 255 0 152 255 0 152 255 0 152 255 0 152 255 0 189 255 0 189 255 0 189 255 0 189 255 0 189 255 0 189 255 0 189 255 0 189 255 0 189 255 0 189 255 0 203 255 0 203 255 0 203 255 0 203 255 0 203 255 0 203 255 0 203 255 0 203 255 0 203 255 0 203 255 0 170 255 0 170 255 0 170 255 0 170 255 0 170 255 0 170 255 0 170 255 0 170 255 0 170 255 0 170 255 0 166 255 0 166 255 0 166 255 0 166 255 0 166 255 0 166 255 0 166 255 0 166 255 0 166 255 0 166 255 0 160 255 0 160 255 0 160 255 0 160 255 0 160 255 0 160 255 0 160 255 0 160 255 0 160 255 0 160 255 0 162 255 0 162 255 0 162 255 0 162 255 0 162 255 0 162 255 0 162 255 0 162 255 0 162 255 0 162 255 0 157 255 0 157 255 0 157 255 0 157 255 0 157 255 0 157 255 0 157 255 0 157 255 0 157 255 0 157 255 0 162 255 0 162 255 0 162 255 0 162 255 0 162 255 0 162 255 0 162 255 0 162 255 0 162 255 0 162 255 0 148 255 0 148 255 0 148 255 0 148 255 0 148 255 0 148 255 0 148 255 0 148 255 0 148 255 0 148 255 0 130 255 0 130 255 0 130 255 0 130 255 0 130 255 0 130 255 0 130 255 0 130 255 0 130 255 0 130 255 0 149 255 0 149 255 0 149 255 0 149 255 0 149 255 0 149 255 0 149 255 0 149 255 0 149 255 0 149 255 0 183 255 0 183 255 0 183 255 0 183 255 0 183 255 0 183 255 0 183 255 0 183 255 0 183 255 0 183 255 0 178 255 0 178 255 0 178 255 0 178 255 0 178 255 0 178 255 0 178 255 0 178 255 0 178 255 0 178 255 0 151 255 0 151 255 0 151 255 0 151 255 0 151 255 0 151 255 0 151 255 0 151 255 0 151 255 0 151 255 0 159 255 0 159 255 0 159 255 0 159 255 0 159 255 0 159 255 0 159 255 0 159 255 0 159 255 0 159 255 0 0 0 0 0 0 0 0 0 0 0 0 0 0 0 0 0 0 0 0 0 0 0 0 0 0 0 0 0 0 0 0 213 0 0 213 0 0 213 0 0 213 0 0 213 0 0 213 0 0 213 0 0 213 0 0 213 0 0 213 0 0 213 0 0 213 0 0 213 0 0 213 0 0 213 0 0 213 0 0 213 0 0 213 0 0 213 0 0 213 0 0 213 0 0 213 0 0 213 0 0 213 0 0 213 0 0 213 0 0 213 0 0 213 0 0 213 0 0 213 
0 155 255 0 155 255 0 155 255 0 155 255 0 155 255 0 155 255 0 155 255 0 155 255 0 155 255 0 155 255 0 150 255 0 150 255 0 150 255 0 150 255 0 150 255 0 150 255 0 150 255 0 150 255 0 150 255 0 150 255 0 170 255 0 170 255 0 170 255 0 170 255 0 170 255 0 170 255 0 170 255 0 170 255 0 170 255 0 170 255 0 174 255 0 174 255 0 174 255 0 174 255 0 174 255 0 174 255 0 174 255 0 174 255 0 174 255 0 174 255 0 191 255 0 191 255 0 191 255 0 191 255 0 191 255 0 191 255 0 191 255 0 191 255 0 191 255 0 191 255 0 153 255 0 153 255 0 153 255 0 153 255 0 153 255 0 153 255 0 153 255 0 153 255 0 153 255 0 153 255 0 135 255 0 135 255 0 135 255 0 135 255 0 135 255 0 135 255 0 135 255 0 135 255 0 135 255 0 135 255 0 111 255 0 111 255 0 111 255 0 111 255 0 111 255 0 111 255 0 111 255 0 111 255 0 111 255 0 111 255 0 121 255 0 121 255 0 121 255 0 121 255 0 121 255 0 121 255 0 121 255 0 121 255 0 121 255 0 121 255 0 101 255 0 101 255 0 101 255 0 101 255 0 101 255 0 101 255 0 101 255 0 101 255 0 101 255 0 101 255 0 110 255 0 110 255 0 110 255 0 110 255 0 110 255 0 110 255 0 110 255 0 110 255 0 110 255 0 110 255 0 152 255 0 152 255 0 152 255 0 152 255 0 152 255 0 152 255 0 152 255 0 152 255 0 152 255 0 152 255 0 152 255 0 152 255 0 152 255 0 152 255 0 152 255 0 152 255 0 152 255 0 152 255 0 152 255 0 152 255 0 189 255 0 189 255 0 189 255 0 189 255 0 189 255 0 189 255 0 189 255 0 189 255 0 189 255 0 189 255 0 203 255 0 203 255 0 203 255 0 203 255 0 203 255 0 203 255 0 203 255 0 203 255 0 203 255 0 203 255 0 170 255 0 170 255 0 170 255 0 170 255 0 170 255 0 170 255 0 170 255 0 170 255 0 170 255 0 170 255 0 166 255 0 166 255 0 166 255 0 166 255 0 166 255 0 166 255 0 166 255 0 166 255 0 166 255 0 166 255 0 160 255 0 160 255 0 160 255 0 160 255 0 160 255 0 160 255 0 160 255 0 160 255 0 160 255 0 160 255 0 162 255 0 162 255 0 162 255 0 162 255 0 162 255 0 162 255 0 162 255 0 162 255 0 162 255 0 162 255 0 157 255 0 157 255 0 157 255 0 157 255 0 157 255 0 157 255 0 157 255 0 157 255 0 157 255 0 157 255 0 162 255 0 162 255 0 162 255 0 162 255 0 162 255 0 162 255 0 162 255 0 162 255 0 162 255 0 162 255 0 148 255 0 148 255 0 148 255 0 148 255 0 148 255 0 148 255 0 148 255 0 148 255 0 148 255 0 148 255 0 130 255 0 130 255 0 130 255 0 130 255 0 130 255 0 130 255 0 130 255 0 130 255 0 130 255 0 130 255 0 149 255 0 149 255 0 149 255 0 149 255 0 149 255 0 149 255 0 149 255 0 149 255 0 149 255 0 149 255 0 183 255 0 183 255 0 183 255 0 183 255 0 183 255 0 183 255 0 183 255 0 183 255 0 183 255 0 183 255 0 178 255 0 178 255 0 178 255 0 178 255 0 178 255 0 178 255 0 178 255 0 178 255 0 178 255 0 178 255 0 151 255 0 151 255 0 151 255 0 151 255 0 151 255 0 151 255 0 151 255 0 151 255 0 151 255 0 151 255 0 159 255 0 159 255 0 159 255 0 159 255 0 159 255 0 159 255 0 159 255 0 159 255 0 159 255 0 159 255 0 0 0 0 0 0 0 0 0 0 0 0 0 0 0 0 0 0 0 0 0 0 0 0 0 0 0 0 0 0 0 0 217 0 0 217 0 0 217 0 0 217 0 0 217 0 0 217 0 0 217 0 0 217 0 0 217 0 0 217 0 0 217 0 0 217 0 0 217 0 0 217 0 0 217 0 0 217 0 0 217 0 0 217 0 0 217 0 0 217 0 0 217 0 0 217 0 0 217 0 0 217 0 0 217 0 0 217 0 0 217 0 0 217 0 0 217 0 0 217 
0 147 255 0 147 255 0 147 255 0 147 255 0 147 255 0 147 255 0 147 255 0 147 255 0 147 255 0 147 255 0 157 255 0 157 255 0 157 255 0 157 255 0 157 255 0 157 255 0 157 255 0 157 255 0 157 255 0 157 255 0 156 255 0 156 255 0 156 255 0 156 255 0 156 255 0 156 255 0 156 255 0 156 255 0 156 255 0 156 255 0 174 255 0 174 255 0 174 255 0 174 255 0 174 255 0 174 255 0 174 255 0 174 255 0 174 255 0 174 255 0 189 255 0 189 255 0 189 255 0 189 255 0 189 255 0 189 255 0 189 255 0 189 255 0 189 255 0 189 255 0 164 255 0 164 255 0 164 255 0 164 255 0 164 255 0 164 255 0 164 255 0 164 255 0 164 255 0 164 255 0 119 255 0 119 255 0 119 255 0 119 255 0 119 255 0 119 255 0 119 255 0 119 255 0 119 255 0 119 255 0 77 255 0 77 255 0 77 255 0 77 255 0 77 255 0 77 255 0 77 255 0 77 255 0 77 255 0 77 255 0 121 255 0 121 255 0 121 255 0 121 255 0 121 255 0 121 255 0 121 255 0 121 255 0 121 255 0 121 255 0 139 255 0 139 255 0 139 255 0 139 255 0 139 255 0 139 255 0 139 255 0 139 255 0 139 255 0 139 255 0 113 255 0 113 255 0 113 255 0 113 255 0 113 255 0 113 255 0 113 255 0 113 255 0 113 255 0 113 255 0 169 255 0 169 255 0 169 255 0 169 255 0 169 255 0 169 255 0 169 255 0 169 255 0 169 255 0 169 255 0 170 255 0 170 255 0 170 255 0 170 255 0 170 255 0 170 255 0 170 255 0 170 255 0 170 255 0 170 255 0 179 255 0 179 255 0 179 255 0 179 255 0 179 255 0 179 255 0 179 255 0 179 255 0 179 255 0 179 255 0 209 255 0 209 255 0 209 255 0 209 255 0 209 255 0 209 255 0 209 255 0 209 255 0 209 255 0 209 255 0 144 255 0 144 255 0 144 255 0 144 255 0 144 255 0 144 255 0 144 255 0 144 255 0 144 255 0 144 255 0 199 255 0 199 255 0 199 255 0 199 255 0 199 255 0 199 255 0 199 255 0 199 255 0 199 255 0 199 255 0 186 255 0 186 255 0 186 255 0 186 255 0 186 255 0 186 255 0 186 255 0 186 255 0 186 255 0 186 255 0 166 255 0 166 255 0 166 255 0 166 255 0 166 255 0 166 255 0 166 255 0 166 255 0 166 255 0 166 255 0 169 255 0 169 255 0 169 255 0 169 255 0 169 255 0 169 255 0 169 255 0 169 255 0 169 255 0 169 255 0 159 255 0 159 255 0 159 255 0 159 255 0 159 255 0 159 255 0 159 255 0 159 255 0 159 255 0 159 255 0 132 255 0 132 255 0 132 255 0 132 255 0 132 255 0 132 255 0 132 255 0 132 255 0 132 255 0 132 255 0 132 255 0 132 255 0 132 255 0 132 255 0 132 255 0 132 255 0 132 255 0 132 255 0 132 255 0 132 255 0 142 255 0 142 255 0 142 255 0 142 255 0 142 255 0 142 255 0 142 255 0 142 255 0 142 255 0 142 255 0 164 255 0 164 255 0 164 255 0 164 255 0 164 255 0 164 255 0 164 255 0 164 255 0 164 255 0 164 255 0 159 255 0 159 255 0 159 255 0 159 255 0 159 255 0 159 255 0 159 255 0 159 255 0 159 255 0 159 255 0 172 255 0 172 255 0 172 255 0 172 255 0 172 255 0 172 255 0 172 255 0 172 255 0 172 255 0 172 255 0 168 255 0 168 255 0 168 255 0 168 255 0 168 255 0 168 255 0 168 255 0 168 255 0 168 255 0 168 255 0 0 0 0 0 0 0 0 0 0 0 0 0 0 0 0 0 0 0 0 0 0 0 0 0 0 0 0 0 0 0 0 221 0 0 221 0 0 221 0 0 221 0 0 221 0 0 221 0 0 221 0 0 221 0 0 221 0 0 221 0 0 221 0 0 221 0 0 221 0 0 221 0 0 221 0 0 221 0 0 221 0 0 221 0 0 221 0 0 221 0 0 221 0 0 221 0 0 221 0 0 221 0 0 221 0 0 221 0 0 221 0 0 221 0 0 221 0 0 221 
0 147 255 0 147 255 0 147 255 0 147 255 0 147 255 0 147 255 0 147 255 0 147 255 0 147 255 0 147 255 0 157 255 0 157 255 0 157 255 0 157 255 0 157 255 0 157 255 0 157 255 0 157 255 0 157 255 0 157 255 0 156 255 0 156 255 0 156 255 0 156 255 0 156 255 0 156 255 0 156 255 0 156 255 0 156 255 0 156 255 0 174 255 0 174 255 0 174 255 0 174 255 0 174 255 0 174 255 0 174 255 0 174 255 0 174 255 0 174 255 0 189 255 0 189 255 0 189 255 0 189 255 0 189 255 0 189 255 0 189 255 0 189 255 0 189 255 0 189 255 0 164 255 0 164 255 0 164 255 0 164 255 0 164 255 0 164 255 0 164 255 0 164 255 0 164 255 0 164 255 0 119 255 0 119 255 0 119 255 0 119 255 0 119 255 0 119 255 0 119 255 0 119 255 0 119 255 0 119 255 0 77 255 0 77 255 0 77 255 0 77 255 0 77 255 0 77 255 0 77 255 0 77 255 0 77 255 0 77 255 0 121 255 0 121 255 0 121 255 0 121 255 0 121 255 0 121 255 0 121 255 0 121 255 0 121 255 0 121 255 0 139 255 0 139 255 0 139 255 0 139 255 0 139 255 0 139 255 0 139 255 0 139 255 0 139 255 0 139 255 0 113 255 0 113 255 0 113 255 0 113 255 0 113 255 0 113 255 0 113 255 0 113 255 0 113 255 0 113 255 0 169 255 0 169 255 0 169 255 0 169 255 0 169 255 0 169 255 0 169 255 0 169 255 0 169 255 0 169 255 0 170 255 0 170 255 0 170 255 0 170 255 0 170 255 0 170 255 0 170 255 0 170 255 0 170 255 0 170 255 0 179 255 0 179 255 0 179 255 0 179 255 0 179 255 0 179 255 0 179 255 0 179 255 0 179 255 0 179 255 0 209 255 0 209 255 0 209 255 0 209 255 0 209 255 0 209 255 0 209 255 0 209 255 0 209 255 0 209 255 0 144 255 0 144 255 0 144 255 0 144 255 0 144 255 0 144 255 0 144 255 0 144 255 0 144 255 0 144 255 0 199 255 0 199 255 0 199 255 0 199 255 0 199 255 0 199 255 0 199 255 0 199 255 0 199 255 0 199 255 0 186 255 0 186 255 0 186 255 0 186 255 0 186 255 0 186 255 0 186 255 0 186 255 0 186 255 0 186 255 0 166 255 0 166 255 0 166 255 0 166 255 0 166 255 0 166 255 0 166 255 0 166 255 0 166 255 0 166 255 0 169 255 0 169 255 0 169 255 0 169 255 0 169 255 0 169 255 0 169 255 0 169 255 0 169 255 0 169 255 0 159 255 0 159 255 0 159 255 0 159 255 0 159 255 0 159 255 0 159 255 0 159 255 0 159 255 0 159 255 0 132 255 0 132 255 0 132 255 0 132 255 0 132 255 0 132 255 0 132 255 0 132 255 0 132 255 0 132 255 0 132 255 0 132 255 0 132 255 0 132 255 0 132 255 0 132 255 0 132 255 0 132 255 0 132 255 0 132 255 0 142 255 0 142 255 0 142 255 0 142 255 0 142 255 0 142 255 0 142 255 0 142 255 0 142 255 0 142 255 0 164 255 0 164 255 0 164 255 0 164 255 0 164 255 0 164 255 0 164 255 0 164 255 0 164 255 0 164 255 0 159 255 0 159 255 0 159 255 0 159 255 0 159 255 0 159 255 0 159 255 0 159 255 0 159 255 0 159 255 0 172 255 0 172 255 0 172 255 0 172 255 0 172 255 0 172 255 0 172 255 0 172 255 0 172 255 0 172 255 0 168 255 0 168 255 0 168 255 0 168 255 0 168 255 0 168 255 0 168 255 0 168 255 0 168 255 0 168 255 0 0 0 0 0 0 0 0 0 0 0 0 0 0 0 0 0 0 0 0 0 0 0 0 0 0 0 0 0 0 0 0 224 0 0 224 0 0 224 0 0 224 0 0 224 0 0 224 0 0 224 0 0 224 0 0 224 0 0 224 0 0 224 0 0 224 0 0 224 0 0 224 0 0 224 0 0 224 0 0 224 0 0 224 0 0 224 0 0 224 0 0 224 0 0 224 0 0 224 0 0 224 0 0 224 0 0 224 0 0 224 0 0 224 0 0 224 0 0 224 
0 147 255 0 147 255 0 147 255 0 147 255 0 147 255 0 147 255 0 147 255 0 147 255 0 147 255 0 147 255 0 157 255 0 157 255 0 157 255 0 157 255 0 157 255 0 157 255 0 157 255 0 157 255 0 157 255 0 157 255 0 156 255 0 156 255 0 156 255 0 156 255 0 156 255 0 156 255 0 156 255 0 156 255 0 156 255 0 156 255 0 174 255 0 174 255 0 174 255 0 174 255 0 174 255 0 174 255 0 174 255 0 174 255 0 174 255 0 174 255 0 189 255 0 189 255 0 189 255 0 189 255 0 189 255 0 189 255 0 189 255 0 189 255 0 189 255 0 189 255 0 164 255 0 164 255 0 164 255 0 164 255 0 164 255 0 164 255 0 164 255 0 164 255 0 164 255 0 164 255 0 119 255 0 119 255 0 119 255 0 119 255 0 119 255 0 119 255 0 119 255 0 119 255 0 119 255 0 119 255 0 77 255 0 77 255 0 77 255 0 77 255 0 77 255 0 77 255 0 77 255 0 77 255 0 77 255 0 77 255 0 121 255 0 121 255 0 121 255 0 121 255 0 121 255 0 121 255 0 121 255 0 121 255 0 121 255 0 121 255 0 139 255 0 139 255 0 139 255 0 139 255 0 139 255 0 139 255 0 139 255 0 139 255 0 139 255 0 139 255 0 113 255 0 113 255 0 113 255 0 113 255 0 113 255 0 113 255 0 113 255 0 113 255 0 113 255 0 113 255 0 169 255 0 169 255 0 169 255 0 169 255 0 169 255 0 169 255 0 169 255 0 169 255 0 169 255 0 169 255 0 170 255 0 170 255 0 170 255 0 170 255 0 170 255 0 170 255 0 170 255 0 170 255 0 170 255 0 170 255 0 179 255 0 179 255 0 179 255 0 179 255 0 179 255 0 179 255 0 179 255 0 179 255 0 179 255 0 179 255 0 209 255 0 209 255 0 209 255 0 209 255 0 209 255 0 209 255 0 209 255 0 209 255 0 209 255 0 209 255 0 144 255 0 144 255 0 144 255 0 144 255 0 144 255 0 144 255 0 144 255 0 144 255 0 144 255 0 144 255 0 199 255 0 199 255 0 199 255 0 199 255 0 199 255 0 199 255 0 199 255 0 199 255 0 199 255 0 199 255 0 186 255 0 186 255 0 186 255 0 186 255 0 186 255 0 186 255 0 186 255 0 186 255 0 186 255 0 186 255 0 166 255 0 166 255 0 166 255 0 166 255 0 166 255 0 166 255 0 166 255 0 166 255 0 166 255 0 166 255 0 169 255 0 169 255 0 169 255 0 169 255 0 169 255 0 169 255 0 169 255 0 169 255 0 169 255 0 169 255 0 159 255 0 159 255 0 159 255 0 159 255 0 159 255 0 159 255 0 159 255 0 159 255 0 159 255 0 159 255 0 132 255 0 132 255 0 132 255 0 132 255 0 132 255 0 132 255 0 132 255 0 132 255 0 132 255 0 132 255 0 132 255 0 132 255 0 132 255 0 132 255 0 132 255 0 132 255 0 132 255 0 132 255 0 132 255 0 132 255 0 142 255 0 142 255 0 142 255 0 142 255 0 142 255 0 142 255 0 142 255 0 142 255 0 142 255 0 142 255 0 164 255 0 164 255 0 164 255 0 164 255 0 164 255 0 164 255 0 164 255 0 164 255 0 164 255 0 164 255 0 159 255 0 159 255 0 159 255 0 159 255 0 159 255 0 159 255 0 159 255 0 159 255 0 159 255 0 159 255 0 172 255 0 172 255 0 172 255 0 172 255 0 172 255 0 172 255 0 172 255 0 172 255 0 172 255 0 172 255 0 168 255 0 168 255 0 168 255 0 168 255 0 168 255 0 168 255 0 168 255 0 168 255 0 168 255 0 168 255 0 0 0 0 0 0 0 0 0 0 0 0 0 0 0 0 0 0 0 0 0 0 0 0 0 0 0 0 0 0 0 0 228 0 0 228 0 0 228 0 0 228 0 0 228 0 0 228 0 0 228 0 0 228 0 0 228 0 0 228 0 0 228 0 0 228 0 0 228 0 0 228 0 0 228 0 0 228 0 0 228 0 0 228 0 0 228 0 0 228 0 0 228 0 0 228 0 0 228 0 0 228 0 0 228 0 0 228 0 0 228 0 0 228 0 0 228 0 0 228 
0 147 255 0 147 255 0 147 255 0 147 255 0 147 255 0 147 255 0 147 255 0 147 255 0 147 255 0 147 255 0 157 255 0 157 255 0 157 255 0 157 255 0 157 255 0 157 255 0 157 255 0 157 255 0 157 255 0 157 255 0 156 255 0 156 255 0 156 255 0 156 255 0 156 255 0 156 255 0 156 255 0 156 255 0 156 255 0 156 255 0 174 255 0 174 255 0 174 255 0 174 255 0 174 255 0 174 255 0 174 255 0 174 255 0 174 255 0 174 255 0 189 255 0 189 255 0 189 255 0 189 255 0 189 255 0 189 255 0 189 255 0 189 255 0 189 255 0 189 255 0 164 255 0 164 255 0 164 255 0 164 255 0 164 255 0 164 255 0 164 255 0 164 255 0 164 255 0 164 255 0 119 255 0 119 255 0 119 255 0 119 255 0 119 255 0 119 255 0 119 255 0 119 255 0 119 255 0 119 255 0 77 255 0 77 255 0 77 255 0 77 255 0 77 255 0 77 255 0 77 255 0 77 255 0 77 255 0 77 255 0 121 255 0 121 255 0 121 255 0 121 255 0 121 255 0 121 255 0 121 255 0 121 255 0 121 255 0 121 255 0 139 255 0 139 255 0 139 255 0 139 255 0 139 255 0 139 255 0 139 255 0 139 255 0 139 255 0 139 255 0 113 255 0 113 255 0 113 255 0 113 255 0 113 255 0 113 255 0 113 255 0 113 255 0 113 255 0 113 255 0 169 255 0 169 255 0 169 255 0 169 255 0 169 255 0 169 255 0 169 255 0 169 255 0 169 255 0 169 255 0 170 255 0 170 255 0 170 255 0 170 255 0 170 255 0 170 255 0 170 255 0 170 255 0 170 255 0 170 255 0 179 255 0 179 255 0 179 255 0 179 255 0 179 255 0 179 255 0 179 255 0 179 255 0 179 255 0 179 255 0 209 255 0 209 255 0 209 255 0 209 255 0 209 255 0 209 255 0 209 255 0 209 255 0 209 255 0 209 255 0 144 255 0 144 255 0 144 255 0 144 255 0 144 255 0 144 255 0 144 255 0 144 255 0 144 255 0 144 255 0 199 255 0 199 255 0 199 255 0 199 255 0 199 255 0 199 255 0 199 255 0 199 255 0 199 255 0 199 255 0 186 255 0 186 255 0 186 255 0 186 255 0 186 255 0 186 255 0 186 255 0 186 255 0 186 255 0 186 255 0 166 255 0 166 255 0 166 255 0 166 255 0 166 255 0 166 255 0 166 255 0 166 255 0 166 255 0 166 255 0 169 255 0 169 255 0 169 255 0 169 255 0 169 255 0 169 255 0 169 255 0 169 255 0 169 255 0 169 255 0 159 255 0 159 255 0 159 255 0 159 255 0 159 255 0 159 255 0 159 255 0 159 255 0 159 255 0 159 255 0 132 255 0 132 255 0 132 255 0 132 255 0 132 255 0 132 255 0 132 255 0 132 255 0 132 255 0 132 255 0 132 255 0 132 255 0 132 255 0 132 255 0 132 255 0 132 255 0 132 255 0 132 255 0 132 255 0 132 255 0 142 255 0 142 255 0 142 255 0 142 255 0 142 255 0 142 255 0 142 255 0 142 255 0 142 255 0 142 255 0 164 255 0 164 255 0 164 255 0 164 255 0 164 255 0 164 255 0 164 255 0 164 255 0 164 255 0 164 255 0 159 255 0 159 255 0 159 255 0 159 255 0 159 255 0 159 255 0 159 255 0 159 255 0 159 255 0 159 255 0 172 255 0 172 255 0 172 255 0 172 255 0 172 255 0 172 255 0 172 255 0 172 255 0 172 255 0 172 255 0 168 255 0 168 255 0 168 255 0 168 255 0 168 255 0 168 255 0 168 255 0 168 255 0 168 255 0 168 255 0 0 0 0 0 0 0 0 0 0 0 0 0 0 0 0 0 0 0 0 0 0 0 0 0 0 0 0 0 0 0 0 232 0 0 232 0 0 232 0 0 232 0 0 232 0 0 232 0 0 232 0 0 232 0 0 232 0 0 232 0 0 232 0 0 232 0 0 232 0 0 232 0 0 232 0 0 232 0 0 232 0 0 232 0 0 232 0 0 232 0 0 232 0 0 232 0 0 232 0 0 232 0 0 232 0 0 232 0 0 232 0 0 232 0 0 232 0 0 232 
0 147 255 0 147 255 0 147 255 0 147 255 0 147 255 0 147 255 0 147 255 0 147 255 0 147 255 0 147 255 0 157 255 0 157 255 0 157 255 0 157 255 0 157 255 0 157 255 0 157 255 0 157 255 0 157 255 0 157 255 0 156 255 0 156 255 0 156 255 0 156 255 0 156 255 0 156 255 0 156 255 0 156 255 0 156 255 0 156 255 0 174 255 0 174 255 0 174 255 0 174 255 0 174 255 0 174 255 0 174 255 0 174 255 0 174 255 0 174 255 0 189 255 0 189 255 0 189 255 0 189 255 0 189 255 0 189 255 0 189 255 0 189 255 0 189 255 0 189 255 0 164 255 0 164 255 0 164 255 0 164 255 0 164 255 0 164 255 0 164 255 0 164 255 0 164 255 0 164 255 0 119 255 0 119 255 0 119 255 0 119 255 0 119 255 0 119 255 0 119 255 0 119 255 0 119 255 0 119 255 0 77 255 0 77 255 0 77 255 0 77 255 0 77 255 0 77 255 0 77 255 0 77 255 0 77 255 0 77 255 0 121 255 0 121 255 0 121 255 0 121 255 0 121 255 0 121 255 0 121 255 0 121 255 0 121 255 0 121 255 0 139 255 0 139 255 0 139 255 0 139 255 0 139 255 0 139 255 0 139 255 0 139 255 0 139 255 0 139 255 0 113 255 0 113 255 0 113 255 0 113 255 0 113 255 0 113 255 0 113 255 0 113 255 0 113 255 0 113 255 0 169 255 0 169 255 0 169 255 0 169 255 0 169 255 0 169 255 0 169 255 0 169 255 0 169 255 0 169 255 0 170 255 0 170 255 0 170 255 0 170 255 0 170 255 0 170 255 0 170 255 0 170 255 0 170 255 0 170 255 0 179 255 0 179 255 0 179 255 0 179 255 0 179 255 0 179 255 0 179 255 0 179 255 0 179 255 0 179 255 0 209 255 0 209 255 0 209 255 0 209 255 0 209 255 0 209 255 0 209 255 0 209 255 0 209 255 0 209 255 0 144 255 0 144 255 0 144 255 0 144 255 0 144 255 0 144 255 0 144 255 0 144 255 0 144 255 0 144 255 0 199 255 0 199 255 0 199 255 0 199 255 0 199 255 0 199 255 0 199 255 0 199 255 0 199 255 0 199 255 0 186 255 0 186 255 0 186 255 0 186 255 0 186 255 0 186 255 0 186 255 0 186 255 0 186 255 0 186 255 0 166 255 0 166 255 0 166 255 0 166 255 0 166 255 0 166 255 0 166 255 0 166 255 0 166 255 0 166 255 0 169 255 0 169 255 0 169 255 0 169 255 0 169 255 0 169 255 0 169 255 0 169 255 0 169 255 0 169 255 0 159 255 0 159 255 0 159 255 0 159 255 0 159 255 0 159 255 0 159 255 0 159 255 0 159 255 0 159 255 0 132 255 0 132 255 0 132 255 0 132 255 0 132 255 0 132 255 0 132 255 0 132 255 0 132 255 0 132 255 0 132 255 0 132 255 0 132 255 0 132 255 0 132 255 0 132 255 0 132 255 0 132 255 0 132 255 0 132 255 0 142 255 0 142 255 0 142 255 0 142 255 0 142 255 0 142 255 0 142 255 0 142 255 0 142 255 0 142 255 0 164 255 0 164 255 0 164 255 0 164 255 0 164 255 0 164 255 0 164 255 0 164 255 0 164 255 0 164 255 0 159 255 0 159 255 0 159 255 0 159 255 0 159 255 0 159 255 0 159 255 0 159 255 0 159 255 0 159 255 0 172 255 0 172 255 0 172 255 0 172 255 0 172 255 0 172 255 0 172 255 0 172 255 0 172 255 0 172 255 0 168 255 0 168 255 0 168 255 0 168 255 0 168 255 0 168 255 0 168 255 0 168 255 0 168 255 0 168 255 0 0 0 0 0 0 0 0 0 0 0 0 0 0 0 0 0 0 0 0 0 0 0 0 0 0 0 0 0 0 0 0 235 0 0 235 0 0 235 0 0 235 0 0 235 0 0 235 0 0 235 0 0 235 0 0 235 0 0 235 0 0 235 0 0 235 0 0 235 0 0 235 0 0 235 0 0 235 0 0 235 0 0 235 0 0 235 0 0 235 0 0 235 0 0 235 0 0 235 0 0 235 0 0 235 0 0 235 0 0 235 0 0 235 0 0 235 0 0 235 
0 147 255 0 147 255 0 147 255 0 147 255 0 147 255 0 147 255 0 147 255 0 147 255 0 147 255 0 147 255 0 157 255 0 157 255 0 157 255 0 157 255 0 157 255 0 157 255 0 157 255 0 157 255 0 157 255 0 157 255 0 156 255 0 156 255 0 156 255 0 156 255 0 156 255 0 156 255 0 156 255 0 156 255 0 156 255 0 156 255 0 174 255 0 174 255 0 174 255 0 174 255 0 174 255 0 174 255 0 174 255 0 174 255 0 174 255 0 174 255 0 189 255 0 189 255 0 189 255 0 189 255 0 189 255 0 189 255 0 189 255 0 189 255 0 189 255 0 189 255 0 164 255 0 164 255 0 164 255 0 164 255 0 164 255 0 164 255 0 164 255 0 164 255 0 164 255 0 164 255 0 119 255 0 119 255 0 119 255 0 119 255 0 119 255 0 119 255 0 119 255 0 119 255 0 119 255 0 119 255 0 77 255 0 77 255 0 77 255 0 77 255 0 77 255 0 77 255 0 77 255 0 77 255 0 77 255 0 77 255 0 121 255 0 121 255 0 121 255 0 121 255 0 121 255 0 121 255 0 121 255 0 121 255 0 121 255 0 121 255 0 139 255 0 139 255 0 139 255 0 139 255 0 139 255 0 139 255 0 139 255 0 139 255 0 139 255 0 139 255 0 113 255 0 113 255 0 113 255 0 113 255 0 113 255 0 113 255 0 113 255 0 113 255 0 113 255 0 113 255 0 169 255 0 169 255 0 169 255 0 169 255 0 169 255 0 169 255 0 169 255 0 169 255 0 169 255 0 169 255 0 170 255 0 170 255 0 170 255 0 170 255 0 170 255 0 170 255 0 170 255 0 170 255 0 170 255 0 170 255 0 179 255 0 179 255 0 179 255 0 179 255 0 179 255 0 179 255 0 179 255 0 179 255 0 179 255 0 179 255 0 209 255 0 209 255 0 209 255 0 209 255 0 209 255 0 209 255 0 209 255 0 209 255 0 209 255 0 209 255 0 144 255 0 144 255 0 144 255 0 144 255 0 144 255 0 144 255 0 144 255 0 144 255 0 144 255 0 144 255 0 199 255 0 199 255 0 199 255 0 199 255 0 199 255 0 199 255 0 199 255 0 199 255 0 199 255 0 199 255 0 186 255 0 186 255 0 186 255 0 186 255 0 186 255 0 186 255 0 186 255 0 186 255 0 186 255 0 186 255 0 166 255 0 166 255 0 166 255 0 166 255 0 166 255 0 166 255 0 166 255 0 166 255 0 166 255 0 166 255 0 169 255 0 169 255 0 169 255 0 169 255 0 169 255 0 169 255 0 169 255 0 169 255 0 169 255 0 169 255 0 159 255 0 159 255 0 159 255 0 159 255 0 159 255 0 159 255 0 159 255 0 159 255 0 159 255 0 159 255 0 132 255 0 132 255 0 132 255 0 132 255 0 132 255 0 132 255 0 132 255 0 132 255 0 132 255 0 132 255 0 132 255 0 132 255 0 132 255 0 132 255 0 132 255 0 132 255 0 132 255 0 132 255 0 132 255 0 132 255 0 142 255 0 142 255 0 142 255 0 142 255 0 142 255 0 142 255 0 142 255 0 142 255 0 142 255 0 142 255 0 164 255 0 164 255 0 164 255 0 164 255 0 164 255 0 164 255 0 164 255 0 164 255 0 164 255 0 164 255 0 159 255 0 159 255 0 159 255 0 159 255 0 159 255 0 159 255 0 159 255 0 159 255 0 159 255 0 159 255 0 172 255 0 172 255 0 172 255 0 172 255 0 172 255 0 172 255 0 172 255 0 172 255 0 172 255 0 172 255 0 168 255 0 168 255 0 168 255 0 168 255 0 168 255 0 168 255 0 168 255 0 168 255 0 168 255 0 168 255 0 0 0 0 0 0 0 0 0 0 0 0 0 0 0 0 0 0 0 0 0 0 0 0 0 0 0 0 0 0 0 0 239 0 0 239 0 0 239 0 0 239 0 0 239 0 0 239 0 0 239 0 0 239 0 0 239 0 0 239 0 0 239 0 0 239 0 0 239 0 0 239 0 0 239 0 0 239 0 0 239 0 0 239 0 0 239 0 0 239 0 0 239 0 0 239 0 0 239 0 0 239 0 0 239 0 0 239 0 0 239 0 0 239 0 0 239 0 0 239 
0 147 255 0 147 255 0 147 255 0 147 255 0 147 255 0 147 255 0 147 255 0 147 255 0 147 255 0 147 255 0 157 255 0 157 255 0 157 255 0 157 255 0 157 255 0 157 255 0 157 255 0 157 255 0 157 255 0 157 255 0 156 255 0 156 255 0 156 255 0 156 255 0 156 255 0 156 255 0 156 255 0 156 255 0 156 255 0 156 255 0 174 255 0 174 255 0 174 255 0 174 255 0 174 255 0 174 255 0 174 255 0 174 255 0 174 255 0 174 255 0 189 255 0 189 255 0 189 255 0 189 255 0 189 255 0 189 255 0 189 255 0 189 255 0 189 255 0 189 255 0 164 255 0 164 255 0 164 255 0 164 255 0 164 255 0 164 255 0 164 255 0 164 255 0 164 255 0 164 255 0 119 255 0 119 255 0 119 255 0 119 255 0 119 255 0 119 255 0 119 255 0 119 255 0 119 255 0 119 255 0 77 255 0 77 255 0 77 255 0 77 255 0 77 255 0 77 255 0 77 255 0 77 255 0 77 255 0 77 255 0 121 255 0 121 255 0 121 255 0 121 255 0 121 255 0 121 255 0 121 255 0 121 255 0 121 255 0 121 255 0 139 255 0 139 255 0 139 255 0 139 255 0 139 255 0 139 255 0 139 255 0 139 255 0 139 255 0 139 255 0 113 255 0 113 255 0 113 255 0 113 255 0 113 255 0 113 255 0 113 255 0 113 255 0 113 255 0 113 255 0 169 255 0 169 255 0 169 255 0 169 255 0 169 255 0 169 255 0 169 255 0 169 255 0 169 255 0 169 255 0 170 255 0 170 255 0 170 255 0 170 255 0 170 255 0 170 255 0 170 255 0 170 255 0 170 255 0 170 255 0 179 255 0 179 255 0 179 255 0 179 255 0 179 255 0 179 255 0 179 255 0 179 255 0 179 255 0 179 255 0 209 255 0 209 255 0 209 255 0 209 255 0 209 255 0 209 255 0 209 255 0 209 255 0 209 255 0 209 255 0 144 255 0 144 255 0 144 255 0 144 255 0 144 255 0 144 255 0 144 255 0 144 255 0 144 255 0 144 255 0 199 255 0 199 255 0 199 255 0 199 255 0 199 255 0 199 255 0 199 255 0 199 255 0 199 255 0 199 255 0 186 255 0 186 255 0 186 255 0 186 255 0 186 255 0 186 255 0 186 255 0 186 255 0 186 255 0 186 255 0 166 255 0 166 255 0 166 255 0 166 255 0 166 255 0 166 255 0 166 255 0 166 255 0 166 255 0 166 255 0 169 255 0 169 255 0 169 255 0 169 255 0 169 255 0 169 255 0 169 255 0 169 255 0 169 255 0 169 255 0 159 255 0 159 255 0 159 255 0 159 255 0 159 255 0 159 255 0 159 255 0 159 255 0 159 255 0 159 255 0 132 255 0 132 255 0 132 255 0 132 255 0 132 255 0 132 255 0 132 255 0 132 255 0 132 255 0 132 255 0 132 255 0 132 255 0 132 255 0 132 255 0 132 255 0 132 255 0 132 255 0 132 255 0 132 255 0 132 255 0 142 255 0 142 255 0 142 255 0 142 255 0 142 255 0 142 255 0 142 255 0 142 255 0 142 255 0 142 255 0 164 255 0 164 255 0 164 255 0 164 255 0 164 255 0 164 255 0 164 255 0 164 255 0 164 255 0 164 255 0 159 255 0 159 255 0 159 255 0 159 255 0 159 255 0 159 255 0 159 255 0 159 255 0 159 255 0 159 255 0 172 255 0 172 255 0 172 255 0 172 255 0 172 255 0 172 255 0 172 255 0 172 255 0 172 255 0 172 255 0 168 255 0 168 255 0 168 255 0 168 255 0 168 255 0 168 255 0 168 255 0 168 255 0 168 255 0 168 255 0 0 0 0 0 0 0 0 0 0 0 0 0 0 0 0 0 0 0 0 0 0 0 0 0 0 0 0 0 0 0 0 243 0 0 243 0 0 243 0 0 243 0 0 243 0 0 243 0 0 243 0 0 243 0 0 243 0 0 243 0 0 243 0 0 243 0 0 243 0 0 243 0 0 243 0 0 243 0 0 243 0 0 243 0 0 243 0 0 243 0 0 243 0 0 243 0 0 243 0 0 243 0 0 243 0 0 243 0 0 243 0 0 243 0 0 243 0 0 243 
0 147 255 0 147 255 0 147 255 0 147 255 0 147 255 0 147 255 0 147 255 0 147 255 0 147 255 0 147 255 0 157 255 0 157 255 0 157 255 0 157 255 0 157 255 0 157 255 0 157 255 0 157 255 0 157 255 0 157 255 0 156 255 0 156 255 0 156 255 0 156 255 0 156 255 0 156 255 0 156 255 0 156 255 0 156 255 0 156 255 0 174 255 0 174 255 0 174 255 0 174 255 0 174 255 0 174 255 0 174 255 0 174 255 0 174 255 0 174 255 0 189 255 0 189 255 0 189 255 0 189 255 0 189 255 0 189 255 0 189 255 0 189 255 0 189 255 0 189 255 0 164 255 0 164 255 0 164 255 0 164 255 0 164 255 0 164 255 0 164 255 0 164 255 0 164 255 0 164 255 0 119 255 0 119 255 0 119 255 0 119 255 0 119 255 0 119 255 0 119 255 0 119 255 0 119 255 0 119 255 0 77 255 0 77 255 0 77 255 0 77 255 0 77 255 0 77 255 0 77 255 0 77 255 0 77 255 0 77 255 0 121 255 0 121 255 0 121 255 0 121 255 0 121 255 0 121 255 0 121 255 0 121 255 0 121 255 0 121 255 0 139 255 0 139 255 0 139 255 0 139 255 0 139 255 0 139 255 0 139 255 0 139 255 0 139 255 0 139 255 0 113 255 0 113 255 0 113 255 0 113 255 0 113 255 0 113 255 0 113 255 0 113 255 0 113 255 0 113 255 0 169 255 0 169 255 0 169 255 0 169 255 0 169 255 0 169 255 0 169 255 0 169 255 0 169 255 0 169 255 0 170 255 0 170 255 0 170 255 0 170 255 0 170 255 0 170 255 0 170 255 0 170 255 0 170 255 0 170 255 0 179 255 0 179 255 0 179 255 0 179 255 0 179 255 0 179 255 0 179 255 0 179 255 0 179 255 0 179 255 0 209 255 0 209 255 0 209 255 0 209 255 0 209 255 0 209 255 0 209 255 0 209 255 0 209 255 0 209 255 0 144 255 0 144 255 0 144 255 0 144 255 0 144 255 0 144 255 0 144 255 0 144 255 0 144 255 0 144 255 0 199 255 0 199 255 0 199 255 0 199 255 0 199 255 0 199 255 0 199 255 0 199 255 0 199 255 0 199 255 0 186 255 0 186 255 0 186 255 0 186 255 0 186 255 0 186 255 0 186 255 0 186 255 0 186 255 0 186 255 0 166 255 0 166 255 0 166 255 0 166 255 0 166 255 0 166 255 0 166 255 0 166 255 0 166 255 0 166 255 0 169 255 0 169 255 0 169 255 0 169 255 0 169 255 0 169 255 0 169 255 0 169 255 0 169 255 0 169 255 0 159 255 0 159 255 0 159 255 0 159 255 0 159 255 0 159 255 0 159 255 0 159 255 0 159 255 0 159 255 0 132 255 0 132 255 0 132 255 0 132 255 0 132 255 0 132 255 0 132 255 0 132 255 0 132 255 0 132 255 0 132 255 0 132 255 0 132 255 0 132 255 0 132 255 0 132 255 0 132 255 0 132 255 0 132 255 0 132 255 0 142 255 0 142 255 0 142 255 0 142 255 0 142 255 0 142 255 0 142 255 0 142 255 0 142 255 0 142 255 0 164 255 0 164 255 0 164 255 0 164 255 0 164 255 0 164 255 0 164 255 0 164 255 0 164 255 0 164 255 0 159 255 0 159 255 0 159 255 0 159 255 0 159 255 0 159 255 0 159 255 0 159 255 0 159 255 0 159 255 0 172 255 0 172 255 0 172 255 0 172 255 0 172 255 0 172 255 0 172 255 0 172 255 0 172 255 0 172 255 0 168 255 0 168 255 0 168 255 0 168 255 0 168 255 0 168 255 0 168 255 0 168 255 0 168 255 0 168 255 0 0 0 0 0 0 0 0 0 0 0 0 0 0 0 0 0 0 0 0 0 0 0 0 0 0 0 0 0 0 0 0 246 0 0 246 0 0 246 0 0 246 0 0 246 0 0 246 0 0 246 0 0 246 0 0 246 0 0 246 0 0 246 0 0 246 0 0 246 0 0 246 0 0 246 0 0 246 0 0 246 0 0 246 0 0 246 0 0 246 0 0 246 0 0 246 0 0 246 0 0 246 0 0 246 0 0 246 0 0 246 0 0 246 0 0 246 0 0 246 
0 147 255 0 147 255 0 147 255 0 147 255 0 147 255 0 147 255 0 147 255 0 147 255 0 147 255 0 147 255 0 157 255 0 157 255 0 157 255 0 157 255 0 157 255 0 157 255 0 157 255 0 157 255 0 157 255 0 157 255 0 156 255 0 156 255 0 156 255 0 156 255 0 156 255 0 156 255 0 156 255 0 156 255 0 156 255 0 156 255 0 174 255 0 174 255 0 174 255 0 174 255 0 174 255 0 174 255 0 174 255 0 174 255 0 174 255 0 174 255 0 189 255 0 189 255 0 189 255 0 189 255 0 189 255 0 189 255 0 189 255 0 189 255 0 189 255 0 189 255 0 164 255 0 164 255 0 164 255 0 164 255 0 164 255 0 164 255 0 164 255 0 164 255 0 164 255 0 164 255 0 119 255 0 119 255 0 119 255 0 119 255 0 119 255 0 119 255 0 119 255 0 119 255 0 119 255 0 119 255 0 77 255 0 77 255 0 77 255 0 77 255 0 77 255 0 77 255 0 77 255 0 77 255 0 77 255 0 77 255 0 121 255 0 121 255 0 121 255 0 121 255 0 121 255 0 121 255 0 121 255 0 121 255 0 121 255 0 121 255 0 139 255 0 139 255 0 139 255 0 139 255 0 139 255 0 139 255 0 139 255 0 139 255 0 139 255 0 139 255 0 113 255 0 113 255 0 113 255 0 113 255 0 113 255 0 113 255 0 113 255 0 113 255 0 113 255 0 113 255 0 169 255 0 169 255 0 169 255 0 169 255 0 169 255 0 169 255 0 169 255 0 169 255 0 169 255 0 169 255 0 170 255 0 170 255 0 170 255 0 170 255 0 170 255 0 170 255 0 170 255 0 170 255 0 170 255 0 170 255 0 179 255 0 179 255 0 179 255 0 179 255 0 179 255 0 179 255 0 179 255 0 179 255 0 179 255 0 179 255 0 209 255 0 209 255 0 209 255 0 209 255 0 209 255 0 209 255 0 209 255 0 209 255 0 209 255 0 209 255 0 144 255 0 144 255 0 144 255 0 144 255 0 144 255 0 144 255 0 144 255 0 144 255 0 144 255 0 144 255 0 199 255 0 199 255 0 199 255 0 199 255 0 199 255 0 199 255 0 199 255 0 199 255 0 199 255 0 199 255 0 186 255 0 186 255 0 186 255 0 186 255 0 186 255 0 186 255 0 186 255 0 186 255 0 186 255 0 186 255 0 166 255 0 166 255 0 166 255 0 166 255 0 166 255 0 166 255 0 166 255 0 166 255 0 166 255 0 166 255 0 169 255 0 169 255 0 169 255 0 169 255 0 169 255 0 169 255 0 169 255 0 169 255 0 169 255 0 169 255 0 159 255 0 159 255 0 159 255 0 159 255 0 159 255 0 159 255 0 159 255 0 159 255 0 159 255 0 159 255 0 132 255 0 132 255 0 132 255 0 132 255 0 132 255 0 132 255 0 132 255 0 132 255 0 132 255 0 132 255 0 132 255 0 132 255 0 132 255 0 132 255 0 132 255 0 132 255 0 132 255 0 132 255 0 132 255 0 132 255 0 142 255 0 142 255 0 142 255 0 142 255 0 142 255 0 142 255 0 142 255 0 142 255 0 142 255 0 142 255 0 164 255 0 164 255 0 164 255 0 164 255 0 164 255 0 164 255 0 164 255 0 164 255 0 164 255 0 164 255 0 159 255 0 159 255 0 159 255 0 159 255 0 159 255 0 159 255 0 159 255 0 159 255 0 159 255 0 159 255 0 172 255 0 172 255 0 172 255 0 172 255 0 172 255 0 172 255 0 172 255 0 172 255 0 172 255 0 172 255 0 168 255 0 168 255 0 168 255 0 168 255 0 168 255 0 168 255 0 168 255 0 168 255 0 168 255 0 168 255 0 0 0 0 0 0 0 0 0 0 0 0 0 0 0 0 0 0 0 0 0 0 0 0 0 0 0 0 0 0 0 0 250 0 0 250 0 0 250 0 0 250 0 0 250 0 0 250 0 0 250 0 0 250 0 0 250 0 0 250 0 0 250 0 0 250 0 0 250 0 0 250 0 0 250 0 0 250 0 0 250 0 0 250 0 0 250 0 0 250 0 0 250 0 0 250 0 0 250 0 0 250 0 0 250 0 0 250 0 0 250 0 0 250 0 0 250 0 0 250 
0 147 255 0 147 255 0 147 255 0 147 255 0 147 255 0 147 255 0 147 255 0 147 255 0 147 255 0 147 255 0 157 255 0 157 255 0 157 255 0 157 255 0 157 255 0 157 255 0 157 255 0 157 255 0 157 255 0 157 255 0 156 255 0 156 255 0 156 255 0 156 255 0 156 255 0 156 255 0 156 255 0 156 255 0 156 255 0 156 255 0 174 255 0 174 255 0 174 255 0 174 255 0 174 255 0 174 255 0 174 255 0 174 255 0 174 255 0 174 255 0 189 255 0 189 255 0 189 255 0 189 255 0 189 255 0 189 255 0 189 255 0 189 255 0 189 255 0 189 255 0 164 255 0 164 255 0 164 255 0 164 255 0 164 255 0 164 255 0 164 255 0 164 255 0 164 255 0 164 255 0 119 255 0 119 255 0 119 255 0 119 255 0 119 255 0 119 255 0 119 255 0 119 255 0 119 255 0 119 255 0 77 255 0 77 255 0 77 255 0 77 255 0 77 255 0 77 255 0 77 255 0 77 255 0 77 255 0 77 255 0 121 255 0 121 255 0 121 255 0 121 255 0 121 255 0 121 255 0 121 255 0 121 255 0 121 255 0 121 255 0 139 255 0 139 255 0 139 255 0 139 255 0 139 255 0 139 255 0 139 255 0 139 255 0 139 255 0 139 255 0 113 255 0 113 255 0 113 255 0 113 255 0 113 255 0 113 255 0 113 255 0 113 255 0 113 255 0 113 255 0 169 255 0 169 255 0 169 255 0 169 255 0 169 255 0 169 255 0 169 255 0 169 255 0 169 255 0 169 255 0 170 255 0 170 255 0 170 255 0 170 255 0 170 255 0 170 255 0 170 255 0 170 255 0 170 255 0 170 255 0 179 255 0 179 255 0 179 255 0 179 255 0 179 255 0 179 255 0 179 255 0 179 255 0 179 255 0 179 255 0 209 255 0 209 255 0 209 255 0 209 255 0 209 255 0 209 255 0 209 255 0 209 255 0 209 255 0 209 255 0 144 255 0 144 255 0 144 255 0 144 255 0 144 255 0 144 255 0 144 255 0 144 255 0 144 255 0 144 255 0 199 255 0 199 255 0 199 255 0 199 255 0 199 255 0 199 255 0 199 255 0 199 255 0 199 255 0 199 255 0 186 255 0 186 255 0 186 255 0 186 255 0 186 255 0 186 255 0 186 255 0 186 255 0 186 255 0 186 255 0 166 255 0 166 255 0 166 255 0 166 255 0 166 255 0 166 255 0 166 255 0 166 255 0 166 255 0 166 255 0 169 255 0 169 255 0 169 255 0 169 255 0 169 255 0 169 255 0 169 255 0 169 255 0 169 255 0 169 255 0 159 255 0 159 255 0 159 255 0 159 255 0 159 255 0 159 255 0 159 255 0 159 255 0 159 255 0 159 255 0 132 255 0 132 255 0 132 255 0 132 255 0 132 255 0 132 255 0 132 255 0 132 255 0 132 255 0 132 255 0 132 255 0 132 255 0 132 255 0 132 255 0 132 255 0 132 255 0 132 255 0 132 255 0 132 255 0 132 255 0 142 255 0 142 255 0 142 255 0 142 255 0 142 255 0 142 255 0 142 255 0 142 255 0 142 255 0 142 255 0 164 255 0 164 255 0 164 255 0 164 255 0 164 255 0 164 255 0 164 255 0 164 255 0 164 255 0 164 255 0 159 255 0 159 255 0 159 255 0 159 255 0 159 255 0 159 255 0 159 255 0 159 255 0 159 255 0 159 255 0 172 255 0 172 255 0 172 255 0 172 255 0 172 255 0 172 255 0 172 255 0 172 255 0 172 255 0 172 255 0 168 255 0 168 255 0 168 255 0 168 255 0 168 255 0 168 255 0 168 255 0 168 255 0 168 255 0 168 255 0 0 0 0 0 0 0 0 0 0 0 0 0 0 0 0 0 0 0 0 0 0 0 0 0 0 0 0 0 0 0 0 254 0 0 254 0 0 254 0 0 254 0 0 254 0 0 254 0 0 254 0 0 254 0 0 254 0 0 254 0 0 254 0 0 254 0 0 254 0 0 254 0 0 254 0 0 254 0 0 254 0 0 254 0 0 254 0 0 254 0 0 254 0 0 254 0 0 254 0 0 254 0 0 254 0 0 254 0 0 254 0 0 254 0 0 254 0 0 254 
0 144 255 0 144 255 0 144 255 0 144 255 0 144 255 0 144 255 0 144 255 0 144 255 0 144 255 0 144 255 0 157 255 0 157 255 0 157 255 0 157 255 0 157 255 0 157 255 0 157 255 0 157 255 0 157 255 0 157 255 0 161 255 0 161 255 0 161 255 0 161 255 0 161 255 0 161 255 0 161 255 0 161 255 0 161 255 0 161 255 0 169 255 0 169 255 0 169 255 0 169 255 0 169 255 0 169 255 0 169 255 0 169 255 0 169 255 0 169 255 0 204 255 0 204 255 0 204 255 0 204 255 0 204 255 0 204 255 0 204 255 0 204 255 0 204 255 0 204 255 0 160 255 0 160 255 0 160 255 0 160 255 0 160 255 0 160 255 0 160 255 0 160 255 0 160 255 0 160 255 0 124 255 0 124 255 0 124 255 0 124 255 0 124 255 0 124 255 0 124 255 0 124 255 0 124 255 0 124 255 0 121 255 0 121 255 0 121 255 0 121 255 0 121 255 0 121 255 0 121 255 0 121 255 0 121 255 0 121 255 0 144 255 0 144 255 0 144 255 0 144 255 0 144 255 0 144 255 0 144 255 0 144 255 0 144 255 0 144 255 0 121 255 0 121 255 0 121 255 0 121 255 0 121 255 0 121 255 0 121 255 0 121 255 0 121 255 0 121 255 0 154 255 0 154 255 0 154 255 0 154 255 0 154 255 0 154 255 0 154 255 0 154 255 0 154 255 0 154 255 0 167 255 0 167 255 0 167 255 0 167 255 0 167 255 0 167 255 0 167 255 0 167 255 0 167 255 0 167 255 0 185 255 0 185 255 0 185 255 0 185 255 0 185 255 0 185 255 0 185 255 0 185 255 0 185 255 0 185 255 0 148 255 0 148 255 0 148 255 0 148 255 0 148 255 0 148 255 0 148 255 0 148 255 0 148 255 0 148 255 0 172 255 0 172 255 0 172 255 0 172 255 0 172 255 0 172 255 0 172 255 0 172 255 0 172 255 0 172 255 0 156 255 0 156 255 0 156 255 0 156 255 0 156 255 0 156 255 0 156 255 0 156 255 0 156 255 0 156 255 0 181 255 0 181 255 0 181 255 0 181 255 0 181 255 0 181 255 0 181 255 0 181 255 0 181 255 0 181 255 0 178 255 0 178 255 0 178 255 0 178 255 0 178 255 0 178 255 0 178 255 0 178 255 0 178 255 0 178 255 0 188 255 0 188 255 0 188 255 0 188 255 0 188 255 0 188 255 0 188 255 0 188 255 0 188 255 0 188 255 0 175 255 0 175 255 0 175 255 0 175 255 0 175 255 0 175 255 0 175 255 0 175 255 0 175 255 0 175 255 0 153 255 0 153 255 0 153 255 0 153 255 0 153 255 0 153 255 0 153 255 0 153 255 0 153 255 0 153 255 0 138 255 0 138 255 0 138 255 0 138 255 0 138 255 0 138 255 0 138 255 0 138 255 0 138 255 0 138 255 0 144 255 0 144 255 0 144 255 0 144 255 0 144 255 0 144 255 0 144 255 0 144 255 0 144 255 0 144 255 0 170 255 0 170 255 0 170 255 0 170 255 0 170 255 0 170 255 0 170 255 0 170 255 0 170 255 0 170 255 0 161 255 0 161 255 0 161 255 0 161 255 0 161 255 0 161 255 0 161 255 0 161 255 0 161 255 0 161 255 0 166 255 0 166 255 0 166 255 0 166 255 0 166 255 0 166 255 0 166 255 0 166 255 0 166 255 0 166 255 0 164 255 0 164 255 0 164 255 0 164 255 0 164 255 0 164 255 0 164 255 0 164 255 0 164 255 0 164 255 0 157 255 0 157 255 0 157 255 0 157 255 0 157 255 0 157 255 0 157 255 0 157 255 0 157 255 0 157 255 0 0 0 0 0 0 0 0 0 0 0 0 0 0 0 0 0 0 0 0 0 0 0 0 0 0 0 0 0 0 0 2 255 0 2 255 0 2 255 0 2 255 0 2 255 0 2 255 0 2 255 0 2 255 0 2 255 0 2 255 0 2 255 0 2 255 0 2 255 0 2 255 0 2 255 0 2 255 0 2 255 0 2 255 0 2 255 0 2 255 0 2 255 0 2 255 0 2 255 0 2 255 0 2 255 0 2 255 0 2 255 0 2 255 0 2 255 0 2 255 
0 144 255 0 144 255 0 144 255 0 144 255 0 144 255 0 144 255 0 144 255 0 144 255 0 144 255 0 144 255 0 157 255 0 157 255 0 157 255 0 157 255 0 157 255 0 157 255 0 157 255 0 157 255 0 157 255 0 157 255 0 161 255 0 161 255 0 161 255 0 161 255 0 161 255 0 161 255 0 161 255 0 161 255 0 161 255 0 161 255 0 169 255 0 169 255 0 169 255 0 169 255 0 169 255 0 169 255 0 169 255 0 169 255 0 169 255 0 169 255 0 204 255 0 204 255 0 204 255 0 204 255 0 204 255 0 204 255 0 204 255 0 204 255 0 204 255 0 204 255 0 160 255 0 160 255 0 160 255 0 160 255 0 160 255 0 160 255 0 160 255 0 160 255 0 160 255 0 160 255 0 124 255 0 124 255 0 124 255 0 124 255 0 124 255 0 124 255 0 124 255 0 124 255 0 124 255 0 124 255 0 121 255 0 121 255 0 121 255 0 121 255 0 121 255 0 121 255 0 121 255 0 121 255 0 121 255 0 121 255 0 144 255 0 144 255 0 144 255 0 144 255 0 144 255 0 144 255 0 144 255 0 144 255 0 144 255 0 144 255 0 121 255 0 121 255 0 121 255 0 121 255 0 121 255 0 121 255 0 121 255 0 121 255 0 121 255 0 121 255 0 154 255 0 154 255 0 154 255 0 154 255 0 154 255 0 154 255 0 154 255 0 154 255 0 154 255 0 154 255 0 167 255 0 167 255 0 167 255 0 167 255 0 167 255 0 167 255 0 167 255 0 167 255 0 167 255 0 167 255 0 185 255 0 185 255 0 185 255 0 185 255 0 185 255 0 185 255 0 185 255 0 185 255 0 185 255 0 185 255 0 148 255 0 148 255 0 148 255 0 148 255 0 148 255 0 148 255 0 148 255 0 148 255 0 148 255 0 148 255 0 172 255 0 172 255 0 172 255 0 172 255 0 172 255 0 172 255 0 172 255 0 172 255 0 172 255 0 172 255 0 156 255 0 156 255 0 156 255 0 156 255 0 156 255 0 156 255 0 156 255 0 156 255 0 156 255 0 156 255 0 181 255 0 181 255 0 181 255 0 181 255 0 181 255 0 181 255 0 181 255 0 181 255 0 181 255 0 181 255 0 178 255 0 178 255 0 178 255 0 178 255 0 178 255 0 178 255 0 178 255 0 178 255 0 178 255 0 178 255 0 188 255 0 188 255 0 188 255 0 188 255 0 188 255 0 188 255 0 188 255 0 188 255 0 188 255 0 188 255 0 175 255 0 175 255 0 175 255 0 175 255 0 175 255 0 175 255 0 175 255 0 175 255 0 175 255 0 175 255 0 153 255 0 153 255 0 153 255 0 153 255 0 153 255 0 153 255 0 153 255 0 153 255 0 153 255 0 153 255 0 138 255 0 138 255 0 138 255 0 138 255 0 138 255 0 138 255 0 138 255 0 138 255 0 138 255 0 138 255 0 144 255 0 144 255 0 144 255 0 144 255 0 144 255 0 144 255 0 144 255 0 144 255 0 144 255 0 144 255 0 170 255 0 170 255 0 170 255 0 170 255 0 170 255 0 170 255 0 170 255 0 170 255 0 170 255 0 170 255 0 161 255 0 161 255 0 161 255 0 161 255 0 161 255 0 161 255 0 161 255 0 161 255 0 161 255 0 161 255 0 166 255 0 166 255 0 166 255 0 166 255 0 166 255 0 166 255 0 166 255 0 166 255 0 166 255 0 166 255 0 164 255 0 164 255 0 164 255 0 164 255 0 164 255 0 164 255 0 164 255 0 164 255 0 164 255 0 164 255 0 157 255 0 157 255 0 157 255 0 157 255 0 157 255 0 157 255 0 157 255 0 157 255 0 157 255 0 157 255 0 0 0 0 0 0 0 0 0 0 0 0 0 0 0 0 0 0 0 0 0 0 0 0 0 0 0 0 0 0 0 6 255 0 6 255 0 6 255 0 6 255 0 6 255 0 6 255 0 6 255 0 6 255 0 6 255 0 6 255 0 6 255 0 6 255 0 6 255 0 6 255 0 6 255 0 6 255 0 6 255 0 6 255 0 6 255 0 6 255 0 6 255 0 6 255 0 6 255 0 6 255 0 6 255 0 6 255 0 6 255 0 6 255 0 6 255 0 6 255 
0 144 255 0 144 255 0 144 255 0 144 255 0 144 255 0 144 255 0 144 255 0 144 255 0 144 255 0 144 255 0 157 255 0 157 255 0 157 255 0 157 255 0 157 255 0 157 255 0 157 255 0 157 255 0 157 255 0 157 255 0 161 255 0 161 255 0 161 255 0 161 255 0 161 255 0 161 255 0 161 255 0 161 255 0 161 255 0 161 255 0 169 255 0 169 255 0 169 255 0 169 255 0 169 255 0 169 255 0 169 255 0 169 255 0 169 255 0 169 255 0 204 255 0 204 255 0 204 255 0 204 255 0 204 255 0 204 255 0 204 255 0 204 255 0 204 255 0 204 255 0 160 255 0 160 255 0 160 255 0 160 255 0 160 255 0 160 255 0 160 255 0 160 255 0 160 255 0 160 255 0 124 255 0 124 255 0 124 255 0 124 255 0 124 255 0 124 255 0 124 255 0 124 255 0 124 255 0 124 255 0 121 255 0 121 255 0 121 255 0 121 255 0 121 255 0 121 255 0 121 255 0 121 255 0 121 255 0 121 255 0 144 255 0 144 255 0 144 255 0 144 255 0 144 255 0 144 255 0 144 255 0 144 255 0 144 255 0 144 255 0 121 255 0 121 255 0 121 255 0 121 255 0 121 255 0 121 255 0 121 255 0 121 255 0 121 255 0 121 255 0 154 255 0 154 255 0 154 255 0 154 255 0 154 255 0 154 255 0 154 255 0 154 255 0 154 255 0 154 255 0 167 255 0 167 255 0 167 255 0 167 255 0 167 255 0 167 255 0 167 255 0 167 255 0 167 255 0 167 255 0 185 255 0 185 255 0 185 255 0 185 255 0 185 255 0 185 255 0 185 255 0 185 255 0 185 255 0 185 255 0 148 255 0 148 255 0 148 255 0 148 255 0 148 255 0 148 255 0 148 255 0 148 255 0 148 255 0 148 255 0 172 255 0 172 255 0 172 255 0 172 255 0 172 255 0 172 255 0 172 255 0 172 255 0 172 255 0 172 255 0 156 255 0 156 255 0 156 255 0 156 255 0 156 255 0 156 255 0 156 255 0 156 255 0 156 255 0 156 255 0 181 255 0 181 255 0 181 255 0 181 255 0 181 255 0 181 255 0 181 255 0 181 255 0 181 255 0 181 255 0 178 255 0 178 255 0 178 255 0 178 255 0 178 255 0 178 255 0 178 255 0 178 255 0 178 255 0 178 255 0 188 255 0 188 255 0 188 255 0 188 255 0 188 255 0 188 255 0 188 255 0 188 255 0 188 255 0 188 255 0 175 255 0 175 255 0 175 255 0 175 255 0 175 255 0 175 255 0 175 255 0 175 255 0 175 255 0 175 255 0 153 255 0 153 255 0 153 255 0 153 255 0 153 255 0 153 255 0 153 255 0 153 255 0 153 255 0 153 255 0 138 255 0 138 255 0 138 255 0 138 255 0 138 255 0 138 255 0 138 255 0 138 255 0 138 255 0 138 255 0 144 255 0 144 255 0 144 255 0 144 255 0 144 255 0 144 255 0 144 255 0 144 255 0 144 255 0 144 255 0 170 255 0 170 255 0 170 255 0 170 255 0 170 255 0 170 255 0 170 255 0 170 255 0 170 255 0 170 255 0 161 255 0 161 255 0 161 255 0 161 255 0 161 255 0 161 255 0 161 255 0 161 255 0 161 255 0 161 255 0 166 255 0 166 255 0 166 255 0 166 255 0 166 255 0 166 255 0 166 255 0 166 255 0 166 255 0 166 255 0 164 255 0 164 255 0 164 255 0 164 255 0 164 255 0 164 255 0 164 255 0 164 255 0 164 255 0 164 255 0 157 255 0 157 255 0 157 255 0 157 255 0 157 255 0 157 255 0 157 255 0 157 255 0 157 255 0 157 255 0 0 0 0 0 0 0 0 0 0 0 0 0 0 0 0 0 0 0 0 0 0 0 0 0 0 0 0 0 0 0 10 255 0 10 255 0 10 255 0 10 255 0 10 255 0 10 255 0 10 255 0 10 255 0 10 255 0 10 255 0 10 255 0 10 255 0 10 255 0 10 255 0 10 255 0 10 255 0 10 255 0 10 255 0 10 255 0 10 255 0 10 255 0 10 255 0 10 255 0 10 255 0 10 255 0 10 255 0 10 255 0 10 255 0 10 255 0 10 255 
0 144 255 0 144 255 0 144 255 0 144 255 0 144 255 0 144 255 0 144 255 0 144 255 0 144 255 0 144 255 0 157 255 0 157 255 0 157 255 0 157 255 0 157 255 0 157 255 0 157 255 0 157 255 0 157 255 0 157 255 0 161 255 0 161 255 0 161 255 0 161 255 0 161 255 0 161 255 0 161 255 0 161 255 0 161 255 0 161 255 0 169 255 0 169 255 0 169 255 0 169 255 0 169 255 0 169 255 0 169 255 0 169 255 0 169 255 0 169 255 0 204 255 0 204 255 0 204 255 0 204 255 0 204 255 0 204 255 0 204 255 0 204 255 0 204 255 0 204 255 0 160 255 0 160 255 0 160 255 0 160 255 0 160 255 0 160 255 0 160 255 0 160 255 0 160 255 0 160 255 0 124 255 0 124 255 0 124 255 0 124 255 0 124 255 0 124 255 0 124 255 0 124 255 0 124 255 0 124 255 0 121 255 0 121 255 0 121 255 0 121 255 0 121 255 0 121 255 0 121 255 0 121 255 0 121 255 0 121 255 0 144 255 0 144 255 0 144 255 0 144 255 0 144 255 0 144 255 0 144 255 0 144 255 0 144 255 0 144 255 0 121 255 0 121 255 0 121 255 0 121 255 0 121 255 0 121 255 0 121 255 0 121 255 0 121 255 0 121 255 0 154 255 0 154 255 0 154 255 0 154 255 0 154 255 0 154 255 0 154 255 0 154 255 0 154 255 0 154 255 0 167 255 0 167 255 0 167 255 0 167 255 0 167 255 0 167 255 0 167 255 0 167 255 0 167 255 0 167 255 0 185 255 0 185 255 0 185 255 0 185 255 0 185 255 0 185 255 0 185 255 0 185 255 0 185 255 0 185 255 0 148 255 0 148 255 0 148 255 0 148 255 0 148 255 0 148 255 0 148 255 0 148 255 0 148 255 0 148 255 0 172 255 0 172 255 0 172 255 0 172 255 0 172 255 0 172 255 0 172 255 0 172 255 0 172 255 0 172 255 0 156 255 0 156 255 0 156 255 0 156 255 0 156 255 0 156 255 0 156 255 0 156 255 0 156 255 0 156 255 0 181 255 0 181 255 0 181 255 0 181 255 0 181 255 0 181 255 0 181 255 0 181 255 0 181 255 0 181 255 0 178 255 0 178 255 0 178 255 0 178 255 0 178 255 0 178 255 0 178 255 0 178 255 0 178 255 0 178 255 0 188 255 0 188 255 0 188 255 0 188 255 0 188 255 0 188 255 0 188 255 0 188 255 0 188 255 0 188 255 0 175 255 0 175 255 0 175 255 0 175 255 0 175 255 0 175 255 0 175 255 0 175 255 0 175 255 0 175 255 0 153 255 0 153 255 0 153 255 0 153 255 0 153 255 0 153 255 0 153 255 0 153 255 0 153 255 0 153 255 0 138 255 0 138 255 0 138 255 0 138 255 0 138 255 0 138 255 0 138 255 0 138 255 0 138 255 0 138 255 0 144 255 0 144 255 0 144 255 0 144 255 0 144 255 0 144 255 0 144 255 0 144 255 0 144 255 0 144 255 0 170 255 0 170 255 0 170 255 0 170 255 0 170 255 0 170 255 0 170 255 0 170 255 0 170 255 0 170 255 0 161 255 0 161 255 0 161 255 0 161 255 0 161 255 0 161 255 0 161 255 0 161 255 0 161 255 0 161 255 0 166 255 0 166 255 0 166 255 0 166 255 0 166 255 0 166 255 0 166 255 0 166 255 0 166 255 0 166 255 0 164 255 0 164 255 0 164 255 0 164 255 0 164 255 0 164 255 0 164 255 0 164 255 0 164 255 0 164 255 0 157 255 0 157 255 0 157 255 0 157 255 0 157 255 0 157 255 0 157 255 0 157 255 0 157 255 0 157 255 0 0 0 0 0 0 0 0 0 0 0 0 0 0 0 0 0 0 0 0 0 0 0 0 0 0 0 0 0 0 0 13 255 0 13 255 0 13 255 0 13 255 0 13 255 0 13 255 0 13 255 0 13 255 0 13 255 0 13 255 0 13 255 0 13 255 0 13 255 0 13 255 0 13 255 0 13 255 0 13 255 0 13 255 0 13 255 0 13 255 0 13 255 0 13 255 0 13 255 0 13 255 0 13 255 0 13 255 0 13 255 0 13 255 0 13 255 0 13 255 
0 144 255 0 144 255 0 144 255 0 144 255 0 144 255 0 144 255 0 144 255 0 144 255 0 144 255 0 144 255 0 157 255 0 157 255 0 157 255 0 157 255 0 157 255 0 157 255 0 157 255 0 157 255 0 157 255 0 157 255 0 161 255 0 161 255 0 161 255 0 161 255 0 161 255 0 161 255 0 161 255 0 161 255 0 161 255 0 161 255 0 169 255 0 169 255 0 169 255 0 169 255 0 169 255 0 169 255 0 169 255 0 169 255 0 169 255 0 169 255 0 204 255 0 204 255 0 204 255 0 204 255 0 204 255 0 204 255 0 204 255 0 204 255 0 204 255 0 204 255 0 160 255 0 160 255 0 160 255 0 160 255 0 160 255 0 160 255 0 160 255 0 160 255 0 160 255 0 160 255 0 124 255 0 124 255 0 124 255 0 124 255 0 124 255 0 124 255 0 124 255 0 124 255 0 124 255 0 124 255 0 121 255 0 121 255 0 121 255 0 121 255 0 121 255 0 121 255 0 121 255 0 121 255 0 121 255 0 121 255 0 144 255 0 144 255 0 144 255 0 144 255 0 144 255 0 144 255 0 144 255 0 144 255 0 144 255 0 144 255 0 121 255 0 121 255 0 121 255 0 121 255 0 121 255 0 121 255 0 121 255 0 121 255 0 121 255 0 121 255 0 154 255 0 154 255 0 154 255 0 154 255 0 154 255 0 154 255 0 154 255 0 154 255 0 154 255 0 154 255 0 167 255 0 167 255 0 167 255 0 167 255 0 167 255 0 167 255 0 167 255 0 167 255 0 167 255 0 167 255 0 185 255 0 185 255 0 185 255 0 185 255 0 185 255 0 185 255 0 185 255 0 185 255 0 185 255 0 185 255 0 148 255 0 148 255 0 148 255 0 148 255 0 148 255 0 148 255 0 148 255 0 148 255 0 148 255 0 148 255 0 172 255 0 172 255 0 172 255 0 172 255 0 172 255 0 172 255 0 172 255 0 172 255 0 172 255 0 172 255 0 156 255 0 156 255 0 156 255 0 156 255 0 156 255 0 156 255 0 156 255 0 156 255 0 156 255 0 156 255 0 181 255 0 181 255 0 181 255 0 181 255 0 181 255 0 181 255 0 181 255 0 181 255 0 181 255 0 181 255 0 178 255 0 178 255 0 178 255 0 178 255 0 178 255 0 178 255 0 178 255 0 178 255 0 178 255 0 178 255 0 188 255 0 188 255 0 188 255 0 188 255 0 188 255 0 188 255 0 188 255 0 188 255 0 188 255 0 188 255 0 175 255 0 175 255 0 175 255 0 175 255 0 175 255 0 175 255 0 175 255 0 175 255 0 175 255 0 175 255 0 153 255 0 153 255 0 153 255 0 153 255 0 153 255 0 153 255 0 153 255 0 153 255 0 153 255 0 153 255 0 138 255 0 138 255 0 138 255 0 138 255 0 138 255 0 138 255 0 138 255 0 138 255 0 138 255 0 138 255 0 144 255 0 144 255 0 144 255 0 144 255 0 144 255 0 144 255 0 144 255 0 144 255 0 144 255 0 144 255 0 170 255 0 170 255 0 170 255 0 170 255 0 170 255 0 170 255 0 170 255 0 170 255 0 170 255 0 170 255 0 161 255 0 161 255 0 161 255 0 161 255 0 161 255 0 161 255 0 161 255 0 161 255 0 161 255 0 161 255 0 166 255 0 166 255 0 166 255 0 166 255 0 166 255 0 166 255 0 166 255 0 166 255 0 166 255 0 166 255 0 164 255 0 164 255 0 164 255 0 164 255 0 164 255 0 164 255 0 164 255 0 164 255 0 164 255 0 164 255 0 157 255 0 157 255 0 157 255 0 157 255 0 157 255 0 157 255 0 157 255 0 157 255 0 157 255 0 157 255 0 0 0 0 0 0 0 0 0 0 0 0 0 0 0 0 0 0 0 0 0 0 0 0 0 0 0 0 0 0 0 17 255 0 17 255 0 17 255 0 17 255 0 17 255 0 17 255 0 17 255 0 17 255 0 17 255 0 17 255 0 17 255 0 17 255 0 17 255 0 17 255 0 17 255 0 17 255 0 17 255 0 17 255 0 17 255 0 17 255 0 17 255 0 17 255 0 17 255 0 17 255 0 17 255 0 17 255 0 17 255 0 17 255 0 17 255 0 17 255 
0 144 255 0 144 255 0 144 255 0 144 255 0 144 255 0 144 255 0 144 255 0 144 255 0 144 255 0 144 255 0 157 255 0 157 255 0 157 255 0 157 255 0 157 255 0 157 255 0 157 255 0 157 255 0 157 255 0 157 255 0 161 255 0 161 255 0 161 255 0 161 255 0 161 255 0 161 255 0 161 255 0 161 255 0 161 255 0 161 255 0 169 255 0 169 255 0 169 255 0 169 255 0 169 255 0 169 255 0 169 255 0 169 255 0 169 255 0 169 255 0 204 255 0 204 255 0 204 255 0 204 255 0 204 255 0 204 255 0 204 255 0 204 255 0 204 255 0 204 255 0 160 255 0 160 255 0 160 255 0 160 255 0 160 255 0 160 255 0 160 255 0 160 255 0 160 255 0 160 255 0 124 255 0 124 255 0 124 255 0 124 255 0 124 255 0 124 255 0 124 255 0 124 255 0 124 255 0 124 255 0 121 255 0 121 255 0 121 255 0 121 255 0 121 255 0 121 255 0 121 255 0 121 255 0 121 255 0 121 255 0 144 255 0 144 255 0 144 255 0 144 255 0 144 255 0 144 255 0 144 255 0 144 255 0 144 255 0 144 255 0 121 255 0 121 255 0 121 255 0 121 255 0 121 255 0 121 255 0 121 255 0 121 255 0 121 255 0 121 255 0 154 255 0 154 255 0 154 255 0 154 255 0 154 255 0 154 255 0 154 255 0 154 255 0 154 255 0 154 255 0 167 255 0 167 255 0 167 255 0 167 255 0 167 255 0 167 255 0 167 255 0 167 255 0 167 255 0 167 255 0 185 255 0 185 255 0 185 255 0 185 255 0 185 255 0 185 255 0 185 255 0 185 255 0 185 255 0 185 255 0 148 255 0 148 255 0 148 255 0 148 255 0 148 255 0 148 255 0 148 255 0 148 255 0 148 255 0 148 255 0 172 255 0 172 255 0 172 255 0 172 255 0 172 255 0 172 255 0 172 255 0 172 255 0 172 255 0 172 255 0 156 255 0 156 255 0 156 255 0 156 255 0 156 255 0 156 255 0 156 255 0 156 255 0 156 255 0 156 255 0 181 255 0 181 255 0 181 255 0 181 255 0 181 255 0 181 255 0 181 255 0 181 255 0 181 255 0 181 255 0 178 255 0 178 255 0 178 255 0 178 255 0 178 255 0 178 255 0 178 255 0 178 255 0 178 255 0 178 255 0 188 255 0 188 255 0 188 255 0 188 255 0 188 255 0 188 255 0 188 255 0 188 255 0 188 255 0 188 255 0 175 255 0 175 255 0 175 255 0 175 255 0 175 255 0 175 255 0 175 255 0 175 255 0 175 255 0 175 255 0 153 255 0 153 255 0 153 255 0 153 255 0 153 255 0 153 255 0 153 255 0 153 255 0 153 255 0 153 255 0 138 255 0 138 255 0 138 255 0 138 255 0 138 255 0 138 255 0 138 255 0 138 255 0 138 255 0 138 255 0 144 255 0 144 255 0 144 255 0 144 255 0 144 255 0 144 255 0 144 255 0 144 255 0 144 255 0 144 255 0 170 255 0 170 255 0 170 255 0 170 255 0 170 255 0 170 255 0 170 255 0 170 255 0 170 255 0 170 255 0 161 255 0 161 255 0 161 255 0 161 255 0 161 255 0 161 255 0 161 255 0 161 255 0 161 255 0 161 255 0 166 255 0 166 255 0 166 255 0 166 255 0 166 255 0 166 255 0 166 255 0 166 255 0 166 255 0 166 255 0 164 255 0 164 255 0 164 255 0 164 255 0 164 255 0 164 255 0 164 255 0 164 255 0 164 255 0 164 255 0 157 255 0 157 255 0 157 255 0 157 255 0 157 255 0 157 255 0 157 255 0 157 255 0 157 255 0 157 255 0 0 0 0 0 0 0 0 0 0 0 0 0 0 0 0 0 0 0 0 0 0 0 0 0 0 0 0 0 0 0 21 255 0 21 255 0 21 255 0 21 255 0 21 255 0 21 255 0 21 255 0 21 255 0 21 255 0 21 255 0 21 255 0 21 255 0 21 255 0 21 255 0 21 255 0 21 255 0 21 255 0 21 255 0 21 255 0 21 255 0 21 255 0 21 255 0 21 255 0 21 255 0 21 255 0 21 255 0 21 255 0 21 255 0 21 255 0 21 255 
0 144 255 0 144 255 0 144 255 0 144 255 0 144 255 0 144 255 0 144 255 0 144 255 0 144 255 0 144 255 0 157 255 0 157 255 0 157 255 0 157 255 0 157 255 0 157 255 0 157 255 0 157 255 0 157 255 0 157 255 0 161 255 0 161 255 0 161 255 0 161 255 0 161 255 0 161 255 0 161 255 0 161 255 0 161 255 0 161 255 0 169 255 0 169 255 0 169 255 0 169 255 0 169 255 0 169 255 0 169 255 0 169 255 0 169 255 0 169 255 0 204 255 0 204 255 0 204 255 0 204 255 0 204 255 0 204 255 0 204 255 0 204 255 0 204 255 0 204 255 0 160 255 0 160 255 0 160 255 0 160 255 0 160 255 0 160 255 0 160 255 0 160 255 0 160 255 0 160 255 0 124 255 0 124 255 0 124 255 0 124 255 0 124 255 0 124 255 0 124 255 0 124 255 0 124 255 0 124 255 0 121 255 0 121 255 0 121 255 0 121 255 0 121 255 0 121 255 0 121 255 0 121 255 0 121 255 0 121 255 0 144 255 0 144 255 0 144 255 0 144 255 0 144 255 0 144 255 0 144 255 0 144 255 0 144 255 0 144 255 0 121 255 0 121 255 0 121 255 0 121 255 0 121 255 0 121 255 0 121 255 0 121 255 0 121 255 0 121 255 0 154 255 0 154 255 0 154 255 0 154 255 0 154 255 0 154 255 0 154 255 0 154 255 0 154 255 0 154 255 0 167 255 0 167 255 0 167 255 0 167 255 0 167 255 0 167 255 0 167 255 0 167 255 0 167 255 0 167 255 0 185 255 0 185 255 0 185 255 0 185 255 0 185 255 0 185 255 0 185 255 0 185 255 0 185 255 0 185 255 0 148 255 0 148 255 0 148 255 0 148 255 0 148 255 0 148 255 0 148 255 0 148 255 0 148 255 0 148 255 0 172 255 0 172 255 0 172 255 0 172 255 0 172 255 0 172 255 0 172 255 0 172 255 0 172 255 0 172 255 0 156 255 0 156 255 0 156 255 0 156 255 0 156 255 0 156 255 0 156 255 0 156 255 0 156 255 0 156 255 0 181 255 0 181 255 0 181 255 0 181 255 0 181 255 0 181 255 0 181 255 0 181 255 0 181 255 0 181 255 0 178 255 0 178 255 0 178 255 0 178 255 0 178 255 0 178 255 0 178 255 0 178 255 0 178 255 0 178 255 0 188 255 0 188 255 0 188 255 0 188 255 0 188 255 0 188 255 0 188 255 0 188 255 0 188 255 0 188 255 0 175 255 0 175 255 0 175 255 0 175 255 0 175 255 0 175 255 0 175 255 0 175 255 0 175 255 0 175 255 0 153 255 0 153 255 0 153 255 0 153 255 0 153 255 0 153 255 0 153 255 0 153 255 0 153 255 0 153 255 0 138 255 0 138 255 0 138 255 0 138 255 0 138 255 0 138 255 0 138 255 0 138 255 0 138 255 0 138 255 0 144 255 0 144 255 0 144 255 0 144 255 0 144 255 0 144 255 0 144 255 0 144 255 0 144 255 0 144 255 0 170 255 0 170 255 0 170 255 0 170 255 0 170 255 0 170 255 0 170 255 0 170 255 0 170 255 0 170 255 0 161 255 0 161 255 0 161 255 0 161 255 0 161 255 0 161 255 0 161 255 0 161 255 0 161 255 0 161 255 0 166 255 0 166 255 0 166 255 0 166 255 0 166 255 0 166 255 0 166 255 0 166 255 0 166 255 0 166 255 0 164 255 0 164 255 0 164 255 0 164 255 0 164 255 0 164 255 0 164 255 0 164 255 0 164 255 0 164 255 0 157 255 0 157 255 0 157 255 0 157 255 0 157 255 0 157 255 0 157 255 0 157 255 0 157 255 0 157 255 0 0 0 0 0 0 0 0 0 0 0 0 0 0 0 0 0 0 0 0 0 0 0 0 0 0 0 0 0 0 0 24 255 0 24 255 0 24 255 0 24 255 0 24 255 0 24 255 0 24 255 0 24 255 0 24 255 0 24 255 0 24 255 0 24 255 0 24 255 0 24 255 0 24 255 0 24 255 0 24 255 0 24 255 0 24 255 0 24 255 0 24 255 0 24 255 0 24 255 0 24 255 0 24 255 0 24 255 0 24 255 0 24 255 0 24 255 0 24 255 
0 144 255 0 144 255 0 144 255 0 144 255 0 144 255 0 144 255 0 144 255 0 144 255 0 144 255 0 144 255 0 157 255 0 157 255 0 157 255 0 157 255 0 157 255 0 157 255 0 157 255 0 157 255 0 157 255 0 157 255 0 161 255 0 161 255 0 161 255 0 161 255 0 161 255 0 161 255 0 161 255 0 161 255 0 161 255 0 161 255 0 169 255 0 169 255 0 169 255 0 169 255 0 169 255 0 169 255 0 169 255 0 169 255 0 169 255 0 169 255 0 204 255 0 204 255 0 204 255 0 204 255 0 204 255 0 204 255 0 204 255 0 204 255 0 204 255 0 204 255 0 160 255 0 160 255 0 160 255 0 160 255 0 160 255 0 160 255 0 160 255 0 160 255 0 160 255 0 160 255 0 124 255 0 124 255 0 124 255 0 124 255 0 124 255 0 124 255 0 124 255 0 124 255 0 124 255 0 124 255 0 121 255 0 121 255 0 121 255 0 121 255 0 121 255 0 121 255 0 121 255 0 121 255 0 121 255 0 121 255 0 144 255 0 144 255 0 144 255 0 144 255 0 144 255 0 144 255 0 144 255 0 144 255 0 144 255 0 144 255 0 121 255 0 121 255 0 121 255 0 121 255 0 121 255 0 121 255 0 121 255 0 121 255 0 121 255 0 121 255 0 154 255 0 154 255 0 154 255 0 154 255 0 154 255 0 154 255 0 154 255 0 154 255 0 154 255 0 154 255 0 167 255 0 167 255 0 167 255 0 167 255 0 167 255 0 167 255 0 167 255 0 167 255 0 167 255 0 167 255 0 185 255 0 185 255 0 185 255 0 185 255 0 185 255 0 185 255 0 185 255 0 185 255 0 185 255 0 185 255 0 148 255 0 148 255 0 148 255 0 148 255 0 148 255 0 148 255 0 148 255 0 148 255 0 148 255 0 148 255 0 172 255 0 172 255 0 172 255 0 172 255 0 172 255 0 172 255 0 172 255 0 172 255 0 172 255 0 172 255 0 156 255 0 156 255 0 156 255 0 156 255 0 156 255 0 156 255 0 156 255 0 156 255 0 156 255 0 156 255 0 181 255 0 181 255 0 181 255 0 181 255 0 181 255 0 181 255 0 181 255 0 181 255 0 181 255 0 181 255 0 178 255 0 178 255 0 178 255 0 178 255 0 178 255 0 178 255 0 178 255 0 178 255 0 178 255 0 178 255 0 188 255 0 188 255 0 188 255 0 188 255 0 188 255 0 188 255 0 188 255 0 188 255 0 188 255 0 188 255 0 175 255 0 175 255 0 175 255 0 175 255 0 175 255 0 175 255 0 175 255 0 175 255 0 175 255 0 175 255 0 153 255 0 153 255 0 153 255 0 153 255 0 153 255 0 153 255 0 153 255 0 153 255 0 153 255 0 153 255 0 138 255 0 138 255 0 138 255 0 138 255 0 138 255 0 138 255 0 138 255 0 138 255 0 138 255 0 138 255 0 144 255 0 144 255 0 144 255 0 144 255 0 144 255 0 144 255 0 144 255 0 144 255 0 144 255 0 144 255 0 170 255 0 170 255 0 170 255 0 170 255 0 170 255 0 170 255 0 170 255 0 170 255 0 170 255 0 170 255 0 161 255 0 161 255 0 161 255 0 161 255 0 161 255 0 161 255 0 161 255 0 161 255 0 161 255 0 161 255 0 166 255 0 166 255 0 166 255 0 166 255 0 166 255 0 166 255 0 166 255 0 166 255 0 166 255 0 166 255 0 164 255 0 164 255 0 164 255 0 164 255 0 164 255 0 164 255 0 164 255 0 164 255 0 164 255 0 164 255 0 157 255 0 157 255 0 157 255 0 157 255 0 157 255 0 157 255 0 157 255 0 157 255 0 157 255 0 157 255 0 0 0 0 0 0 0 0 0 0 0 0 0 0 0 0 0 0 0 0 0 0 0 0 0 0 0 0 0 0 0 28 255 0 28 255 0 28 255 0 28 255 0 28 255 0 28 255 0 28 255 0 28 255 0 28 255 0 28 255 0 28 255 0 28 255 0 28 255 0 28 255 0 28 255 0 28 255 0 28 255 0 28 255 0 28 255 0 28 255 0 28 255 0 28 255 0 28 255 0 28 255 0 28 255 0 28 255 0 28 255 0 28 255 0 28 255 0 28 255 
0 144 255 0 144 255 0 144 255 0 144 255 0 144 255 0 144 255 0 144 255 0 144 255 0 144 255 0 144 255 0 157 255 0 157 255 0 157 255 0 157 255 0 157 255 0 157 255 0 157 255 0 157 255 0 157 255 0 157 255 0 161 255 0 161 255 0 161 255 0 161 255 0 161 255 0 161 255 0 161 255 0 161 255 0 161 255 0 161 255 0 169 255 0 169 255 0 169 255 0 169 255 0 169 255 0 169 255 0 169 255 0 169 255 0 169 255 0 169 255 0 204 255 0 204 255 0 204 255 0 204 255 0 204 255 0 204 255 0 204 255 0 204 255 0 204 255 0 204 255 0 160 255 0 160 255 0 160 255 0 160 255 0 160 255 0 160 255 0 160 255 0 160 255 0 160 255 0 160 255 0 124 255 0 124 255 0 124 255 0 124 255 0 124 255 0 124 255 0 124 255 0 124 255 0 124 255 0 124 255 0 121 255 0 121 255 0 121 255 0 121 255 0 121 255 0 121 255 0 121 255 0 121 255 0 121 255 0 121 255 0 144 255 0 144 255 0 144 255 0 144 255 0 144 255 0 144 255 0 144 255 0 144 255 0 144 255 0 144 255 0 121 255 0 121 255 0 121 255 0 121 255 0 121 255 0 121 255 0 121 255 0 121 255 0 121 255 0 121 255 0 154 255 0 154 255 0 154 255 0 154 255 0 154 255 0 154 255 0 154 255 0 154 255 0 154 255 0 154 255 0 167 255 0 167 255 0 167 255 0 167 255 0 167 255 0 167 255 0 167 255 0 167 255 0 167 255 0 167 255 0 185 255 0 185 255 0 185 255 0 185 255 0 185 255 0 185 255 0 185 255 0 185 255 0 185 255 0 185 255 0 148 255 0 148 255 0 148 255 0 148 255 0 148 255 0 148 255 0 148 255 0 148 255 0 148 255 0 148 255 0 172 255 0 172 255 0 172 255 0 172 255 0 172 255 0 172 255 0 172 255 0 172 255 0 172 255 0 172 255 0 156 255 0 156 255 0 156 255 0 156 255 0 156 255 0 156 255 0 156 255 0 156 255 0 156 255 0 156 255 0 181 255 0 181 255 0 181 255 0 181 255 0 181 255 0 181 255 0 181 255 0 181 255 0 181 255 0 181 255 0 178 255 0 178 255 0 178 255 0 178 255 0 178 255 0 178 255 0 178 255 0 178 255 0 178 255 0 178 255 0 188 255 0 188 255 0 188 255 0 188 255 0 188 255 0 188 255 0 188 255 0 188 255 0 188 255 0 188 255 0 175 255 0 175 255 0 175 255 0 175 255 0 175 255 0 175 255 0 175 255 0 175 255 0 175 255 0 175 255 0 153 255 0 153 255 0 153 255 0 153 255 0 153 255 0 153 255 0 153 255 0 153 255 0 153 255 0 153 255 0 138 255 0 138 255 0 138 255 0 138 255 0 138 255 0 138 255 0 138 255 0 138 255 0 138 255 0 138 255 0 144 255 0 144 255 0 144 255 0 144 255 0 144 255 0 144 255 0 144 255 0 144 255 0 144 255 0 144 255 0 170 255 0 170 255 0 170 255 0 170 255 0 170 255 0 170 255 0 170 255 0 170 255 0 170 255 0 170 255 0 161 255 0 161 255 0 161 255 0 161 255 0 161 255 0 161 255 0 161 255 0 161 255 0 161 255 0 161 255 0 166 255 0 166 255 0 166 255 0 166 255 0 166 255 0 166 255 0 166 255 0 166 255 0 166 255 0 166 255 0 164 255 0 164 255 0 164 255 0 164 255 0 164 255 0 164 255 0 164 255 0 164 255 0 164 255 0 164 255 0 157 255 0 157 255 0 157 255 0 157 255 0 157 255 0 157 255 0 157 255 0 157 255 0 157 255 0 157 255 0 0 0 0 0 0 0 0 0 0 0 0 0 0 0 0 0 0 0 0 0 0 0 0 0 0 0 0 0 0 0 31 255 0 31 255 0 31 255 0 31 255 0 31 255 0 31 255 0 31 255 0 31 255 0 31 255 0 31 255 0 31 255 0 31 255 0 31 255 0 31 255 0 31 255 0 31 255 0 31 255 0 31 255 0 31 255 0 31 255 0 31 255 0 31 255 0 31 255 0 31 255 0 31 255 0 31 255 0 31 255 0 31 255 0 31 255 0 31 255 
0 144 255 0 144 255 0 144 255 0 144 255 0 144 255 0 144 255 0 144 255 0 144 255 0 144 255 0 144 255 0 157 255 0 157 255 0 157 255 0 157 255 0 157 255 0 157 255 0 157 255 0 157 255 0 157 255 0 157 255 0 161 255 0 161 255 0 161 255 0 161 255 0 161 255 0 161 255 0 161 255 0 161 255 0 161 255 0 161 255 0 169 255 0 169 255 0 169 255 0 169 255 0 169 255 0 169 255 0 169 255 0 169 255 0 169 255 0 169 255 0 204 255 0 204 255 0 204 255 0 204 255 0 204 255 0 204 255 0 204 255 0 204 255 0 204 255 0 204 255 0 160 255 0 160 255 0 160 255 0 160 255 0 160 255 0 160 255 0 160 255 0 160 255 0 160 255 0 160 255 0 124 255 0 124 255 0 124 255 0 124 255 0 124 255 0 124 255 0 124 255 0 124 255 0 124 255 0 124 255 0 121 255 0 121 255 0 121 255 0 121 255 0 121 255 0 121 255 0 121 255 0 121 255 0 121 255 0 121 255 0 144 255 0 144 255 0 144 255 0 144 255 0 144 255 0 144 255 0 144 255 0 144 255 0 144 255 0 144 255 0 121 255 0 121 255 0 121 255 0 121 255 0 121 255 0 121 255 0 121 255 0 121 255 0 121 255 0 121 255 0 154 255 0 154 255 0 154 255 0 154 255 0 154 255 0 154 255 0 154 255 0 154 255 0 154 255 0 154 255 0 167 255 0 167 255 0 167 255 0 167 255 0 167 255 0 167 255 0 167 255 0 167 255 0 167 255 0 167 255 0 185 255 0 185 255 0 185 255 0 185 255 0 185 255 0 185 255 0 185 255 0 185 255 0 185 255 0 185 255 0 148 255 0 148 255 0 148 255 0 148 255 0 148 255 0 148 255 0 148 255 0 148 255 0 148 255 0 148 255 0 172 255 0 172 255 0 172 255 0 172 255 0 172 255 0 172 255 0 172 255 0 172 255 0 172 255 0 172 255 0 156 255 0 156 255 0 156 255 0 156 255 0 156 255 0 156 255 0 156 255 0 156 255 0 156 255 0 156 255 0 181 255 0 181 255 0 181 255 0 181 255 0 181 255 0 181 255 0 181 255 0 181 255 0 181 255 0 181 255 0 178 255 0 178 255 0 178 255 0 178 255 0 178 255 0 178 255 0 178 255 0 178 255 0 178 255 0 178 255 0 188 255 0 188 255 0 188 255 0 188 255 0 188 255 0 188 255 0 188 255 0 188 255 0 188 255 0 188 255 0 175 255 0 175 255 0 175 255 0 175 255 0 175 255 0 175 255 0 175 255 0 175 255 0 175 255 0 175 255 0 153 255 0 153 255 0 153 255 0 153 255 0 153 255 0 153 255 0 153 255 0 153 255 0 153 255 0 153 255 0 138 255 0 138 255 0 138 255 0 138 255 0 138 255 0 138 255 0 138 255 0 138 255 0 138 255 0 138 255 0 144 255 0 144 255 0 144 255 0 144 255 0 144 255 0 144 255 0 144 255 0 144 255 0 144 255 0 144 255 0 170 255 0 170 255 0 170 255 0 170 255 0 170 255 0 170 255 0 170 255 0 170 255 0 170 255 0 170 255 0 161 255 0 161 255 0 161 255 0 161 255 0 161 255 0 161 255 0 161 255 0 161 255 0 161 255 0 161 255 0 166 255 0 166 255 0 166 255 0 166 255 0 166 255 0 166 255 0 166 255 0 166 255 0 166 255 0 166 255 0 164 255 0 164 255 0 164 255 0 164 255 0 164 255 0 164 255 0 164 255 0 164 255 0 164 255 0 164 255 0 157 255 0 157 255 0 157 255 0 157 255 0 157 255 0 157 255 0 157 255 0 157 255 0 157 255 0 157 255 0 0 0 0 0 0 0 0 0 0 0 0 0 0 0 0 0 0 0 0 0 0 0 0 0 0 0 0 0 0 0 35 255 0 35 255 0 35 255 0 35 255 0 35 255 0 35 255 0 35 255 0 35 255 0 35 255 0 35 255 0 35 255 0 35 255 0 35 255 0 35 255 0 35 255 0 35 255 0 35 255 0 35 255 0 35 255 0 35 255 0 35 255 0 35 255 0 35 255 0 35 255 0 35 255 0 35 255 0 35 255 0 35 255 0 35 255 0 35 255 
0 149 255 0 149 255 0 149 255 0 149 255 0 149 255 0 149 255 0 149 255 0 149 255 0 149 255 0 149 255 0 163 255 0 163 255 0 163 255 0 163 255 0 163 255 0 163 255 0 163 255 0 163 255 0 163 255 0 163 255 0 160 255 0 160 255 0 160 255 0 160 255 0 160 255 0 160 255 0 160 255 0 160 255 0 160 255 0 160 255 0 154 255 0 154 255 0 154 255 0 154 255 0 154 255 0 154 255 0 154 255 0 154 255 0 154 255 0 154 255 0 197 255 0 197 255 0 197 255 0 197 255 0 197 255 0 197 255 0 197 255 0 197 255 0 197 255 0 197 255 0 208 255 0 208 255 0 208 255 0 208 255 0 208 255 0 208 255 0 208 255 0 208 255 0 208 255 0 208 255 0 167 255 0 167 255 0 167 255 0 167 255 0 167 255 0 167 255 0 167 255 0 167 255 0 167 255 0 167 255 0 134 255 0 134 255 0 134 255 0 134 255 0 134 255 0 134 255 0 134 255 0 134 255 0 134 255 0 134 255 0 137 255 0 137 255 0 137 255 0 137 255 0 137 255 0 137 255 0 137 255 0 137 255 0 137 255 0 137 255 0 161 255 0 161 255 0 161 255 0 161 255 0 161 255 0 161 255 0 161 255 0 161 255 0 161 255 0 161 255 0 142 255 0 142 255 0 142 255 0 142 255 0 142 255 0 142 255 0 142 255 0 142 255 0 142 255 0 142 255 0 140 255 0 140 255 0 140 255 0 140 255 0 140 255 0 140 255 0 140 255 0 140 255 0 140 255 0 140 255 0 110 255 0 110 255 0 110 255 0 110 255 0 110 255 0 110 255 0 110 255 0 110 255 0 110 255 0 110 255 0 120 255 0 120 255 0 120 255 0 120 255 0 120 255 0 120 255 0 120 255 0 120 255 0 120 255 0 120 255 0 121 255 0 121 255 0 121 255 0 121 255 0 121 255 0 121 255 0 121 255 0 121 255 0 121 255 0 121 255 0 153 255 0 153 255 0 153 255 0 153 255 0 153 255 0 153 255 0 153 255 0 153 255 0 153 255 0 153 255 0 163 255 0 163 255 0 163 255 0 163 255 0 163 255 0 163 255 0 163 255 0 163 255 0 163 255 0 163 255 0 178 255 0 178 255 0 178 255 0 178 255 0 178 255 0 178 255 0 178 255 0 178 255 0 178 255 0 178 255 0 146 255 0 146 255 0 146 255 0 146 255 0 146 255 0 146 255 0 146 255 0 146 255 0 146 255 0 146 255 0 176 255 0 176 255 0 176 255 0 176 255 0 176 255 0 176 255 0 176 255 0 176 255 0 176 255 0 176 255 0 147 255 0 147 255 0 147 255 0 147 255 0 147 255 0 147 255 0 147 255 0 147 255 0 147 255 0 147 255 0 137 255 0 137 255 0 137 255 0 137 255 0 137 255 0 137 255 0 137 255 0 137 255 0 137 255 0 137 255 0 148 255 0 148 255 0 148 255 0 148 255 0 148 255 0 148 255 0 148 255 0 148 255 0 148 255 0 148 255 0 151 255 0 151 255 0 151 255 0 151 255 0 151 255 0 151 255 0 151 255 0 151 255 0 151 255 0 151 255 0 152 255 0 152 255 0 152 255 0 152 255 0 152 255 0 152 255 0 152 255 0 152 255 0 152 255 0 152 255 0 167 255 0 167 255 0 167 255 0 167 255 0 167 255 0 167 255 0 167 255 0 167 255 0 167 255 0 167 255 0 165 255 0 165 255 0 165 255 0 165 255 0 165 255 0 165 255 0 165 255 0 165 255 0 165 255 0 165 255 0 167 255 0 167 255 0 167 255 0 167 255 0 167 255 0 167 255 0 167 255 0 167 255 0 167 255 0 167 255 0 0 0 0 0 0 0 0 0 0 0 0 0 0 0 0 0 0 0 0 0 0 0 0 0 0 0 0 0 0 0 39 255 0 39 255 0 39 255 0 39 255 0 39 255 0 39 255 0 39 255 0 39 255 0 39 255 0 39 255 0 39 255 0 39 255 0 39 255 0 39 255 0 39 255 0 39 255 0 39 255 0 39 255 0 39 255 0 39 255 0 39 255 0 39 255 0 39 255 0 39 255 0 39 255 0 39 255 0 39 255 0 39 255 0 39 255 0 39 255 
0 149 255 0 149 255 0 149 255 0 149 255 0 149 255 0 149 255 0 149 255 0 149 255 0 149 255 0 149 255 0 163 255 0 163 255 0 163 255 0 163 255 0 163 255 0 163 255 0 163 255 0 163 255 0 163 255 0 163 255 0 160 255 0 160 255 0 160 255 0 160 255 0 160 255 0 160 255 0 160 255 0 160 255 0 160 255 0 160 255 0 154 255 0 154 255 0 154 255 0 154 255 0 154 255 0 154 255 0 154 255 0 154 255 0 154 255 0 154 255 0 197 255 0 197 255 0 197 255 0 197 255 0 197 255 0 197 255 0 197 255 0 197 255 0 197 255 0 197 255 0 208 255 0 208 255 0 208 255 0 208 255 0 208 255 0 208 255 0 208 255 0 208 255 0 208 255 0 208 255 0 167 255 0 167 255 0 167 255 0 167 255 0 167 255 0 167 255 0 167 255 0 167 255 0 167 255 0 167 255 0 134 255 0 134 255 0 134 255 0 134 255 0 134 255 0 134 255 0 134 255 0 134 255 0 134 255 0 134 255 0 137 255 0 137 255 0 137 255 0 137 255 0 137 255 0 137 255 0 137 255 0 137 255 0 137 255 0 137 255 0 161 255 0 161 255 0 161 255 0 161 255 0 161 255 0 161 255 0 161 255 0 161 255 0 161 255 0 161 255 0 142 255 0 142 255 0 142 255 0 142 255 0 142 255 0 142 255 0 142 255 0 142 255 0 142 255 0 142 255 0 140 255 0 140 255 0 140 255 0 140 255 0 140 255 0 140 255 0 140 255 0 140 255 0 140 255 0 140 255 0 110 255 0 110 255 0 110 255 0 110 255 0 110 255 0 110 255 0 110 255 0 110 255 0 110 255 0 110 255 0 120 255 0 120 255 0 120 255 0 120 255 0 120 255 0 120 255 0 120 255 0 120 255 0 120 255 0 120 255 0 121 255 0 121 255 0 121 255 0 121 255 0 121 255 0 121 255 0 121 255 0 121 255 0 121 255 0 121 255 0 153 255 0 153 255 0 153 255 0 153 255 0 153 255 0 153 255 0 153 255 0 153 255 0 153 255 0 153 255 0 163 255 0 163 255 0 163 255 0 163 255 0 163 255 0 163 255 0 163 255 0 163 255 0 163 255 0 163 255 0 178 255 0 178 255 0 178 255 0 178 255 0 178 255 0 178 255 0 178 255 0 178 255 0 178 255 0 178 255 0 146 255 0 146 255 0 146 255 0 146 255 0 146 255 0 146 255 0 146 255 0 146 255 0 146 255 0 146 255 0 176 255 0 176 255 0 176 255 0 176 255 0 176 255 0 176 255 0 176 255 0 176 255 0 176 255 0 176 255 0 147 255 0 147 255 0 147 255 0 147 255 0 147 255 0 147 255 0 147 255 0 147 255 0 147 255 0 147 255 0 137 255 0 137 255 0 137 255 0 137 255 0 137 255 0 137 255 0 137 255 0 137 255 0 137 255 0 137 255 0 148 255 0 148 255 0 148 255 0 148 255 0 148 255 0 148 255 0 148 255 0 148 255 0 148 255 0 148 255 0 151 255 0 151 255 0 151 255 0 151 255 0 151 255 0 151 255 0 151 255 0 151 255 0 151 255 0 151 255 0 152 255 0 152 255 0 152 255 0 152 255 0 152 255 0 152 255 0 152 255 0 152 255 0 152 255 0 152 255 0 167 255 0 167 255 0 167 255 0 167 255 0 167 255 0 167 255 0 167 255 0 167 255 0 167 255 0 167 255 0 165 255 0 165 255 0 165 255 0 165 255 0 165 255 0 165 255 0 165 255 0 165 255 0 165 255 0 165 255 0 167 255 0 167 255 0 167 255 0 167 255 0 167 255 0 167 255 0 167 255 0 167 255 0 167 255 0 167 255 0 0 0 0 0 0 0 0 0 0 0 0 0 0 0 0 0 0 0 0 0 0 0 0 0 0 0 0 0 0 0 42 255 0 42 255 0 42 255 0 42 255 0 42 255 0 42 255 0 42 255 0 42 255 0 42 255 0 42 255 0 42 255 0 42 255 0 42 255 0 42 255 0 42 255 0 42 255 0 42 255 0 42 255 0 42 255 0 42 255 0 42 255 0 42 255 0 42 255 0 42 255 0 42 255 0 42 255 0 42 255 0 42 255 0 42 255 0 42 255 
0 149 255 0 149 255 0 149 255 0 149 255 0 149 255 0 149 255 0 149 255 0 149 255 0 149 255 0 149 255 0 163 255 0 163 255 0 163 255 0 163 255 0 163 255 0 163 255 0 163 255 0 163 255 0 163 255 0 163 255 0 160 255 0 160 255 0 160 255 0 160 255 0 160 255 0 160 255 0 160 255 0 160 255 0 160 255 0 160 255 0 154 255 0 154 255 0 154 255 0 154 255 0 154 255 0 154 255 0 154 255 0 154 255 0 154 255 0 154 255 0 197 255 0 197 255 0 197 255 0 197 255 0 197 255 0 197 255 0 197 255 0 197 255 0 197 255 0 197 255 0 208 255 0 208 255 0 208 255 0 208 255 0 208 255 0 208 255 0 208 255 0 208 255 0 208 255 0 208 255 0 167 255 0 167 255 0 167 255 0 167 255 0 167 255 0 167 255 0 167 255 0 167 255 0 167 255 0 167 255 0 134 255 0 134 255 0 134 255 0 134 255 0 134 255 0 134 255 0 134 255 0 134 255 0 134 255 0 134 255 0 137 255 0 137 255 0 137 255 0 137 255 0 137 255 0 137 255 0 137 255 0 137 255 0 137 255 0 137 255 0 161 255 0 161 255 0 161 255 0 161 255 0 161 255 0 161 255 0 161 255 0 161 255 0 161 255 0 161 255 0 142 255 0 142 255 0 142 255 0 142 255 0 142 255 0 142 255 0 142 255 0 142 255 0 142 255 0 142 255 0 140 255 0 140 255 0 140 255 0 140 255 0 140 255 0 140 255 0 140 255 0 140 255 0 140 255 0 140 255 0 110 255 0 110 255 0 110 255 0 110 255 0 110 255 0 110 255 0 110 255 0 110 255 0 110 255 0 110 255 0 120 255 0 120 255 0 120 255 0 120 255 0 120 255 0 120 255 0 120 255 0 120 255 0 120 255 0 120 255 0 121 255 0 121 255 0 121 255 0 121 255 0 121 255 0 121 255 0 121 255 0 121 255 0 121 255 0 121 255 0 153 255 0 153 255 0 153 255 0 153 255 0 153 255 0 153 255 0 153 255 0 153 255 0 153 255 0 153 255 0 163 255 0 163 255 0 163 255 0 163 255 0 163 255 0 163 255 0 163 255 0 163 255 0 163 255 0 163 255 0 178 255 0 178 255 0 178 255 0 178 255 0 178 255 0 178 255 0 178 255 0 178 255 0 178 255 0 178 255 0 146 255 0 146 255 0 146 255 0 146 255 0 146 255 0 146 255 0 146 255 0 146 255 0 146 255 0 146 255 0 176 255 0 176 255 0 176 255 0 176 255 0 176 255 0 176 255 0 176 255 0 176 255 0 176 255 0 176 255 0 147 255 0 147 255 0 147 255 0 147 255 0 147 255 0 147 255 0 147 255 0 147 255 0 147 255 0 147 255 0 137 255 0 137 255 0 137 255 0 137 255 0 137 255 0 137 255 0 137 255 0 137 255 0 137 255 0 137 255 0 148 255 0 148 255 0 148 255 0 148 255 0 148 255 0 148 255 0 148 255 0 148 255 0 148 255 0 148 255 0 151 255 0 151 255 0 151 255 0 151 255 0 151 255 0 151 255 0 151 255 0 151 255 0 151 255 0 151 255 0 152 255 0 152 255 0 152 255 0 152 255 0 152 255 0 152 255 0 152 255 0 152 255 0 152 255 0 152 255 0 167 255 0 167 255 0 167 255 0 167 255 0 167 255 0 167 255 0 167 255 0 167 255 0 167 255 0 167 255 0 165 255 0 165 255 0 165 255 0 165 255 0 165 255 0 165 255 0 165 255 0 165 255 0 165 255 0 165 255 0 167 255 0 167 255 0 167 255 0 167 255 0 167 255 0 167 255 0 167 255 0 167 255 0 167 255 0 167 255 0 0 0 0 0 0 0 0 0 0 0 0 0 0 0 0 0 0 0 0 0 0 0 0 0 0 0 0 0 0 0 46 255 0 46 255 0 46 255 0 46 255 0 46 255 0 46 255 0 46 255 0 46 255 0 46 255 0 46 255 0 46 255 0 46 255 0 46 255 0 46 255 0 46 255 0 46 255 0 46 255 0 46 255 0 46 255 0 46 255 0 46 255 0 46 255 0 46 255 0 46 255 0 46 255 0 46 255 0 46 255 0 46 255 0 46 255 0 46 255 
0 149 255 0 149 255 0 149 255 0 149 255 0 149 255 0 149 255 0 149 255 0 149 255 0 149 255 0 149 255 0 163 255 0 163 255 0 163 255 0 163 255 0 163 255 0 163 255 0 163 255 0 163 255 0 163 255 0 163 255 0 160 255 0 160 255 0 160 255 0 160 255 0 160 255 0 160 255 0 160 255 0 160 255 0 160 255 0 160 255 0 154 255 0 154 255 0 154 255 0 154 255 0 154 255 0 154 255 0 154 255 0 154 255 0 154 255 0 154 255 0 197 255 0 197 255 0 197 255 0 197 255 0 197 255 0 197 255 0 197 255 0 197 255 0 197 255 0 197 255 0 208 255 0 208 255 0 208 255 0 208 255 0 208 255 0 208 255 0 208 255 0 208 255 0 208 255 0 208 255 0 167 255 0 167 255 0 167 255 0 167 255 0 167 255 0 167 255 0 167 255 0 167 255 0 167 255 0 167 255 0 134 255 0 134 255 0 134 255 0 134 255 0 134 255 0 134 255 0 134 255 0 134 255 0 134 255 0 134 255 0 137 255 0 137 255 0 137 255 0 137 255 0 137 255 0 137 255 0 137 255 0 137 255 0 137 255 0 137 255 0 161 255 0 161 255 0 161 255 0 161 255 0 161 255 0 161 255 0 161 255 0 161 255 0 161 255 0 161 255 0 142 255 0 142 255 0 142 255 0 142 255 0 142 255 0 142 255 0 142 255 0 142 255 0 142 255 0 142 255 0 140 255 0 140 255 0 140 255 0 140 255 0 140 255 0 140 255 0 140 255 0 140 255 0 140 255 0 140 255 0 110 255 0 110 255 0 110 255 0 110 255 0 110 255 0 110 255 0 110 255 0 110 255 0 110 255 0 110 255 0 120 255 0 120 255 0 120 255 0 120 255 0 120 255 0 120 255 0 120 255 0 120 255 0 120 255 0 120 255 0 121 255 0 121 255 0 121 255 0 121 255 0 121 255 0 121 255 0 121 255 0 121 255 0 121 255 0 121 255 0 153 255 0 153 255 0 153 255 0 153 255 0 153 255 0 153 255 0 153 255 0 153 255 0 153 255 0 153 255 0 163 255 0 163 255 0 163 255 0 163 255 0 163 255 0 163 255 0 163 255 0 163 255 0 163 255 0 163 255 0 178 255 0 178 255 0 178 255 0 178 255 0 178 255 0 178 255 0 178 255 0 178 255 0 178 255 0 178 255 0 146 255 0 146 255 0 146 255 0 146 255 0 146 255 0 146 255 0 146 255 0 146 255 0 146 255 0 146 255 0 176 255 0 176 255 0 176 255 0 176 255 0 176 255 0 176 255 0 176 255 0 176 255 0 176 255 0 176 255 0 147 255 0 147 255 0 147 255 0 147 255 0 147 255 0 147 255 0 147 255 0 147 255 0 147 255 0 147 255 0 137 255 0 137 255 0 137 255 0 137 255 0 137 255 0 137 255 0 137 255 0 137 255 0 137 255 0 137 255 0 148 255 0 148 255 0 148 255 0 148 255 0 148 255 0 148 255 0 148 255 0 148 255 0 148 255 0 148 255 0 151 255 0 151 255 0 151 255 0 151 255 0 151 255 0 151 255 0 151 255 0 151 255 0 151 255 0 151 255 0 152 255 0 152 255 0 152 255 0 152 255 0 152 255 0 152 255 0 152 255 0 152 255 0 152 255 0 152 255 0 167 255 0 167 255 0 167 255 0 167 255 0 167 255 0 167 255 0 167 255 0 167 255 0 167 255 0 167 255 0 165 255 0 165 255 0 165 255 0 165 255 0 165 255 0 165 255 0 165 255 0 165 255 0 165 255 0 165 255 0 167 255 0 167 255 0 167 255 0 167 255 0 167 255 0 167 255 0 167 255 0 167 255 0 167 255 0 167 255 0 0 0 0 0 0 0 0 0 0 0 0 0 0 0 0 0 0 0 0 0 0 0 0 0 0 0 0 0 0 0 50 255 0 50 255 0 50 255 0 50 255 0 50 255 0 50 255 0 50 255 0 50 255 0 50 255 0 50 255 0 50 255 0 50 255 0 50 255 0 50 255 0 50 255 0 50 255 0 50 255 0 50 255 0 50 255 0 50 255 0 50 255 0 50 255 0 50 255 0 50 255 0 50 255 0 50 255 0 50 255 0 50 255 0 50 255 0 50 255 
0 149 255 0 149 255 0 149 255 0 149 255 0 149 255 0 149 255 0 149 255 0 149 255 0 149 255 0 149 255 0 163 255 0 163 255 0 163 255 0 163 255 0 163 255 0 163 255 0 163 255 0 163 255 0 163 255 0 163 255 0 160 255 0 160 255 0 160 255 0 160 255 0 160 255 0 160 255 0 160 255 0 160 255 0 160 255 0 160 255 0 154 255 0 154 255 0 154 255 0 154 255 0 154 255 0 154 255 0 154 255 0 154 255 0 154 255 0 154 255 0 197 255 0 197 255 0 197 255 0 197 255 0 197 255 0 197 255 0 197 255 0 197 255 0 197 255 0 197 255 0 208 255 0 208 255 0 208 255 0 208 255 0 208 255 0 208 255 0 208 255 0 208 255 0 208 255 0 208 255 0 167 255 0 167 255 0 167 255 0 167 255 0 167 255 0 167 255 0 167 255 0 167 255 0 167 255 0 167 255 0 134 255 0 134 255 0 134 255 0 134 255 0 134 255 0 134 255 0 134 255 0 134 255 0 134 255 0 134 255 0 137 255 0 137 255 0 137 255 0 137 255 0 137 255 0 137 255 0 137 255 0 137 255 0 137 255 0 137 255 0 161 255 0 161 255 0 161 255 0 161 255 0 161 255 0 161 255 0 161 255 0 161 255 0 161 255 0 161 255 0 142 255 0 142 255 0 142 255 0 142 255 0 142 255 0 142 255 0 142 255 0 142 255 0 142 255 0 142 255 0 140 255 0 140 255 0 140 255 0 140 255 0 140 255 0 140 255 0 140 255 0 140 255 0 140 255 0 140 255 0 110 255 0 110 255 0 110 255 0 110 255 0 110 255 0 110 255 0 110 255 0 110 255 0 110 255 0 110 255 0 120 255 0 120 255 0 120 255 0 120 255 0 120 255 0 120 255 0 120 255 0 120 255 0 120 255 0 120 255 0 121 255 0 121 255 0 121 255 0 121 255 0 121 255 0 121 255 0 121 255 0 121 255 0 121 255 0 121 255 0 153 255 0 153 255 0 153 255 0 153 255 0 153 255 0 153 255 0 153 255 0 153 255 0 153 255 0 153 255 0 163 255 0 163 255 0 163 255 0 163 255 0 163 255 0 163 255 0 163 255 0 163 255 0 163 255 0 163 255 0 178 255 0 178 255 0 178 255 0 178 255 0 178 255 0 178 255 0 178 255 0 178 255 0 178 255 0 178 255 0 146 255 0 146 255 0 146 255 0 146 255 0 146 255 0 146 255 0 146 255 0 146 255 0 146 255 0 146 255 0 176 255 0 176 255 0 176 255 0 176 255 0 176 255 0 176 255 0 176 255 0 176 255 0 176 255 0 176 255 0 147 255 0 147 255 0 147 255 0 147 255 0 147 255 0 147 255 0 147 255 0 147 255 0 147 255 0 147 255 0 137 255 0 137 255 0 137 255 0 137 255 0 137 255 0 137 255 0 137 255 0 137 255 0 137 255 0 137 255 0 148 255 0 148 255 0 148 255 0 148 255 0 148 255 0 148 255 0 148 255 0 148 255 0 148 255 0 148 255 0 151 255 0 151 255 0 151 255 0 151 255 0 151 255 0 151 255 0 151 255 0 151 255 0 151 255 0 151 255 0 152 255 0 152 255 0 152 255 0 152 255 0 152 255 0 152 255 0 152 255 0 152 255 0 152 255 0 152 255 0 167 255 0 167 255 0 167 255 0 167 255 0 167 255 0 167 255 0 167 255 0 167 255 0 167 255 0 167 255 0 165 255 0 165 255 0 165 255 0 165 255 0 165 255 0 165 255 0 165 255 0 165 255 0 165 255 0 165 255 0 167 255 0 167 255 0 167 255 0 167 255 0 167 255 0 167 255 0 167 255 0 167 255 0 167 255 0 167 255 0 0 0 0 0 0 0 0 0 0 0 0 0 0 0 0 0 0 0 0 0 0 0 0 0 0 0 0 0 0 0 53 255 0 53 255 0 53 255 0 53 255 0 53 255 0 53 255 0 53 255 0 53 255 0 53 255 0 53 255 0 53 255 0 53 255 0 53 255 0 53 255 0 53 255 0 53 255 0 53 255 0 53 255 0 53 255 0 53 255 0 53 255 0 53 255 0 53 255 0 53 255 0 53 255 0 53 255 0 53 255 0 53 255 0 53 255 0 53 255 
0 149 255 0 149 255 0 149 255 0 149 255 0 149 255 0 149 255 0 149 255 0 149 255 0 149 255 0 149 255 0 163 255 0 163 255 0 163 255 0 163 255 0 163 255 0 163 255 0 163 255 0 163 255 0 163 255 0 163 255 0 160 255 0 160 255 0 160 255 0 160 255 0 160 255 0 160 255 0 160 255 0 160 255 0 160 255 0 160 255 0 154 255 0 154 255 0 154 255 0 154 255 0 154 255 0 154 255 0 154 255 0 154 255 0 154 255 0 154 255 0 197 255 0 197 255 0 197 255 0 197 255 0 197 255 0 197 255 0 197 255 0 197 255 0 197 255 0 197 255 0 208 255 0 208 255 0 208 255 0 208 255 0 208 255 0 208 255 0 208 255 0 208 255 0 208 255 0 208 255 0 167 255 0 167 255 0 167 255 0 167 255 0 167 255 0 167 255 0 167 255 0 167 255 0 167 255 0 167 255 0 134 255 0 134 255 0 134 255 0 134 255 0 134 255 0 134 255 0 134 255 0 134 255 0 134 255 0 134 255 0 137 255 0 137 255 0 137 255 0 137 255 0 137 255 0 137 255 0 137 255 0 137 255 0 137 255 0 137 255 0 161 255 0 161 255 0 161 255 0 161 255 0 161 255 0 161 255 0 161 255 0 161 255 0 161 255 0 161 255 0 142 255 0 142 255 0 142 255 0 142 255 0 142 255 0 142 255 0 142 255 0 142 255 0 142 255 0 142 255 0 140 255 0 140 255 0 140 255 0 140 255 0 140 255 0 140 255 0 140 255 0 140 255 0 140 255 0 140 255 0 110 255 0 110 255 0 110 255 0 110 255 0 110 255 0 110 255 0 110 255 0 110 255 0 110 255 0 110 255 0 120 255 0 120 255 0 120 255 0 120 255 0 120 255 0 120 255 0 120 255 0 120 255 0 120 255 0 120 255 0 121 255 0 121 255 0 121 255 0 121 255 0 121 255 0 121 255 0 121 255 0 121 255 0 121 255 0 121 255 0 153 255 0 153 255 0 153 255 0 153 255 0 153 255 0 153 255 0 153 255 0 153 255 0 153 255 0 153 255 0 163 255 0 163 255 0 163 255 0 163 255 0 163 255 0 163 255 0 163 255 0 163 255 0 163 255 0 163 255 0 178 255 0 178 255 0 178 255 0 178 255 0 178 255 0 178 255 0 178 255 0 178 255 0 178 255 0 178 255 0 146 255 0 146 255 0 146 255 0 146 255 0 146 255 0 146 255 0 146 255 0 146 255 0 146 255 0 146 255 0 176 255 0 176 255 0 176 255 0 176 255 0 176 255 0 176 255 0 176 255 0 176 255 0 176 255 0 176 255 0 147 255 0 147 255 0 147 255 0 147 255 0 147 255 0 147 255 0 147 255 0 147 255 0 147 255 0 147 255 0 137 255 0 137 255 0 137 255 0 137 255 0 137 255 0 137 255 0 137 255 0 137 255 0 137 255 0 137 255 0 148 255 0 148 255 0 148 255 0 148 255 0 148 255 0 148 255 0 148 255 0 148 255 0 148 255 0 148 255 0 151 255 0 151 255 0 151 255 0 151 255 0 151 255 0 151 255 0 151 255 0 151 255 0 151 255 0 151 255 0 152 255 0 152 255 0 152 255 0 152 255 0 152 255 0 152 255 0 152 255 0 152 255 0 152 255 0 152 255 0 167 255 0 167 255 0 167 255 0 167 255 0 167 255 0 167 255 0 167 255 0 167 255 0 167 255 0 167 255 0 165 255 0 165 255 0 165 255 0 165 255 0 165 255 0 165 255 0 165 255 0 165 255 0 165 255 0 165 255 0 167 255 0 167 255 0 167 255 0 167 255 0 167 255 0 167 255 0 167 255 0 167 255 0 167 255 0 167 255 0 0 0 0 0 0 0 0 0 0 0 0 0 0 0 0 0 0 0 0 0 0 0 0 0 0 0 0 0 0 0 57 255 0 57 255 0 57 255 0 57 255 0 57 255 0 57 255 0 57 255 0 57 255 0 57 255 0 57 255 0 57 255 0 57 255 0 57 255 0 57 255 0 57 255 0 57 255 0 57 255 0 57 255 0 57 255 0 57 255 0 57 255 0 57 255 0 57 255 0 57 255 0 57 255 0 57 255 0 57 255 0 57 255 0 57 255 0 57 255 
0 149 255 0 149 255 0 149 255 0 149 255 0 149 255 0 149 255 0 149 255 0 149 255 0 149 255 0 149 255 0 163 255 0 163 255 0 163 255 0 163 255 0 163 255 0 163 255 0 163 255 0 163 255 0 163 255 0 163 255 0 160 255 0 160 255 0 160 255 0 160 255 0 160 255 0 160 255 0 160 255 0 160 255 0 160 255 0 160 255 0 154 255 0 154 255 0 154 255 0 154 255 0 154 255 0 154 255 0 154 255 0 154 255 0 154 255 0 154 255 0 197 255 0 197 255 0 197 255 0 197 255 0 197 255 0 197 255 0 197 255 0 197 255 0 197 255 0 197 255 0 208 255 0 208 255 0 208 255 0 208 255 0 208 255 0 208 255 0 208 255 0 208 255 0 208 255 0 208 255 0 167 255 0 167 255 0 167 255 0 167 255 0 167 255 0 167 255 0 167 255 0 167 255 0 167 255 0 167 255 0 134 255 0 134 255 0 134 255 0 134 255 0 134 255 0 134 255 0 134 255 0 134 255 0 134 255 0 134 255 0 137 255 0 137 255 0 137 255 0 137 255 0 137 255 0 137 255 0 137 255 0 137 255 0 137 255 0 137 255 0 161 255 0 161 255 0 161 255 0 161 255 0 161 255 0 161 255 0 161 255 0 161 255 0 161 255 0 161 255 0 142 255 0 142 255 0 142 255 0 142 255 0 142 255 0 142 255 0 142 255 0 142 255 0 142 255 0 142 255 0 140 255 0 140 255 0 140 255 0 140 255 0 140 255 0 140 255 0 140 255 0 140 255 0 140 255 0 140 255 0 110 255 0 110 255 0 110 255 0 110 255 0 110 255 0 110 255 0 110 255 0 110 255 0 110 255 0 110 255 0 120 255 0 120 255 0 120 255 0 120 255 0 120 255 0 120 255 0 120 255 0 120 255 0 120 255 0 120 255 0 121 255 0 121 255 0 121 255 0 121 255 0 121 255 0 121 255 0 121 255 0 121 255 0 121 255 0 121 255 0 153 255 0 153 255 0 153 255 0 153 255 0 153 255 0 153 255 0 153 255 0 153 255 0 153 255 0 153 255 0 163 255 0 163 255 0 163 255 0 163 255 0 163 255 0 163 255 0 163 255 0 163 255 0 163 255 0 163 255 0 178 255 0 178 255 0 178 255 0 178 255 0 178 255 0 178 255 0 178 255 0 178 255 0 178 255 0 178 255 0 146 255 0 146 255 0 146 255 0 146 255 0 146 255 0 146 255 0 146 255 0 146 255 0 146 255 0 146 255 0 176 255 0 176 255 0 176 255 0 176 255 0 176 255 0 176 255 0 176 255 0 176 255 0 176 255 0 176 255 0 147 255 0 147 255 0 147 255 0 147 255 0 147 255 0 147 255 0 147 255 0 147 255 0 147 255 0 147 255 0 137 255 0 137 255 0 137 255 0 137 255 0 137 255 0 137 255 0 137 255 0 137 255 0 137 255 0 137 255 0 148 255 0 148 255 0 148 255 0 148 255 0 148 255 0 148 255 0 148 255 0 148 255 0 148 255 0 148 255 0 151 255 0 151 255 0 151 255 0 151 255 0 151 255 0 151 255 0 151 255 0 151 255 0 151 255 0 151 255 0 152 255 0 152 255 0 152 255 0 152 255 0 152 255 0 152 255 0 152 255 0 152 255 0 152 255 0 152 255 0 167 255 0 167 255 0 167 255 0 167 255 0 167 255 0 167 255 0 167 255 0 167 255 0 167 255 0 167 255 0 165 255 0 165 255 0 165 255 0 165 255 0 165 255 0 165 255 0 165 255 0 165 255 0 165 255 0 165 255 0 167 255 0 167 255 0 167 255 0 167 255 0 167 255 0 167 255 0 167 255 0 167 255 0 167 255 0 167 255 0 0 0 0 0 0 0 0 0 0 0 0 0 0 0 0 0 0 0 0 0 0 0 0 0 0 0 0 0 0 0 61 255 0 61 255 0 61 255 0 61 255 0 61 255 0 61 255 0 61 255 0 61 255 0 61 255 0 61 255 0 61 255 0 61 255 0 61 255 0 61 255 0 61 255 0 61 255 0 61 255 0 61 255 0 61 255 0 61 255 0 61 255 0 61 255 0 61 255 0 61 255 0 61 255 0 61 255 0 61 255 0 61 255 0 61 255 0 61 255 
0 149 255 0 149 255 0 149 255 0 149 255 0 149 255 0 149 255 0 149 255 0 149 255 0 149 255 0 149 255 0 163 255 0 163 255 0 163 255 0 163 255 0 163 255 0 163 255 0 163 255 0 163 255 0 163 255 0 163 255 0 160 255 0 160 255 0 160 255 0 160 255 0 160 255 0 160 255 0 160 255 0 160 255 0 160 255 0 160 255 0 154 255 0 154 255 0 154 255 0 154 255 0 154 255 0 154 255 0 154 255 0 154 255 0 154 255 0 154 255 0 197 255 0 197 255 0 197 255 0 197 255 0 197 255 0 197 255 0 197 255 0 197 255 0 197 255 0 197 255 0 208 255 0 208 255 0 208 255 0 208 255 0 208 255 0 208 255 0 208 255 0 208 255 0 208 255 0 208 255 0 167 255 0 167 255 0 167 255 0 167 255 0 167 255 0 167 255 0 167 255 0 167 255 0 167 255 0 167 255 0 134 255 0 134 255 0 134 255 0 134 255 0 134 255 0 134 255 0 134 255 0 134 255 0 134 255 0 134 255 0 137 255 0 137 255 0 137 255 0 137 255 0 137 255 0 137 255 0 137 255 0 137 255 0 137 255 0 137 255 0 161 255 0 161 255 0 161 255 0 161 255 0 161 255 0 161 255 0 161 255 0 161 255 0 161 255 0 161 255 0 142 255 0 142 255 0 142 255 0 142 255 0 142 255 0 142 255 0 142 255 0 142 255 0 142 255 0 142 255 0 140 255 0 140 255 0 140 255 0 140 255 0 140 255 0 140 255 0 140 255 0 140 255 0 140 255 0 140 255 0 110 255 0 110 255 0 110 255 0 110 255 0 110 255 0 110 255 0 110 255 0 110 255 0 110 255 0 110 255 0 120 255 0 120 255 0 120 255 0 120 255 0 120 255 0 120 255 0 120 255 0 120 255 0 120 255 0 120 255 0 121 255 0 121 255 0 121 255 0 121 255 0 121 255 0 121 255 0 121 255 0 121 255 0 121 255 0 121 255 0 153 255 0 153 255 0 153 255 0 153 255 0 153 255 0 153 255 0 153 255 0 153 255 0 153 255 0 153 255 0 163 255 0 163 255 0 163 255 0 163 255 0 163 255 0 163 255 0 163 255 0 163 255 0 163 255 0 163 255 0 178 255 0 178 255 0 178 255 0 178 255 0 178 255 0 178 255 0 178 255 0 178 255 0 178 255 0 178 255 0 146 255 0 146 255 0 146 255 0 146 255 0 146 255 0 146 255 0 146 255 0 146 255 0 146 255 0 146 255 0 176 255 0 176 255 0 176 255 0 176 255 0 176 255 0 176 255 0 176 255 0 176 255 0 176 255 0 176 255 0 147 255 0 147 255 0 147 255 0 147 255 0 147 255 0 147 255 0 147 255 0 147 255 0 147 255 0 147 255 0 137 255 0 137 255 0 137 255 0 137 255 0 137 255 0 137 255 0 137 255 0 137 255 0 137 255 0 137 255 0 148 255 0 148 255 0 148 255 0 148 255 0 148 255 0 148 255 0 148 255 0 148 255 0 148 255 0 148 255 0 151 255 0 151 255 0 151 255 0 151 255 0 151 255 0 151 255 0 151 255 0 151 255 0 151 255 0 151 255 0 152 255 0 152 255 0 152 255 0 152 255 0 152 255 0 152 255 0 152 255 0 152 255 0 152 255 0 152 255 0 167 255 0 167 255 0 167 255 0 167 255 0 167 255 0 167 255 0 167 255 0 167 255 0 167 255 0 167 255 0 165 255 0 165 255 0 165 255 0 165 255 0 165 255 0 165 255 0 165 255 0 165 255 0 165 255 0 165 255 0 167 255 0 167 255 0 167 255 0 167 255 0 167 255 0 167 255 0 167 255 0 167 255 0 167 255 0 167 255 0 0 0 0 0 0 0 0 0 0 0 0 0 0 0 0 0 0 0 0 0 0 0 0 0 0 0 0 0 0 0 64 255 0 64 255 0 64 255 0 64 255 0 64 255 0 64 255 0 64 255 0 64 255 0 64 255 0 64 255 0 64 255 0 64 255 0 64 255 0 64 255 0 64 255 0 64 255 0 64 255 0 64 255 0 64 255 0 64 255 0 64 255 0 64 255 0 64 255 0 64 255 0 64 255 0 64 255 0 64 255 0 64 255 0 64 255 0 64 255 
0 149 255 0 149 255 0 149 255 0 149 255 0 149 255 0 149 255 0 149 255 0 149 255 0 149 255 0 149 255 0 163 255 0 163 255 0 163 255 0 163 255 0 163 255 0 163 255 0 163 255 0 163 255 0 163 255 0 163 255 0 160 255 0 160 255 0 160 255 0 160 255 0 160 255 0 160 255 0 160 255 0 160 255 0 160 255 0 160 255 0 154 255 0 154 255 0 154 255 0 154 255 0 154 255 0 154 255 0 154 255 0 154 255 0 154 255 0 154 255 0 197 255 0 197 255 0 197 255 0 197 255 0 197 255 0 197 255 0 197 255 0 197 255 0 197 255 0 197 255 0 208 255 0 208 255 0 208 255 0 208 255 0 208 255 0 208 255 0 208 255 0 208 255 0 208 255 0 208 255 0 167 255 0 167 255 0 167 255 0 167 255 0 167 255 0 167 255 0 167 255 0 167 255 0 167 255 0 167 255 0 134 255 0 134 255 0 134 255 0 134 255 0 134 255 0 134 255 0 134 255 0 134 255 0 134 255 0 134 255 0 137 255 0 137 255 0 137 255 0 137 255 0 137 255 0 137 255 0 137 255 0 137 255 0 137 255 0 137 255 0 161 255 0 161 255 0 161 255 0 161 255 0 161 255 0 161 255 0 161 255 0 161 255 0 161 255 0 161 255 0 142 255 0 142 255 0 142 255 0 142 255 0 142 255 0 142 255 0 142 255 0 142 255 0 142 255 0 142 255 0 140 255 0 140 255 0 140 255 0 140 255 0 140 255 0 140 255 0 140 255 0 140 255 0 140 255 0 140 255 0 110 255 0 110 255 0 110 255 0 110 255 0 110 255 0 110 255 0 110 255 0 110 255 0 110 255 0 110 255 0 120 255 0 120 255 0 120 255 0 120 255 0 120 255 0 120 255 0 120 255 0 120 255 0 120 255 0 120 255 0 121 255 0 121 255 0 121 255 0 121 255 0 121 255 0 121 255 0 121 255 0 121 255 0 121 255 0 121 255 0 153 255 0 153 255 0 153 255 0 153 255 0 153 255 0 153 255 0 153 255 0 153 255 0 153 255 0 153 255 0 163 255 0 163 255 0 163 255 0 163 255 0 163 255 0 163 255 0 163 255 0 163 255 0 163 255 0 163 255 0 178 255 0 178 255 0 178 255 0 178 255 0 178 255 0 178 255 0 178 255 0 178 255 0 178 255 0 178 255 0 146 255 0 146 255 0 146 255 0 146 255 0 146 255 0 146 255 0 146 255 0 146 255 0 146 255 0 146 255 0 176 255 0 176 255 0 176 255 0 176 255 0 176 255 0 176 255 0 176 255 0 176 255 0 176 255 0 176 255 0 147 255 0 147 255 0 147 255 0 147 255 0 147 255 0 147 255 0 147 255 0 147 255 0 147 255 0 147 255 0 137 255 0 137 255 0 137 255 0 137 255 0 137 255 0 137 255 0 137 255 0 137 255 0 137 255 0 137 255 0 148 255 0 148 255 0 148 255 0 148 255 0 148 255 0 148 255 0 148 255 0 148 255 0 148 255 0 148 255 0 151 255 0 151 255 0 151 255 0 151 255 0 151 255 0 151 255 0 151 255 0 151 255 0 151 255 0 151 255 0 152 255 0 152 255 0 152 255 0 152 255 0 152 255 0 152 255 0 152 255 0 152 255 0 152 255 0 152 255 0 167 255 0 167 255 0 167 255 0 167 255 0 167 255 0 167 255 0 167 255 0 167 255 0 167 255 0 167 255 0 165 255 0 165 255 0 165 255 0 165 255 0 165 255 0 165 255 0 165 255 0 165 255 0 165 255 0 165 255 0 167 255 0 167 255 0 167 255 0 167 255 0 167 255 0 167 255 0 167 255 0 167 255 0 167 255 0 167 255 0 0 0 0 0 0 0 0 0 0 0 0 0 0 0 0 0 0 0 0 0 0 0 0 0 0 0 0 0 0 0 68 255 0 68 255 0 68 255 0 68 255 0 68 255 0 68 255 0 68 255 0 68 255 0 68 255 0 68 255 0 68 255 0 68 255 0 68 255 0 68 255 0 68 255 0 68 255 0 68 255 0 68 255 0 68 255 0 68 255 0 68 255 0 68 255 0 68 255 0 68 255 0 68 255 0 68 255 0 68 255 0 68 255 0 68 255 0 68 255 
0 149 255 0 149 255 0 149 255 0 149 255 0 149 255 0 149 255 0 149 255 0 149 255 0 149 255 0 149 255 0 163 255 0 163 255 0 163 255 0 163 255 0 163 255 0 163 255 0 163 255 0 163 255 0 163 255 0 163 255 0 160 255 0 160 255 0 160 255 0 160 255 0 160 255 0 160 255 0 160 255 0 160 255 0 160 255 0 160 255 0 154 255 0 154 255 0 154 255 0 154 255 0 154 255 0 154 255 0 154 255 0 154 255 0 154 255 0 154 255 0 197 255 0 197 255 0 197 255 0 197 255 0 197 255 0 197 255 0 197 255 0 197 255 0 197 255 0 197 255 0 208 255 0 208 255 0 208 255 0 208 255 0 208 255 0 208 255 0 208 255 0 208 255 0 208 255 0 208 255 0 167 255 0 167 255 0 167 255 0 167 255 0 167 255 0 167 255 0 167 255 0 167 255 0 167 255 0 167 255 0 134 255 0 134 255 0 134 255 0 134 255 0 134 255 0 134 255 0 134 255 0 134 255 0 134 255 0 134 255 0 137 255 0 137 255 0 137 255 0 137 255 0 137 255 0 137 255 0 137 255 0 137 255 0 137 255 0 137 255 0 161 255 0 161 255 0 161 255 0 161 255 0 161 255 0 161 255 0 161 255 0 161 255 0 161 255 0 161 255 0 142 255 0 142 255 0 142 255 0 142 255 0 142 255 0 142 255 0 142 255 0 142 255 0 142 255 0 142 255 0 140 255 0 140 255 0 140 255 0 140 255 0 140 255 0 140 255 0 140 255 0 140 255 0 140 255 0 140 255 0 110 255 0 110 255 0 110 255 0 110 255 0 110 255 0 110 255 0 110 255 0 110 255 0 110 255 0 110 255 0 120 255 0 120 255 0 120 255 0 120 255 0 120 255 0 120 255 0 120 255 0 120 255 0 120 255 0 120 255 0 121 255 0 121 255 0 121 255 0 121 255 0 121 255 0 121 255 0 121 255 0 121 255 0 121 255 0 121 255 0 153 255 0 153 255 0 153 255 0 153 255 0 153 255 0 153 255 0 153 255 0 153 255 0 153 255 0 153 255 0 163 255 0 163 255 0 163 255 0 163 255 0 163 255 0 163 255 0 163 255 0 163 255 0 163 255 0 163 255 0 178 255 0 178 255 0 178 255 0 178 255 0 178 255 0 178 255 0 178 255 0 178 255 0 178 255 0 178 255 0 146 255 0 146 255 0 146 255 0 146 255 0 146 255 0 146 255 0 146 255 0 146 255 0 146 255 0 146 255 0 176 255 0 176 255 0 176 255 0 176 255 0 176 255 0 176 255 0 176 255 0 176 255 0 176 255 0 176 255 0 147 255 0 147 255 0 147 255 0 147 255 0 147 255 0 147 255 0 147 255 0 147 255 0 147 255 0 147 255 0 137 255 0 137 255 0 137 255 0 137 255 0 137 255 0 137 255 0 137 255 0 137 255 0 137 255 0 137 255 0 148 255 0 148 255 0 148 255 0 148 255 0 148 255 0 148 255 0 148 255 0 148 255 0 148 255 0 148 255 0 151 255 0 151 255 0 151 255 0 151 255 0 151 255 0 151 255 0 151 255 0 151 255 0 151 255 0 151 255 0 152 255 0 152 255 0 152 255 0 152 255 0 152 255 0 152 255 0 152 255 0 152 255 0 152 255 0 152 255 0 167 255 0 167 255 0 167 255 0 167 255 0 167 255 0 167 255 0 167 255 0 167 255 0 167 255 0 167 255 0 165 255 0 165 255 0 165 255 0 165 255 0 165 255 0 165 255 0 165 255 0 165 255 0 165 255 0 165 255 0 167 255 0 167 255 0 167 255 0 167 255 0 167 255 0 167 255 0 167 255 0 167 255 0 167 255 0 167 255 0 0 0 0 0 0 0 0 0 0 0 0 0 0 0 0 0 0 0 0 0 0 0 0 0 0 0 0 0 0 0 72 255 0 72 255 0 72 255 0 72 255 0 72 255 0 72 255 0 72 255 0 72 255 0 72 255 0 72 255 0 72 255 0 72 255 0 72 255 0 72 255 0 72 255 0 72 255 0 72 255 0 72 255 0 72 255 0 72 255 0 72 255 0 72 255 0 72 255 0 72 255 0 72 255 0 72 255 0 72 255 0 72 255 0 72 255 0 72 255 
0 157 255 0 157 255 0 157 255 0 157 255 0 157 255 0 157 255 0 157 255 0 157 255 0 157 255 0 157 255 0 167 255 0 167 255 0 167 255 0 167 255 0 167 255 0 167 255 0 167 255 0 167 255 0 167 255 0 167 255 0 145 255 0 145 255 0 145 255 0 145 255 0 145 255 0 145 255 0 145 255 0 145 255 0 145 255 0 145 255 0 165 255 0 165 255 0 165 255 0 165 255 0 165 255 0 165 255 0 165 255 0 165 255 0 165 255 0 165 255 0 174 255 0 174 255 0 174 255 0 174 255 0 174 255 0 174 255 0 174 255 0 174 255 0 174 255 0 174 255 0 225 255 0 225 255 0 225 255 0 225 255 0 225 255 0 225 255 0 225 255 0 225 255 0 225 255 0 225 255 0 228 255 0 228 255 0 228 255 0 228 255 0 228 255 0 228 255 0 228 255 0 228 255 0 228 255 0 228 255 0 202 255 0 202 255 0 202 255 0 202 255 0 202 255 0 202 255 0 202 255 0 202 255 0 202 255 0 202 255 0 136 255 0 136 255 0 136 255 0 136 255 0 136 255 0 136 255 0 136 255 0 136 255 0 136 255 0 136 255 0 138 255 0 138 255 0 138 255 0 138 255 0 138 255 0 138 255 0 138 255 0 138 255 0 138 255 0 138 255 0 149 255 0 149 255 0 149 255 0 149 255 0 149 255 0 149 255 0 149 255 0 149 255 0 149 255 0 149 255 0 114 255 0 114 255 0 114 255 0 114 255 0 114 255 0 114 255 0 114 255 0 114 255 0 114 255 0 114 255 0 91 255 0 91 255 0 91 255 0 91 255 0 91 255 0 91 255 0 91 255 0 91 255 0 91 255 0 91 255 0 57 255 0 57 255 0 57 255 0 57 255 0 57 255 0 57 255 0 57 255 0 57 255 0 57 255 0 57 255 0 72 255 0 72 255 0 72 255 0 72 255 0 72 255 0 72 255 0 72 255 0 72 255 0 72 255 0 72 255 0 98 255 0 98 255 0 98 255 0 98 255 0 98 255 0 98 255 0 98 255 0 98 255 0 98 255 0 98 255 0 112 255 0 112 255 0 112 255 0 112 255 0 112 255 0 112 255 0 112 255 0 112 255 0 112 255 0 112 255 0 140 255 0 140 255 0 140 255 0 140 255 0 140 255 0 140 255 0 140 255 0 140 255 0 140 255 0 140 255 0 125 255 0 125 255 0 125 255 0 125 255 0 125 255 0 125 255 0 125 255 0 125 255 0 125 255 0 125 255 0 134 255 0 134 255 0 134 255 0 134 255 0 134 255 0 134 255 0 134 255 0 134 255 0 134 255 0 134 255 0 140 255 0 140 255 0 140 255 0 140 255 0 140 255 0 140 255 0 140 255 0 140 255 0 140 255 0 140 255 0 133 255 0 133 255 0 133 255 0 133 255 0 133 255 0 133 255 0 133 255 0 133 255 0 133 255 0 133 255 0 144 255 0 144 255 0 144 255 0 144 255 0 144 255 0 144 255 0 144 255 0 144 255 0 144 255 0 144 255 0 152 255 0 152 255 0 152 255 0 152 255 0 152 255 0 152 255 0 152 255 0 152 255 0 152 255 0 152 255 0 155 255 0 155 255 0 155 255 0 155 255 0 155 255 0 155 255 0 155 255 0 155 255 0 155 255 0 155 255 0 146 255 0 146 255 0 146 255 0 146 255 0 146 255 0 146 255 0 146 255 0 146 255 0 146 255 0 146 255 0 160 255 0 160 255 0 160 255 0 160 255 0 160 255 0 160 255 0 160 255 0 160 255 0 160 255 0 160 255 0 172 255 0 172 255 0 172 255 0 172 255 0 172 255 0 172 255 0 172 255 0 172 255 0 172 255 0 172 255 0 0 0 0 0 0 0 0 0 0 0 0 0 0 0 0 0 0 0 0 0 0 0 0 0 0 0 0 0 0 0 75 255 0 75 255 0 75 255 0 75 255 0 75 255 0 75 255 0 75 255 0 75 255 0 75 255 0 75 255 0 75 255 0 75 255 0 75 255 0 75 255 0 75 255 0 75 255 0 75 255 0 75 255 0 75 255 0 75 255 0 75 255 0 75 255 0 75 255 0 75 255 0 75 255 0 75 255 0 75 255 0 75 255 0 75 255 0 75 255 
0 157 255 0 157 255 0 157 255 0 157 255 0 157 255 0 157 255 0 157 255 0 157 255 0 157 255 0 157 255 0 167 255 0 167 255 0 167 255 0 167 255 0 167 255 0 167 255 0 167 255 0 167 255 0 167 255 0 167 255 0 145 255 0 145 255 0 145 255 0 145 255 0 145 255 0 145 255 0 145 255 0 145 255 0 145 255 0 145 255 0 165 255 0 165 255 0 165 255 0 165 255 0 165 255 0 165 255 0 165 255 0 165 255 0 165 255 0 165 255 0 174 255 0 174 255 0 174 255 0 174 255 0 174 255 0 174 255 0 174 255 0 174 255 0 174 255 0 174 255 0 225 255 0 225 255 0 225 255 0 225 255 0 225 255 0 225 255 0 225 255 0 225 255 0 225 255 0 225 255 0 228 255 0 228 255 0 228 255 0 228 255 0 228 255 0 228 255 0 228 255 0 228 255 0 228 255 0 228 255 0 202 255 0 202 255 0 202 255 0 202 255 0 202 255 0 202 255 0 202 255 0 202 255 0 202 255 0 202 255 0 136 255 0 136 255 0 136 255 0 136 255 0 136 255 0 136 255 0 136 255 0 136 255 0 136 255 0 136 255 0 138 255 0 138 255 0 138 255 0 138 255 0 138 255 0 138 255 0 138 255 0 138 255 0 138 255 0 138 255 0 149 255 0 149 255 0 149 255 0 149 255 0 149 255 0 149 255 0 149 255 0 149 255 0 149 255 0 149 255 0 114 255 0 114 255 0 114 255 0 114 255 0 114 255 0 114 255 0 114 255 0 114 255 0 114 255 0 114 255 0 91 255 0 91 255 0 91 255 0 91 255 0 91 255 0 91 255 0 91 255 0 91 255 0 91 255 0 91 255 0 57 255 0 57 255 0 57 255 0 57 255 0 57 255 0 57 255 0 57 255 0 57 255 0 57 255 0 57 255 0 72 255 0 72 255 0 72 255 0 72 255 0 72 255 0 72 255 0 72 255 0 72 255 0 72 255 0 72 255 0 98 255 0 98 255 0 98 255 0 98 255 0 98 255 0 98 255 0 98 255 0 98 255 0 98 255 0 98 255 0 112 255 0 112 255 0 112 255 0 112 255 0 112 255 0 112 255 0 112 255 0 112 255 0 112 255 0 112 255 0 140 255 0 140 255 0 140 255 0 140 255 0 140 255 0 140 255 0 140 255 0 140 255 0 140 255 0 140 255 0 125 255 0 125 255 0 125 255 0 125 255 0 125 255 0 125 255 0 125 255 0 125 255 0 125 255 0 125 255 0 134 255 0 134 255 0 134 255 0 134 255 0 134 255 0 134 255 0 134 255 0 134 255 0 134 255 0 134 255 0 140 255 0 140 255 0 140 255 0 140 255 0 140 255 0 140 255 0 140 255 0 140 255 0 140 255 0 140 255 0 133 255 0 133 255 0 133 255 0 133 255 0 133 255 0 133 255 0 133 255 0 133 255 0 133 255 0 133 255 0 144 255 0 144 255 0 144 255 0 144 255 0 144 255 0 144 255 0 144 255 0 144 255 0 144 255 0 144 255 0 152 255 0 152 255 0 152 255 0 152 255 0 152 255 0 152 255 0 152 255 0 152 255 0 152 255 0 152 255 0 155 255 0 155 255 0 155 255 0 155 255 0 155 255 0 155 255 0 155 255 0 155 255 0 155 255 0 155 255 0 146 255 0 146 255 0 146 255 0 146 255 0 146 255 0 146 255 0 146 255 0 146 255 0 146 255 0 146 255 0 160 255 0 160 255 0 160 255 0 160 255 0 160 255 0 160 255 0 160 255 0 160 255 0 160 255 0 160 255 0 172 255 0 172 255 0 172 255 0 172 255 0 172 255 0 172 255 0 172 255 0 172 255 0 172 255 0 172 255 0 0 0 0 0 0 0 0 0 0 0 0 0 0 0 0 0 0 0 0 0 0 0 0 0 0 0 0 0 0 0 79 255 0 79 255 0 79 255 0 79 255 0 79 255 0 79 255 0 79 255 0 79 255 0 79 255 0 79 255 0 79 255 0 79 255 0 79 255 0 79 255 0 79 255 0 79 255 0 79 255 0 79 255 0 79 255 0 79 255 0 79 255 0 79 255 0 79 255 0 79 255 0 79 255 0 79 255 0 79 255 0 79 255 0 79 255 0 79 255 
0 157 255 0 157 255 0 157 255 0 157 255 0 157 255 0 157 255 0 157 255 0 157 255 0 157 255 0 157 255 0 167 255 0 167 255 0 167 255 0 167 255 0 167 255 0 167 255 0 167 255 0 167 255 0 167 255 0 167 255 0 145 255 0 145 255 0 145 255 0 145 255 0 145 255 0 145 255 0 145 255 0 145 255 0 145 255 0 145 255 0 165 255 0 165 255 0 165 255 0 165 255 0 165 255 0 165 255 0 165 255 0 165 255 0 165 255 0 165 255 0 174 255 0 174 255 0 174 255 0 174 255 0 174 255 0 174 255 0 174 255 0 174 255 0 174 255 0 174 255 0 225 255 0 225 255 0 225 255 0 225 255 0 225 255 0 225 255 0 225 255 0 225 255 0 225 255 0 225 255 0 228 255 0 228 255 0 228 255 0 228 255 0 228 255 0 228 255 0 228 255 0 228 255 0 228 255 0 228 255 0 202 255 0 202 255 0 202 255 0 202 255 0 202 255 0 202 255 0 202 255 0 202 255 0 202 255 0 202 255 0 136 255 0 136 255 0 136 255 0 136 255 0 136 255 0 136 255 0 136 255 0 136 255 0 136 255 0 136 255 0 138 255 0 138 255 0 138 255 0 138 255 0 138 255 0 138 255 0 138 255 0 138 255 0 138 255 0 138 255 0 149 255 0 149 255 0 149 255 0 149 255 0 149 255 0 149 255 0 149 255 0 149 255 0 149 255 0 149 255 0 114 255 0 114 255 0 114 255 0 114 255 0 114 255 0 114 255 0 114 255 0 114 255 0 114 255 0 114 255 0 91 255 0 91 255 0 91 255 0 91 255 0 91 255 0 91 255 0 91 255 0 91 255 0 91 255 0 91 255 0 57 255 0 57 255 0 57 255 0 57 255 0 57 255 0 57 255 0 57 255 0 57 255 0 57 255 0 57 255 0 72 255 0 72 255 0 72 255 0 72 255 0 72 255 0 72 255 0 72 255 0 72 255 0 72 255 0 72 255 0 98 255 0 98 255 0 98 255 0 98 255 0 98 255 0 98 255 0 98 255 0 98 255 0 98 255 0 98 255 0 112 255 0 112 255 0 112 255 0 112 255 0 112 255 0 112 255 0 112 255 0 112 255 0 112 255 0 112 255 0 140 255 0 140 255 0 140 255 0 140 255 0 140 255 0 140 255 0 140 255 0 140 255 0 140 255 0 140 255 0 125 255 0 125 255 0 125 255 0 125 255 0 125 255 0 125 255 0 125 255 0 125 255 0 125 255 0 125 255 0 134 255 0 134 255 0 134 255 0 134 255 0 134 255 0 134 255 0 134 255 0 134 255 0 134 255 0 134 255 0 140 255 0 140 255 0 140 255 0 140 255 0 140 255 0 140 255 0 140 255 0 140 255 0 140 255 0 140 255 0 133 255 0 133 255 0 133 255 0 133 255 0 133 255 0 133 255 0 133 255 0 133 255 0 133 255 0 133 255 0 144 255 0 144 255 0 144 255 0 144 255 0 144 255 0 144 255 0 144 255 0 144 255 0 144 255 0 144 255 0 152 255 0 152 255 0 152 255 0 152 255 0 152 255 0 152 255 0 152 255 0 152 255 0 152 255 0 152 255 0 155 255 0 155 255 0 155 255 0 155 255 0 155 255 0 155 255 0 155 255 0 155 255 0 155 255 0 155 255 0 146 255 0 146 255 0 146 255 0 146 255 0 146 255 0 146 255 0 146 255 0 146 255 0 146 255 0 146 255 0 160 255 0 160 255 0 160 255 0 160 255 0 160 255 0 160 255 0 160 255 0 160 255 0 160 255 0 160 255 0 172 255 0 172 255 0 172 255 0 172 255 0 172 255 0 172 255 0 172 255 0 172 255 0 172 255 0 172 255 0 0 0 0 0 0 0 0 0 0 0 0 0 0 0 0 0 0 0 0 0 0 0 0 0 0 0 0 0 0 0 83 255 0 83 255 0 83 255 0 83 255 0 83 255 0 83 255 0 83 255 0 83 255 0 83 255 0 83 255 0 83 255 0 83 255 0 83 255 0 83 255 0 83 255 0 83 255 0 83 255 0 83 255 0 83 255 0 83 255 0 83 255 0 83 255 0 83 255 0 83 255 0 83 255 0 83 255 0 83 255 0 83 255 0 83 255 0 83 255 
0 157 255 0 157 255 0 157 255 0 157 255 0 157 255 0 157 255 0 157 255 0 157 255 0 157 255 0 157 255 0 167 255 0 167 255 0 167 255 0 167 255 0 167 255 0 167 255 0 167 255 0 167 255 0 167 255 0 167 255 0 145 255 0 145 255 0 145 255 0 145 255 0 145 255 0 145 255 0 145 255 0 145 255 0 145 255 0 145 255 0 165 255 0 165 255 0 165 255 0 165 255 0 165 255 0 165 255 0 165 255 0 165 255 0 165 255 0 165 255 0 174 255 0 174 255 0 174 255 0 174 255 0 174 255 0 174 255 0 174 255 0 174 255 0 174 255 0 174 255 0 225 255 0 225 255 0 225 255 0 225 255 0 225 255 0 225 255 0 225 255 0 225 255 0 225 255 0 225 255 0 228 255 0 228 255 0 228 255 0 228 255 0 228 255 0 228 255 0 228 255 0 228 255 0 228 255 0 228 255 0 202 255 0 202 255 0 202 255 0 202 255 0 202 255 0 202 255 0 202 255 0 202 255 0 202 255 0 202 255 0 136 255 0 136 255 0 136 255 0 136 255 0 136 255 0 136 255 0 136 255 0 136 255 0 136 255 0 136 255 0 138 255 0 138 255 0 138 255 0 138 255 0 138 255 0 138 255 0 138 255 0 138 255 0 138 255 0 138 255 0 149 255 0 149 255 0 149 255 0 149 255 0 149 255 0 149 255 0 149 255 0 149 255 0 149 255 0 149 255 0 114 255 0 114 255 0 114 255 0 114 255 0 114 255 0 114 255 0 114 255 0 114 255 0 114 255 0 114 255 0 91 255 0 91 255 0 91 255 0 91 255 0 91 255 0 91 255 0 91 255 0 91 255 0 91 255 0 91 255 0 57 255 0 57 255 0 57 255 0 57 255 0 57 255 0 57 255 0 57 255 0 57 255 0 57 255 0 57 255 0 72 255 0 72 255 0 72 255 0 72 255 0 72 255 0 72 255 0 72 255 0 72 255 0 72 255 0 72 255 0 98 255 0 98 255 0 98 255 0 98 255 0 98 255 0 98 255 0 98 255 0 98 255 0 98 255 0 98 255 0 112 255 0 112 255 0 112 255 0 112 255 0 112 255 0 112 255 0 112 255 0 112 255 0 112 255 0 112 255 0 140 255 0 140 255 0 140 255 0 140 255 0 140 255 0 140 255 0 140 255 0 140 255 0 140 255 0 140 255 0 125 255 0 125 255 0 125 255 0 125 255 0 125 255 0 125 255 0 125 255 0 125 255 0 125 255 0 125 255 0 134 255 0 134 255 0 134 255 0 134 255 0 134 255 0 134 255 0 134 255 0 134 255 0 134 255 0 134 255 0 140 255 0 140 255 0 140 255 0 140 255 0 140 255 0 140 255 0 140 255 0 140 255 0 140 255 0 140 255 0 133 255 0 133 255 0 133 255 0 133 255 0 133 255 0 133 255 0 133 255 0 133 255 0 133 255 0 133 255 0 144 255 0 144 255 0 144 255 0 144 255 0 144 255 0 144 255 0 144 255 0 144 255 0 144 255 0 144 255 0 152 255 0 152 255 0 152 255 0 152 255 0 152 255 0 152 255 0 152 255 0 152 255 0 152 255 0 152 255 0 155 255 0 155 255 0 155 255 0 155 255 0 155 255 0 155 255 0 155 255 0 155 255 0 155 255 0 155 255 0 146 255 0 146 255 0 146 255 0 146 255 0 146 255 0 146 255 0 146 255 0 146 255 0 146 255 0 146 255 0 160 255 0 160 255 0 160 255 0 160 255 0 160 255 0 160 255 0 160 255 0 160 255 0 160 255 0 160 255 0 172 255 0 172 255 0 172 255 0 172 255 0 172 255 0 172 255 0 172 255 0 172 255 0 172 255 0 172 255 0 0 0 0 0 0 0 0 0 0 0 0 0 0 0 0 0 0 0 0 0 0 0 0 0 0 0 0 0 0 0 86 255 0 86 255 0 86 255 0 86 255 0 86 255 0 86 255 0 86 255 0 86 255 0 86 255 0 86 255 0 86 255 0 86 255 0 86 255 0 86 255 0 86 255 0 86 255 0 86 255 0 86 255 0 86 255 0 86 255 0 86 255 0 86 255 0 86 255 0 86 255 0 86 255 0 86 255 0 86 255 0 86 255 0 86 255 0 86 255 
0 157 255 0 157 255 0 157 255 0 157 255 0 157 255 0 157 255 0 157 255 0 157 255 0 157 255 0 157 255 0 167 255 0 167 255 0 167 255 0 167 255 0 167 255 0 167 255 0 167 255 0 167 255 0 167 255 0 167 255 0 145 255 0 145 255 0 145 255 0 145 255 0 145 255 0 145 255 0 145 255 0 145 255 0 145 255 0 145 255 0 165 255 0 165 255 0 165 255 0 165 255 0 165 255 0 165 255 0 165 255 0 165 255 0 165 255 0 165 255 0 174 255 0 174 255 0 174 255 0 174 255 0 174 255 0 174 255 0 174 255 0 174 255 0 174 255 0 174 255 0 225 255 0 225 255 0 225 255 0 225 255 0 225 255 0 225 255 0 225 255 0 225 255 0 225 255 0 225 255 0 228 255 0 228 255 0 228 255 0 228 255 0 228 255 0 228 255 0 228 255 0 228 255 0 228 255 0 228 255 0 202 255 0 202 255 0 202 255 0 202 255 0 202 255 0 202 255 0 202 255 0 202 255 0 202 255 0 202 255 0 136 255 0 136 255 0 136 255 0 136 255 0 136 255 0 136 255 0 136 255 0 136 255 0 136 255 0 136 255 0 138 255 0 138 255 0 138 255 0 138 255 0 138 255 0 138 255 0 138 255 0 138 255 0 138 255 0 138 255 0 149 255 0 149 255 0 149 255 0 149 255 0 149 255 0 149 255 0 149 255 0 149 255 0 149 255 0 149 255 0 114 255 0 114 255 0 114 255 0 114 255 0 114 255 0 114 255 0 114 255 0 114 255 0 114 255 0 114 255 0 91 255 0 91 255 0 91 255 0 91 255 0 91 255 0 91 255 0 91 255 0 91 255 0 91 255 0 91 255 0 57 255 0 57 255 0 57 255 0 57 255 0 57 255 0 57 255 0 57 255 0 57 255 0 57 255 0 57 255 0 72 255 0 72 255 0 72 255 0 72 255 0 72 255 0 72 255 0 72 255 0 72 255 0 72 255 0 72 255 0 98 255 0 98 255 0 98 255 0 98 255 0 98 255 0 98 255 0 98 255 0 98 255 0 98 255 0 98 255 0 112 255 0 112 255 0 112 255 0 112 255 0 112 255 0 112 255 0 112 255 0 112 255 0 112 255 0 112 255 0 140 255 0 140 255 0 140 255 0 140 255 0 140 255 0 140 255 0 140 255 0 140 255 0 140 255 0 140 255 0 125 255 0 125 255 0 125 255 0 125 255 0 125 255 0 125 255 0 125 255 0 125 255 0 125 255 0 125 255 0 134 255 0 134 255 0 134 255 0 134 255 0 134 255 0 134 255 0 134 255 0 134 255 0 134 255 0 134 255 0 140 255 0 140 255 0 140 255 0 140 255 0 140 255 0 140 255 0 140 255 0 140 255 0 140 255 0 140 255 0 133 255 0 133 255 0 133 255 0 133 255 0 133 255 0 133 255 0 133 255 0 133 255 0 133 255 0 133 255 0 144 255 0 144 255 0 144 255 0 144 255 0 144 255 0 144 255 0 144 255 0 144 255 0 144 255 0 144 255 0 152 255 0 152 255 0 152 255 0 152 255 0 152 255 0 152 255 0 152 255 0 152 255 0 152 255 0 152 255 0 155 255 0 155 255 0 155 255 0 155 255 0 155 255 0 155 255 0 155 255 0 155 255 0 155 255 0 155 255 0 146 255 0 146 255 0 146 255 0 146 255 0 146 255 0 146 255 0 146 255 0 146 255 0 146 255 0 146 255 0 160 255 0 160 255 0 160 255 0 160 255 0 160 255 0 160 255 0 160 255 0 160 255 0 160 255 0 160 255 0 172 255 0 172 255 0 172 255 0 172 255 0 172 255 0 172 255 0 172 255 0 172 255 0 172 255 0 172 255 0 0 0 0 0 0 0 0 0 0 0 0 0 0 0 0 0 0 0 0 0 0 0 0 0 0 0 0 0 0 0 90 255 0 90 255 0 90 255 0 90 255 0 90 255 0 90 255 0 90 255 0 90 255 0 90 255 0 90 255 0 90 255 0 90 255 0 90 255 0 90 255 0 90 255 0 90 255 0 90 255 0 90 255 0 90 255 0 90 255 0 90 255 0 90 255 0 90 255 0 90 255 0 90 255 0 90 255 0 90 255 0 90 255 0 90 255 0 90 255 
0 157 255 0 157 255 0 157 255 0 157 255 0 157 255 0 157 255 0 157 255 0 157 255 0 157 255 0 157 255 0 167 255 0 167 255 0 167 255 0 167 255 0 167 255 0 167 255 0 167 255 0 167 255 0 167 255 0 167 255 0 145 255 0 145 255 0 145 255 0 145 255 0 145 255 0 145 255 0 145 255 0 145 255 0 145 255 0 145 255 0 165 255 0 165 255 0 165 255 0 165 255 0 165 255 0 165 255 0 165 255 0 165 255 0 165 255 0 165 255 0 174 255 0 174 255 0 174 255 0 174 255 0 174 255 0 174 255 0 174 255 0 174 255 0 174 255 0 174 255 0 225 255 0 225 255 0 225 255 0 225 255 0 225 255 0 225 255 0 225 255 0 225 255 0 225 255 0 225 255 0 228 255 0 228 255 0 228 255 0 228 255 0 228 255 0 228 255 0 228 255 0 228 255 0 228 255 0 228 255 0 202 255 0 202 255 0 202 255 0 202 255 0 202 255 0 202 255 0 202 255 0 202 255 0 202 255 0 202 255 0 136 255 0 136 255 0 136 255 0 136 255 0 136 255 0 136 255 0 136 255 0 136 255 0 136 255 0 136 255 0 138 255 0 138 255 0 138 255 0 138 255 0 138 255 0 138 255 0 138 255 0 138 255 0 138 255 0 138 255 0 149 255 0 149 255 0 149 255 0 149 255 0 149 255 0 149 255 0 149 255 0 149 255 0 149 255 0 149 255 0 114 255 0 114 255 0 114 255 0 114 255 0 114 255 0 114 255 0 114 255 0 114 255 0 114 255 0 114 255 0 91 255 0 91 255 0 91 255 0 91 255 0 91 255 0 91 255 0 91 255 0 91 255 0 91 255 0 91 255 0 57 255 0 57 255 0 57 255 0 57 255 0 57 255 0 57 255 0 57 255 0 57 255 0 57 255 0 57 255 0 72 255 0 72 255 0 72 255 0 72 255 0 72 255 0 72 255 0 72 255 0 72 255 0 72 255 0 72 255 0 98 255 0 98 255 0 98 255 0 98 255 0 98 255 0 98 255 0 98 255 0 98 255 0 98 255 0 98 255 0 112 255 0 112 255 0 112 255 0 112 255 0 112 255 0 112 255 0 112 255 0 112 255 0 112 255 0 112 255 0 140 255 0 140 255 0 140 255 0 140 255 0 140 255 0 140 255 0 140 255 0 140 255 0 140 255 0 140 255 0 125 255 0 125 255 0 125 255 0 125 255 0 125 255 0 125 255 0 125 255 0 125 255 0 125 255 0 125 255 0 134 255 0 134 255 0 134 255 0 134 255 0 134 255 0 134 255 0 134 255 0 134 255 0 134 255 0 134 255 0 140 255 0 140 255 0 140 255 0 140 255 0 140 255 0 140 255 0 140 255 0 140 255 0 140 255 0 140 255 0 133 255 0 133 255 0 133 255 0 133 255 0 133 255 0 133 255 0 133 255 0 133 255 0 133 255 0 133 255 0 144 255 0 144 255 0 144 255 0 144 255 0 144 255 0 144 255 0 144 255 0 144 255 0 144 255 0 144 255 0 152 255 0 152 255 0 152 255 0 152 255 0 152 255 0 152 255 0 152 255 0 152 255 0 152 255 0 152 255 0 155 255 0 155 255 0 155 255 0 155 255 0 155 255 0 155 255 0 155 255 0 155 255 0 155 255 0 155 255 0 146 255 0 146 255 0 146 255 0 146 255 0 146 255 0 146 255 0 146 255 0 146 255 0 146 255 0 146 255 0 160 255 0 160 255 0 160 255 0 160 255 0 160 255 0 160 255 0 160 255 0 160 255 0 160 255 0 160 255 0 172 255 0 172 255 0 172 255 0 172 255 0 172 255 0 172 255 0 172 255 0 172 255 0 172 255 0 172 255 0 0 0 0 0 0 0 0 0 0 0 0 0 0 0 0 0 0 0 0 0 0 0 0 0 0 0 0 0 0 0 94 255 0 94 255 0 94 255 0 94 255 0 94 255 0 94 255 0 94 255 0 94 255 0 94 255 0 94 255 0 94 255 0 94 255 0 94 255 0 94 255 0 94 255 0 94 255 0 94 255 0 94 255 0 94 255 0 94 255 0 94 255 0 94 255 0 94 255 0 94 255 0 94 255 0 94 255 0 94 255 0 94 255 0 94 255 0 94 255 
0 157 255 0 157 255 0 157 255 0 157 255 0 157 255 0 157 255 0 157 255 0 157 255 0 157 255 0 157 255 0 167 255 0 167 255 0 167 255 0 167 255 0 167 255 0 167 255 0 167 255 0 167 255 0 167 255 0 167 255 0 145 255 0 145 255 0 145 255 0 145 255 0 145 255 0 145 255 0 145 255 0 145 255 0 145 255 0 145 255 0 165 255 0 165 255 0 165 255 0 165 255 0 165 255 0 165 255 0 165 255 0 165 255 0 165 255 0 165 255 0 174 255 0 174 255 0 174 255 0 174 255 0 174 255 0 174 255 0 174 255 0 174 255 0 174 255 0 174 255 0 225 255 0 225 255 0 225 255 0 225 255 0 225 255 0 225 255 0 225 255 0 225 255 0 225 255 0 225 255 0 228 255 0 228 255 0 228 255 0 228 255 0 228 255 0 228 255 0 228 255 0 228 255 0 228 255 0 228 255 0 202 255 0 202 255 0 202 255 0 202 255 0 202 255 0 202 255 0 202 255 0 202 255 0 202 255 0 202 255 0 136 255 0 136 255 0 136 255 0 136 255 0 136 255 0 136 255 0 136 255 0 136 255 0 136 255 0 136 255 0 138 255 0 138 255 0 138 255 0 138 255 0 138 255 0 138 255 0 138 255 0 138 255 0 138 255 0 138 255 0 149 255 0 149 255 0 149 255 0 149 255 0 149 255 0 149 255 0 149 255 0 149 255 0 149 255 0 149 255 0 114 255 0 114 255 0 114 255 0 114 255 0 114 255 0 114 255 0 114 255 0 114 255 0 114 255 0 114 255 0 91 255 0 91 255 0 91 255 0 91 255 0 91 255 0 91 255 0 91 255 0 91 255 0 91 255 0 91 255 0 57 255 0 57 255 0 57 255 0 57 255 0 57 255 0 57 255 0 57 255 0 57 255 0 57 255 0 57 255 0 72 255 0 72 255 0 72 255 0 72 255 0 72 255 0 72 255 0 72 255 0 72 255 0 72 255 0 72 255 0 98 255 0 98 255 0 98 255 0 98 255 0 98 255 0 98 255 0 98 255 0 98 255 0 98 255 0 98 255 0 112 255 0 112 255 0 112 255 0 112 255 0 112 255 0 112 255 0 112 255 0 112 255 0 112 255 0 112 255 0 140 255 0 140 255 0 140 255 0 140 255 0 140 255 0 140 255 0 140 255 0 140 255 0 140 255 0 140 255 0 125 255 0 125 255 0 125 255 0 125 255 0 125 255 0 125 255 0 125 255 0 125 255 0 125 255 0 125 255 0 134 255 0 134 255 0 134 255 0 134 255 0 134 255 0 134 255 0 134 255 0 134 255 0 134 255 0 134 255 0 140 255 0 140 255 0 140 255 0 140 255 0 140 255 0 140 255 0 140 255 0 140 255 0 140 255 0 140 255 0 133 255 0 133 255 0 133 255 0 133 255 0 133 255 0 133 255 0 133 255 0 133 255 0 133 255 0 133 255 0 144 255 0 144 255 0 144 255 0 144 255 0 144 255 0 144 255 0 144 255 0 144 255 0 144 255 0 144 255 0 152 255 0 152 255 0 152 255 0 152 255 0 152 255 0 152 255 0 152 255 0 152 255 0 152 255 0 152 255 0 155 255 0 155 255 0 155 255 0 155 255 0 155 255 0 155 255 0 155 255 0 155 255 0 155 255 0 155 255 0 146 255 0 146 255 0 146 255 0 146 255 0 146 255 0 146 255 0 146 255 0 146 255 0 146 255 0 146 255 0 160 255 0 160 255 0 160 255 0 160 255 0 160 255 0 160 255 0 160 255 0 160 255 0 160 255 0 160 255 0 172 255 0 172 255 0 172 255 0 172 255 0 172 255 0 172 255 0 172 255 0 172 255 0 172 255 0 172 255 0 0 0 0 0 0 0 0 0 0 0 0 0 0 0 0 0 0 0 0 0 0 0 0 0 0 0 0 0 0 0 97 255 0 97 255 0 97 255 0 97 255 0 97 255 0 97 255 0 97 255 0 97 255 0 97 255 0 97 255 0 97 255 0 97 255 0 97 255 0 97 255 0 97 255 0 97 255 0 97 255 0 97 255 0 97 255 0 97 255 0 97 255 0 97 255 0 97 255 0 97 255 0 97 255 0 97 255 0 97 255 0 97 255 0 97 255 0 97 255 
0 157 255 0 157 255 0 157 255 0 157 255 0 157 255 0 157 255 0 157 255 0 157 255 0 157 255 0 157 255 0 167 255 0 167 255 0 167 255 0 167 255 0 167 255 0 167 255 0 167 255 0 167 255 0 167 255 0 167 255 0 145 255 0 145 255 0 145 255 0 145 255 0 145 255 0 145 255 0 145 255 0 145 255 0 145 255 0 145 255 0 165 255 0 165 255 0 165 255 0 165 255 0 165 255 0 165 255 0 165 255 0 165 255 0 165 255 0 165 255 0 174 255 0 174 255 0 174 255 0 174 255 0 174 255 0 174 255 0 174 255 0 174 255 0 174 255 0 174 255 0 225 255 0 225 255 0 225 255 0 225 255 0 225 255 0 225 255 0 225 255 0 225 255 0 225 255 0 225 255 0 228 255 0 228 255 0 228 255 0 228 255 0 228 255 0 228 255 0 228 255 0 228 255 0 228 255 0 228 255 0 202 255 0 202 255 0 202 255 0 202 255 0 202 255 0 202 255 0 202 255 0 202 255 0 202 255 0 202 255 0 136 255 0 136 255 0 136 255 0 136 255 0 136 255 0 136 255 0 136 255 0 136 255 0 136 255 0 136 255 0 138 255 0 138 255 0 138 255 0 138 255 0 138 255 0 138 255 0 138 255 0 138 255 0 138 255 0 138 255 0 149 255 0 149 255 0 149 255 0 149 255 0 149 255 0 149 255 0 149 255 0 149 255 0 149 255 0 149 255 0 114 255 0 114 255 0 114 255 0 114 255 0 114 255 0 114 255 0 114 255 0 114 255 0 114 255 0 114 255 0 91 255 0 91 255 0 91 255 0 91 255 0 91 255 0 91 255 0 91 255 0 91 255 0 91 255 0 91 255 0 57 255 0 57 255 0 57 255 0 57 255 0 57 255 0 57 255 0 57 255 0 57 255 0 57 255 0 57 255 0 72 255 0 72 255 0 72 255 0 72 255 0 72 255 0 72 255 0 72 255 0 72 255 0 72 255 0 72 255 0 98 255 0 98 255 0 98 255 0 98 255 0 98 255 0 98 255 0 98 255 0 98 255 0 98 255 0 98 255 0 112 255 0 112 255 0 112 255 0 112 255 0 112 255 0 112 255 0 112 255 0 112 255 0 112 255 0 112 255 0 140 255 0 140 255 0 140 255 0 140 255 0 140 255 0 140 255 0 140 255 0 140 255 0 140 255 0 140 255 0 125 255 0 125 255 0 125 255 0 125 255 0 125 255 0 125 255 0 125 255 0 125 255 0 125 255 0 125 255 0 134 255 0 134 255 0 134 255 0 134 255 0 134 255 0 134 255 0 134 255 0 134 255 0 134 255 0 134 255 0 140 255 0 140 255 0 140 255 0 140 255 0 140 255 0 140 255 0 140 255 0 140 255 0 140 255 0 140 255 0 133 255 0 133 255 0 133 255 0 133 255 0 133 255 0 133 255 0 133 255 0 133 255 0 133 255 0 133 255 0 144 255 0 144 255 0 144 255 0 144 255 0 144 255 0 144 255 0 144 255 0 144 255 0 144 255 0 144 255 0 152 255 0 152 255 0 152 255 0 152 255 0 152 255 0 152 255 0 152 255 0 152 255 0 152 255 0 152 255 0 155 255 0 155 255 0 155 255 0 155 255 0 155 255 0 155 255 0 155 255 0 155 255 0 155 255 0 155 255 0 146 255 0 146 255 0 146 255 0 146 255 0 146 255 0 146 255 0 146 255 0 146 255 0 146 255 0 146 255 0 160 255 0 160 255 0 160 255 0 160 255 0 160 255 0 160 255 0 160 255 0 160 255 0 160 255 0 160 255 0 172 255 0 172 255 0 172 255 0 172 255 0 172 255 0 172 255 0 172 255 0 172 255 0 172 255 0 172 255 0 0 0 0 0 0 0 0 0 0 0 0 0 0 0 0 0 0 0 0 0 0 0 0 0 0 0 0 0 0 0 101 255 0 101 255 0 101 255 0 101 255 0 101 255 0 101 255 0 101 255 0 101 255 0 101 255 0 101 255 0 101 255 0 101 255 0 101 255 0 101 255 0 101 255 0 101 255 0 101 255 0 101 255 0 101 255 0 101 255 0 101 255 0 101 255 0 101 255 0 101 255 0 101 255 0 101 255 0 101 255 0 101 255 0 101 255 0 101 255 
0 157 255 0 157 255 0 157 255 0 157 255 0 157 255 0 157 255 0 157 255 0 157 255 0 157 255 0 157 255 0 167 255 0 167 255 0 167 255 0 167 255 0 167 255 0 167 255 0 167 255 0 167 255 0 167 255 0 167 255 0 145 255 0 145 255 0 145 255 0 145 255 0 145 255 0 145 255 0 145 255 0 145 255 0 145 255 0 145 255 0 165 255 0 165 255 0 165 255 0 165 255 0 165 255 0 165 255 0 165 255 0 165 255 0 165 255 0 165 255 0 174 255 0 174 255 0 174 255 0 174 255 0 174 255 0 174 255 0 174 255 0 174 255 0 174 255 0 174 255 0 225 255 0 225 255 0 225 255 0 225 255 0 225 255 0 225 255 0 225 255 0 225 255 0 225 255 0 225 255 0 228 255 0 228 255 0 228 255 0 228 255 0 228 255 0 228 255 0 228 255 0 228 255 0 228 255 0 228 255 0 202 255 0 202 255 0 202 255 0 202 255 0 202 255 0 202 255 0 202 255 0 202 255 0 202 255 0 202 255 0 136 255 0 136 255 0 136 255 0 136 255 0 136 255 0 136 255 0 136 255 0 136 255 0 136 255 0 136 255 0 138 255 0 138 255 0 138 255 0 138 255 0 138 255 0 138 255 0 138 255 0 138 255 0 138 255 0 138 255 0 149 255 0 149 255 0 149 255 0 149 255 0 149 255 0 149 255 0 149 255 0 149 255 0 149 255 0 149 255 0 114 255 0 114 255 0 114 255 0 114 255 0 114 255 0 114 255 0 114 255 0 114 255 0 114 255 0 114 255 0 91 255 0 91 255 0 91 255 0 91 255 0 91 255 0 91 255 0 91 255 0 91 255 0 91 255 0 91 255 0 57 255 0 57 255 0 57 255 0 57 255 0 57 255 0 57 255 0 57 255 0 57 255 0 57 255 0 57 255 0 72 255 0 72 255 0 72 255 0 72 255 0 72 255 0 72 255 0 72 255 0 72 255 0 72 255 0 72 255 0 98 255 0 98 255 0 98 255 0 98 255 0 98 255 0 98 255 0 98 255 0 98 255 0 98 255 0 98 255 0 112 255 0 112 255 0 112 255 0 112 255 0 112 255 0 112 255 0 112 255 0 112 255 0 112 255 0 112 255 0 140 255 0 140 255 0 140 255 0 140 255 0 140 255 0 140 255 0 140 255 0 140 255 0 140 255 0 140 255 0 125 255 0 125 255 0 125 255 0 125 255 0 125 255 0 125 255 0 125 255 0 125 255 0 125 255 0 125 255 0 134 255 0 134 255 0 134 255 0 134 255 0 134 255 0 134 255 0 134 255 0 134 255 0 134 255 0 134 255 0 140 255 0 140 255 0 140 255 0 140 255 0 140 255 0 140 255 0 140 255 0 140 255 0 140 255 0 140 255 0 133 255 0 133 255 0 133 255 0 133 255 0 133 255 0 133 255 0 133 255 0 133 255 0 133 255 0 133 255 0 144 255 0 144 255 0 144 255 0 144 255 0 144 255 0 144 255 0 144 255 0 144 255 0 144 255 0 144 255 0 152 255 0 152 255 0 152 255 0 152 255 0 152 255 0 152 255 0 152 255 0 152 255 0 152 255 0 152 255 0 155 255 0 155 255 0 155 255 0 155 255 0 155 255 0 155 255 0 155 255 0 155 255 0 155 255 0 155 255 0 146 255 0 146 255 0 146 255 0 146 255 0 146 255 0 146 255 0 146 255 0 146 255 0 146 255 0 146 255 0 160 255 0 160 255 0 160 255 0 160 255 0 160 255 0 160 255 0 160 255 0 160 255 0 160 255 0 160 255 0 172 255 0 172 255 0 172 255 0 172 255 0 172 255 0 172 255 0 172 255 0 172 255 0 172 255 0 172 255 0 0 0 0 0 0 0 0 0 0 0 0 0 0 0 0 0 0 0 0 0 0 0 0 0 0 0 0 0 0 0 105 255 0 105 255 0 105 255 0 105 255 0 105 255 0 105 255 0 105 255 0 105 255 0 105 255 0 105 255 0 105 255 0 105 255 0 105 255 0 105 255 0 105 255 0 105 255 0 105 255 0 105 255 0 105 255 0 105 255 0 105 255 0 105 255 0 105 255 0 105 255 0 105 255 0 105 255 0 105 255 0 105 255 0 105 255 0 105 255 
0 157 255 0 157 255 0 157 255 0 157 255 0 157 255 0 157 255 0 157 255 0 157 255 0 157 255 0 157 255 0 167 255 0 167 255 0 167 255 0 167 255 0 167 255 0 167 255 0 167 255 0 167 255 0 167 255 0 167 255 0 145 255 0 145 255 0 145 255 0 145 255 0 145 255 0 145 255 0 145 255 0 145 255 0 145 255 0 145 255 0 165 255 0 165 255 0 165 255 0 165 255 0 165 255 0 165 255 0 165 255 0 165 255 0 165 255 0 165 255 0 174 255 0 174 255 0 174 255 0 174 255 0 174 255 0 174 255 0 174 255 0 174 255 0 174 255 0 174 255 0 225 255 0 225 255 0 225 255 0 225 255 0 225 255 0 225 255 0 225 255 0 225 255 0 225 255 0 225 255 0 228 255 0 228 255 0 228 255 0 228 255 0 228 255 0 228 255 0 228 255 0 228 255 0 228 255 0 228 255 0 202 255 0 202 255 0 202 255 0 202 255 0 202 255 0 202 255 0 202 255 0 202 255 0 202 255 0 202 255 0 136 255 0 136 255 0 136 255 0 136 255 0 136 255 0 136 255 0 136 255 0 136 255 0 136 255 0 136 255 0 138 255 0 138 255 0 138 255 0 138 255 0 138 255 0 138 255 0 138 255 0 138 255 0 138 255 0 138 255 0 149 255 0 149 255 0 149 255 0 149 255 0 149 255 0 149 255 0 149 255 0 149 255 0 149 255 0 149 255 0 114 255 0 114 255 0 114 255 0 114 255 0 114 255 0 114 255 0 114 255 0 114 255 0 114 255 0 114 255 0 91 255 0 91 255 0 91 255 0 91 255 0 91 255 0 91 255 0 91 255 0 91 255 0 91 255 0 91 255 0 57 255 0 57 255 0 57 255 0 57 255 0 57 255 0 57 255 0 57 255 0 57 255 0 57 255 0 57 255 0 72 255 0 72 255 0 72 255 0 72 255 0 72 255 0 72 255 0 72 255 0 72 255 0 72 255 0 72 255 0 98 255 0 98 255 0 98 255 0 98 255 0 98 255 0 98 255 0 98 255 0 98 255 0 98 255 0 98 255 0 112 255 0 112 255 0 112 255 0 112 255 0 112 255 0 112 255 0 112 255 0 112 255 0 112 255 0 112 255 0 140 255 0 140 255 0 140 255 0 140 255 0 140 255 0 140 255 0 140 255 0 140 255 0 140 255 0 140 255 0 125 255 0 125 255 0 125 255 0 125 255 0 125 255 0 125 255 0 125 255 0 125 255 0 125 255 0 125 255 0 134 255 0 134 255 0 134 255 0 134 255 0 134 255 0 134 255 0 134 255 0 134 255 0 134 255 0 134 255 0 140 255 0 140 255 0 140 255 0 140 255 0 140 255 0 140 255 0 140 255 0 140 255 0 140 255 0 140 255 0 133 255 0 133 255 0 133 255 0 133 255 0 133 255 0 133 255 0 133 255 0 133 255 0 133 255 0 133 255 0 144 255 0 144 255 0 144 255 0 144 255 0 144 255 0 144 255 0 144 255 0 144 255 0 144 255 0 144 255 0 152 255 0 152 255 0 152 255 0 152 255 0 152 255 0 152 255 0 152 255 0 152 255 0 152 255 0 152 255 0 155 255 0 155 255 0 155 255 0 155 255 0 155 255 0 155 255 0 155 255 0 155 255 0 155 255 0 155 255 0 146 255 0 146 255 0 146 255 0 146 255 0 146 255 0 146 255 0 146 255 0 146 255 0 146 255 0 146 255 0 160 255 0 160 255 0 160 255 0 160 255 0 160 255 0 160 255 0 160 255 0 160 255 0 160 255 0 160 255 0 172 255 0 172 255 0 172 255 0 172 255 0 172 255 0 172 255 0 172 255 0 172 255 0 172 255 0 172 255 0 0 0 0 0 0 0 0 0 0 0 0 0 0 0 0 0 0 0 0 0 0 0 0 0 0 0 0 0 0 0 108 255 0 108 255 0 108 255 0 108 255 0 108 255 0 108 255 0 108 255 0 108 255 0 108 255 0 108 255 0 108 255 0 108 255 0 108 255 0 108 255 0 108 255 0 108 255 0 108 255 0 108 255 0 108 255 0 108 255 0 108 255 0 108 255 0 108 255 0 108 255 0 108 255 0 108 255 0 108 255 0 108 255 0 108 255 0 108 255 
0 147 255 0 147 255 0 147 255 0 147 255 0 147 255 0 147 255 0 147 255 0 147 255 0 147 255 0 147 255 0 151 255 0 151 255 0 151 255 0 151 255 0 151 255 0 151 255 0 151 255 0 151 255 0 151 255 0 151 255 0 147 255 0 147 255 0 147 255 0 147 255 0 147 255 0 147 255 0 147 255 0 147 255 0 147 255 0 147 255 0 156 255 0 156 255 0 156 255 0 156 255 0 156 255 0 156 255 0 156 255 0 156 255 0 156 255 0 156 255 0 172 255 0 172 255 0 172 255 0 172 255 0 172 255 0 172 255 0 172 255 0 172 255 0 172 255 0 172 255 0 217 255 0 217 255 0 217 255 0 217 255 0 217 255 0 217 255 0 217 255 0 217 255 0 217 255 0 217 255 0 231 255 0 231 255 0 231 255 0 231 255 0 231 255 0 231 255 0 231 255 0 231 255 0 231 255 0 231 255 0 213 255 0 213 255 0 213 255 0 213 255 0 213 255 0 213 255 0 213 255 0 213 255 0 213 255 0 213 255 0 180 255 0 180 255 0 180 255 0 180 255 0 180 255 0 180 255 0 180 255 0 180 255 0 180 255 0 180 255 0 159 255 0 159 255 0 159 255 0 159 255 0 159 255 0 159 255 0 159 255 0 159 255 0 159 255 0 159 255 0 140 255 0 140 255 0 140 255 0 140 255 0 140 255 0 140 255 0 140 255 0 140 255 0 140 255 0 140 255 0 106 255 0 106 255 0 106 255 0 106 255 0 106 255 0 106 255 0 106 255 0 106 255 0 106 255 0 106 255 0 124 255 0 124 255 0 124 255 0 124 255 0 124 255 0 124 255 0 124 255 0 124 255 0 124 255 0 124 255 0 111 255 0 111 255 0 111 255 0 111 255 0 111 255 0 111 255 0 111 255 0 111 255 0 111 255 0 111 255 0 123 255 0 123 255 0 123 255 0 123 255 0 123 255 0 123 255 0 123 255 0 123 255 0 123 255 0 123 255 0 102 255 0 102 255 0 102 255 0 102 255 0 102 255 0 102 255 0 102 255 0 102 255 0 102 255 0 102 255 0 90 255 0 90 255 0 90 255 0 90 255 0 90 255 0 90 255 0 90 255 0 90 255 0 90 255 0 90 255 0 140 255 0 140 255 0 140 255 0 140 255 0 140 255 0 140 255 0 140 255 0 140 255 0 140 255 0 140 255 0 117 255 0 117 255 0 117 255 0 117 255 0 117 255 0 117 255 0 117 255 0 117 255 0 117 255 0 117 255 0 107 255 0 107 255 0 107 255 0 107 255 0 107 255 0 107 255 0 107 255 0 107 255 0 107 255 0 107 255 0 148 255 0 148 255 0 148 255 0 148 255 0 148 255 0 148 255 0 148 255 0 148 255 0 148 255 0 148 255 0 170 255 0 170 255 0 170 255 0 170 255 0 170 255 0 170 255 0 170 255 0 170 255 0 170 255 0 170 255 0 177 255 0 177 255 0 177 255 0 177 255 0 177 255 0 177 255 0 177 255 0 177 255 0 177 255 0 177 255 0 157 255 0 157 255 0 157 255 0 157 255 0 157 255 0 157 255 0 157 255 0 157 255 0 157 255 0 157 255 0 149 255 0 149 255 0 149 255 0 149 255 0 149 255 0 149 255 0 149 255 0 149 255 0 149 255 0 149 255 0 159 255 0 159 255 0 159 255 0 159 255 0 159 255 0 159 255 0 159 255 0 159 255 0 159 255 0 159 255 0 161 255 0 161 255 0 161 255 0 161 255 0 161 255 0 161 255 0 161 255 0 161 255 0 161 255 0 161 255 0 154 255 0 154 255 0 154 255 0 154 255 0 154 255 0 154 255 0 154 255 0 154 255 0 154 255 0 154 255 0 0 0 0 0 0 0 0 0 0 0 0 0 0 0 0 0 0 0 0 0 0 0 0 0 0 0 0 0 0 0 112 255 0 112 255 0 112 255 0 112 255 0 112 255 0 112 255 0 112 255 0 112 255 0 112 255 0 112 255 0 112 255 0 112 255 0 112 255 0 112 255 0 112 255 0 112 255 0 112 255 0 112 255 0 112 255 0 112 255 0 112 255 0 112 255 0 112 255 0 112 255 0 112 255 0 112 255 0 112 255 0 112 255 0 112 255 0 112 255 
0 147 255 0 147 255 0 147 255 0 147 255 0 147 255 0 147 255 0 147 255 0 147 255 0 147 255 0 147 255 0 151 255 0 151 255 0 151 255 0 151 255 0 151 255 0 151 255 0 151 255 0 151 255 0 151 255 0 151 255 0 147 255 0 147 255 0 147 255 0 147 255 0 147 255 0 147 255 0 147 255 0 147 255 0 147 255 0 147 255 0 156 255 0 156 255 0 156 255 0 156 255 0 156 255 0 156 255 0 156 255 0 156 255 0 156 255 0 156 255 0 172 255 0 172 255 0 172 255 0 172 255 0 172 255 0 172 255 0 172 255 0 172 255 0 172 255 0 172 255 0 217 255 0 217 255 0 217 255 0 217 255 0 217 255 0 217 255 0 217 255 0 217 255 0 217 255 0 217 255 0 231 255 0 231 255 0 231 255 0 231 255 0 231 255 0 231 255 0 231 255 0 231 255 0 231 255 0 231 255 0 213 255 0 213 255 0 213 255 0 213 255 0 213 255 0 213 255 0 213 255 0 213 255 0 213 255 0 213 255 0 180 255 0 180 255 0 180 255 0 180 255 0 180 255 0 180 255 0 180 255 0 180 255 0 180 255 0 180 255 0 159 255 0 159 255 0 159 255 0 159 255 0 159 255 0 159 255 0 159 255 0 159 255 0 159 255 0 159 255 0 140 255 0 140 255 0 140 255 0 140 255 0 140 255 0 140 255 0 140 255 0 140 255 0 140 255 0 140 255 0 106 255 0 106 255 0 106 255 0 106 255 0 106 255 0 106 255 0 106 255 0 106 255 0 106 255 0 106 255 0 124 255 0 124 255 0 124 255 0 124 255 0 124 255 0 124 255 0 124 255 0 124 255 0 124 255 0 124 255 0 111 255 0 111 255 0 111 255 0 111 255 0 111 255 0 111 255 0 111 255 0 111 255 0 111 255 0 111 255 0 123 255 0 123 255 0 123 255 0 123 255 0 123 255 0 123 255 0 123 255 0 123 255 0 123 255 0 123 255 0 102 255 0 102 255 0 102 255 0 102 255 0 102 255 0 102 255 0 102 255 0 102 255 0 102 255 0 102 255 0 90 255 0 90 255 0 90 255 0 90 255 0 90 255 0 90 255 0 90 255 0 90 255 0 90 255 0 90 255 0 140 255 0 140 255 0 140 255 0 140 255 0 140 255 0 140 255 0 140 255 0 140 255 0 140 255 0 140 255 0 117 255 0 117 255 0 117 255 0 117 255 0 117 255 0 117 255 0 117 255 0 117 255 0 117 255 0 117 255 0 107 255 0 107 255 0 107 255 0 107 255 0 107 255 0 107 255 0 107 255 0 107 255 0 107 255 0 107 255 0 148 255 0 148 255 0 148 255 0 148 255 0 148 255 0 148 255 0 148 255 0 148 255 0 148 255 0 148 255 0 170 255 0 170 255 0 170 255 0 170 255 0 170 255 0 170 255 0 170 255 0 170 255 0 170 255 0 170 255 0 177 255 0 177 255 0 177 255 0 177 255 0 177 255 0 177 255 0 177 255 0 177 255 0 177 255 0 177 255 0 157 255 0 157 255 0 157 255 0 157 255 0 157 255 0 157 255 0 157 255 0 157 255 0 157 255 0 157 255 0 149 255 0 149 255 0 149 255 0 149 255 0 149 255 0 149 255 0 149 255 0 149 255 0 149 255 0 149 255 0 159 255 0 159 255 0 159 255 0 159 255 0 159 255 0 159 255 0 159 255 0 159 255 0 159 255 0 159 255 0 161 255 0 161 255 0 161 255 0 161 255 0 161 255 0 161 255 0 161 255 0 161 255 0 161 255 0 161 255 0 154 255 0 154 255 0 154 255 0 154 255 0 154 255 0 154 255 0 154 255 0 154 255 0 154 255 0 154 255 0 0 0 0 0 0 0 0 0 0 0 0 0 0 0 0 0 0 0 0 0 0 0 0 0 0 0 0 0 0 0 116 255 0 116 255 0 116 255 0 116 255 0 116 255 0 116 255 0 116 255 0 116 255 0 116 255 0 116 255 0 116 255 0 116 255 0 116 255 0 116 255 0 116 255 0 116 255 0 116 255 0 116 255 0 116 255 0 116 255 0 116 255 0 116 255 0 116 255 0 116 255 0 116 255 0 116 255 0 116 255 0 116 255 0 116 255 0 116 255 
0 147 255 0 147 255 0 147 255 0 147 255 0 147 255 0 147 255 0 147 255 0 147 255 0 147 255 0 147 255 0 151 255 0 151 255 0 151 255 0 151 255 0 151 255 0 151 255 0 151 255 0 151 255 0 151 255 0 151 255 0 147 255 0 147 255 0 147 255 0 147 255 0 147 255 0 147 255 0 147 255 0 147 255 0 147 255 0 147 255 0 156 255 0 156 255 0 156 255 0 156 255 0 156 255 0 156 255 0 156 255 0 156 255 0 156 255 0 156 255 0 172 255 0 172 255 0 172 255 0 172 255 0 172 255 0 172 255 0 172 255 0 172 255 0 172 255 0 172 255 0 217 255 0 217 255 0 217 255 0 217 255 0 217 255 0 217 255 0 217 255 0 217 255 0 217 255 0 217 255 0 231 255 0 231 255 0 231 255 0 231 255 0 231 255 0 231 255 0 231 255 0 231 255 0 231 255 0 231 255 0 213 255 0 213 255 0 213 255 0 213 255 0 213 255 0 213 255 0 213 255 0 213 255 0 213 255 0 213 255 0 180 255 0 180 255 0 180 255 0 180 255 0 180 255 0 180 255 0 180 255 0 180 255 0 180 255 0 180 255 0 159 255 0 159 255 0 159 255 0 159 255 0 159 255 0 159 255 0 159 255 0 159 255 0 159 255 0 159 255 0 140 255 0 140 255 0 140 255 0 140 255 0 140 255 0 140 255 0 140 255 0 140 255 0 140 255 0 140 255 0 106 255 0 106 255 0 106 255 0 106 255 0 106 255 0 106 255 0 106 255 0 106 255 0 106 255 0 106 255 0 124 255 0 124 255 0 124 255 0 124 255 0 124 255 0 124 255 0 124 255 0 124 255 0 124 255 0 124 255 0 111 255 0 111 255 0 111 255 0 111 255 0 111 255 0 111 255 0 111 255 0 111 255 0 111 255 0 111 255 0 123 255 0 123 255 0 123 255 0 123 255 0 123 255 0 123 255 0 123 255 0 123 255 0 123 255 0 123 255 0 102 255 0 102 255 0 102 255 0 102 255 0 102 255 0 102 255 0 102 255 0 102 255 0 102 255 0 102 255 0 90 255 0 90 255 0 90 255 0 90 255 0 90 255 0 90 255 0 90 255 0 90 255 0 90 255 0 90 255 0 140 255 0 140 255 0 140 255 0 140 255 0 140 255 0 140 255 0 140 255 0 140 255 0 140 255 0 140 255 0 117 255 0 117 255 0 117 255 0 117 255 0 117 255 0 117 255 0 117 255 0 117 255 0 117 255 0 117 255 0 107 255 0 107 255 0 107 255 0 107 255 0 107 255 0 107 255 0 107 255 0 107 255 0 107 255 0 107 255 0 148 255 0 148 255 0 148 255 0 148 255 0 148 255 0 148 255 0 148 255 0 148 255 0 148 255 0 148 255 0 170 255 0 170 255 0 170 255 0 170 255 0 170 255 0 170 255 0 170 255 0 170 255 0 170 255 0 170 255 0 177 255 0 177 255 0 177 255 0 177 255 0 177 255 0 177 255 0 177 255 0 177 255 0 177 255 0 177 255 0 157 255 0 157 255 0 157 255 0 157 255 0 157 255 0 157 255 0 157 255 0 157 255 0 157 255 0 157 255 0 149 255 0 149 255 0 149 255 0 149 255 0 149 255 0 149 255 0 149 255 0 149 255 0 149 255 0 149 255 0 159 255 0 159 255 0 159 255 0 159 255 0 159 255 0 159 255 0 159 255 0 159 255 0 159 255 0 159 255 0 161 255 0 161 255 0 161 255 0 161 255 0 161 255 0 161 255 0 161 255 0 161 255 0 161 255 0 161 255 0 154 255 0 154 255 0 154 255 0 154 255 0 154 255 0 154 255 0 154 255 0 154 255 0 154 255 0 154 255 0 0 0 0 0 0 0 0 0 0 0 0 0 0 0 0 0 0 0 0 0 0 0 0 0 0 0 0 0 0 0 119 255 0 119 255 0 119 255 0 119 255 0 119 255 0 119 255 0 119 255 0 119 255 0 119 255 0 119 255 0 119 255 0 119 255 0 119 255 0 119 255 0 119 255 0 119 255 0 119 255 0 119 255 0 119 255 0 119 255 0 119 255 0 119 255 0 119 255 0 119 255 0 119 255 0 119 255 0 119 255 0 119 255 0 119 255 0 119 255 
0 147 255 0 147 255 0 147 255 0 147 255 0 147 255 0 147 255 0 147 255 0 147 255 0 147 255 0 147 255 0 151 255 0 151 255 0 151 255 0 151 255 0 151 255 0 151 255 0 151 255 0 151 255 0 151 255 0 151 255 0 147 255 0 147 255 0 147 255 0 147 255 0 147 255 0 147 255 0 147 255 0 147 255 0 147 255 0 147 255 0 156 255 0 156 255 0 156 255 0 156 255 0 156 255 0 156 255 0 156 255 0 156 255 0 156 255 0 156 255 0 172 255 0 172 255 0 172 255 0 172 255 0 172 255 0 172 255 0 172 255 0 172 255 0 172 255 0 172 255 0 217 255 0 217 255 0 217 255 0 217 255 0 217 255 0 217 255 0 217 255 0 217 255 0 217 255 0 217 255 0 231 255 0 231 255 0 231 255 0 231 255 0 231 255 0 231 255 0 231 255 0 231 255 0 231 255 0 231 255 0 213 255 0 213 255 0 213 255 0 213 255 0 213 255 0 213 255 0 213 255 0 213 255 0 213 255 0 213 255 0 180 255 0 180 255 0 180 255 0 180 255 0 180 255 0 180 255 0 180 255 0 180 255 0 180 255 0 180 255 0 159 255 0 159 255 0 159 255 0 159 255 0 159 255 0 159 255 0 159 255 0 159 255 0 159 255 0 159 255 0 140 255 0 140 255 0 140 255 0 140 255 0 140 255 0 140 255 0 140 255 0 140 255 0 140 255 0 140 255 0 106 255 0 106 255 0 106 255 0 106 255 0 106 255 0 106 255 0 106 255 0 106 255 0 106 255 0 106 255 0 124 255 0 124 255 0 124 255 0 124 255 0 124 255 0 124 255 0 124 255 0 124 255 0 124 255 0 124 255 0 111 255 0 111 255 0 111 255 0 111 255 0 111 255 0 111 255 0 111 255 0 111 255 0 111 255 0 111 255 0 123 255 0 123 255 0 123 255 0 123 255 0 123 255 0 123 255 0 123 255 0 123 255 0 123 255 0 123 255 0 102 255 0 102 255 0 102 255 0 102 255 0 102 255 0 102 255 0 102 255 0 102 255 0 102 255 0 102 255 0 90 255 0 90 255 0 90 255 0 90 255 0 90 255 0 90 255 0 90 255 0 90 255 0 90 255 0 90 255 0 140 255 0 140 255 0 140 255 0 140 255 0 140 255 0 140 255 0 140 255 0 140 255 0 140 255 0 140 255 0 117 255 0 117 255 0 117 255 0 117 255 0 117 255 0 117 255 0 117 255 0 117 255 0 117 255 0 117 255 0 107 255 0 107 255 0 107 255 0 107 255 0 107 255 0 107 255 0 107 255 0 107 255 0 107 255 0 107 255 0 148 255 0 148 255 0 148 255 0 148 255 0 148 255 0 148 255 0 148 255 0 148 255 0 148 255 0 148 255 0 170 255 0 170 255 0 170 255 0 170 255 0 170 255 0 170 255 0 170 255 0 170 255 0 170 255 0 170 255 0 177 255 0 177 255 0 177 255 0 177 255 0 177 255 0 177 255 0 177 255 0 177 255 0 177 255 0 177 255 0 157 255 0 157 255 0 157 255 0 157 255 0 157 255 0 157 255 0 157 255 0 157 255 0 157 255 0 157 255 0 149 255 0 149 255 0 149 255 0 149 255 0 149 255 0 149 255 0 149 255 0 149 255 0 149 255 0 149 255 0 159 255 0 159 255 0 159 255 0 159 255 0 159 255 0 159 255 0 159 255 0 159 255 0 159 255 0 159 255 0 161 255 0 161 255 0 161 255 0 161 255 0 161 255 0 161 255 0 161 255 0 161 255 0 161 255 0 161 255 0 154 255 0 154 255 0 154 255 0 154 255 0 154 255 0 154 255 0 154 255 0 154 255 0 154 255 0 154 255 0 0 0 0 0 0 0 0 0 0 0 0 0 0 0 0 0 0 0 0 0 0 0 0 0 0 0 0 0 0 0 123 255 0 123 255 0 123 255 0 123 255 0 123 255 0 123 255 0 123 255 0 123 255 0 123 255 0 123 255 0 123 255 0 123 255 0 123 255 0 123 255 0 123 255 0 123 255 0 123 255 0 123 255 0 123 255 0 123 255 0 123 255 0 123 255 0 123 255 0 123 255 0 123 255 0 123 255 0 123 255 0 123 255 0 123 255 0 123 255 
0 147 255 0 147 255 0 147 255 0 147 255 0 147 255 0 147 255 0 147 255 0 147 255 0 147 255 0 147 255 0 151 255 0 151 255 0 151 255 0 151 255 0 151 255 0 151 255 0 151 255 0 151 255 0 151 255 0 151 255 0 147 255 0 147 255 0 147 255 0 147 255 0 147 255 0 147 255 0 147 255 0 147 255 0 147 255 0 147 255 0 156 255 0 156 255 0 156 255 0 156 255 0 156 255 0 156 255 0 156 255 0 156 255 0 156 255 0 156 255 0 172 255 0 172 255 0 172 255 0 172 255 0 172 255 0 172 255 0 172 255 0 172 255 0 172 255 0 172 255 0 217 255 0 217 255 0 217 255 0 217 255 0 217 255 0 217 255 0 217 255 0 217 255 0 217 255 0 217 255 0 231 255 0 231 255 0 231 255 0 231 255 0 231 255 0 231 255 0 231 255 0 231 255 0 231 255 0 231 255 0 213 255 0 213 255 0 213 255 0 213 255 0 213 255 0 213 255 0 213 255 0 213 255 0 213 255 0 213 255 0 180 255 0 180 255 0 180 255 0 180 255 0 180 255 0 180 255 0 180 255 0 180 255 0 180 255 0 180 255 0 159 255 0 159 255 0 159 255 0 159 255 0 159 255 0 159 255 0 159 255 0 159 255 0 159 255 0 159 255 0 140 255 0 140 255 0 140 255 0 140 255 0 140 255 0 140 255 0 140 255 0 140 255 0 140 255 0 140 255 0 106 255 0 106 255 0 106 255 0 106 255 0 106 255 0 106 255 0 106 255 0 106 255 0 106 255 0 106 255 0 124 255 0 124 255 0 124 255 0 124 255 0 124 255 0 124 255 0 124 255 0 124 255 0 124 255 0 124 255 0 111 255 0 111 255 0 111 255 0 111 255 0 111 255 0 111 255 0 111 255 0 111 255 0 111 255 0 111 255 0 123 255 0 123 255 0 123 255 0 123 255 0 123 255 0 123 255 0 123 255 0 123 255 0 123 255 0 123 255 0 102 255 0 102 255 0 102 255 0 102 255 0 102 255 0 102 255 0 102 255 0 102 255 0 102 255 0 102 255 0 90 255 0 90 255 0 90 255 0 90 255 0 90 255 0 90 255 0 90 255 0 90 255 0 90 255 0 90 255 0 140 255 0 140 255 0 140 255 0 140 255 0 140 255 0 140 255 0 140 255 0 140 255 0 140 255 0 140 255 0 117 255 0 117 255 0 117 255 0 117 255 0 117 255 0 117 255 0 117 255 0 117 255 0 117 255 0 117 255 0 107 255 0 107 255 0 107 255 0 107 255 0 107 255 0 107 255 0 107 255 0 107 255 0 107 255 0 107 255 0 148 255 0 148 255 0 148 255 0 148 255 0 148 255 0 148 255 0 148 255 0 148 255 0 148 255 0 148 255 0 170 255 0 170 255 0 170 255 0 170 255 0 170 255 0 170 255 0 170 255 0 170 255 0 170 255 0 170 255 0 177 255 0 177 255 0 177 255 0 177 255 0 177 255 0 177 255 0 177 255 0 177 255 0 177 255 0 177 255 0 157 255 0 157 255 0 157 255 0 157 255 0 157 255 0 157 255 0 157 255 0 157 255 0 157 255 0 157 255 0 149 255 0 149 255 0 149 255 0 149 255 0 149 255 0 149 255 0 149 255 0 149 255 0 149 255 0 149 255 0 159 255 0 159 255 0 159 255 0 159 255 0 159 255 0 159 255 0 159 255 0 159 255 0 159 255 0 159 255 0 161 255 0 161 255 0 161 255 0 161 255 0 161 255 0 161 255 0 161 255 0 161 255 0 161 255 0 161 255 0 154 255 0 154 255 0 154 255 0 154 255 0 154 255 0 154 255 0 154 255 0 154 255 0 154 255 0 154 255 0 0 0 0 0 0 0 0 0 0 0 0 0 0 0 0 0 0 0 0 0 0 0 0 0 0 0 0 0 0 0 127 255 0 127 255 0 127 255 0 127 255 0 127 255 0 127 255 0 127 255 0 127 255 0 127 255 0 127 255 0 127 255 0 127 255 0 127 255 0 127 255 0 127 255 0 127 255 0 127 255 0 127 255 0 127 255 0 127 255 0 127 255 0 127 255 0 127 255 0 127 255 0 127 255 0 127 255 0 127 255 0 127 255 0 127 255 0 127 255 
0 147 255 0 147 255 0 147 255 0 147 255 0 147 255 0 147 255 0 147 255 0 147 255 0 147 255 0 147 255 0 151 255 0 151 255 0 151 255 0 151 255 0 151 255 0 151 255 0 151 255 0 151 255 0 151 255 0 151 255 0 147 255 0 147 255 0 147 255 0 147 255 0 147 255 0 147 255 0 147 255 0 147 255 0 147 255 0 147 255 0 156 255 0 156 255 0 156 255 0 156 255 0 156 255 0 156 255 0 156 255 0 156 255 0 156 255 0 156 255 0 172 255 0 172 255 0 172 255 0 172 255 0 172 255 0 172 255 0 172 255 0 172 255 0 172 255 0 172 255 0 217 255 0 217 255 0 217 255 0 217 255 0 217 255 0 217 255 0 217 255 0 217 255 0 217 255 0 217 255 0 231 255 0 231 255 0 231 255 0 231 255 0 231 255 0 231 255 0 231 255 0 231 255 0 231 255 0 231 255 0 213 255 0 213 255 0 213 255 0 213 255 0 213 255 0 213 255 0 213 255 0 213 255 0 213 255 0 213 255 0 180 255 0 180 255 0 180 255 0 180 255 0 180 255 0 180 255 0 180 255 0 180 255 0 180 255 0 180 255 0 159 255 0 159 255 0 159 255 0 159 255 0 159 255 0 159 255 0 159 255 0 159 255 0 159 255 0 159 255 0 140 255 0 140 255 0 140 255 0 140 255 0 140 255 0 140 255 0 140 255 0 140 255 0 140 255 0 140 255 0 106 255 0 106 255 0 106 255 0 106 255 0 106 255 0 106 255 0 106 255 0 106 255 0 106 255 0 106 255 0 124 255 0 124 255 0 124 255 0 124 255 0 124 255 0 124 255 0 124 255 0 124 255 0 124 255 0 124 255 0 111 255 0 111 255 0 111 255 0 111 255 0 111 255 0 111 255 0 111 255 0 111 255 0 111 255 0 111 255 0 123 255 0 123 255 0 123 255 0 123 255 0 123 255 0 123 255 0 123 255 0 123 255 0 123 255 0 123 255 0 102 255 0 102 255 0 102 255 0 102 255 0 102 255 0 102 255 0 102 255 0 102 255 0 102 255 0 102 255 0 90 255 0 90 255 0 90 255 0 90 255 0 90 255 0 90 255 0 90 255 0 90 255 0 90 255 0 90 255 0 140 255 0 140 255 0 140 255 0 140 255 0 140 255 0 140 255 0 140 255 0 140 255 0 140 255 0 140 255 0 117 255 0 117 255 0 117 255 0 117 255 0 117 255 0 117 255 0 117 255 0 117 255 0 117 255 0 117 255 0 107 255 0 107 255 0 107 255 0 107 255 0 107 255 0 107 255 0 107 255 0 107 255 0 107 255 0 107 255 0 148 255 0 148 255 0 148 255 0 148 255 0 148 255 0 148 255 0 148 255 0 148 255 0 148 255 0 148 255 0 170 255 0 170 255 0 170 255 0 170 255 0 170 255 0 170 255 0 170 255 0 170 255 0 170 255 0 170 255 0 177 255 0 177 255 0 177 255 0 177 255 0 177 255 0 177 255 0 177 255 0 177 255 0 177 255 0 177 255 0 157 255 0 157 255 0 157 255 0 157 255 0 157 255 0 157 255 0 157 255 0 157 255 0 157 255 0 157 255 0 149 255 0 149 255 0 149 255 0 149 255 0 149 255 0 149 255 0 149 255 0 149 255 0 149 255 0 149 255 0 159 255 0 159 255 0 159 255 0 159 255 0 159 255 0 159 255 0 159 255 0 159 255 0 159 255 0 159 255 0 161 255 0 161 255 0 161 255 0 161 255 0 161 255 0 161 255 0 161 255 0 161 255 0 161 255 0 161 255 0 154 255 0 154 255 0 154 255 0 154 255 0 154 255 0 154 255 0 154 255 0 154 255 0 154 255 0 154 255 0 0 0 0 0 0 0 0 0 0 0 0 0 0 0 0 0 0 0 0 0 0 0 0 0 0 0 0 0 0 0 130 255 0 130 255 0 130 255 0 130 255 0 130 255 0 130 255 0 130 255 0 130 255 0 130 255 0 130 255 0 130 255 0 130 255 0 130 255 0 130 255 0 130 255 0 130 255 0 130 255 0 130 255 0 130 255 0 130 255 0 130 255 0 130 255 0 130 255 0 130 255 0 130 255 0 130 255 0 130 255 0 130 255 0 130 255 0 130 255 
0 147 255 0 147 255 0 147 255 0 147 255 0 147 255 0 147 255 0 147 255 0 147 255 0 147 255 0 147 255 0 151 255 0 151 255 0 151 255 0 151 255 0 151 255 0 151 255 0 151 255 0 151 255 0 151 255 0 151 255 0 147 255 0 147 255 0 147 255 0 147 255 0 147 255 0 147 255 0 147 255 0 147 255 0 147 255 0 147 255 0 156 255 0 156 255 0 156 255 0 156 255 0 156 255 0 156 255 0 156 255 0 156 255 0 156 255 0 156 255 0 172 255 0 172 255 0 172 255 0 172 255 0 172 255 0 172 255 0 172 255 0 172 255 0 172 255 0 172 255 0 217 255 0 217 255 0 217 255 0 217 255 0 217 255 0 217 255 0 217 255 0 217 255 0 217 255 0 217 255 0 231 255 0 231 255 0 231 255 0 231 255 0 231 255 0 231 255 0 231 255 0 231 255 0 231 255 0 231 255 0 213 255 0 213 255 0 213 255 0 213 255 0 213 255 0 213 255 0 213 255 0 213 255 0 213 255 0 213 255 0 180 255 0 180 255 0 180 255 0 180 255 0 180 255 0 180 255 0 180 255 0 180 255 0 180 255 0 180 255 0 159 255 0 159 255 0 159 255 0 159 255 0 159 255 0 159 255 0 159 255 0 159 255 0 159 255 0 159 255 0 140 255 0 140 255 0 140 255 0 140 255 0 140 255 0 140 255 0 140 255 0 140 255 0 140 255 0 140 255 0 106 255 0 106 255 0 106 255 0 106 255 0 106 255 0 106 255 0 106 255 0 106 255 0 106 255 0 106 255 0 124 255 0 124 255 0 124 255 0 124 255 0 124 255 0 124 255 0 124 255 0 124 255 0 124 255 0 124 255 0 111 255 0 111 255 0 111 255 0 111 255 0 111 255 0 111 255 0 111 255 0 111 255 0 111 255 0 111 255 0 123 255 0 123 255 0 123 255 0 123 255 0 123 255 0 123 255 0 123 255 0 123 255 0 123 255 0 123 255 0 102 255 0 102 255 0 102 255 0 102 255 0 102 255 0 102 255 0 102 255 0 102 255 0 102 255 0 102 255 0 90 255 0 90 255 0 90 255 0 90 255 0 90 255 0 90 255 0 90 255 0 90 255 0 90 255 0 90 255 0 140 255 0 140 255 0 140 255 0 140 255 0 140 255 0 140 255 0 140 255 0 140 255 0 140 255 0 140 255 0 117 255 0 117 255 0 117 255 0 117 255 0 117 255 0 117 255 0 117 255 0 117 255 0 117 255 0 117 255 0 107 255 0 107 255 0 107 255 0 107 255 0 107 255 0 107 255 0 107 255 0 107 255 0 107 255 0 107 255 0 148 255 0 148 255 0 148 255 0 148 255 0 148 255 0 148 255 0 148 255 0 148 255 0 148 255 0 148 255 0 170 255 0 170 255 0 170 255 0 170 255 0 170 255 0 170 255 0 170 255 0 170 255 0 170 255 0 170 255 0 177 255 0 177 255 0 177 255 0 177 255 0 177 255 0 177 255 0 177 255 0 177 255 0 177 255 0 177 255 0 157 255 0 157 255 0 157 255 0 157 255 0 157 255 0 157 255 0 157 255 0 157 255 0 157 255 0 157 255 0 149 255 0 149 255 0 149 255 0 149 255 0 149 255 0 149 255 0 149 255 0 149 255 0 149 255 0 149 255 0 159 255 0 159 255 0 159 255 0 159 255 0 159 255 0 159 255 0 159 255 0 159 255 0 159 255 0 159 255 0 161 255 0 161 255 0 161 255 0 161 255 0 161 255 0 161 255 0 161 255 0 161 255 0 161 255 0 161 255 0 154 255 0 154 255 0 154 255 0 154 255 0 154 255 0 154 255 0 154 255 0 154 255 0 154 255 0 154 255 0 0 0 0 0 0 0 0 0 0 0 0 0 0 0 0 0 0 0 0 0 0 0 0 0 0 0 0 0 0 0 134 255 0 134 255 0 134 255 0 134 255 0 134 255 0 134 255 0 134 255 0 134 255 0 134 255 0 134 255 0 134 255 0 134 255 0 134 255 0 134 255 0 134 255 0 134 255 0 134 255 0 134 255 0 134 255 0 134 255 0 134 255 0 134 255 0 134 255 0 134 255 0 134 255 0 134 255 0 134 255 0 134 255 0 134 255 0 134 255 
0 147 255 0 147 255 0 147 255 0 147 255 0 147 255 0 147 255 0 147 255 0 147 255 0 147 255 0 147 255 0 151 255 0 151 255 0 151 255 0 151 255 0 151 255 0 151 255 0 151 255 0 151 255 0 151 255 0 151 255 0 147 255 0 147 255 0 147 255 0 147 255 0 147 255 0 147 255 0 147 255 0 147 255 0 147 255 0 147 255 0 156 255 0 156 255 0 156 255 0 156 255 0 156 255 0 156 255 0 156 255 0 156 255 0 156 255 0 156 255 0 172 255 0 172 255 0 172 255 0 172 255 0 172 255 0 172 255 0 172 255 0 172 255 0 172 255 0 172 255 0 217 255 0 217 255 0 217 255 0 217 255 0 217 255 0 217 255 0 217 255 0 217 255 0 217 255 0 217 255 0 231 255 0 231 255 0 231 255 0 231 255 0 231 255 0 231 255 0 231 255 0 231 255 0 231 255 0 231 255 0 213 255 0 213 255 0 213 255 0 213 255 0 213 255 0 213 255 0 213 255 0 213 255 0 213 255 0 213 255 0 180 255 0 180 255 0 180 255 0 180 255 0 180 255 0 180 255 0 180 255 0 180 255 0 180 255 0 180 255 0 159 255 0 159 255 0 159 255 0 159 255 0 159 255 0 159 255 0 159 255 0 159 255 0 159 255 0 159 255 0 140 255 0 140 255 0 140 255 0 140 255 0 140 255 0 140 255 0 140 255 0 140 255 0 140 255 0 140 255 0 106 255 0 106 255 0 106 255 0 106 255 0 106 255 0 106 255 0 106 255 0 106 255 0 106 255 0 106 255 0 124 255 0 124 255 0 124 255 0 124 255 0 124 255 0 124 255 0 124 255 0 124 255 0 124 255 0 124 255 0 111 255 0 111 255 0 111 255 0 111 255 0 111 255 0 111 255 0 111 255 0 111 255 0 111 255 0 111 255 0 123 255 0 123 255 0 123 255 0 123 255 0 123 255 0 123 255 0 123 255 0 123 255 0 123 255 0 123 255 0 102 255 0 102 255 0 102 255 0 102 255 0 102 255 0 102 255 0 102 255 0 102 255 0 102 255 0 102 255 0 90 255 0 90 255 0 90 255 0 90 255 0 90 255 0 90 255 0 90 255 0 90 255 0 90 255 0 90 255 0 140 255 0 140 255 0 140 255 0 140 255 0 140 255 0 140 255 0 140 255 0 140 255 0 140 255 0 140 255 0 117 255 0 117 255 0 117 255 0 117 255 0 117 255 0 117 255 0 117 255 0 117 255 0 117 255 0 117 255 0 107 255 0 107 255 0 107 255 0 107 255 0 107 255 0 107 255 0 107 255 0 107 255 0 107 255 0 107 255 0 148 255 0 148 255 0 148 255 0 148 255 0 148 255 0 148 255 0 148 255 0 148 255 0 148 255 0 148 255 0 170 255 0 170 255 0 170 255 0 170 255 0 170 255 0 170 255 0 170 255 0 170 255 0 170 255 0 170 255 0 177 255 0 177 255 0 177 255 0 177 255 0 177 255 0 177 255 0 177 255 0 177 255 0 177 255 0 177 255 0 157 255 0 157 255 0 157 255 0 157 255 0 157 255 0 157 255 0 157 255 0 157 255 0 157 255 0 157 255 0 149 255 0 149 255 0 149 255 0 149 255 0 149 255 0 149 255 0 149 255 0 149 255 0 149 255 0 149 255 0 159 255 0 159 255 0 159 255 0 159 255 0 159 255 0 159 255 0 159 255 0 159 255 0 159 255 0 159 255 0 161 255 0 161 255 0 161 255 0 161 255 0 161 255 0 161 255 0 161 255 0 161 255 0 161 255 0 161 255 0 154 255 0 154 255 0 154 255 0 154 255 0 154 255 0 154 255 0 154 255 0 154 255 0 154 255 0 154 255 0 0 0 0 0 0 0 0 0 0 0 0 0 0 0 0 0 0 0 0 0 0 0 0 0 0 0 0 0 0 0 138 255 0 138 255 0 138 255 0 138 255 0 138 255 0 138 255 0 138 255 0 138 255 0 138 255 0 138 255 0 138 255 0 138 255 0 138 255 0 138 255 0 138 255 0 138 255 0 138 255 0 138 255 0 138 255 0 138 255 0 138 255 0 138 255 0 138 255 0 138 255 0 138 255 0 138 255 0 138 255 0 138 255 0 138 255 0 138 255 
0 147 255 0 147 255 0 147 255 0 147 255 0 147 255 0 147 255 0 147 255 0 147 255 0 147 255 0 147 255 0 151 255 0 151 255 0 151 255 0 151 255 0 151 255 0 151 255 0 151 255 0 151 255 0 151 255 0 151 255 0 147 255 0 147 255 0 147 255 0 147 255 0 147 255 0 147 255 0 147 255 0 147 255 0 147 255 0 147 255 0 156 255 0 156 255 0 156 255 0 156 255 0 156 255 0 156 255 0 156 255 0 156 255 0 156 255 0 156 255 0 172 255 0 172 255 0 172 255 0 172 255 0 172 255 0 172 255 0 172 255 0 172 255 0 172 255 0 172 255 0 217 255 0 217 255 0 217 255 0 217 255 0 217 255 0 217 255 0 217 255 0 217 255 0 217 255 0 217 255 0 231 255 0 231 255 0 231 255 0 231 255 0 231 255 0 231 255 0 231 255 0 231 255 0 231 255 0 231 255 0 213 255 0 213 255 0 213 255 0 213 255 0 213 255 0 213 255 0 213 255 0 213 255 0 213 255 0 213 255 0 180 255 0 180 255 0 180 255 0 180 255 0 180 255 0 180 255 0 180 255 0 180 255 0 180 255 0 180 255 0 159 255 0 159 255 0 159 255 0 159 255 0 159 255 0 159 255 0 159 255 0 159 255 0 159 255 0 159 255 0 140 255 0 140 255 0 140 255 0 140 255 0 140 255 0 140 255 0 140 255 0 140 255 0 140 255 0 140 255 0 106 255 0 106 255 0 106 255 0 106 255 0 106 255 0 106 255 0 106 255 0 106 255 0 106 255 0 106 255 0 124 255 0 124 255 0 124 255 0 124 255 0 124 255 0 124 255 0 124 255 0 124 255 0 124 255 0 124 255 0 111 255 0 111 255 0 111 255 0 111 255 0 111 255 0 111 255 0 111 255 0 111 255 0 111 255 0 111 255 0 123 255 0 123 255 0 123 255 0 123 255 0 123 255 0 123 255 0 123 255 0 123 255 0 123 255 0 123 255 0 102 255 0 102 255 0 102 255 0 102 255 0 102 255 0 102 255 0 102 255 0 102 255 0 102 255 0 102 255 0 90 255 0 90 255 0 90 255 0 90 255 0 90 255 0 90 255 0 90 255 0 90 255 0 90 255 0 90 255 0 140 255 0 140 255 0 140 255 0 140 255 0 140 255 0 140 255 0 140 255 0 140 255 0 140 255 0 140 255 0 117 255 0 117 255 0 117 255 0 117 255 0 117 255 0 117 255 0 117 255 0 117 255 0 117 255 0 117 255 0 107 255 0 107 255 0 107 255 0 107 255 0 107 255 0 107 255 0 107 255 0 107 255 0 107 255 0 107 255 0 148 255 0 148 255 0 148 255 0 148 255 0 148 255 0 148 255 0 148 255 0 148 255 0 148 255 0 148 255 0 170 255 0 170 255 0 170 255 0 170 255 0 170 255 0 170 255 0 170 255 0 170 255 0 170 255 0 170 255 0 177 255 0 177 255 0 177 255 0 177 255 0 177 255 0 177 255 0 177 255 0 177 255 0 177 255 0 177 255 0 157 255 0 157 255 0 157 255 0 157 255 0 157 255 0 157 255 0 157 255 0 157 255 0 157 255 0 157 255 0 149 255 0 149 255 0 149 255 0 149 255 0 149 255 0 149 255 0 149 255 0 149 255 0 149 255 0 149 255 0 159 255 0 159 255 0 159 255 0 159 255 0 159 255 0 159 255 0 159 255 0 159 255 0 159 255 0 159 255 0 161 255 0 161 255 0 161 255 0 161 255 0 161 255 0 161 255 0 161 255 0 161 255 0 161 255 0 161 255 0 154 255 0 154 255 0 154 255 0 154 255 0 154 255 0 154 255 0 154 255 0 154 255 0 154 255 0 154 255 0 0 0 0 0 0 0 0 0 0 0 0 0 0 0 0 0 0 0 0 0 0 0 0 0 0 0 0 0 0 0 141 255 0 141 255 0 141 255 0 141 255 0 141 255 0 141 255 0 141 255 0 141 255 0 141 255 0 141 255 0 141 255 0 141 255 0 141 255 0 141 255 0 141 255 0 141 255 0 141 255 0 141 255 0 141 255 0 141 255 0 141 255 0 141 255 0 141 255 0 141 255 0 141 255 0 141 255 0 141 255 0 141 255 0 141 255 0 141 255 
0 147 255 0 147 255 0 147 255 0 147 255 0 147 255 0 147 255 0 147 255 0 147 255 0 147 255 0 147 255 0 151 255 0 151 255 0 151 255 0 151 255 0 151 255 0 151 255 0 151 255 0 151 255 0 151 255 0 151 255 0 147 255 0 147 255 0 147 255 0 147 255 0 147 255 0 147 255 0 147 255 0 147 255 0 147 255 0 147 255 0 156 255 0 156 255 0 156 255 0 156 255 0 156 255 0 156 255 0 156 255 0 156 255 0 156 255 0 156 255 0 172 255 0 172 255 0 172 255 0 172 255 0 172 255 0 172 255 0 172 255 0 172 255 0 172 255 0 172 255 0 217 255 0 217 255 0 217 255 0 217 255 0 217 255 0 217 255 0 217 255 0 217 255 0 217 255 0 217 255 0 231 255 0 231 255 0 231 255 0 231 255 0 231 255 0 231 255 0 231 255 0 231 255 0 231 255 0 231 255 0 213 255 0 213 255 0 213 255 0 213 255 0 213 255 0 213 255 0 213 255 0 213 255 0 213 255 0 213 255 0 180 255 0 180 255 0 180 255 0 180 255 0 180 255 0 180 255 0 180 255 0 180 255 0 180 255 0 180 255 0 159 255 0 159 255 0 159 255 0 159 255 0 159 255 0 159 255 0 159 255 0 159 255 0 159 255 0 159 255 0 140 255 0 140 255 0 140 255 0 140 255 0 140 255 0 140 255 0 140 255 0 140 255 0 140 255 0 140 255 0 106 255 0 106 255 0 106 255 0 106 255 0 106 255 0 106 255 0 106 255 0 106 255 0 106 255 0 106 255 0 124 255 0 124 255 0 124 255 0 124 255 0 124 255 0 124 255 0 124 255 0 124 255 0 124 255 0 124 255 0 111 255 0 111 255 0 111 255 0 111 255 0 111 255 0 111 255 0 111 255 0 111 255 0 111 255 0 111 255 0 123 255 0 123 255 0 123 255 0 123 255 0 123 255 0 123 255 0 123 255 0 123 255 0 123 255 0 123 255 0 102 255 0 102 255 0 102 255 0 102 255 0 102 255 0 102 255 0 102 255 0 102 255 0 102 255 0 102 255 0 90 255 0 90 255 0 90 255 0 90 255 0 90 255 0 90 255 0 90 255 0 90 255 0 90 255 0 90 255 0 140 255 0 140 255 0 140 255 0 140 255 0 140 255 0 140 255 0 140 255 0 140 255 0 140 255 0 140 255 0 117 255 0 117 255 0 117 255 0 117 255 0 117 255 0 117 255 0 117 255 0 117 255 0 117 255 0 117 255 0 107 255 0 107 255 0 107 255 0 107 255 0 107 255 0 107 255 0 107 255 0 107 255 0 107 255 0 107 255 0 148 255 0 148 255 0 148 255 0 148 255 0 148 255 0 148 255 0 148 255 0 148 255 0 148 255 0 148 255 0 170 255 0 170 255 0 170 255 0 170 255 0 170 255 0 170 255 0 170 255 0 170 255 0 170 255 0 170 255 0 177 255 0 177 255 0 177 255 0 177 255 0 177 255 0 177 255 0 177 255 0 177 255 0 177 255 0 177 255 0 157 255 0 157 255 0 157 255 0 157 255 0 157 255 0 157 255 0 157 255 0 157 255 0 157 255 0 157 255 0 149 255 0 149 255 0 149 255 0 149 255 0 149 255 0 149 255 0 149 255 0 149 255 0 149 255 0 149 255 0 159 255 0 159 255 0 159 255 0 159 255 0 159 255 0 159 255 0 159 255 0 159 255 0 159 255 0 159 255 0 161 255 0 161 255 0 161 255 0 161 255 0 161 255 0 161 255 0 161 255 0 161 255 0 161 255 0 161 255 0 154 255 0 154 255 0 154 255 0 154 255 0 154 255 0 154 255 0 154 255 0 154 255 0 154 255 0 154 255 0 0 0 0 0 0 0 0 0 0 0 0 0 0 0 0 0 0 0 0 0 0 0 0 0 0 0 0 0 0 0 145 255 0 145 255 0 145 255 0 145 255 0 145 255 0 145 255 0 145 255 0 145 255 0 145 255 0 145 255 0 145 255 0 145 255 0 145 255 0 145 255 0 145 255 0 145 255 0 145 255 0 145 255 0 145 255 0 145 255 0 145 255 0 145 255 0 145 255 0 145 255 0 145 255 0 145 255 0 145 255 0 145 255 0 145 255 0 145 255 
0 163 255 0 163 255 0 163 255 0 163 255 0 163 255 0 163 255 0 163 255 0 163 255 0 163 255 0 163 255 0 147 255 0 147 255 0 147 255 0 147 255 0 147 255 0 147 255 0 147 255 0 147 255 0 147 255 0 147 255 0 159 255 0 159 255 0 159 255 0 159 255 0 159 255 0 159 255 0 159 255 0 159 255 0 159 255 0 159 255 0 164 255 0 164 255 0 164 255 0 164 255 0 164 255 0 164 255 0 164 255 0 164 255 0 164 255 0 164 255 0 166 255 0 166 255 0 166 255 0 166 255 0 166 255 0 166 255 0 166 255 0 166 255 0 166 255 0 166 255 0 189 255 0 189 255 0 189 255 0 189 255 0 189 255 0 189 255 0 189 255 0 189 255 0 189 255 0 189 255 0 191 255 0 191 255 0 191 255 0 191 255 0 191 255 0 191 255 0 191 255 0 191 255 0 191 255 0 191 255 0 200 255 0 200 255 0 200 255 0 200 255 0 200 255 0 200 255 0 200 255 0 200 255 0 200 255 0 200 255 0 214 255 0 214 255 0 214 255 0 214 255 0 214 255 0 214 255 0 214 255 0 214 255 0 214 255 0 214 255 0 198 255 0 198 255 0 198 255 0 198 255 0 198 255 0 198 255 0 198 255 0 198 255 0 198 255 0 198 255 0 174 255 0 174 255 0 174 255 0 174 255 0 174 255 0 174 255 0 174 255 0 174 255 0 174 255 0 174 255 0 172 255 0 172 255 0 172 255 0 172 255 0 172 255 0 172 255 0 172 255 0 172 255 0 172 255 0 172 255 0 190 255 0 190 255 0 190 255 0 190 255 0 190 255 0 190 255 0 190 255 0 190 255 0 190 255 0 190 255 0 179 255 0 179 255 0 179 255 0 179 255 0 179 255 0 179 255 0 179 255 0 179 255 0 179 255 0 179 255 0 135 255 0 135 255 0 135 255 0 135 255 0 135 255 0 135 255 0 135 255 0 135 255 0 135 255 0 135 255 0 126 255 0 126 255 0 126 255 0 126 255 0 126 255 0 126 255 0 126 255 0 126 255 0 126 255 0 126 255 0 145 255 0 145 255 0 145 255 0 145 255 0 145 255 0 145 255 0 145 255 0 145 255 0 145 255 0 145 255 0 126 255 0 126 255 0 126 255 0 126 255 0 126 255 0 126 255 0 126 255 0 126 255 0 126 255 0 126 255 0 149 255 0 149 255 0 149 255 0 149 255 0 149 255 0 149 255 0 149 255 0 149 255 0 149 255 0 149 255 0 143 255 0 143 255 0 143 255 0 143 255 0 143 255 0 143 255 0 143 255 0 143 255 0 143 255 0 143 255 0 153 255 0 153 255 0 153 255 0 153 255 0 153 255 0 153 255 0 153 255 0 153 255 0 153 255 0 153 255 0 158 255 0 158 255 0 158 255 0 158 255 0 158 255 0 158 255 0 158 255 0 158 255 0 158 255 0 158 255 0 178 255 0 178 255 0 178 255 0 178 255 0 178 255 0 178 255 0 178 255 0 178 255 0 178 255 0 178 255 0 146 255 0 146 255 0 146 255 0 146 255 0 146 255 0 146 255 0 146 255 0 146 255 0 146 255 0 146 255 0 157 255 0 157 255 0 157 255 0 157 255 0 157 255 0 157 255 0 157 255 0 157 255 0 157 255 0 157 255 0 162 255 0 162 255 0 162 255 0 162 255 0 162 255 0 162 255 0 162 255 0 162 255 0 162 255 0 162 255 0 154 255 0 154 255 0 154 255 0 154 255 0 154 255 0 154 255 0 154 255 0 154 255 0 154 255 0 154 255 0 165 255 0 165 255 0 165 255 0 165 255 0 165 255 0 165 255 0 165 255 0 165 255 0 165 255 0 165 255 0 0 0 0 0 0 0 0 0 0 0 0 0 0 0 0 0 0 0 0 0 0 0 0 0 0 0 0 0 0 0 148 255 0 148 255 0 148 255 0 148 255 0 148 255 0 148 255 0 148 255 0 148 255 0 148 255 0 148 255 0 148 255 0 148 255 0 148 255 0 148 255 0 148 255 0 148 255 0 148 255 0 148 255 0 148 255 0 148 255 0 148 255 0 148 255 0 148 255 0 148 255 0 148 255 0 148 255 0 148 255 0 148 255 0 148 255 0 148 255 
0 163 255 0 163 255 0 163 255 0 163 255 0 163 255 0 163 255 0 163 255 0 163 255 0 163 255 0 163 255 0 147 255 0 147 255 0 147 255 0 147 255 0 147 255 0 147 255 0 147 255 0 147 255 0 147 255 0 147 255 0 159 255 0 159 255 0 159 255 0 159 255 0 159 255 0 159 255 0 159 255 0 159 255 0 159 255 0 159 255 0 164 255 0 164 255 0 164 255 0 164 255 0 164 255 0 164 255 0 164 255 0 164 255 0 164 255 0 164 255 0 166 255 0 166 255 0 166 255 0 166 255 0 166 255 0 166 255 0 166 255 0 166 255 0 166 255 0 166 255 0 189 255 0 189 255 0 189 255 0 189 255 0 189 255 0 189 255 0 189 255 0 189 255 0 189 255 0 189 255 0 191 255 0 191 255 0 191 255 0 191 255 0 191 255 0 191 255 0 191 255 0 191 255 0 191 255 0 191 255 0 200 255 0 200 255 0 200 255 0 200 255 0 200 255 0 200 255 0 200 255 0 200 255 0 200 255 0 200 255 0 214 255 0 214 255 0 214 255 0 214 255 0 214 255 0 214 255 0 214 255 0 214 255 0 214 255 0 214 255 0 198 255 0 198 255 0 198 255 0 198 255 0 198 255 0 198 255 0 198 255 0 198 255 0 198 255 0 198 255 0 174 255 0 174 255 0 174 255 0 174 255 0 174 255 0 174 255 0 174 255 0 174 255 0 174 255 0 174 255 0 172 255 0 172 255 0 172 255 0 172 255 0 172 255 0 172 255 0 172 255 0 172 255 0 172 255 0 172 255 0 190 255 0 190 255 0 190 255 0 190 255 0 190 255 0 190 255 0 190 255 0 190 255 0 190 255 0 190 255 0 179 255 0 179 255 0 179 255 0 179 255 0 179 255 0 179 255 0 179 255 0 179 255 0 179 255 0 179 255 0 135 255 0 135 255 0 135 255 0 135 255 0 135 255 0 135 255 0 135 255 0 135 255 0 135 255 0 135 255 0 126 255 0 126 255 0 126 255 0 126 255 0 126 255 0 126 255 0 126 255 0 126 255 0 126 255 0 126 255 0 145 255 0 145 255 0 145 255 0 145 255 0 145 255 0 145 255 0 145 255 0 145 255 0 145 255 0 145 255 0 126 255 0 126 255 0 126 255 0 126 255 0 126 255 0 126 255 0 126 255 0 126 255 0 126 255 0 126 255 0 149 255 0 149 255 0 149 255 0 149 255 0 149 255 0 149 255 0 149 255 0 149 255 0 149 255 0 149 255 0 143 255 0 143 255 0 143 255 0 143 255 0 143 255 0 143 255 0 143 255 0 143 255 0 143 255 0 143 255 0 153 255 0 153 255 0 153 255 0 153 255 0 153 255 0 153 255 0 153 255 0 153 255 0 153 255 0 153 255 0 158 255 0 158 255 0 158 255 0 158 255 0 158 255 0 158 255 0 158 255 0 158 255 0 158 255 0 158 255 0 178 255 0 178 255 0 178 255 0 178 255 0 178 255 0 178 255 0 178 255 0 178 255 0 178 255 0 178 255 0 146 255 0 146 255 0 146 255 0 146 255 0 146 255 0 146 255 0 146 255 0 146 255 0 146 255 0 146 255 0 157 255 0 157 255 0 157 255 0 157 255 0 157 255 0 157 255 0 157 255 0 157 255 0 157 255 0 157 255 0 162 255 0 162 255 0 162 255 0 162 255 0 162 255 0 162 255 0 162 255 0 162 255 0 162 255 0 162 255 0 154 255 0 154 255 0 154 255 0 154 255 0 154 255 0 154 255 0 154 255 0 154 255 0 154 255 0 154 255 0 165 255 0 165 255 0 165 255 0 165 255 0 165 255 0 165 255 0 165 255 0 165 255 0 165 255 0 165 255 0 0 0 0 0 0 0 0 0 0 0 0 0 0 0 0 0 0 0 0 0 0 0 0 0 0 0 0 0 0 0 152 255 0 152 255 0 152 255 0 152 255 0 152 255 0 152 255 0 152 255 0 152 255 0 152 255 0 152 255 0 152 255 0 152 255 0 152 255 0 152 255 0 152 255 0 152 255 0 152 255 0 152 255 0 152 255 0 152 255 0 152 255 0 152 255 0 152 255 0 152 255 0 152 255 0 152 255 0 152 255 0 152 255 0 152 255 0 152 255 
0 163 255 0 163 255 0 163 255 0 163 255 0 163 255 0 163 255 0 163 255 0 163 255 0 163 255 0 163 255 0 147 255 0 147 255 0 147 255 0 147 255 0 147 255 0 147 255 0 147 255 0 147 255 0 147 255 0 147 255 0 159 255 0 159 255 0 159 255 0 159 255 0 159 255 0 159 255 0 159 255 0 159 255 0 159 255 0 159 255 0 164 255 0 164 255 0 164 255 0 164 255 0 164 255 0 164 255 0 164 255 0 164 255 0 164 255 0 164 255 0 166 255 0 166 255 0 166 255 0 166 255 0 166 255 0 166 255 0 166 255 0 166 255 0 166 255 0 166 255 0 189 255 0 189 255 0 189 255 0 189 255 0 189 255 0 189 255 0 189 255 0 189 255 0 189 255 0 189 255 0 191 255 0 191 255 0 191 255 0 191 255 0 191 255 0 191 255 0 191 255 0 191 255 0 191 255 0 191 255 0 200 255 0 200 255 0 200 255 0 200 255 0 200 255 0 200 255 0 200 255 0 200 255 0 200 255 0 200 255 0 214 255 0 214 255 0 214 255 0 214 255 0 214 255 0 214 255 0 214 255 0 214 255 0 214 255 0 214 255 0 198 255 0 198 255 0 198 255 0 198 255 0 198 255 0 198 255 0 198 255 0 198 255 0 198 255 0 198 255 0 174 255 0 174 255 0 174 255 0 174 255 0 174 255 0 174 255 0 174 255 0 174 255 0 174 255 0 174 255 0 172 255 0 172 255 0 172 255 0 172 255 0 172 255 0 172 255 0 172 255 0 172 255 0 172 255 0 172 255 0 190 255 0 190 255 0 190 255 0 190 255 0 190 255 0 190 255 0 190 255 0 190 255 0 190 255 0 190 255 0 179 255 0 179 255 0 179 255 0 179 255 0 179 255 0 179 255 0 179 255 0 179 255 0 179 255 0 179 255 0 135 255 0 135 255 0 135 255 0 135 255 0 135 255 0 135 255 0 135 255 0 135 255 0 135 255 0 135 255 0 126 255 0 126 255 0 126 255 0 126 255 0 126 255 0 126 255 0 126 255 0 126 255 0 126 255 0 126 255 0 145 255 0 145 255 0 145 255 0 145 255 0 145 255 0 145 255 0 145 255 0 145 255 0 145 255 0 145 255 0 126 255 0 126 255 0 126 255 0 126 255 0 126 255 0 126 255 0 126 255 0 126 255 0 126 255 0 126 255 0 149 255 0 149 255 0 149 255 0 149 255 0 149 255 0 149 255 0 149 255 0 149 255 0 149 255 0 149 255 0 143 255 0 143 255 0 143 255 0 143 255 0 143 255 0 143 255 0 143 255 0 143 255 0 143 255 0 143 255 0 153 255 0 153 255 0 153 255 0 153 255 0 153 255 0 153 255 0 153 255 0 153 255 0 153 255 0 153 255 0 158 255 0 158 255 0 158 255 0 158 255 0 158 255 0 158 255 0 158 255 0 158 255 0 158 255 0 158 255 0 178 255 0 178 255 0 178 255 0 178 255 0 178 255 0 178 255 0 178 255 0 178 255 0 178 255 0 178 255 0 146 255 0 146 255 0 146 255 0 146 255 0 146 255 0 146 255 0 146 255 0 146 255 0 146 255 0 146 255 0 157 255 0 157 255 0 157 255 0 157 255 0 157 255 0 157 255 0 157 255 0 157 255 0 157 255 0 157 255 0 162 255 0 162 255 0 162 255 0 162 255 0 162 255 0 162 255 0 162 255 0 162 255 0 162 255 0 162 255 0 154 255 0 154 255 0 154 255 0 154 255 0 154 255 0 154 255 0 154 255 0 154 255 0 154 255 0 154 255 0 165 255 0 165 255 0 165 255 0 165 255 0 165 255 0 165 255 0 165 255 0 165 255 0 165 255 0 165 255 0 0 0 0 0 0 0 0 0 0 0 0 0 0 0 0 0 0 0 0 0 0 0 0 0 0 0 0 0 0 0 156 255 0 156 255 0 156 255 0 156 255 0 156 255 0 156 255 0 156 255 0 156 255 0 156 255 0 156 255 0 156 255 0 156 255 0 156 255 0 156 255 0 156 255 0 156 255 0 156 255 0 156 255 0 156 255 0 156 255 0 156 255 0 156 255 0 156 255 0 156 255 0 156 255 0 156 255 0 156 255 0 156 255 0 156 255 0 156 255 
0 163 255 0 163 255 0 163 255 0 163 255 0 163 255 0 163 255 0 163 255 0 163 255 0 163 255 0 163 255 0 147 255 0 147 255 0 147 255 0 147 255 0 147 255 0 147 255 0 147 255 0 147 255 0 147 255 0 147 255 0 159 255 0 159 255 0 159 255 0 159 255 0 159 255 0 159 255 0 159 255 0 159 255 0 159 255 0 159 255 0 164 255 0 164 255 0 164 255 0 164 255 0 164 255 0 164 255 0 164 255 0 164 255 0 164 255 0 164 255 0 166 255 0 166 255 0 166 255 0 166 255 0 166 255 0 166 255 0 166 255 0 166 255 0 166 255 0 166 255 0 189 255 0 189 255 0 189 255 0 189 255 0 189 255 0 189 255 0 189 255 0 189 255 0 189 255 0 189 255 0 191 255 0 191 255 0 191 255 0 191 255 0 191 255 0 191 255 0 191 255 0 191 255 0 191 255 0 191 255 0 200 255 0 200 255 0 200 255 0 200 255 0 200 255 0 200 255 0 200 255 0 200 255 0 200 255 0 200 255 0 214 255 0 214 255 0 214 255 0 214 255 0 214 255 0 214 255 0 214 255 0 214 255 0 214 255 0 214 255 0 198 255 0 198 255 0 198 255 0 198 255 0 198 255 0 198 255 0 198 255 0 198 255 0 198 255 0 198 255 0 174 255 0 174 255 0 174 255 0 174 255 0 174 255 0 174 255 0 174 255 0 174 255 0 174 255 0 174 255 0 172 255 0 172 255 0 172 255 0 172 255 0 172 255 0 172 255 0 172 255 0 172 255 0 172 255 0 172 255 0 190 255 0 190 255 0 190 255 0 190 255 0 190 255 0 190 255 0 190 255 0 190 255 0 190 255 0 190 255 0 179 255 0 179 255 0 179 255 0 179 255 0 179 255 0 179 255 0 179 255 0 179 255 0 179 255 0 179 255 0 135 255 0 135 255 0 135 255 0 135 255 0 135 255 0 135 255 0 135 255 0 135 255 0 135 255 0 135 255 0 126 255 0 126 255 0 126 255 0 126 255 0 126 255 0 126 255 0 126 255 0 126 255 0 126 255 0 126 255 0 145 255 0 145 255 0 145 255 0 145 255 0 145 255 0 145 255 0 145 255 0 145 255 0 145 255 0 145 255 0 126 255 0 126 255 0 126 255 0 126 255 0 126 255 0 126 255 0 126 255 0 126 255 0 126 255 0 126 255 0 149 255 0 149 255 0 149 255 0 149 255 0 149 255 0 149 255 0 149 255 0 149 255 0 149 255 0 149 255 0 143 255 0 143 255 0 143 255 0 143 255 0 143 255 0 143 255 0 143 255 0 143 255 0 143 255 0 143 255 0 153 255 0 153 255 0 153 255 0 153 255 0 153 255 0 153 255 0 153 255 0 153 255 0 153 255 0 153 255 0 158 255 0 158 255 0 158 255 0 158 255 0 158 255 0 158 255 0 158 255 0 158 255 0 158 255 0 158 255 0 178 255 0 178 255 0 178 255 0 178 255 0 178 255 0 178 255 0 178 255 0 178 255 0 178 255 0 178 255 0 146 255 0 146 255 0 146 255 0 146 255 0 146 255 0 146 255 0 146 255 0 146 255 0 146 255 0 146 255 0 157 255 0 157 255 0 157 255 0 157 255 0 157 255 0 157 255 0 157 255 0 157 255 0 157 255 0 157 255 0 162 255 0 162 255 0 162 255 0 162 255 0 162 255 0 162 255 0 162 255 0 162 255 0 162 255 0 162 255 0 154 255 0 154 255 0 154 255 0 154 255 0 154 255 0 154 255 0 154 255 0 154 255 0 154 255 0 154 255 0 165 255 0 165 255 0 165 255 0 165 255 0 165 255 0 165 255 0 165 255 0 165 255 0 165 255 0 165 255 0 0 0 0 0 0 0 0 0 0 0 0 0 0 0 0 0 0 0 0 0 0 0 0 0 0 0 0 0 0 0 159 255 0 159 255 0 159 255 0 159 255 0 159 255 0 159 255 0 159 255 0 159 255 0 159 255 0 159 255 0 159 255 0 159 255 0 159 255 0 159 255 0 159 255 0 159 255 0 159 255 0 159 255 0 159 255 0 159 255 0 159 255 0 159 255 0 159 255 0 159 255 0 159 255 0 159 255 0 159 255 0 159 255 0 159 255 0 159 255 
0 163 255 0 163 255 0 163 255 0 163 255 0 163 255 0 163 255 0 163 255 0 163 255 0 163 255 0 163 255 0 147 255 0 147 255 0 147 255 0 147 255 0 147 255 0 147 255 0 147 255 0 147 255 0 147 255 0 147 255 0 159 255 0 159 255 0 159 255 0 159 255 0 159 255 0 159 255 0 159 255 0 159 255 0 159 255 0 159 255 0 164 255 0 164 255 0 164 255 0 164 255 0 164 255 0 164 255 0 164 255 0 164 255 0 164 255 0 164 255 0 166 255 0 166 255 0 166 255 0 166 255 0 166 255 0 166 255 0 166 255 0 166 255 0 166 255 0 166 255 0 189 255 0 189 255 0 189 255 0 189 255 0 189 255 0 189 255 0 189 255 0 189 255 0 189 255 0 189 255 0 191 255 0 191 255 0 191 255 0 191 255 0 191 255 0 191 255 0 191 255 0 191 255 0 191 255 0 191 255 0 200 255 0 200 255 0 200 255 0 200 255 0 200 255 0 200 255 0 200 255 0 200 255 0 200 255 0 200 255 0 214 255 0 214 255 0 214 255 0 214 255 0 214 255 0 214 255 0 214 255 0 214 255 0 214 255 0 214 255 0 198 255 0 198 255 0 198 255 0 198 255 0 198 255 0 198 255 0 198 255 0 198 255 0 198 255 0 198 255 0 174 255 0 174 255 0 174 255 0 174 255 0 174 255 0 174 255 0 174 255 0 174 255 0 174 255 0 174 255 0 172 255 0 172 255 0 172 255 0 172 255 0 172 255 0 172 255 0 172 255 0 172 255 0 172 255 0 172 255 0 190 255 0 190 255 0 190 255 0 190 255 0 190 255 0 190 255 0 190 255 0 190 255 0 190 255 0 190 255 0 179 255 0 179 255 0 179 255 0 179 255 0 179 255 0 179 255 0 179 255 0 179 255 0 179 255 0 179 255 0 135 255 0 135 255 0 135 255 0 135 255 0 135 255 0 135 255 0 135 255 0 135 255 0 135 255 0 135 255 0 126 255 0 126 255 0 126 255 0 126 255 0 126 255 0 126 255 0 126 255 0 126 255 0 126 255 0 126 255 0 145 255 0 145 255 0 145 255 0 145 255 0 145 255 0 145 255 0 145 255 0 145 255 0 145 255 0 145 255 0 126 255 0 126 255 0 126 255 0 126 255 0 126 255 0 126 255 0 126 255 0 126 255 0 126 255 0 126 255 0 149 255 0 149 255 0 149 255 0 149 255 0 149 255 0 149 255 0 149 255 0 149 255 0 149 255 0 149 255 0 143 255 0 143 255 0 143 255 0 143 255 0 143 255 0 143 255 0 143 255 0 143 255 0 143 255 0 143 255 0 153 255 0 153 255 0 153 255 0 153 255 0 153 255 0 153 255 0 153 255 0 153 255 0 153 255 0 153 255 0 158 255 0 158 255 0 158 255 0 158 255 0 158 255 0 158 255 0 158 255 0 158 255 0 158 255 0 158 255 0 178 255 0 178 255 0 178 255 0 178 255 0 178 255 0 178 255 0 178 255 0 178 255 0 178 255 0 178 255 0 146 255 0 146 255 0 146 255 0 146 255 0 146 255 0 146 255 0 146 255 0 146 255 0 146 255 0 146 255 0 157 255 0 157 255 0 157 255 0 157 255 0 157 255 0 157 255 0 157 255 0 157 255 0 157 255 0 157 255 0 162 255 0 162 255 0 162 255 0 162 255 0 162 255 0 162 255 0 162 255 0 162 255 0 162 255 0 162 255 0 154 255 0 154 255 0 154 255 0 154 255 0 154 255 0 154 255 0 154 255 0 154 255 0 154 255 0 154 255 0 165 255 0 165 255 0 165 255 0 165 255 0 165 255 0 165 255 0 165 255 0 165 255 0 165 255 0 165 255 0 0 0 0 0 0 0 0 0 0 0 0 0 0 0 0 0 0 0 0 0 0 0 0 0 0 0 0 0 0 0 163 255 0 163 255 0 163 255 0 163 255 0 163 255 0 163 255 0 163 255 0 163 255 0 163 255 0 163 255 0 163 255 0 163 255 0 163 255 0 163 255 0 163 255 0 163 255 0 163 255 0 163 255 0 163 255 0 163 255 0 163 255 0 163 255 0 163 255 0 163 255 0 163 255 0 163 255 0 163 255 0 163 255 0 163 255 0 163 255 
0 163 255 0 163 255 0 163 255 0 163 255 0 163 255 0 163 255 0 163 255 0 163 255 0 163 255 0 163 255 0 147 255 0 147 255 0 147 255 0 147 255 0 147 255 0 147 255 0 147 255 0 147 255 0 147 255 0 147 255 0 159 255 0 159 255 0 159 255 0 159 255 0 159 255 0 159 255 0 159 255 0 159 255 0 159 255 0 159 255 0 164 255 0 164 255 0 164 255 0 164 255 0 164 255 0 164 255 0 164 255 0 164 255 0 164 255 0 164 255 0 166 255 0 166 255 0 166 255 0 166 255 0 166 255 0 166 255 0 166 255 0 166 255 0 166 255 0 166 255 0 189 255 0 189 255 0 189 255 0 189 255 0 189 255 0 189 255 0 189 255 0 189 255 0 189 255 0 189 255 0 191 255 0 191 255 0 191 255 0 191 255 0 191 255 0 191 255 0 191 255 0 191 255 0 191 255 0 191 255 0 200 255 0 200 255 0 200 255 0 200 255 0 200 255 0 200 255 0 200 255 0 200 255 0 200 255 0 200 255 0 214 255 0 214 255 0 214 255 0 214 255 0 214 255 0 214 255 0 214 255 0 214 255 0 214 255 0 214 255 0 198 255 0 198 255 0 198 255 0 198 255 0 198 255 0 198 255 0 198 255 0 198 255 0 198 255 0 198 255 0 174 255 0 174 255 0 174 255 0 174 255 0 174 255 0 174 255 0 174 255 0 174 255 0 174 255 0 174 255 0 172 255 0 172 255 0 172 255 0 172 255 0 172 255 0 172 255 0 172 255 0 172 255 0 172 255 0 172 255 0 190 255 0 190 255 0 190 255 0 190 255 0 190 255 0 190 255 0 190 255 0 190 255 0 190 255 0 190 255 0 179 255 0 179 255 0 179 255 0 179 255 0 179 255 0 179 255 0 179 255 0 179 255 0 179 255 0 179 255 0 135 255 0 135 255 0 135 255 0 135 255 0 135 255 0 135 255 0 135 255 0 135 255 0 135 255 0 135 255 0 126 255 0 126 255 0 126 255 0 126 255 0 126 255 0 126 255 0 126 255 0 126 255 0 126 255 0 126 255 0 145 255 0 145 255 0 145 255 0 145 255 0 145 255 0 145 255 0 145 255 0 145 255 0 145 255 0 145 255 0 126 255 0 126 255 0 126 255 0 126 255 0 126 255 0 126 255 0 126 255 0 126 255 0 126 255 0 126 255 0 149 255 0 149 255 0 149 255 0 149 255 0 149 255 0 149 255 0 149 255 0 149 255 0 149 255 0 149 255 0 143 255 0 143 255 0 143 255 0 143 255 0 143 255 0 143 255 0 143 255 0 143 255 0 143 255 0 143 255 0 153 255 0 153 255 0 153 255 0 153 255 0 153 255 0 153 255 0 153 255 0 153 255 0 153 255 0 153 255 0 158 255 0 158 255 0 158 255 0 158 255 0 158 255 0 158 255 0 158 255 0 158 255 0 158 255 0 158 255 0 178 255 0 178 255 0 178 255 0 178 255 0 178 255 0 178 255 0 178 255 0 178 255 0 178 255 0 178 255 0 146 255 0 146 255 0 146 255 0 146 255 0 146 255 0 146 255 0 146 255 0 146 255 0 146 255 0 146 255 0 157 255 0 157 255 0 157 255 0 157 255 0 157 255 0 157 255 0 157 255 0 157 255 0 157 255 0 157 255 0 162 255 0 162 255 0 162 255 0 162 255 0 162 255 0 162 255 0 162 255 0 162 255 0 162 255 0 162 255 0 154 255 0 154 255 0 154 255 0 154 255 0 154 255 0 154 255 0 154 255 0 154 255 0 154 255 0 154 255 0 165 255 0 165 255 0 165 255 0 165 255 0 165 255 0 165 255 0 165 255 0 165 255 0 165 255 0 165 255 0 0 0 0 0 0 0 0 0 0 0 0 0 0 0 0 0 0 0 0 0 0 0 0 0 0 0 0 0 0 0 167 255 0 167 255 0 167 255 0 167 255 0 167 255 0 167 255 0 167 255 0 167 255 0 167 255 0 167 255 0 167 255 0 167 255 0 167 255 0 167 255 0 167 255 0 167 255 0 167 255 0 167 255 0 167 255 0 167 255 0 167 255 0 167 255 0 167 255 0 167 255 0 167 255 0 167 255 0 167 255 0 167 255 0 167 255 0 167 255 
0 163 255 0 163 255 0 163 255 0 163 255 0 163 255 0 163 255 0 163 255 0 163 255 0 163 255 0 163 255 0 147 255 0 147 255 0 147 255 0 147 255 0 147 255 0 147 255 0 147 255 0 147 255 0 147 255 0 147 255 0 159 255 0 159 255 0 159 255 0 159 255 0 159 255 0 159 255 0 159 255 0 159 255 0 159 255 0 159 255 0 164 255 0 164 255 0 164 255 0 164 255 0 164 255 0 164 255 0 164 255 0 164 255 0 164 255 0 164 255 0 166 255 0 166 255 0 166 255 0 166 255 0 166 255 0 166 255 0 166 255 0 166 255 0 166 255 0 166 255 0 189 255 0 189 255 0 189 255 0 189 255 0 189 255 0 189 255 0 189 255 0 189 255 0 189 255 0 189 255 0 191 255 0 191 255 0 191 255 0 191 255 0 191 255 0 191 255 0 191 255 0 191 255 0 191 255 0 191 255 0 200 255 0 200 255 0 200 255 0 200 255 0 200 255 0 200 255 0 200 255 0 200 255 0 200 255 0 200 255 0 214 255 0 214 255 0 214 255 0 214 255 0 214 255 0 214 255 0 214 255 0 214 255 0 214 255 0 214 255 0 198 255 0 198 255 0 198 255 0 198 255 0 198 255 0 198 255 0 198 255 0 198 255 0 198 255 0 198 255 0 174 255 0 174 255 0 174 255 0 174 255 0 174 255 0 174 255 0 174 255 0 174 255 0 174 255 0 174 255 0 172 255 0 172 255 0 172 255 0 172 255 0 172 255 0 172 255 0 172 255 0 172 255 0 172 255 0 172 255 0 190 255 0 190 255 0 190 255 0 190 255 0 190 255 0 190 255 0 190 255 0 190 255 0 190 255 0 190 255 0 179 255 0 179 255 0 179 255 0 179 255 0 179 255 0 179 255 0 179 255 0 179 255 0 179 255 0 179 255 0 135 255 0 135 255 0 135 255 0 135 255 0 135 255 0 135 255 0 135 255 0 135 255 0 135 255 0 135 255 0 126 255 0 126 255 0 126 255 0 126 255 0 126 255 0 126 255 0 126 255 0 126 255 0 126 255 0 126 255 0 145 255 0 145 255 0 145 255 0 145 255 0 145 255 0 145 255 0 145 255 0 145 255 0 145 255 0 145 255 0 126 255 0 126 255 0 126 255 0 126 255 0 126 255 0 126 255 0 126 255 0 126 255 0 126 255 0 126 255 0 149 255 0 149 255 0 149 255 0 149 255 0 149 255 0 149 255 0 149 255 0 149 255 0 149 255 0 149 255 0 143 255 0 143 255 0 143 255 0 143 255 0 143 255 0 143 255 0 143 255 0 143 255 0 143 255 0 143 255 0 153 255 0 153 255 0 153 255 0 153 255 0 153 255 0 153 255 0 153 255 0 153 255 0 153 255 0 153 255 0 158 255 0 158 255 0 158 255 0 158 255 0 158 255 0 158 255 0 158 255 0 158 255 0 158 255 0 158 255 0 178 255 0 178 255 0 178 255 0 178 255 0 178 255 0 178 255 0 178 255 0 178 255 0 178 255 0 178 255 0 146 255 0 146 255 0 146 255 0 146 255 0 146 255 0 146 255 0 146 255 0 146 255 0 146 255 0 146 255 0 157 255 0 157 255 0 157 255 0 157 255 0 157 255 0 157 255 0 157 255 0 157 255 0 157 255 0 157 255 0 162 255 0 162 255 0 162 255 0 162 255 0 162 255 0 162 255 0 162 255 0 162 255 0 162 255 0 162 255 0 154 255 0 154 255 0 154 255 0 154 255 0 154 255 0 154 255 0 154 255 0 154 255 0 154 255 0 154 255 0 165 255 0 165 255 0 165 255 0 165 255 0 165 255 0 165 255 0 165 255 0 165 255 0 165 255 0 165 255 0 0 0 0 0 0 0 0 0 0 0 0 0 0 0 0 0 0 0 0 0 0 0 0 0 0 0 0 0 0 0 170 255 0 170 255 0 170 255 0 170 255 0 170 255 0 170 255 0 170 255 0 170 255 0 170 255 0 170 255 0 170 255 0 170 255 0 170 255 0 170 255 0 170 255 0 170 255 0 170 255 0 170 255 0 170 255 0 170 255 0 170 255 0 170 255 0 170 255 0 170 255 0 170 255 0 170 255 0 170 255 0 170 255 0 170 255 0 170 255 
0 163 255 0 163 255 0 163 255 0 163 255 0 163 255 0 163 255 0 163 255 0 163 255 0 163 255 0 163 255 0 147 255 0 147 255 0 147 255 0 147 255 0 147 255 0 147 255 0 147 255 0 147 255 0 147 255 0 147 255 0 159 255 0 159 255 0 159 255 0 159 255 0 159 255 0 159 255 0 159 255 0 159 255 0 159 255 0 159 255 0 164 255 0 164 255 0 164 255 0 164 255 0 164 255 0 164 255 0 164 255 0 164 255 0 164 255 0 164 255 0 166 255 0 166 255 0 166 255 0 166 255 0 166 255 0 166 255 0 166 255 0 166 255 0 166 255 0 166 255 0 189 255 0 189 255 0 189 255 0 189 255 0 189 255 0 189 255 0 189 255 0 189 255 0 189 255 0 189 255 0 191 255 0 191 255 0 191 255 0 191 255 0 191 255 0 191 255 0 191 255 0 191 255 0 191 255 0 191 255 0 200 255 0 200 255 0 200 255 0 200 255 0 200 255 0 200 255 0 200 255 0 200 255 0 200 255 0 200 255 0 214 255 0 214 255 0 214 255 0 214 255 0 214 255 0 214 255 0 214 255 0 214 255 0 214 255 0 214 255 0 198 255 0 198 255 0 198 255 0 198 255 0 198 255 0 198 255 0 198 255 0 198 255 0 198 255 0 198 255 0 174 255 0 174 255 0 174 255 0 174 255 0 174 255 0 174 255 0 174 255 0 174 255 0 174 255 0 174 255 0 172 255 0 172 255 0 172 255 0 172 255 0 172 255 0 172 255 0 172 255 0 172 255 0 172 255 0 172 255 0 190 255 0 190 255 0 190 255 0 190 255 0 190 255 0 190 255 0 190 255 0 190 255 0 190 255 0 190 255 0 179 255 0 179 255 0 179 255 0 179 255 0 179 255 0 179 255 0 179 255 0 179 255 0 179 255 0 179 255 0 135 255 0 135 255 0 135 255 0 135 255 0 135 255 0 135 255 0 135 255 0 135 255 0 135 255 0 135 255 0 126 255 0 126 255 0 126 255 0 126 255 0 126 255 0 126 255 0 126 255 0 126 255 0 126 255 0 126 255 0 145 255 0 145 255 0 145 255 0 145 255 0 145 255 0 145 255 0 145 255 0 145 255 0 145 255 0 145 255 0 126 255 0 126 255 0 126 255 0 126 255 0 126 255 0 126 255 0 126 255 0 126 255 0 126 255 0 126 255 0 149 255 0 149 255 0 149 255 0 149 255 0 149 255 0 149 255 0 149 255 0 149 255 0 149 255 0 149 255 0 143 255 0 143 255 0 143 255 0 143 255 0 143 255 0 143 255 0 143 255 0 143 255 0 143 255 0 143 255 0 153 255 0 153 255 0 153 255 0 153 255 0 153 255 0 153 255 0 153 255 0 153 255 0 153 255 0 153 255 0 158 255 0 158 255 0 158 255 0 158 255 0 158 255 0 158 255 0 158 255 0 158 255 0 158 255 0 158 255 0 178 255 0 178 255 0 178 255 0 178 255 0 178 255 0 178 255 0 178 255 0 178 255 0 178 255 0 178 255 0 146 255 0 146 255 0 146 255 0 146 255 0 146 255 0 146 255 0 146 255 0 146 255 0 146 255 0 146 255 0 157 255 0 157 255 0 157 255 0 157 255 0 157 255 0 157 255 0 157 255 0 157 255 0 157 255 0 157 255 0 162 255 0 162 255 0 162 255 0 162 255 0 162 255 0 162 255 0 162 255 0 162 255 0 162 255 0 162 255 0 154 255 0 154 255 0 154 255 0 154 255 0 154 255 0 154 255 0 154 255 0 154 255 0 154 255 0 154 255 0 165 255 0 165 255 0 165 255 0 165 255 0 165 255 0 165 255 0 165 255 0 165 255 0 165 255 0 165 255 0 0 0 0 0 0 0 0 0 0 0 0 0 0 0 0 0 0 0 0 0 0 0 0 0 0 0 0 0 0 0 174 255 0 174 255 0 174 255 0 174 255 0 174 255 0 174 255 0 174 255 0 174 255 0 174 255 0 174 255 0 174 255 0 174 255 0 174 255 0 174 255 0 174 255 0 174 255 0 174 255 0 174 255 0 174 255 0 174 255 0 174 255 0 174 255 0 174 255 0 174 255 0 174 255 0 174 255 0 174 255 0 174 255 0 174 255 0 174 255 
0 163 255 0 163 255 0 163 255 0 163 255 0 163 255 0 163 255 0 163 255 0 163 255 0 163 255 0 163 255 0 147 255 0 147 255 0 147 255 0 147 255 0 147 255 0 147 255 0 147 255 0 147 255 0 147 255 0 147 255 0 159 255 0 159 255 0 159 255 0 159 255 0 159 255 0 159 255 0 159 255 0 159 255 0 159 255 0 159 255 0 164 255 0 164 255 0 164 255 0 164 255 0 164 255 0 164 255 0 164 255 0 164 255 0 164 255 0 164 255 0 166 255 0 166 255 0 166 255 0 166 255 0 166 255 0 166 255 0 166 255 0 166 255 0 166 255 0 166 255 0 189 255 0 189 255 0 189 255 0 189 255 0 189 255 0 189 255 0 189 255 0 189 255 0 189 255 0 189 255 0 191 255 0 191 255 0 191 255 0 191 255 0 191 255 0 191 255 0 191 255 0 191 255 0 191 255 0 191 255 0 200 255 0 200 255 0 200 255 0 200 255 0 200 255 0 200 255 0 200 255 0 200 255 0 200 255 0 200 255 0 214 255 0 214 255 0 214 255 0 214 255 0 214 255 0 214 255 0 214 255 0 214 255 0 214 255 0 214 255 0 198 255 0 198 255 0 198 255 0 198 255 0 198 255 0 198 255 0 198 255 0 198 255 0 198 255 0 198 255 0 174 255 0 174 255 0 174 255 0 174 255 0 174 255 0 174 255 0 174 255 0 174 255 0 174 255 0 174 255 0 172 255 0 172 255 0 172 255 0 172 255 0 172 255 0 172 255 0 172 255 0 172 255 0 172 255 0 172 255 0 190 255 0 190 255 0 190 255 0 190 255 0 190 255 0 190 255 0 190 255 0 190 255 0 190 255 0 190 255 0 179 255 0 179 255 0 179 255 0 179 255 0 179 255 0 179 255 0 179 255 0 179 255 0 179 255 0 179 255 0 135 255 0 135 255 0 135 255 0 135 255 0 135 255 0 135 255 0 135 255 0 135 255 0 135 255 0 135 255 0 126 255 0 126 255 0 126 255 0 126 255 0 126 255 0 126 255 0 126 255 0 126 255 0 126 255 0 126 255 0 145 255 0 145 255 0 145 255 0 145 255 0 145 255 0 145 255 0 145 255 0 145 255 0 145 255 0 145 255 0 126 255 0 126 255 0 126 255 0 126 255 0 126 255 0 126 255 0 126 255 0 126 255 0 126 255 0 126 255 0 149 255 0 149 255 0 149 255 0 149 255 0 149 255 0 149 255 0 149 255 0 149 255 0 149 255 0 149 255 0 143 255 0 143 255 0 143 255 0 143 255 0 143 255 0 143 255 0 143 255 0 143 255 0 143 255 0 143 255 0 153 255 0 153 255 0 153 255 0 153 255 0 153 255 0 153 255 0 153 255 0 153 255 0 153 255 0 153 255 0 158 255 0 158 255 0 158 255 0 158 255 0 158 255 0 158 255 0 158 255 0 158 255 0 158 255 0 158 255 0 178 255 0 178 255 0 178 255 0 178 255 0 178 255 0 178 255 0 178 255 0 178 255 0 178 255 0 178 255 0 146 255 0 146 255 0 146 255 0 146 255 0 146 255 0 146 255 0 146 255 0 146 255 0 146 255 0 146 255 0 157 255 0 157 255 0 157 255 0 157 255 0 157 255 0 157 255 0 157 255 0 157 255 0 157 255 0 157 255 0 162 255 0 162 255 0 162 255 0 162 255 0 162 255 0 162 255 0 162 255 0 162 255 0 162 255 0 162 255 0 154 255 0 154 255 0 154 255 0 154 255 0 154 255 0 154 255 0 154 255 0 154 255 0 154 255 0 154 255 0 165 255 0 165 255 0 165 255 0 165 255 0 165 255 0 165 255 0 165 255 0 165 255 0 165 255 0 165 255 0 0 0 0 0 0 0 0 0 0 0 0 0 0 0 0 0 0 0 0 0 0 0 0 0 0 0 0 0 0 0 178 255 0 178 255 0 178 255 0 178 255 0 178 255 0 178 255 0 178 255 0 178 255 0 178 255 0 178 255 0 178 255 0 178 255 0 178 255 0 178 255 0 178 255 0 178 255 0 178 255 0 178 255 0 178 255 0 178 255 0 178 255 0 178 255 0 178 255 0 178 255 0 178 255 0 178 255 0 178 255 0 178 255 0 178 255 0 178 255 
0 163 255 0 163 255 0 163 255 0 163 255 0 163 255 0 163 255 0 163 255 0 163 255 0 163 255 0 163 255 0 147 255 0 147 255 0 147 255 0 147 255 0 147 255 0 147 255 0 147 255 0 147 255 0 147 255 0 147 255 0 159 255 0 159 255 0 159 255 0 159 255 0 159 255 0 159 255 0 159 255 0 159 255 0 159 255 0 159 255 0 164 255 0 164 255 0 164 255 0 164 255 0 164 255 0 164 255 0 164 255 0 164 255 0 164 255 0 164 255 0 166 255 0 166 255 0 166 255 0 166 255 0 166 255 0 166 255 0 166 255 0 166 255 0 166 255 0 166 255 0 189 255 0 189 255 0 189 255 0 189 255 0 189 255 0 189 255 0 189 255 0 189 255 0 189 255 0 189 255 0 191 255 0 191 255 0 191 255 0 191 255 0 191 255 0 191 255 0 191 255 0 191 255 0 191 255 0 191 255 0 200 255 0 200 255 0 200 255 0 200 255 0 200 255 0 200 255 0 200 255 0 200 255 0 200 255 0 200 255 0 214 255 0 214 255 0 214 255 0 214 255 0 214 255 0 214 255 0 214 255 0 214 255 0 214 255 0 214 255 0 198 255 0 198 255 0 198 255 0 198 255 0 198 255 0 198 255 0 198 255 0 198 255 0 198 255 0 198 255 0 174 255 0 174 255 0 174 255 0 174 255 0 174 255 0 174 255 0 174 255 0 174 255 0 174 255 0 174 255 0 172 255 0 172 255 0 172 255 0 172 255 0 172 255 0 172 255 0 172 255 0 172 255 0 172 255 0 172 255 0 190 255 0 190 255 0 190 255 0 190 255 0 190 255 0 190 255 0 190 255 0 190 255 0 190 255 0 190 255 0 179 255 0 179 255 0 179 255 0 179 255 0 179 255 0 179 255 0 179 255 0 179 255 0 179 255 0 179 255 0 135 255 0 135 255 0 135 255 0 135 255 0 135 255 0 135 255 0 135 255 0 135 255 0 135 255 0 135 255 0 126 255 0 126 255 0 126 255 0 126 255 0 126 255 0 126 255 0 126 255 0 126 255 0 126 255 0 126 255 0 145 255 0 145 255 0 145 255 0 145 255 0 145 255 0 145 255 0 145 255 0 145 255 0 145 255 0 145 255 0 126 255 0 126 255 0 126 255 0 126 255 0 126 255 0 126 255 0 126 255 0 126 255 0 126 255 0 126 255 0 149 255 0 149 255 0 149 255 0 149 255 0 149 255 0 149 255 0 149 255 0 149 255 0 149 255 0 149 255 0 143 255 0 143 255 0 143 255 0 143 255 0 143 255 0 143 255 0 143 255 0 143 255 0 143 255 0 143 255 0 153 255 0 153 255 0 153 255 0 153 255 0 153 255 0 153 255 0 153 255 0 153 255 0 153 255 0 153 255 0 158 255 0 158 255 0 158 255 0 158 255 0 158 255 0 158 255 0 158 255 0 158 255 0 158 255 0 158 255 0 178 255 0 178 255 0 178 255 0 178 255 0 178 255 0 178 255 0 178 255 0 178 255 0 178 255 0 178 255 0 146 255 0 146 255 0 146 255 0 146 255 0 146 255 0 146 255 0 146 255 0 146 255 0 146 255 0 146 255 0 157 255 0 157 255 0 157 255 0 157 255 0 157 255 0 157 255 0 157 255 0 157 255 0 157 255 0 157 255 0 162 255 0 162 255 0 162 255 0 162 255 0 162 255 0 162 255 0 162 255 0 162 255 0 162 255 0 162 255 0 154 255 0 154 255 0 154 255 0 154 255 0 154 255 0 154 255 0 154 255 0 154 255 0 154 255 0 154 255 0 165 255 0 165 255 0 165 255 0 165 255 0 165 255 0 165 255 0 165 255 0 165 255 0 165 255 0 165 255 0 0 0 0 0 0 0 0 0 0 0 0 0 0 0 0 0 0 0 0 0 0 0 0 0 0 0 0 0 0 0 181 255 0 181 255 0 181 255 0 181 255 0 181 255 0 181 255 0 181 255 0 181 255 0 181 255 0 181 255 0 181 255 0 181 255 0 181 255 0 181 255 0 181 255 0 181 255 0 181 255 0 181 255 0 181 255 0 181 255 0 181 255 0 181 255 0 181 255 0 181 255 0 181 255 0 181 255 0 181 255 0 181 255 0 181 255 0 181 255 
0 167 255 0 167 255 0 167 255 0 167 255 0 167 255 0 167 255 0 167 255 0 167 255 0 167 255 0 167 255 0 163 255 0 163 255 0 163 255 0 163 255 0 163 255 0 163 255 0 163 255 0 163 255 0 163 255 0 163 255 0 171 255 0 171 255 0 171 255 0 171 255 0 171 255 0 171 255 0 171 255 0 171 255 0 171 255 0 171 255 0 164 255 0 164 255 0 164 255 0 164 255 0 164 255 0 164 255 0 164 255 0 164 255 0 164 255 0 164 255 0 161 255 0 161 255 0 161 255 0 161 255 0 161 255 0 161 255 0 161 255 0 161 255 0 161 255 0 161 255 0 163 255 0 163 255 0 163 255 0 163 255 0 163 255 0 163 255 0 163 255 0 163 255 0 163 255 0 163 255 0 160 255 0 160 255 0 160 255 0 160 255 0 160 255 0 160 255 0 160 255 0 160 255 0 160 255 0 160 255 0 160 255 0 160 255 0 160 255 0 160 255 0 160 255 0 160 255 0 160 255 0 160 255 0 160 255 0 160 255 0 160 255 0 160 255 0 160 255 0 160 255 0 160 255 0 160 255 0 160 255 0 160 255 0 160 255 0 160 255 0 165 255 0 165 255 0 165 255 0 165 255 0 165 255 0 165 255 0 165 255 0 165 255 0 165 255 0 165 255 0 168 255 0 168 255 0 168 255 0 168 255 0 168 255 0 168 255 0 168 255 0 168 255 0 168 255 0 168 255 0 168 255 0 168 255 0 168 255 0 168 255 0 168 255 0 168 255 0 168 255 0 168 255 0 168 255 0 168 255 0 172 255 0 172 255 0 172 255 0 172 255 0 172 255 0 172 255 0 172 255 0 172 255 0 172 255 0 172 255 0 183 255 0 183 255 0 183 255 0 183 255 0 183 255 0 183 255 0 183 255 0 183 255 0 183 255 0 183 255 0 185 255 0 185 255 0 185 255 0 185 255 0 185 255 0 185 255 0 185 255 0 185 255 0 185 255 0 185 255 0 163 255 0 163 255 0 163 255 0 163 255 0 163 255 0 163 255 0 163 255 0 163 255 0 163 255 0 163 255 0 164 255 0 164 255 0 164 255 0 164 255 0 164 255 0 164 255 0 164 255 0 164 255 0 164 255 0 164 255 0 169 255 0 169 255 0 169 255 0 169 255 0 169 255 0 169 255 0 169 255 0 169 255 0 169 255 0 169 255 0 175 255 0 175 255 0 175 255 0 175 255 0 175 255 0 175 255 0 175 255 0 175 255 0 175 255 0 175 255 0 174 255 0 174 255 0 174 255 0 174 255 0 174 255 0 174 255 0 174 255 0 174 255 0 174 255 0 174 255 0 174 255 0 174 255 0 174 255 0 174 255 0 174 255 0 174 255 0 174 255 0 174 255 0 174 255 0 174 255 0 152 255 0 152 255 0 152 255 0 152 255 0 152 255 0 152 255 0 152 255 0 152 255 0 152 255 0 152 255 0 170 255 0 170 255 0 170 255 0 170 255 0 170 255 0 170 255 0 170 255 0 170 255 0 170 255 0 170 255 0 165 255 0 165 255 0 165 255 0 165 255 0 165 255 0 165 255 0 165 255 0 165 255 0 165 255 0 165 255 0 146 255 0 146 255 0 146 255 0 146 255 0 146 255 0 146 255 0 146 255 0 146 255 0 146 255 0 146 255 0 160 255 0 160 255 0 160 255 0 160 255 0 160 255 0 160 255 0 160 255 0 160 255 0 160 255 0 160 255 0 151 255 0 151 255 0 151 255 0 151 255 0 151 255 0 151 255 0 151 255 0 151 255 0 151 255 0 151 255 0 144 255 0 144 255 0 144 255 0 144 255 0 144 255 0 144 255 0 144 255 0 144 255 0 144 255 0 144 255 0 0 0 0 0 0 0 0 0 0 0 0 0 0 0 0 0 0 0 0 0 0 0 0 0 0 0 0 0 0 0 185 255 0 185 255 0 185 255 0 185 255 0 185 255 0 185 255 0 185 255 0 185 255 0 185 255 0 185 255 0 185 255 0 185 255 0 185 255 0 185 255 0 185 255 0 185 255 0 185 255 0 185 255 0 185 255 0 185 255 0 185 255 0 185 255 0 185 255 0 185 255 0 185 255 0 185 255 0 185 255 0 185 255 0 185 255 0 185 255 
0 167 255 0 167 255 0 167 255 0 167 255 0 167 255 0 167 255 0 167 255 0 167 255 0 167 255 0 167 255 0 163 255 0 163 255 0 163 255 0 163 255 0 163 255 0 163 255 0 163 255 0 163 255 0 163 255 0 163 255 0 171 255 0 171 255 0 171 255 0 171 255 0 171 255 0 171 255 0 171 255 0 171 255 0 171 255 0 171 255 0 164 255 0 164 255 0 164 255 0 164 255 0 164 255 0 164 255 0 164 255 0 164 255 0 164 255 0 164 255 0 161 255 0 161 255 0 161 255 0 161 255 0 161 255 0 161 255 0 161 255 0 161 255 0 161 255 0 161 255 0 163 255 0 163 255 0 163 255 0 163 255 0 163 255 0 163 255 0 163 255 0 163 255 0 163 255 0 163 255 0 160 255 0 160 255 0 160 255 0 160 255 0 160 255 0 160 255 0 160 255 0 160 255 0 160 255 0 160 255 0 160 255 0 160 255 0 160 255 0 160 255 0 160 255 0 160 255 0 160 255 0 160 255 0 160 255 0 160 255 0 160 255 0 160 255 0 160 255 0 160 255 0 160 255 0 160 255 0 160 255 0 160 255 0 160 255 0 160 255 0 165 255 0 165 255 0 165 255 0 165 255 0 165 255 0 165 255 0 165 255 0 165 255 0 165 255 0 165 255 0 168 255 0 168 255 0 168 255 0 168 255 0 168 255 0 168 255 0 168 255 0 168 255 0 168 255 0 168 255 0 168 255 0 168 255 0 168 255 0 168 255 0 168 255 0 168 255 0 168 255 0 168 255 0 168 255 0 168 255 0 172 255 0 172 255 0 172 255 0 172 255 0 172 255 0 172 255 0 172 255 0 172 255 0 172 255 0 172 255 0 183 255 0 183 255 0 183 255 0 183 255 0 183 255 0 183 255 0 183 255 0 183 255 0 183 255 0 183 255 0 185 255 0 185 255 0 185 255 0 185 255 0 185 255 0 185 255 0 185 255 0 185 255 0 185 255 0 185 255 0 163 255 0 163 255 0 163 255 0 163 255 0 163 255 0 163 255 0 163 255 0 163 255 0 163 255 0 163 255 0 164 255 0 164 255 0 164 255 0 164 255 0 164 255 0 164 255 0 164 255 0 164 255 0 164 255 0 164 255 0 169 255 0 169 255 0 169 255 0 169 255 0 169 255 0 169 255 0 169 255 0 169 255 0 169 255 0 169 255 0 175 255 0 175 255 0 175 255 0 175 255 0 175 255 0 175 255 0 175 255 0 175 255 0 175 255 0 175 255 0 174 255 0 174 255 0 174 255 0 174 255 0 174 255 0 174 255 0 174 255 0 174 255 0 174 255 0 174 255 0 174 255 0 174 255 0 174 255 0 174 255 0 174 255 0 174 255 0 174 255 0 174 255 0 174 255 0 174 255 0 152 255 0 152 255 0 152 255 0 152 255 0 152 255 0 152 255 0 152 255 0 152 255 0 152 255 0 152 255 0 170 255 0 170 255 0 170 255 0 170 255 0 170 255 0 170 255 0 170 255 0 170 255 0 170 255 0 170 255 0 165 255 0 165 255 0 165 255 0 165 255 0 165 255 0 165 255 0 165 255 0 165 255 0 165 255 0 165 255 0 146 255 0 146 255 0 146 255 0 146 255 0 146 255 0 146 255 0 146 255 0 146 255 0 146 255 0 146 255 0 160 255 0 160 255 0 160 255 0 160 255 0 160 255 0 160 255 0 160 255 0 160 255 0 160 255 0 160 255 0 151 255 0 151 255 0 151 255 0 151 255 0 151 255 0 151 255 0 151 255 0 151 255 0 151 255 0 151 255 0 144 255 0 144 255 0 144 255 0 144 255 0 144 255 0 144 255 0 144 255 0 144 255 0 144 255 0 144 255 0 0 0 0 0 0 0 0 0 0 0 0 0 0 0 0 0 0 0 0 0 0 0 0 0 0 0 0 0 0 0 189 255 0 189 255 0 189 255 0 189 255 0 189 255 0 189 255 0 189 255 0 189 255 0 189 255 0 189 255 0 189 255 0 189 255 0 189 255 0 189 255 0 189 255 0 189 255 0 189 255 0 189 255 0 189 255 0 189 255 0 189 255 0 189 255 0 189 255 0 189 255 0 189 255 0 189 255 0 189 255 0 189 255 0 189 255 0 189 255 
0 167 255 0 167 255 0 167 255 0 167 255 0 167 255 0 167 255 0 167 255 0 167 255 0 167 255 0 167 255 0 163 255 0 163 255 0 163 255 0 163 255 0 163 255 0 163 255 0 163 255 0 163 255 0 163 255 0 163 255 0 171 255 0 171 255 0 171 255 0 171 255 0 171 255 0 171 255 0 171 255 0 171 255 0 171 255 0 171 255 0 164 255 0 164 255 0 164 255 0 164 255 0 164 255 0 164 255 0 164 255 0 164 255 0 164 255 0 164 255 0 161 255 0 161 255 0 161 255 0 161 255 0 161 255 0 161 255 0 161 255 0 161 255 0 161 255 0 161 255 0 163 255 0 163 255 0 163 255 0 163 255 0 163 255 0 163 255 0 163 255 0 163 255 0 163 255 0 163 255 0 160 255 0 160 255 0 160 255 0 160 255 0 160 255 0 160 255 0 160 255 0 160 255 0 160 255 0 160 255 0 160 255 0 160 255 0 160 255 0 160 255 0 160 255 0 160 255 0 160 255 0 160 255 0 160 255 0 160 255 0 160 255 0 160 255 0 160 255 0 160 255 0 160 255 0 160 255 0 160 255 0 160 255 0 160 255 0 160 255 0 165 255 0 165 255 0 165 255 0 165 255 0 165 255 0 165 255 0 165 255 0 165 255 0 165 255 0 165 255 0 168 255 0 168 255 0 168 255 0 168 255 0 168 255 0 168 255 0 168 255 0 168 255 0 168 255 0 168 255 0 168 255 0 168 255 0 168 255 0 168 255 0 168 255 0 168 255 0 168 255 0 168 255 0 168 255 0 168 255 0 172 255 0 172 255 0 172 255 0 172 255 0 172 255 0 172 255 0 172 255 0 172 255 0 172 255 0 172 255 0 183 255 0 183 255 0 183 255 0 183 255 0 183 255 0 183 255 0 183 255 0 183 255 0 183 255 0 183 255 0 185 255 0 185 255 0 185 255 0 185 255 0 185 255 0 185 255 0 185 255 0 185 255 0 185 255 0 185 255 0 163 255 0 163 255 0 163 255 0 163 255 0 163 255 0 163 255 0 163 255 0 163 255 0 163 255 0 163 255 0 164 255 0 164 255 0 164 255 0 164 255 0 164 255 0 164 255 0 164 255 0 164 255 0 164 255 0 164 255 0 169 255 0 169 255 0 169 255 0 169 255 0 169 255 0 169 255 0 169 255 0 169 255 0 169 255 0 169 255 0 175 255 0 175 255 0 175 255 0 175 255 0 175 255 0 175 255 0 175 255 0 175 255 0 175 255 0 175 255 0 174 255 0 174 255 0 174 255 0 174 255 0 174 255 0 174 255 0 174 255 0 174 255 0 174 255 0 174 255 0 174 255 0 174 255 0 174 255 0 174 255 0 174 255 0 174 255 0 174 255 0 174 255 0 174 255 0 174 255 0 152 255 0 152 255 0 152 255 0 152 255 0 152 255 0 152 255 0 152 255 0 152 255 0 152 255 0 152 255 0 170 255 0 170 255 0 170 255 0 170 255 0 170 255 0 170 255 0 170 255 0 170 255 0 170 255 0 170 255 0 165 255 0 165 255 0 165 255 0 165 255 0 165 255 0 165 255 0 165 255 0 165 255 0 165 255 0 165 255 0 146 255 0 146 255 0 146 255 0 146 255 0 146 255 0 146 255 0 146 255 0 146 255 0 146 255 0 146 255 0 160 255 0 160 255 0 160 255 0 160 255 0 160 255 0 160 255 0 160 255 0 160 255 0 160 255 0 160 255 0 151 255 0 151 255 0 151 255 0 151 255 0 151 255 0 151 255 0 151 255 0 151 255 0 151 255 0 151 255 0 144 255 0 144 255 0 144 255 0 144 255 0 144 255 0 144 255 0 144 255 0 144 255 0 144 255 0 144 255 0 0 0 0 0 0 0 0 0 0 0 0 0 0 0 0 0 0 0 0 0 0 0 0 0 0 0 0 0 0 0 192 255 0 192 255 0 192 255 0 192 255 0 192 255 0 192 255 0 192 255 0 192 255 0 192 255 0 192 255 0 192 255 0 192 255 0 192 255 0 192 255 0 192 255 0 192 255 0 192 255 0 192 255 0 192 255 0 192 255 0 192 255 0 192 255 0 192 255 0 192 255 0 192 255 0 192 255 0 192 255 0 192 255 0 192 255 0 192 255 
0 167 255 0 167 255 0 167 255 0 167 255 0 167 255 0 167 255 0 167 255 0 167 255 0 167 255 0 167 255 0 163 255 0 163 255 0 163 255 0 163 255 0 163 255 0 163 255 0 163 255 0 163 255 0 163 255 0 163 255 0 171 255 0 171 255 0 171 255 0 171 255 0 171 255 0 171 255 0 171 255 0 171 255 0 171 255 0 171 255 0 164 255 0 164 255 0 164 255 0 164 255 0 164 255 0 164 255 0 164 255 0 164 255 0 164 255 0 164 255 0 161 255 0 161 255 0 161 255 0 161 255 0 161 255 0 161 255 0 161 255 0 161 255 0 161 255 0 161 255 0 163 255 0 163 255 0 163 255 0 163 255 0 163 255 0 163 255 0 163 255 0 163 255 0 163 255 0 163 255 0 160 255 0 160 255 0 160 255 0 160 255 0 160 255 0 160 255 0 160 255 0 160 255 0 160 255 0 160 255 0 160 255 0 160 255 0 160 255 0 160 255 0 160 255 0 160 255 0 160 255 0 160 255 0 160 255 0 160 255 0 160 255 0 160 255 0 160 255 0 160 255 0 160 255 0 160 255 0 160 255 0 160 255 0 160 255 0 160 255 0 165 255 0 165 255 0 165 255 0 165 255 0 165 255 0 165 255 0 165 255 0 165 255 0 165 255 0 165 255 0 168 255 0 168 255 0 168 255 0 168 255 0 168 255 0 168 255 0 168 255 0 168 255 0 168 255 0 168 255 0 168 255 0 168 255 0 168 255 0 168 255 0 168 255 0 168 255 0 168 255 0 168 255 0 168 255 0 168 255 0 172 255 0 172 255 0 172 255 0 172 255 0 172 255 0 172 255 0 172 255 0 172 255 0 172 255 0 172 255 0 183 255 0 183 255 0 183 255 0 183 255 0 183 255 0 183 255 0 183 255 0 183 255 0 183 255 0 183 255 0 185 255 0 185 255 0 185 255 0 185 255 0 185 255 0 185 255 0 185 255 0 185 255 0 185 255 0 185 255 0 163 255 0 163 255 0 163 255 0 163 255 0 163 255 0 163 255 0 163 255 0 163 255 0 163 255 0 163 255 0 164 255 0 164 255 0 164 255 0 164 255 0 164 255 0 164 255 0 164 255 0 164 255 0 164 255 0 164 255 0 169 255 0 169 255 0 169 255 0 169 255 0 169 255 0 169 255 0 169 255 0 169 255 0 169 255 0 169 255 0 175 255 0 175 255 0 175 255 0 175 255 0 175 255 0 175 255 0 175 255 0 175 255 0 175 255 0 175 255 0 174 255 0 174 255 0 174 255 0 174 255 0 174 255 0 174 255 0 174 255 0 174 255 0 174 255 0 174 255 0 174 255 0 174 255 0 174 255 0 174 255 0 174 255 0 174 255 0 174 255 0 174 255 0 174 255 0 174 255 0 152 255 0 152 255 0 152 255 0 152 255 0 152 255 0 152 255 0 152 255 0 152 255 0 152 255 0 152 255 0 170 255 0 170 255 0 170 255 0 170 255 0 170 255 0 170 255 0 170 255 0 170 255 0 170 255 0 170 255 0 165 255 0 165 255 0 165 255 0 165 255 0 165 255 0 165 255 0 165 255 0 165 255 0 165 255 0 165 255 0 146 255 0 146 255 0 146 255 0 146 255 0 146 255 0 146 255 0 146 255 0 146 255 0 146 255 0 146 255 0 160 255 0 160 255 0 160 255 0 160 255 0 160 255 0 160 255 0 160 255 0 160 255 0 160 255 0 160 255 0 151 255 0 151 255 0 151 255 0 151 255 0 151 255 0 151 255 0 151 255 0 151 255 0 151 255 0 151 255 0 144 255 0 144 255 0 144 255 0 144 255 0 144 255 0 144 255 0 144 255 0 144 255 0 144 255 0 144 255 0 0 0 0 0 0 0 0 0 0 0 0 0 0 0 0 0 0 0 0 0 0 0 0 0 0 0 0 0 0 0 196 255 0 196 255 0 196 255 0 196 255 0 196 255 0 196 255 0 196 255 0 196 255 0 196 255 0 196 255 0 196 255 0 196 255 0 196 255 0 196 255 0 196 255 0 196 255 0 196 255 0 196 255 0 196 255 0 196 255 0 196 255 0 196 255 0 196 255 0 196 255 0 196 255 0 196 255 0 196 255 0 196 255 0 196 255 0 196 255 
0 167 255 0 167 255 0 167 255 0 167 255 0 167 255 0 167 255 0 167 255 0 167 255 0 167 255 0 167 255 0 163 255 0 163 255 0 163 255 0 163 255 0 163 255 0 163 255 0 163 255 0 163 255 0 163 255 0 163 255 0 171 255 0 171 255 0 171 255 0 171 255 0 171 255 0 171 255 0 171 255 0 171 255 0 171 255 0 171 255 0 164 255 0 164 255 0 164 255 0 164 255 0 164 255 0 164 255 0 164 255 0 164 255 0 164 255 0 164 255 0 161 255 0 161 255 0 161 255 0 161 255 0 161 255 0 161 255 0 161 255 0 161 255 0 161 255 0 161 255 0 163 255 0 163 255 0 163 255 0 163 255 0 163 255 0 163 255 0 163 255 0 163 255 0 163 255 0 163 255 0 160 255 0 160 255 0 160 255 0 160 255 0 160 255 0 160 255 0 160 255 0 160 255 0 160 255 0 160 255 0 160 255 0 160 255 0 160 255 0 160 255 0 160 255 0 160 255 0 160 255 0 160 255 0 160 255 0 160 255 0 160 255 0 160 255 0 160 255 0 160 255 0 160 255 0 160 255 0 160 255 0 160 255 0 160 255 0 160 255 0 165 255 0 165 255 0 165 255 0 165 255 0 165 255 0 165 255 0 165 255 0 165 255 0 165 255 0 165 255 0 168 255 0 168 255 0 168 255 0 168 255 0 168 255 0 168 255 0 168 255 0 168 255 0 168 255 0 168 255 0 168 255 0 168 255 0 168 255 0 168 255 0 168 255 0 168 255 0 168 255 0 168 255 0 168 255 0 168 255 0 172 255 0 172 255 0 172 255 0 172 255 0 172 255 0 172 255 0 172 255 0 172 255 0 172 255 0 172 255 0 183 255 0 183 255 0 183 255 0 183 255 0 183 255 0 183 255 0 183 255 0 183 255 0 183 255 0 183 255 0 185 255 0 185 255 0 185 255 0 185 255 0 185 255 0 185 255 0 185 255 0 185 255 0 185 255 0 185 255 0 163 255 0 163 255 0 163 255 0 163 255 0 163 255 0 163 255 0 163 255 0 163 255 0 163 255 0 163 255 0 164 255 0 164 255 0 164 255 0 164 255 0 164 255 0 164 255 0 164 255 0 164 255 0 164 255 0 164 255 0 169 255 0 169 255 0 169 255 0 169 255 0 169 255 0 169 255 0 169 255 0 169 255 0 169 255 0 169 255 0 175 255 0 175 255 0 175 255 0 175 255 0 175 255 0 175 255 0 175 255 0 175 255 0 175 255 0 175 255 0 174 255 0 174 255 0 174 255 0 174 255 0 174 255 0 174 255 0 174 255 0 174 255 0 174 255 0 174 255 0 174 255 0 174 255 0 174 255 0 174 255 0 174 255 0 174 255 0 174 255 0 174 255 0 174 255 0 174 255 0 152 255 0 152 255 0 152 255 0 152 255 0 152 255 0 152 255 0 152 255 0 152 255 0 152 255 0 152 255 0 170 255 0 170 255 0 170 255 0 170 255 0 170 255 0 170 255 0 170 255 0 170 255 0 170 255 0 170 255 0 165 255 0 165 255 0 165 255 0 165 255 0 165 255 0 165 255 0 165 255 0 165 255 0 165 255 0 165 255 0 146 255 0 146 255 0 146 255 0 146 255 0 146 255 0 146 255 0 146 255 0 146 255 0 146 255 0 146 255 0 160 255 0 160 255 0 160 255 0 160 255 0 160 255 0 160 255 0 160 255 0 160 255 0 160 255 0 160 255 0 151 255 0 151 255 0 151 255 0 151 255 0 151 255 0 151 255 0 151 255 0 151 255 0 151 255 0 151 255 0 144 255 0 144 255 0 144 255 0 144 255 0 144 255 0 144 255 0 144 255 0 144 255 0 144 255 0 144 255 0 0 0 0 0 0 0 0 0 0 0 0 0 0 0 0 0 0 0 0 0 0 0 0 0 0 0 0 0 0 0 200 255 0 200 255 0 200 255 0 200 255 0 200 255 0 200 255 0 200 255 0 200 255 0 200 255 0 200 255 0 200 255 0 200 255 0 200 255 0 200 255 0 200 255 0 200 255 0 200 255 0 200 255 0 200 255 0 200 255 0 200 255 0 200 255 0 200 255 0 200 255 0 200 255 0 200 255 0 200 255 0 200 255 0 200 255 0 200 255 
0 167 255 0 167 255 0 167 255 0 167 255 0 167 255 0 167 255 0 167 255 0 167 255 0 167 255 0 167 255 0 163 255 0 163 255 0 163 255 0 163 255 0 163 255 0 163 255 0 163 255 0 163 255 0 163 255 0 163 255 0 171 255 0 171 255 0 171 255 0 171 255 0 171 255 0 171 255 0 171 255 0 171 255 0 171 255 0 171 255 0 164 255 0 164 255 0 164 255 0 164 255 0 164 255 0 164 255 0 164 255 0 164 255 0 164 255 0 164 255 0 161 255 0 161 255 0 161 255 0 161 255 0 161 255 0 161 255 0 161 255 0 161 255 0 161 255 0 161 255 0 163 255 0 163 255 0 163 255 0 163 255 0 163 255 0 163 255 0 163 255 0 163 255 0 163 255 0 163 255 0 160 255 0 160 255 0 160 255 0 160 255 0 160 255 0 160 255 0 160 255 0 160 255 0 160 255 0 160 255 0 160 255 0 160 255 0 160 255 0 160 255 0 160 255 0 160 255 0 160 255 0 160 255 0 160 255 0 160 255 0 160 255 0 160 255 0 160 255 0 160 255 0 160 255 0 160 255 0 160 255 0 160 255 0 160 255 0 160 255 0 165 255 0 165 255 0 165 255 0 165 255 0 165 255 0 165 255 0 165 255 0 165 255 0 165 255 0 165 255 0 168 255 0 168 255 0 168 255 0 168 255 0 168 255 0 168 255 0 168 255 0 168 255 0 168 255 0 168 255 0 168 255 0 168 255 0 168 255 0 168 255 0 168 255 0 168 255 0 168 255 0 168 255 0 168 255 0 168 255 0 172 255 0 172 255 0 172 255 0 172 255 0 172 255 0 172 255 0 172 255 0 172 255 0 172 255 0 172 255 0 183 255 0 183 255 0 183 255 0 183 255 0 183 255 0 183 255 0 183 255 0 183 255 0 183 255 0 183 255 0 185 255 0 185 255 0 185 255 0 185 255 0 185 255 0 185 255 0 185 255 0 185 255 0 185 255 0 185 255 0 163 255 0 163 255 0 163 255 0 163 255 0 163 255 0 163 255 0 163 255 0 163 255 0 163 255 0 163 255 0 164 255 0 164 255 0 164 255 0 164 255 0 164 255 0 164 255 0 164 255 0 164 255 0 164 255 0 164 255 0 169 255 0 169 255 0 169 255 0 169 255 0 169 255 0 169 255 0 169 255 0 169 255 0 169 255 0 169 255 0 175 255 0 175 255 0 175 255 0 175 255 0 175 255 0 175 255 0 175 255 0 175 255 0 175 255 0 175 255 0 174 255 0 174 255 0 174 255 0 174 255 0 174 255 0 174 255 0 174 255 0 174 255 0 174 255 0 174 255 0 174 255 0 174 255 0 174 255 0 174 255 0 174 255 0 174 255 0 174 255 0 174 255 0 174 255 0 174 255 0 152 255 0 152 255 0 152 255 0 152 255 0 152 255 0 152 255 0 152 255 0 152 255 0 152 255 0 152 255 0 170 255 0 170 255 0 170 255 0 170 255 0 170 255 0 170 255 0 170 255 0 170 255 0 170 255 0 170 255 0 165 255 0 165 255 0 165 255 0 165 255 0 165 255 0 165 255 0 165 255 0 165 255 0 165 255 0 165 255 0 146 255 0 146 255 0 146 255 0 146 255 0 146 255 0 146 255 0 146 255 0 146 255 0 146 255 0 146 255 0 160 255 0 160 255 0 160 255 0 160 255 0 160 255 0 160 255 0 160 255 0 160 255 0 160 255 0 160 255 0 151 255 0 151 255 0 151 255 0 151 255 0 151 255 0 151 255 0 151 255 0 151 255 0 151 255 0 151 255 0 144 255 0 144 255 0 144 255 0 144 255 0 144 255 0 144 255 0 144 255 0 144 255 0 144 255 0 144 255 0 0 0 0 0 0 0 0 0 0 0 0 0 0 0 0 0 0 0 0 0 0 0 0 0 0 0 0 0 0 0 203 255 0 203 255 0 203 255 0 203 255 0 203 255 0 203 255 0 203 255 0 203 255 0 203 255 0 203 255 0 203 255 0 203 255 0 203 255 0 203 255 0 203 255 0 203 255 0 203 255 0 203 255 0 203 255 0 203 255 0 203 255 0 203 255 0 203 255 0 203 255 0 203 255 0 203 255 0 203 255 0 203 255 0 203 255 0 203 255 
0 167 255 0 167 255 0 167 255 0 167 255 0 167 255 0 167 255 0 167 255 0 167 255 0 167 255 0 167 255 0 163 255 0 163 255 0 163 255 0 163 255 0 163 255 0 163 255 0 163 255 0 163 255 0 163 255 0 163 255 0 171 255 0 171 255 0 171 255 0 171 255 0 171 255 0 171 255 0 171 255 0 171 255 0 171 255 0 171 255 0 164 255 0 164 255 0 164 255 0 164 255 0 164 255 0 164 255 0 164 255 0 164 255 0 164 255 0 164 255 0 161 255 0 161 255 0 161 255 0 161 255 0 161 255 0 161 255 0 161 255 0 161 255 0 161 255 0 161 255 0 163 255 0 163 255 0 163 255 0 163 255 0 163 255 0 163 255 0 163 255 0 163 255 0 163 255 0 163 255 0 160 255 0 160 255 0 160 255 0 160 255 0 160 255 0 160 255 0 160 255 0 160 255 0 160 255 0 160 255 0 160 255 0 160 255 0 160 255 0 160 255 0 160 255 0 160 255 0 160 255 0 160 255 0 160 255 0 160 255 0 160 255 0 160 255 0 160 255 0 160 255 0 160 255 0 160 255 0 160 255 0 160 255 0 160 255 0 160 255 0 165 255 0 165 255 0 165 255 0 165 255 0 165 255 0 165 255 0 165 255 0 165 255 0 165 255 0 165 255 0 168 255 0 168 255 0 168 255 0 168 255 0 168 255 0 168 255 0 168 255 0 168 255 0 168 255 0 168 255 0 168 255 0 168 255 0 168 255 0 168 255 0 168 255 0 168 255 0 168 255 0 168 255 0 168 255 0 168 255 0 172 255 0 172 255 0 172 255 0 172 255 0 172 255 0 172 255 0 172 255 0 172 255 0 172 255 0 172 255 0 183 255 0 183 255 0 183 255 0 183 255 0 183 255 0 183 255 0 183 255 0 183 255 0 183 255 0 183 255 0 185 255 0 185 255 0 185 255 0 185 255 0 185 255 0 185 255 0 185 255 0 185 255 0 185 255 0 185 255 0 163 255 0 163 255 0 163 255 0 163 255 0 163 255 0 163 255 0 163 255 0 163 255 0 163 255 0 163 255 0 164 255 0 164 255 0 164 255 0 164 255 0 164 255 0 164 255 0 164 255 0 164 255 0 164 255 0 164 255 0 169 255 0 169 255 0 169 255 0 169 255 0 169 255 0 169 255 0 169 255 0 169 255 0 169 255 0 169 255 0 175 255 0 175 255 0 175 255 0 175 255 0 175 255 0 175 255 0 175 255 0 175 255 0 175 255 0 175 255 0 174 255 0 174 255 0 174 255 0 174 255 0 174 255 0 174 255 0 174 255 0 174 255 0 174 255 0 174 255 0 174 255 0 174 255 0 174 255 0 174 255 0 174 255 0 174 255 0 174 255 0 174 255 0 174 255 0 174 255 0 152 255 0 152 255 0 152 255 0 152 255 0 152 255 0 152 255 0 152 255 0 152 255 0 152 255 0 152 255 0 170 255 0 170 255 0 170 255 0 170 255 0 170 255 0 170 255 0 170 255 0 170 255 0 170 255 0 170 255 0 165 255 0 165 255 0 165 255 0 165 255 0 165 255 0 165 255 0 165 255 0 165 255 0 165 255 0 165 255 0 146 255 0 146 255 0 146 255 0 146 255 0 146 255 0 146 255 0 146 255 0 146 255 0 146 255 0 146 255 0 160 255 0 160 255 0 160 255 0 160 255 0 160 255 0 160 255 0 160 255 0 160 255 0 160 255 0 160 255 0 151 255 0 151 255 0 151 255 0 151 255 0 151 255 0 151 255 0 151 255 0 151 255 0 151 255 0 151 255 0 144 255 0 144 255 0 144 255 0 144 255 0 144 255 0 144 255 0 144 255 0 144 255 0 144 255 0 144 255 0 0 0 0 0 0 0 0 0 0 0 0 0 0 0 0 0 0 0 0 0 0 0 0 0 0 0 0 0 0 0 207 255 0 207 255 0 207 255 0 207 255 0 207 255 0 207 255 0 207 255 0 207 255 0 207 255 0 207 255 0 207 255 0 207 255 0 207 255 0 207 255 0 207 255 0 207 255 0 207 255 0 207 255 0 207 255 0 207 255 0 207 255 0 207 255 0 207 255 0 207 255 0 207 255 0 207 255 0 207 255 0 207 255 0 207 255 0 207 255 
0 167 255 0 167 255 0 167 255 0 167 255 0 167 255 0 167 255 0 167 255 0 167 255 0 167 255 0 167 255 0 163 255 0 163 255 0 163 255 0 163 255 0 163 255 0 163 255 0 163 255 0 163 255 0 163 255 0 163 255 0 171 255 0 171 255 0 171 255 0 171 255 0 171 255 0 171 255 0 171 255 0 171 255 0 171 255 0 171 255 0 164 255 0 164 255 0 164 255 0 164 255 0 164 255 0 164 255 0 164 255 0 164 255 0 164 255 0 164 255 0 161 255 0 161 255 0 161 255 0 161 255 0 161 255 0 161 255 0 161 255 0 161 255 0 161 255 0 161 255 0 163 255 0 163 255 0 163 255 0 163 255 0 163 255 0 163 255 0 163 255 0 163 255 0 163 255 0 163 255 0 160 255 0 160 255 0 160 255 0 160 255 0 160 255 0 160 255 0 160 255 0 160 255 0 160 255 0 160 255 0 160 255 0 160 255 0 160 255 0 160 255 0 160 255 0 160 255 0 160 255 0 160 255 0 160 255 0 160 255 0 160 255 0 160 255 0 160 255 0 160 255 0 160 255 0 160 255 0 160 255 0 160 255 0 160 255 0 160 255 0 165 255 0 165 255 0 165 255 0 165 255 0 165 255 0 165 255 0 165 255 0 165 255 0 165 255 0 165 255 0 168 255 0 168 255 0 168 255 0 168 255 0 168 255 0 168 255 0 168 255 0 168 255 0 168 255 0 168 255 0 168 255 0 168 255 0 168 255 0 168 255 0 168 255 0 168 255 0 168 255 0 168 255 0 168 255 0 168 255 0 172 255 0 172 255 0 172 255 0 172 255 0 172 255 0 172 255 0 172 255 0 172 255 0 172 255 0 172 255 0 183 255 0 183 255 0 183 255 0 183 255 0 183 255 0 183 255 0 183 255 0 183 255 0 183 255 0 183 255 0 185 255 0 185 255 0 185 255 0 185 255 0 185 255 0 185 255 0 185 255 0 185 255 0 185 255 0 185 255 0 163 255 0 163 255 0 163 255 0 163 255 0 163 255 0 163 255 0 163 255 0 163 255 0 163 255 0 163 255 0 164 255 0 164 255 0 164 255 0 164 255 0 164 255 0 164 255 0 164 255 0 164 255 0 164 255 0 164 255 0 169 255 0 169 255 0 169 255 0 169 255 0 169 255 0 169 255 0 169 255 0 169 255 0 169 255 0 169 255 0 175 255 0 175 255 0 175 255 0 175 255 0 175 255 0 175 255 0 175 255 0 175 255 0 175 255 0 175 255 0 174 255 0 174 255 0 174 255 0 174 255 0 174 255 0 174 255 0 174 255 0 174 255 0 174 255 0 174 255 0 174 255 0 174 255 0 174 255 0 174 255 0 174 255 0 174 255 0 174 255 0 174 255 0 174 255 0 174 255 0 152 255 0 152 255 0 152 255 0 152 255 0 152 255 0 152 255 0 152 255 0 152 255 0 152 255 0 152 255 0 170 255 0 170 255 0 170 255 0 170 255 0 170 255 0 170 255 0 170 255 0 170 255 0 170 255 0 170 255 0 165 255 0 165 255 0 165 255 0 165 255 0 165 255 0 165 255 0 165 255 0 165 255 0 165 255 0 165 255 0 146 255 0 146 255 0 146 255 0 146 255 0 146 255 0 146 255 0 146 255 0 146 255 0 146 255 0 146 255 0 160 255 0 160 255 0 160 255 0 160 255 0 160 255 0 160 255 0 160 255 0 160 255 0 160 255 0 160 255 0 151 255 0 151 255 0 151 255 0 151 255 0 151 255 0 151 255 0 151 255 0 151 255 0 151 255 0 151 255 0 144 255 0 144 255 0 144 255 0 144 255 0 144 255 0 144 255 0 144 255 0 144 255 0 144 255 0 144 255 0 0 0 0 0 0 0 0 0 0 0 0 0 0 0 0 0 0 0 0 0 0 0 0 0 0 0 0 0 0 0 211 255 0 211 255 0 211 255 0 211 255 0 211 255 0 211 255 0 211 255 0 211 255 0 211 255 0 211 255 0 211 255 0 211 255 0 211 255 0 211 255 0 211 255 0 211 255 0 211 255 0 211 255 0 211 255 0 211 255 0 211 255 0 211 255 0 211 255 0 211 255 0 211 255 0 211 255 0 211 255 0 211 255 0 211 255 0 211 255 
0 167 255 0 167 255 0 167 255 0 167 255 0 167 255 0 167 255 0 167 255 0 167 255 0 167 255 0 167 255 0 163 255 0 163 255 0 163 255 0 163 255 0 163 255 0 163 255 0 163 255 0 163 255 0 163 255 0 163 255 0 171 255 0 171 255 0 171 255 0 171 255 0 171 255 0 171 255 0 171 255 0 171 255 0 171 255 0 171 255 0 164 255 0 164 255 0 164 255 0 164 255 0 164 255 0 164 255 0 164 255 0 164 255 0 164 255 0 164 255 0 161 255 0 161 255 0 161 255 0 161 255 0 161 255 0 161 255 0 161 255 0 161 255 0 161 255 0 161 255 0 163 255 0 163 255 0 163 255 0 163 255 0 163 255 0 163 255 0 163 255 0 163 255 0 163 255 0 163 255 0 160 255 0 160 255 0 160 255 0 160 255 0 160 255 0 160 255 0 160 255 0 160 255 0 160 255 0 160 255 0 160 255 0 160 255 0 160 255 0 160 255 0 160 255 0 160 255 0 160 255 0 160 255 0 160 255 0 160 255 0 160 255 0 160 255 0 160 255 0 160 255 0 160 255 0 160 255 0 160 255 0 160 255 0 160 255 0 160 255 0 165 255 0 165 255 0 165 255 0 165 255 0 165 255 0 165 255 0 165 255 0 165 255 0 165 255 0 165 255 0 168 255 0 168 255 0 168 255 0 168 255 0 168 255 0 168 255 0 168 255 0 168 255 0 168 255 0 168 255 0 168 255 0 168 255 0 168 255 0 168 255 0 168 255 0 168 255 0 168 255 0 168 255 0 168 255 0 168 255 0 172 255 0 172 255 0 172 255 0 172 255 0 172 255 0 172 255 0 172 255 0 172 255 0 172 255 0 172 255 0 183 255 0 183 255 0 183 255 0 183 255 0 183 255 0 183 255 0 183 255 0 183 255 0 183 255 0 183 255 0 185 255 0 185 255 0 185 255 0 185 255 0 185 255 0 185 255 0 185 255 0 185 255 0 185 255 0 185 255 0 163 255 0 163 255 0 163 255 0 163 255 0 163 255 0 163 255 0 163 255 0 163 255 0 163 255 0 163 255 0 164 255 0 164 255 0 164 255 0 164 255 0 164 255 0 164 255 0 164 255 0 164 255 0 164 255 0 164 255 0 169 255 0 169 255 0 169 255 0 169 255 0 169 255 0 169 255 0 169 255 0 169 255 0 169 255 0 169 255 0 175 255 0 175 255 0 175 255 0 175 255 0 175 255 0 175 255 0 175 255 0 175 255 0 175 255 0 175 255 0 174 255 0 174 255 0 174 255 0 174 255 0 174 255 0 174 255 0 174 255 0 174 255 0 174 255 0 174 255 0 174 255 0 174 255 0 174 255 0 174 255 0 174 255 0 174 255 0 174 255 0 174 255 0 174 255 0 174 255 0 152 255 0 152 255 0 152 255 0 152 255 0 152 255 0 152 255 0 152 255 0 152 255 0 152 255 0 152 255 0 170 255 0 170 255 0 170 255 0 170 255 0 170 255 0 170 255 0 170 255 0 170 255 0 170 255 0 170 255 0 165 255 0 165 255 0 165 255 0 165 255 0 165 255 0 165 255 0 165 255 0 165 255 0 165 255 0 165 255 0 146 255 0 146 255 0 146 255 0 146 255 0 146 255 0 146 255 0 146 255 0 146 255 0 146 255 0 146 255 0 160 255 0 160 255 0 160 255 0 160 255 0 160 255 0 160 255 0 160 255 0 160 255 0 160 255 0 160 255 0 151 255 0 151 255 0 151 255 0 151 255 0 151 255 0 151 255 0 151 255 0 151 255 0 151 255 0 151 255 0 144 255 0 144 255 0 144 255 0 144 255 0 144 255 0 144 255 0 144 255 0 144 255 0 144 255 0 144 255 0 0 0 0 0 0 0 0 0 0 0 0 0 0 0 0 0 0 0 0 0 0 0 0 0 0 0 0 0 0 0 214 255 0 214 255 0 214 255 0 214 255 0 214 255 0 214 255 0 214 255 0 214 255 0 214 255 0 214 255 0 214 255 0 214 255 0 214 255 0 214 255 0 214 255 0 214 255 0 214 255 0 214 255 0 214 255 0 214 255 0 214 255 0 214 255 0 214 255 0 214 255 0 214 255 0 214 255 0 214 255 0 214 255 0 214 255 0 214 255 
0 167 255 0 167 255 0 167 255 0 167 255 0 167 255 0 167 255 0 167 255 0 167 255 0 167 255 0 167 255 0 163 255 0 163 255 0 163 255 0 163 255 0 163 255 0 163 255 0 163 255 0 163 255 0 163 255 0 163 255 0 171 255 0 171 255 0 171 255 0 171 255 0 171 255 0 171 255 0 171 255 0 171 255 0 171 255 0 171 255 0 164 255 0 164 255 0 164 255 0 164 255 0 164 255 0 164 255 0 164 255 0 164 255 0 164 255 0 164 255 0 161 255 0 161 255 0 161 255 0 161 255 0 161 255 0 161 255 0 161 255 0 161 255 0 161 255 0 161 255 0 163 255 0 163 255 0 163 255 0 163 255 0 163 255 0 163 255 0 163 255 0 163 255 0 163 255 0 163 255 0 160 255 0 160 255 0 160 255 0 160 255 0 160 255 0 160 255 0 160 255 0 160 255 0 160 255 0 160 255 0 160 255 0 160 255 0 160 255 0 160 255 0 160 255 0 160 255 0 160 255 0 160 255 0 160 255 0 160 255 0 160 255 0 160 255 0 160 255 0 160 255 0 160 255 0 160 255 0 160 255 0 160 255 0 160 255 0 160 255 0 165 255 0 165 255 0 165 255 0 165 255 0 165 255 0 165 255 0 165 255 0 165 255 0 165 255 0 165 255 0 168 255 0 168 255 0 168 255 0 168 255 0 168 255 0 168 255 0 168 255 0 168 255 0 168 255 0 168 255 0 168 255 0 168 255 0 168 255 0 168 255 0 168 255 0 168 255 0 168 255 0 168 255 0 168 255 0 168 255 0 172 255 0 172 255 0 172 255 0 172 255 0 172 255 0 172 255 0 172 255 0 172 255 0 172 255 0 172 255 0 183 255 0 183 255 0 183 255 0 183 255 0 183 255 0 183 255 0 183 255 0 183 255 0 183 255 0 183 255 0 185 255 0 185 255 0 185 255 0 185 255 0 185 255 0 185 255 0 185 255 0 185 255 0 185 255 0 185 255 0 163 255 0 163 255 0 163 255 0 163 255 0 163 255 0 163 255 0 163 255 0 163 255 0 163 255 0 163 255 0 164 255 0 164 255 0 164 255 0 164 255 0 164 255 0 164 255 0 164 255 0 164 255 0 164 255 0 164 255 0 169 255 0 169 255 0 169 255 0 169 255 0 169 255 0 169 255 0 169 255 0 169 255 0 169 255 0 169 255 0 175 255 0 175 255 0 175 255 0 175 255 0 175 255 0 175 255 0 175 255 0 175 255 0 175 255 0 175 255 0 174 255 0 174 255 0 174 255 0 174 255 0 174 255 0 174 255 0 174 255 0 174 255 0 174 255 0 174 255 0 174 255 0 174 255 0 174 255 0 174 255 0 174 255 0 174 255 0 174 255 0 174 255 0 174 255 0 174 255 0 152 255 0 152 255 0 152 255 0 152 255 0 152 255 0 152 255 0 152 255 0 152 255 0 152 255 0 152 255 0 170 255 0 170 255 0 170 255 0 170 255 0 170 255 0 170 255 0 170 255 0 170 255 0 170 255 0 170 255 0 165 255 0 165 255 0 165 255 0 165 255 0 165 255 0 165 255 0 165 255 0 165 255 0 165 255 0 165 255 0 146 255 0 146 255 0 146 255 0 146 255 0 146 255 0 146 255 0 146 255 0 146 255 0 146 255 0 146 255 0 160 255 0 160 255 0 160 255 0 160 255 0 160 255 0 160 255 0 160 255 0 160 255 0 160 255 0 160 255 0 151 255 0 151 255 0 151 255 0 151 255 0 151 255 0 151 255 0 151 255 0 151 255 0 151 255 0 151 255 0 144 255 0 144 255 0 144 255 0 144 255 0 144 255 0 144 255 0 144 255 0 144 255 0 144 255 0 144 255 0 0 0 0 0 0 0 0 0 0 0 0 0 0 0 0 0 0 0 0 0 0 0 0 0 0 0 0 0 0 0 218 255 0 218 255 0 218 255 0 218 255 0 218 255 0 218 255 0 218 255 0 218 255 0 218 255 0 218 255 0 218 255 0 218 255 0 218 255 0 218 255 0 218 255 0 218 255 0 218 255 0 218 255 0 218 255 0 218 255 0 218 255 0 218 255 0 218 255 0 218 255 0 218 255 0 218 255 0 218 255 0 218 255 0 218 255 0 218 255 
0 147 255 0 147 255 0 147 255 0 147 255 0 147 255 0 147 255 0 147 255 0 147 255 0 147 255 0 147 255 0 164 255 0 164 255 0 164 255 0 164 255 0 164 255 0 164 255 0 164 255 0 164 255 0 164 255 0 164 255 0 151 255 0 151 255 0 151 255 0 151 255 0 151 255 0 151 255 0 151 255 0 151 255 0 151 255 0 151 255 0 159 255 0 159 255 0 159 255 0 159 255 0 159 255 0 159 255 0 159 255 0 159 255 0 159 255 0 159 255 0 163 255 0 163 255 0 163 255 0 163 255 0 163 255 0 163 255 0 163 255 0 163 255 0 163 255 0 163 255 0 168 255 0 168 255 0 168 255 0 168 255 0 168 255 0 168 255 0 168 255 0 168 255 0 168 255 0 168 255 0 154 255 0 154 255 0 154 255 0 154 255 0 154 255 0 154 255 0 154 255 0 154 255 0 154 255 0 154 255 0 152 255 0 152 255 0 152 255 0 152 255 0 152 255 0 152 255 0 152 255 0 152 255 0 152 255 0 152 255 0 169 255 0 169 255 0 169 255 0 169 255 0 169 255 0 169 255 0 169 255 0 169 255 0 169 255 0 169 255 0 147 255 0 147 255 0 147 255 0 147 255 0 147 255 0 147 255 0 147 255 0 147 255 0 147 255 0 147 255 0 155 255 0 155 255 0 155 255 0 155 255 0 155 255 0 155 255 0 155 255 0 155 255 0 155 255 0 155 255 0 165 255 0 165 255 0 165 255 0 165 255 0 165 255 0 165 255 0 165 255 0 165 255 0 165 255 0 165 255 0 166 255 0 166 255 0 166 255 0 166 255 0 166 255 0 166 255 0 166 255 0 166 255 0 166 255 0 166 255 0 150 255 0 150 255 0 150 255 0 150 255 0 150 255 0 150 255 0 150 255 0 150 255 0 150 255 0 150 255 0 154 255 0 154 255 0 154 255 0 154 255 0 154 255 0 154 255 0 154 255 0 154 255 0 154 255 0 154 255 0 162 255 0 162 255 0 162 255 0 162 255 0 162 255 0 162 255 0 162 255 0 162 255 0 162 255 0 162 255 0 172 255 0 172 255 0 172 255 0 172 255 0 172 255 0 172 255 0 172 255 0 172 255 0 172 255 0 172 255 0 168 255 0 168 255 0 168 255 0 168 255 0 168 255 0 168 255 0 168 255 0 168 255 0 168 255 0 168 255 0 153 255 0 153 255 0 153 255 0 153 255 0 153 255 0 153 255 0 153 255 0 153 255 0 153 255 0 153 255 0 170 255 0 170 255 0 170 255 0 170 255 0 170 255 0 170 255 0 170 255 0 170 255 0 170 255 0 170 255 0 145 255 0 145 255 0 145 255 0 145 255 0 145 255 0 145 255 0 145 255 0 145 255 0 145 255 0 145 255 0 147 255 0 147 255 0 147 255 0 147 255 0 147 255 0 147 255 0 147 255 0 147 255 0 147 255 0 147 255 0 169 255 0 169 255 0 169 255 0 169 255 0 169 255 0 169 255 0 169 255 0 169 255 0 169 255 0 169 255 0 160 255 0 160 255 0 160 255 0 160 255 0 160 255 0 160 255 0 160 255 0 160 255 0 160 255 0 160 255 0 150 255 0 150 255 0 150 255 0 150 255 0 150 255 0 150 255 0 150 255 0 150 255 0 150 255 0 150 255 0 149 255 0 149 255 0 149 255 0 149 255 0 149 255 0 149 255 0 149 255 0 149 255 0 149 255 0 149 255 0 146 255 0 146 255 0 146 255 0 146 255 0 146 255 0 146 255 0 146 255 0 146 255 0 146 255 0 146 255 0 144 255 0 144 255 0 144 255 0 144 255 0 144 255 0 144 255 0 144 255 0 144 255 0 144 255 0 144 255 0 0 0 0 0 0 0 0 0 0 0 0 0 0 0 0 0 0 0 0 0 0 0 0 0 0 0 0 0 0 0 222 255 0 222 255 0 222 255 0 222 255 0 222 255 0 222 255 0 222 255 0 222 255 0 222 255 0 222 255 0 222 255 0 222 255 0 222 255 0 222 255 0 222 255 0 222 255 0 222 255 0 222 255 0 222 255 0 222 255 0 222 255 0 222 255 0 222 255 0 222 255 0 222 255 0 222 255 0 222 255 0 222 255 0 222 255 0 222 255 
0 147 255 0 147 255 0 147 255 0 147 255 0 147 255 0 147 255 0 147 255 0 147 255 0 147 255 0 147 255 0 164 255 0 164 255 0 164 255 0 164 255 0 164 255 0 164 255 0 164 255 0 164 255 0 164 255 0 164 255 0 151 255 0 151 255 0 151 255 0 151 255 0 151 255 0 151 255 0 151 255 0 151 255 0 151 255 0 151 255 0 159 255 0 159 255 0 159 255 0 159 255 0 159 255 0 159 255 0 159 255 0 159 255 0 159 255 0 159 255 0 163 255 0 163 255 0 163 255 0 163 255 0 163 255 0 163 255 0 163 255 0 163 255 0 163 255 0 163 255 0 168 255 0 168 255 0 168 255 0 168 255 0 168 255 0 168 255 0 168 255 0 168 255 0 168 255 0 168 255 0 154 255 0 154 255 0 154 255 0 154 255 0 154 255 0 154 255 0 154 255 0 154 255 0 154 255 0 154 255 0 152 255 0 152 255 0 152 255 0 152 255 0 152 255 0 152 255 0 152 255 0 152 255 0 152 255 0 152 255 0 169 255 0 169 255 0 169 255 0 169 255 0 169 255 0 169 255 0 169 255 0 169 255 0 169 255 0 169 255 0 147 255 0 147 255 0 147 255 0 147 255 0 147 255 0 147 255 0 147 255 0 147 255 0 147 255 0 147 255 0 155 255 0 155 255 0 155 255 0 155 255 0 155 255 0 155 255 0 155 255 0 155 255 0 155 255 0 155 255 0 165 255 0 165 255 0 165 255 0 165 255 0 165 255 0 165 255 0 165 255 0 165 255 0 165 255 0 165 255 0 166 255 0 166 255 0 166 255 0 166 255 0 166 255 0 166 255 0 166 255 0 166 255 0 166 255 0 166 255 0 150 255 0 150 255 0 150 255 0 150 255 0 150 255 0 150 255 0 150 255 0 150 255 0 150 255 0 150 255 0 154 255 0 154 255 0 154 255 0 154 255 0 154 255 0 154 255 0 154 255 0 154 255 0 154 255 0 154 255 0 162 255 0 162 255 0 162 255 0 162 255 0 162 255 0 162 255 0 162 255 0 162 255 0 162 255 0 162 255 0 172 255 0 172 255 0 172 255 0 172 255 0 172 255 0 172 255 0 172 255 0 172 255 0 172 255 0 172 255 0 168 255 0 168 255 0 168 255 0 168 255 0 168 255 0 168 255 0 168 255 0 168 255 0 168 255 0 168 255 0 153 255 0 153 255 0 153 255 0 153 255 0 153 255 0 153 255 0 153 255 0 153 255 0 153 255 0 153 255 0 170 255 0 170 255 0 170 255 0 170 255 0 170 255 0 170 255 0 170 255 0 170 255 0 170 255 0 170 255 0 145 255 0 145 255 0 145 255 0 145 255 0 145 255 0 145 255 0 145 255 0 145 255 0 145 255 0 145 255 0 147 255 0 147 255 0 147 255 0 147 255 0 147 255 0 147 255 0 147 255 0 147 255 0 147 255 0 147 255 0 169 255 0 169 255 0 169 255 0 169 255 0 169 255 0 169 255 0 169 255 0 169 255 0 169 255 0 169 255 0 160 255 0 160 255 0 160 255 0 160 255 0 160 255 0 160 255 0 160 255 0 160 255 0 160 255 0 160 255 0 150 255 0 150 255 0 150 255 0 150 255 0 150 255 0 150 255 0 150 255 0 150 255 0 150 255 0 150 255 0 149 255 0 149 255 0 149 255 0 149 255 0 149 255 0 149 255 0 149 255 0 149 255 0 149 255 0 149 255 0 146 255 0 146 255 0 146 255 0 146 255 0 146 255 0 146 255 0 146 255 0 146 255 0 146 255 0 146 255 0 144 255 0 144 255 0 144 255 0 144 255 0 144 255 0 144 255 0 144 255 0 144 255 0 144 255 0 144 255 0 0 0 0 0 0 0 0 0 0 0 0 0 0 0 0 0 0 0 0 0 0 0 0 0 0 0 0 0 0 0 225 255 0 225 255 0 225 255 0 225 255 0 225 255 0 225 255 0 225 255 0 225 255 0 225 255 0 225 255 0 225 255 0 225 255 0 225 255 0 225 255 0 225 255 0 225 255 0 225 255 0 225 255 0 225 255 0 225 255 0 225 255 0 225 255 0 225 255 0 225 255 0 225 255 0 225 255 0 225 255 0 225 255 0 225 255 0 225 255 
0 147 255 0 147 255 0 147 255 0 147 255 0 147 255 0 147 255 0 147 255 0 147 255 0 147 255 0 147 255 0 164 255 0 164 255 0 164 255 0 164 255 0 164 255 0 164 255 0 164 255 0 164 255 0 164 255 0 164 255 0 151 255 0 151 255 0 151 255 0 151 255 0 151 255 0 151 255 0 151 255 0 151 255 0 151 255 0 151 255 0 159 255 0 159 255 0 159 255 0 159 255 0 159 255 0 159 255 0 159 255 0 159 255 0 159 255 0 159 255 0 163 255 0 163 255 0 163 255 0 163 255 0 163 255 0 163 255 0 163 255 0 163 255 0 163 255 0 163 255 0 168 255 0 168 255 0 168 255 0 168 255 0 168 255 0 168 255 0 168 255 0 168 255 0 168 255 0 168 255 0 154 255 0 154 255 0 154 255 0 154 255 0 154 255 0 154 255 0 154 255 0 154 255 0 154 255 0 154 255 0 152 255 0 152 255 0 152 255 0 152 255 0 152 255 0 152 255 0 152 255 0 152 255 0 152 255 0 152 255 0 169 255 0 169 255 0 169 255 0 169 255 0 169 255 0 169 255 0 169 255 0 169 255 0 169 255 0 169 255 0 147 255 0 147 255 0 147 255 0 147 255 0 147 255 0 147 255 0 147 255 0 147 255 0 147 255 0 147 255 0 155 255 0 155 255 0 155 255 0 155 255 0 155 255 0 155 255 0 155 255 0 155 255 0 155 255 0 155 255 0 165 255 0 165 255 0 165 255 0 165 255 0 165 255 0 165 255 0 165 255 0 165 255 0 165 255 0 165 255 0 166 255 0 166 255 0 166 255 0 166 255 0 166 255 0 166 255 0 166 255 0 166 255 0 166 255 0 166 255 0 150 255 0 150 255 0 150 255 0 150 255 0 150 255 0 150 255 0 150 255 0 150 255 0 150 255 0 150 255 0 154 255 0 154 255 0 154 255 0 154 255 0 154 255 0 154 255 0 154 255 0 154 255 0 154 255 0 154 255 0 162 255 0 162 255 0 162 255 0 162 255 0 162 255 0 162 255 0 162 255 0 162 255 0 162 255 0 162 255 0 172 255 0 172 255 0 172 255 0 172 255 0 172 255 0 172 255 0 172 255 0 172 255 0 172 255 0 172 255 0 168 255 0 168 255 0 168 255 0 168 255 0 168 255 0 168 255 0 168 255 0 168 255 0 168 255 0 168 255 0 153 255 0 153 255 0 153 255 0 153 255 0 153 255 0 153 255 0 153 255 0 153 255 0 153 255 0 153 255 0 170 255 0 170 255 0 170 255 0 170 255 0 170 255 0 170 255 0 170 255 0 170 255 0 170 255 0 170 255 0 145 255 0 145 255 0 145 255 0 145 255 0 145 255 0 145 255 0 145 255 0 145 255 0 145 255 0 145 255 0 147 255 0 147 255 0 147 255 0 147 255 0 147 255 0 147 255 0 147 255 0 147 255 0 147 255 0 147 255 0 169 255 0 169 255 0 169 255 0 169 255 0 169 255 0 169 255 0 169 255 0 169 255 0 169 255 0 169 255 0 160 255 0 160 255 0 160 255 0 160 255 0 160 255 0 160 255 0 160 255 0 160 255 0 160 255 0 160 255 0 150 255 0 150 255 0 150 255 0 150 255 0 150 255 0 150 255 0 150 255 0 150 255 0 150 255 0 150 255 0 149 255 0 149 255 0 149 255 0 149 255 0 149 255 0 149 255 0 149 255 0 149 255 0 149 255 0 149 255 0 146 255 0 146 255 0 146 255 0 146 255 0 146 255 0 146 255 0 146 255 0 146 255 0 146 255 0 146 255 0 144 255 0 144 255 0 144 255 0 144 255 0 144 255 0 144 255 0 144 255 0 144 255 0 144 255 0 144 255 0 0 0 0 0 0 0 0 0 0 0 0 0 0 0 0 0 0 0 0 0 0 0 0 0 0 0 0 0 0 0 229 255 0 229 255 0 229 255 0 229 255 0 229 255 0 229 255 0 229 255 0 229 255 0 229 255 0 229 255 0 229 255 0 229 255 0 229 255 0 229 255 0 229 255 0 229 255 0 229 255 0 229 255 0 229 255 0 229 255 0 229 255 0 229 255 0 229 255 0 229 255 0 229 255 0 229 255 0 229 255 0 229 255 0 229 255 0 229 255 
0 147 255 0 147 255 0 147 255 0 147 255 0 147 255 0 147 255 0 147 255 0 147 255 0 147 255 0 147 255 0 164 255 0 164 255 0 164 255 0 164 255 0 164 255 0 164 255 0 164 255 0 164 255 0 164 255 0 164 255 0 151 255 0 151 255 0 151 255 0 151 255 0 151 255 0 151 255 0 151 255 0 151 255 0 151 255 0 151 255 0 159 255 0 159 255 0 159 255 0 159 255 0 159 255 0 159 255 0 159 255 0 159 255 0 159 255 0 159 255 0 163 255 0 163 255 0 163 255 0 163 255 0 163 255 0 163 255 0 163 255 0 163 255 0 163 255 0 163 255 0 168 255 0 168 255 0 168 255 0 168 255 0 168 255 0 168 255 0 168 255 0 168 255 0 168 255 0 168 255 0 154 255 0 154 255 0 154 255 0 154 255 0 154 255 0 154 255 0 154 255 0 154 255 0 154 255 0 154 255 0 152 255 0 152 255 0 152 255 0 152 255 0 152 255 0 152 255 0 152 255 0 152 255 0 152 255 0 152 255 0 169 255 0 169 255 0 169 255 0 169 255 0 169 255 0 169 255 0 169 255 0 169 255 0 169 255 0 169 255 0 147 255 0 147 255 0 147 255 0 147 255 0 147 255 0 147 255 0 147 255 0 147 255 0 147 255 0 147 255 0 155 255 0 155 255 0 155 255 0 155 255 0 155 255 0 155 255 0 155 255 0 155 255 0 155 255 0 155 255 0 165 255 0 165 255 0 165 255 0 165 255 0 165 255 0 165 255 0 165 255 0 165 255 0 165 255 0 165 255 0 166 255 0 166 255 0 166 255 0 166 255 0 166 255 0 166 255 0 166 255 0 166 255 0 166 255 0 166 255 0 150 255 0 150 255 0 150 255 0 150 255 0 150 255 0 150 255 0 150 255 0 150 255 0 150 255 0 150 255 0 154 255 0 154 255 0 154 255 0 154 255 0 154 255 0 154 255 0 154 255 0 154 255 0 154 255 0 154 255 0 162 255 0 162 255 0 162 255 0 162 255 0 162 255 0 162 255 0 162 255 0 162 255 0 162 255 0 162 255 0 172 255 0 172 255 0 172 255 0 172 255 0 172 255 0 172 255 0 172 255 0 172 255 0 172 255 0 172 255 0 168 255 0 168 255 0 168 255 0 168 255 0 168 255 0 168 255 0 168 255 0 168 255 0 168 255 0 168 255 0 153 255 0 153 255 0 153 255 0 153 255 0 153 255 0 153 255 0 153 255 0 153 255 0 153 255 0 153 255 0 170 255 0 170 255 0 170 255 0 170 255 0 170 255 0 170 255 0 170 255 0 170 255 0 170 255 0 170 255 0 145 255 0 145 255 0 145 255 0 145 255 0 145 255 0 145 255 0 145 255 0 145 255 0 145 255 0 145 255 0 147 255 0 147 255 0 147 255 0 147 255 0 147 255 0 147 255 0 147 255 0 147 255 0 147 255 0 147 255 0 169 255 0 169 255 0 169 255 0 169 255 0 169 255 0 169 255 0 169 255 0 169 255 0 169 255 0 169 255 0 160 255 0 160 255 0 160 255 0 160 255 0 160 255 0 160 255 0 160 255 0 160 255 0 160 255 0 160 255 0 150 255 0 150 255 0 150 255 0 150 255 0 150 255 0 150 255 0 150 255 0 150 255 0 150 255 0 150 255 0 149 255 0 149 255 0 149 255 0 149 255 0 149 255 0 149 255 0 149 255 0 149 255 0 149 255 0 149 255 0 146 255 0 146 255 0 146 255 0 146 255 0 146 255 0 146 255 0 146 255 0 146 255 0 146 255 0 146 255 0 144 255 0 144 255 0 144 255 0 144 255 0 144 255 0 144 255 0 144 255 0 144 255 0 144 255 0 144 255 0 0 0 0 0 0 0 0 0 0 0 0 0 0 0 0 0 0 0 0 0 0 0 0 0 0 0 0 0 0 0 233 255 0 233 255 0 233 255 0 233 255 0 233 255 0 233 255 0 233 255 0 233 255 0 233 255 0 233 255 0 233 255 0 233 255 0 233 255 0 233 255 0 233 255 0 233 255 0 233 255 0 233 255 0 233 255 0 233 255 0 233 255 0 233 255 0 233 255 0 233 255 0 233 255 0 233 255 0 233 255 0 233 255 0 233 255 0 233 255 
0 147 255 0 147 255 0 147 255 0 147 255 0 147 255 0 147 255 0 147 255 0 147 255 0 147 255 0 147 255 0 164 255 0 164 255 0 164 255 0 164 255 0 164 255 0 164 255 0 164 255 0 164 255 0 164 255 0 164 255 0 151 255 0 151 255 0 151 255 0 151 255 0 151 255 0 151 255 0 151 255 0 151 255 0 151 255 0 151 255 0 159 255 0 159 255 0 159 255 0 159 255 0 159 255 0 159 255 0 159 255 0 159 255 0 159 255 0 159 255 0 163 255 0 163 255 0 163 255 0 163 255 0 163 255 0 163 255 0 163 255 0 163 255 0 163 255 0 163 255 0 168 255 0 168 255 0 168 255 0 168 255 0 168 255 0 168 255 0 168 255 0 168 255 0 168 255 0 168 255 0 154 255 0 154 255 0 154 255 0 154 255 0 154 255 0 154 255 0 154 255 0 154 255 0 154 255 0 154 255 0 152 255 0 152 255 0 152 255 0 152 255 0 152 255 0 152 255 0 152 255 0 152 255 0 152 255 0 152 255 0 169 255 0 169 255 0 169 255 0 169 255 0 169 255 0 169 255 0 169 255 0 169 255 0 169 255 0 169 255 0 147 255 0 147 255 0 147 255 0 147 255 0 147 255 0 147 255 0 147 255 0 147 255 0 147 255 0 147 255 0 155 255 0 155 255 0 155 255 0 155 255 0 155 255 0 155 255 0 155 255 0 155 255 0 155 255 0 155 255 0 165 255 0 165 255 0 165 255 0 165 255 0 165 255 0 165 255 0 165 255 0 165 255 0 165 255 0 165 255 0 166 255 0 166 255 0 166 255 0 166 255 0 166 255 0 166 255 0 166 255 0 166 255 0 166 255 0 166 255 0 150 255 0 150 255 0 150 255 0 150 255 0 150 255 0 150 255 0 150 255 0 150 255 0 150 255 0 150 255 0 154 255 0 154 255 0 154 255 0 154 255 0 154 255 0 154 255 0 154 255 0 154 255 0 154 255 0 154 255 0 162 255 0 162 255 0 162 255 0 162 255 0 162 255 0 162 255 0 162 255 0 162 255 0 162 255 0 162 255 0 172 255 0 172 255 0 172 255 0 172 255 0 172 255 0 172 255 0 172 255 0 172 255 0 172 255 0 172 255 0 168 255 0 168 255 0 168 255 0 168 255 0 168 255 0 168 255 0 168 255 0 168 255 0 168 255 0 168 255 0 153 255 0 153 255 0 153 255 0 153 255 0 153 255 0 153 255 0 153 255 0 153 255 0 153 255 0 153 255 0 170 255 0 170 255 0 170 255 0 170 255 0 170 255 0 170 255 0 170 255 0 170 255 0 170 255 0 170 255 0 145 255 0 145 255 0 145 255 0 145 255 0 145 255 0 145 255 0 145 255 0 145 255 0 145 255 0 145 255 0 147 255 0 147 255 0 147 255 0 147 255 0 147 255 0 147 255 0 147 255 0 147 255 0 147 255 0 147 255 0 169 255 0 169 255 0 169 255 0 169 255 0 169 255 0 169 255 0 169 255 0 169 255 0 169 255 0 169 255 0 160 255 0 160 255 0 160 255 0 160 255 0 160 255 0 160 255 0 160 255 0 160 255 0 160 255 0 160 255 0 150 255 0 150 255 0 150 255 0 150 255 0 150 255 0 150 255 0 150 255 0 150 255 0 150 255 0 150 255 0 149 255 0 149 255 0 149 255 0 149 255 0 149 255 0 149 255 0 149 255 0 149 255 0 149 255 0 149 255 0 146 255 0 146 255 0 146 255 0 146 255 0 146 255 0 146 255 0 146 255 0 146 255 0 146 255 0 146 255 0 144 255 0 144 255 0 144 255 0 144 255 0 144 255 0 144 255 0 144 255 0 144 255 0 144 255 0 144 255 0 0 0 0 0 0 0 0 0 0 0 0 0 0 0 0 0 0 0 0 0 0 0 0 0 0 0 0 0 0 0 236 255 0 236 255 0 236 255 0 236 255 0 236 255 0 236 255 0 236 255 0 236 255 0 236 255 0 236 255 0 236 255 0 236 255 0 236 255 0 236 255 0 236 255 0 236 255 0 236 255 0 236 255 0 236 255 0 236 255 0 236 255 0 236 255 0 236 255 0 236 255 0 236 255 0 236 255 0 236 255 0 236 255 0 236 255 0 236 255 
0 147 255 0 147 255 0 147 255 0 147 255 0 147 255 0 147 255 0 147 255 0 147 255 0 147 255 0 147 255 0 164 255 0 164 255 0 164 255 0 164 255 0 164 255 0 164 255 0 164 255 0 164 255 0 164 255 0 164 255 0 151 255 0 151 255 0 151 255 0 151 255 0 151 255 0 151 255 0 151 255 0 151 255 0 151 255 0 151 255 0 159 255 0 159 255 0 159 255 0 159 255 0 159 255 0 159 255 0 159 255 0 159 255 0 159 255 0 159 255 0 163 255 0 163 255 0 163 255 0 163 255 0 163 255 0 163 255 0 163 255 0 163 255 0 163 255 0 163 255 0 168 255 0 168 255 0 168 255 0 168 255 0 168 255 0 168 255 0 168 255 0 168 255 0 168 255 0 168 255 0 154 255 0 154 255 0 154 255 0 154 255 0 154 255 0 154 255 0 154 255 0 154 255 0 154 255 0 154 255 0 152 255 0 152 255 0 152 255 0 152 255 0 152 255 0 152 255 0 152 255 0 152 255 0 152 255 0 152 255 0 169 255 0 169 255 0 169 255 0 169 255 0 169 255 0 169 255 0 169 255 0 169 255 0 169 255 0 169 255 0 147 255 0 147 255 0 147 255 0 147 255 0 147 255 0 147 255 0 147 255 0 147 255 0 147 255 0 147 255 0 155 255 0 155 255 0 155 255 0 155 255 0 155 255 0 155 255 0 155 255 0 155 255 0 155 255 0 155 255 0 165 255 0 165 255 0 165 255 0 165 255 0 165 255 0 165 255 0 165 255 0 165 255 0 165 255 0 165 255 0 166 255 0 166 255 0 166 255 0 166 255 0 166 255 0 166 255 0 166 255 0 166 255 0 166 255 0 166 255 0 150 255 0 150 255 0 150 255 0 150 255 0 150 255 0 150 255 0 150 255 0 150 255 0 150 255 0 150 255 0 154 255 0 154 255 0 154 255 0 154 255 0 154 255 0 154 255 0 154 255 0 154 255 0 154 255 0 154 255 0 162 255 0 162 255 0 162 255 0 162 255 0 162 255 0 162 255 0 162 255 0 162 255 0 162 255 0 162 255 0 172 255 0 172 255 0 172 255 0 172 255 0 172 255 0 172 255 0 172 255 0 172 255 0 172 255 0 172 255 0 168 255 0 168 255 0 168 255 0 168 255 0 168 255 0 168 255 0 168 255 0 168 255 0 168 255 0 168 255 0 153 255 0 153 255 0 153 255 0 153 255 0 153 255 0 153 255 0 153 255 0 153 255 0 153 255 0 153 255 0 170 255 0 170 255 0 170 255 0 170 255 0 170 255 0 170 255 0 170 255 0 170 255 0 170 255 0 170 255 0 145 255 0 145 255 0 145 255 0 145 255 0 145 255 0 145 255 0 145 255 0 145 255 0 145 255 0 145 255 0 147 255 0 147 255 0 147 255 0 147 255 0 147 255 0 147 255 0 147 255 0 147 255 0 147 255 0 147 255 0 169 255 0 169 255 0 169 255 0 169 255 0 169 255 0 169 255 0 169 255 0 169 255 0 169 255 0 169 255 0 160 255 0 160 255 0 160 255 0 160 255 0 160 255 0 160 255 0 160 255 0 160 255 0 160 255 0 160 255 0 150 255 0 150 255 0 150 255 0 150 255 0 150 255 0 150 255 0 150 255 0 150 255 0 150 255 0 150 255 0 149 255 0 149 255 0 149 255 0 149 255 0 149 255 0 149 255 0 149 255 0 149 255 0 149 255 0 149 255 0 146 255 0 146 255 0 146 255 0 146 255 0 146 255 0 146 255 0 146 255 0 146 255 0 146 255 0 146 255 0 144 255 0 144 255 0 144 255 0 144 255 0 144 255 0 144 255 0 144 255 0 144 255 0 144 255 0 144 255 0 0 0 0 0 0 0 0 0 0 0 0 0 0 0 0 0 0 0 0 0 0 0 0 0 0 0 0 0 0 0 240 255 0 240 255 0 240 255 0 240 255 0 240 255 0 240 255 0 240 255 0 240 255 0 240 255 0 240 255 0 240 255 0 240 255 0 240 255 0 240 255 0 240 255 0 240 255 0 240 255 0 240 255 0 240 255 0 240 255 0 240 255 0 240 255 0 240 255 0 240 255 0 240 255 0 240 255 0 240 255 0 240 255 0 240 255 0 240 255 
0 147 255 0 147 255 0 147 255 0 147 255 0 147 255 0 147 255 0 147 255 0 147 255 0 147 255 0 147 255 0 164 255 0 164 255 0 164 255 0 164 255 0 164 255 0 164 255 0 164 255 0 164 255 0 164 255 0 164 255 0 151 255 0 151 255 0 151 255 0 151 255 0 151 255 0 151 255 0 151 255 0 151 255 0 151 255 0 151 255 0 159 255 0 159 255 0 159 255 0 159 255 0 159 255 0 159 255 0 159 255 0 159 255 0 159 255 0 159 255 0 163 255 0 163 255 0 163 255 0 163 255 0 163 255 0 163 255 0 163 255 0 163 255 0 163 255 0 163 255 0 168 255 0 168 255 0 168 255 0 168 255 0 168 255 0 168 255 0 168 255 0 168 255 0 168 255 0 168 255 0 154 255 0 154 255 0 154 255 0 154 255 0 154 255 0 154 255 0 154 255 0 154 255 0 154 255 0 154 255 0 152 255 0 152 255 0 152 255 0 152 255 0 152 255 0 152 255 0 152 255 0 152 255 0 152 255 0 152 255 0 169 255 0 169 255 0 169 255 0 169 255 0 169 255 0 169 255 0 169 255 0 169 255 0 169 255 0 169 255 0 147 255 0 147 255 0 147 255 0 147 255 0 147 255 0 147 255 0 147 255 0 147 255 0 147 255 0 147 255 0 155 255 0 155 255 0 155 255 0 155 255 0 155 255 0 155 255 0 155 255 0 155 255 0 155 255 0 155 255 0 165 255 0 165 255 0 165 255 0 165 255 0 165 255 0 165 255 0 165 255 0 165 255 0 165 255 0 165 255 0 166 255 0 166 255 0 166 255 0 166 255 0 166 255 0 166 255 0 166 255 0 166 255 0 166 255 0 166 255 0 150 255 0 150 255 0 150 255 0 150 255 0 150 255 0 150 255 0 150 255 0 150 255 0 150 255 0 150 255 0 154 255 0 154 255 0 154 255 0 154 255 0 154 255 0 154 255 0 154 255 0 154 255 0 154 255 0 154 255 0 162 255 0 162 255 0 162 255 0 162 255 0 162 255 0 162 255 0 162 255 0 162 255 0 162 255 0 162 255 0 172 255 0 172 255 0 172 255 0 172 255 0 172 255 0 172 255 0 172 255 0 172 255 0 172 255 0 172 255 0 168 255 0 168 255 0 168 255 0 168 255 0 168 255 0 168 255 0 168 255 0 168 255 0 168 255 0 168 255 0 153 255 0 153 255 0 153 255 0 153 255 0 153 255 0 153 255 0 153 255 0 153 255 0 153 255 0 153 255 0 170 255 0 170 255 0 170 255 0 170 255 0 170 255 0 170 255 0 170 255 0 170 255 0 170 255 0 170 255 0 145 255 0 145 255 0 145 255 0 145 255 0 145 255 0 145 255 0 145 255 0 145 255 0 145 255 0 145 255 0 147 255 0 147 255 0 147 255 0 147 255 0 147 255 0 147 255 0 147 255 0 147 255 0 147 255 0 147 255 0 169 255 0 169 255 0 169 255 0 169 255 0 169 255 0 169 255 0 169 255 0 169 255 0 169 255 0 169 255 0 160 255 0 160 255 0 160 255 0 160 255 0 160 255 0 160 255 0 160 255 0 160 255 0 160 255 0 160 255 0 150 255 0 150 255 0 150 255 0 150 255 0 150 255 0 150 255 0 150 255 0 150 255 0 150 255 0 150 255 0 149 255 0 149 255 0 149 255 0 149 255 0 149 255 0 149 255 0 149 255 0 149 255 0 149 255 0 149 255 0 146 255 0 146 255 0 146 255 0 146 255 0 146 255 0 146 255 0 146 255 0 146 255 0 146 255 0 146 255 0 144 255 0 144 255 0 144 255 0 144 255 0 144 255 0 144 255 0 144 255 0 144 255 0 144 255 0 144 255 0 0 0 0 0 0 0 0 0 0 0 0 0 0 0 0 0 0 0 0 0 0 0 0 0 0 0 0 0 0 0 244 255 0 244 255 0 244 255 0 244 255 0 244 255 0 244 255 0 244 255 0 244 255 0 244 255 0 244 255 0 244 255 0 244 255 0 244 255 0 244 255 0 244 255 0 244 255 0 244 255 0 244 255 0 244 255 0 244 255 0 244 255 0 244 255 0 244 255 0 244 255 0 244 255 0 244 255 0 244 255 0 244 255 0 244 255 0 244 255 
0 147 255 0 147 255 0 147 255 0 147 255 0 147 255 0 147 255 0 147 255 0 147 255 0 147 255 0 147 255 0 164 255 0 164 255 0 164 255 0 164 255 0 164 255 0 164 255 0 164 255 0 164 255 0 164 255 0 164 255 0 151 255 0 151 255 0 151 255 0 151 255 0 151 255 0 151 255 0 151 255 0 151 255 0 151 255 0 151 255 0 159 255 0 159 255 0 159 255 0 159 255 0 159 255 0 159 255 0 159 255 0 159 255 0 159 255 0 159 255 0 163 255 0 163 255 0 163 255 0 163 255 0 163 255 0 163 255 0 163 255 0 163 255 0 163 255 0 163 255 0 168 255 0 168 255 0 168 255 0 168 255 0 168 255 0 168 255 0 168 255 0 168 255 0 168 255 0 168 255 0 154 255 0 154 255 0 154 255 0 154 255 0 154 255 0 154 255 0 154 255 0 154 255 0 154 255 0 154 255 0 152 255 0 152 255 0 152 255 0 152 255 0 152 255 0 152 255 0 152 255 0 152 255 0 152 255 0 152 255 0 169 255 0 169 255 0 169 255 0 169 255 0 169 255 0 169 255 0 169 255 0 169 255 0 169 255 0 169 255 0 147 255 0 147 255 0 147 255 0 147 255 0 147 255 0 147 255 0 147 255 0 147 255 0 147 255 0 147 255 0 155 255 0 155 255 0 155 255 0 155 255 0 155 255 0 155 255 0 155 255 0 155 255 0 155 255 0 155 255 0 165 255 0 165 255 0 165 255 0 165 255 0 165 255 0 165 255 0 165 255 0 165 255 0 165 255 0 165 255 0 166 255 0 166 255 0 166 255 0 166 255 0 166 255 0 166 255 0 166 255 0 166 255 0 166 255 0 166 255 0 150 255 0 150 255 0 150 255 0 150 255 0 150 255 0 150 255 0 150 255 0 150 255 0 150 255 0 150 255 0 154 255 0 154 255 0 154 255 0 154 255 0 154 255 0 154 255 0 154 255 0 154 255 0 154 255 0 154 255 0 162 255 0 162 255 0 162 255 0 162 255 0 162 255 0 162 255 0 162 255 0 162 255 0 162 255 0 162 255 0 172 255 0 172 255 0 172 255 0 172 255 0 172 255 0 172 255 0 172 255 0 172 255 0 172 255 0 172 255 0 168 255 0 168 255 0 168 255 0 168 255 0 168 255 0 168 255 0 168 255 0 168 255 0 168 255 0 168 255 0 153 255 0 153 255 0 153 255 0 153 255 0 153 255 0 153 255 0 153 255 0 153 255 0 153 255 0 153 255 0 170 255 0 170 255 0 170 255 0 170 255 0 170 255 0 170 255 0 170 255 0 170 255 0 170 255 0 170 255 0 145 255 0 145 255 0 145 255 0 145 255 0 145 255 0 145 255 0 145 255 0 145 255 0 145 255 0 145 255 0 147 255 0 147 255 0 147 255 0 147 255 0 147 255 0 147 255 0 147 255 0 147 255 0 147 255 0 147 255 0 169 255 0 169 255 0 169 255 0 169 255 0 169 255 0 169 255 0 169 255 0 169 255 0 169 255 0 169 255 0 160 255 0 160 255 0 160 255 0 160 255 0 160 255 0 160 255 0 160 255 0 160 255 0 160 255 0 160 255 0 150 255 0 150 255 0 150 255 0 150 255 0 150 255 0 150 255 0 150 255 0 150 255 0 150 255 0 150 255 0 149 255 0 149 255 0 149 255 0 149 255 0 149 255 0 149 255 0 149 255 0 149 255 0 149 255 0 149 255 0 146 255 0 146 255 0 146 255 0 146 255 0 146 255 0 146 255 0 146 255 0 146 255 0 146 255 0 146 255 0 144 255 0 144 255 0 144 255 0 144 255 0 144 255 0 144 255 0 144 255 0 144 255 0 144 255 0 144 255 0 0 0 0 0 0 0 0 0 0 0 0 0 0 0 0 0 0 0 0 0 0 0 0 0 0 0 0 0 0 0 247 255 0 247 255 0 247 255 0 247 255 0 247 255 0 247 255 0 247 255 0 247 255 0 247 255 0 247 255 0 247 255 0 247 255 0 247 255 0 247 255 0 247 255 0 247 255 0 247 255 0 247 255 0 247 255 0 247 255 0 247 255 0 247 255 0 247 255 0 247 255 0 247 255 0 247 255 0 247 255 0 247 255 0 247 255 0 247 255 
0 147 255 0 147 255 0 147 255 0 147 255 0 147 255 0 147 255 0 147 255 0 147 255 0 147 255 0 147 255 0 164 255 0 164 255 0 164 255 0 164 255 0 164 255 0 164 255 0 164 255 0 164 255 0 164 255 0 164 255 0 151 255 0 151 255 0 151 255 0 151 255 0 151 255 0 151 255 0 151 255 0 151 255 0 151 255 0 151 255 0 159 255 0 159 255 0 159 255 0 159 255 0 159 255 0 159 255 0 159 255 0 159 255 0 159 255 0 159 255 0 163 255 0 163 255 0 163 255 0 163 255 0 163 255 0 163 255 0 163 255 0 163 255 0 163 255 0 163 255 0 168 255 0 168 255 0 168 255 0 168 255 0 168 255 0 168 255 0 168 255 0 168 255 0 168 255 0 168 255 0 154 255 0 154 255 0 154 255 0 154 255 0 154 255 0 154 255 0 154 255 0 154 255 0 154 255 0 154 255 0 152 255 0 152 255 0 152 255 0 152 255 0 152 255 0 152 255 0 152 255 0 152 255 0 152 255 0 152 255 0 169 255 0 169 255 0 169 255 0 169 255 0 169 255 0 169 255 0 169 255 0 169 255 0 169 255 0 169 255 0 147 255 0 147 255 0 147 255 0 147 255 0 147 255 0 147 255 0 147 255 0 147 255 0 147 255 0 147 255 0 155 255 0 155 255 0 155 255 0 155 255 0 155 255 0 155 255 0 155 255 0 155 255 0 155 255 0 155 255 0 165 255 0 165 255 0 165 255 0 165 255 0 165 255 0 165 255 0 165 255 0 165 255 0 165 255 0 165 255 0 166 255 0 166 255 0 166 255 0 166 255 0 166 255 0 166 255 0 166 255 0 166 255 0 166 255 0 166 255 0 150 255 0 150 255 0 150 255 0 150 255 0 150 255 0 150 255 0 150 255 0 150 255 0 150 255 0 150 255 0 154 255 0 154 255 0 154 255 0 154 255 0 154 255 0 154 255 0 154 255 0 154 255 0 154 255 0 154 255 0 162 255 0 162 255 0 162 255 0 162 255 0 162 255 0 162 255 0 162 255 0 162 255 0 162 255 0 162 255 0 172 255 0 172 255 0 172 255 0 172 255 0 172 255 0 172 255 0 172 255 0 172 255 0 172 255 0 172 255 0 168 255 0 168 255 0 168 255 0 168 255 0 168 255 0 168 255 0 168 255 0 168 255 0 168 255 0 168 255 0 153 255 0 153 255 0 153 255 0 153 255 0 153 255 0 153 255 0 153 255 0 153 255 0 153 255 0 153 255 0 170 255 0 170 255 0 170 255 0 170 255 0 170 255 0 170 255 0 170 255 0 170 255 0 170 255 0 170 255 0 145 255 0 145 255 0 145 255 0 145 255 0 145 255 0 145 255 0 145 255 0 145 255 0 145 255 0 145 255 0 147 255 0 147 255 0 147 255 0 147 255 0 147 255 0 147 255 0 147 255 0 147 255 0 147 255 0 147 255 0 169 255 0 169 255 0 169 255 0 169 255 0 169 255 0 169 255 0 169 255 0 169 255 0 169 255 0 169 255 0 160 255 0 160 255 0 160 255 0 160 255 0 160 255 0 160 255 0 160 255 0 160 255 0 160 255 0 160 255 0 150 255 0 150 255 0 150 255 0 150 255 0 150 255 0 150 255 0 150 255 0 150 255 0 150 255 0 150 255 0 149 255 0 149 255 0 149 255 0 149 255 0 149 255 0 149 255 0 149 255 0 149 255 0 149 255 0 149 255 0 146 255 0 146 255 0 146 255 0 146 255 0 146 255 0 146 255 0 146 255 0 146 255 0 146 255 0 146 255 0 144 255 0 144 255 0 144 255 0 144 255 0 144 255 0 144 255 0 144 255 0 144 255 0 144 255 0 144 255 0 0 0 0 0 0 0 0 0 0 0 0 0 0 0 0 0 0 0 0 0 0 0 0 0 0 0 0 0 0 0 251 255 0 251 255 0 251 255 0 251 255 0 251 255 0 251 255 0 251 255 0 251 255 0 251 255 0 251 255 0 251 255 0 251 255 0 251 255 0 251 255 0 251 255 0 251 255 0 251 255 0 251 255 0 251 255 0 251 255 0 251 255 0 251 255 0 251 255 0 251 255 0 251 255 0 251 255 0 251 255 0 251 255 0 251 255 0 251 255 
0 147 255 0 147 255 0 147 255 0 147 255 0 147 255 0 147 255 0 147 255 0 147 255 0 147 255 0 147 255 0 164 255 0 164 255 0 164 255 0 164 255 0 164 255 0 164 255 0 164 255 0 164 255 0 164 255 0 164 255 0 151 255 0 151 255 0 151 255 0 151 255 0 151 255 0 151 255 0 151 255 0 151 255 0 151 255 0 151 255 0 159 255 0 159 255 0 159 255 0 159 255 0 159 255 0 159 255 0 159 255 0 159 255 0 159 255 0 159 255 0 163 255 0 163 255 0 163 255 0 163 255 0 163 255 0 163 255 0 163 255 0 163 255 0 163 255 0 163 255 0 168 255 0 168 255 0 168 255 0 168 255 0 168 255 0 168 255 0 168 255 0 168 255 0 168 255 0 168 255 0 154 255 0 154 255 0 154 255 0 154 255 0 154 255 0 154 255 0 154 255 0 154 255 0 154 255 0 154 255 0 152 255 0 152 255 0 152 255 0 152 255 0 152 255 0 152 255 0 152 255 0 152 255 0 152 255 0 152 255 0 169 255 0 169 255 0 169 255 0 169 255 0 169 255 0 169 255 0 169 255 0 169 255 0 169 255 0 169 255 0 147 255 0 147 255 0 147 255 0 147 255 0 147 255 0 147 255 0 147 255 0 147 255 0 147 255 0 147 255 0 155 255 0 155 255 0 155 255 0 155 255 0 155 255 0 155 255 0 155 255 0 155 255 0 155 255 0 155 255 0 165 255 0 165 255 0 165 255 0 165 255 0 165 255 0 165 255 0 165 255 0 165 255 0 165 255 0 165 255 0 166 255 0 166 255 0 166 255 0 166 255 0 166 255 0 166 255 0 166 255 0 166 255 0 166 255 0 166 255 0 150 255 0 150 255 0 150 255 0 150 255 0 150 255 0 150 255 0 150 255 0 150 255 0 150 255 0 150 255 0 154 255 0 154 255 0 154 255 0 154 255 0 154 255 0 154 255 0 154 255 0 154 255 0 154 255 0 154 255 0 162 255 0 162 255 0 162 255 0 162 255 0 162 255 0 162 255 0 162 255 0 162 255 0 162 255 0 162 255 0 172 255 0 172 255 0 172 255 0 172 255 0 172 255 0 172 255 0 172 255 0 172 255 0 172 255 0 172 255 0 168 255 0 168 255 0 168 255 0 168 255 0 168 255 0 168 255 0 168 255 0 168 255 0 168 255 0 168 255 0 153 255 0 153 255 0 153 255 0 153 255 0 153 255 0 153 255 0 153 255 0 153 255 0 153 255 0 153 255 0 170 255 0 170 255 0 170 255 0 170 255 0 170 255 0 170 255 0 170 255 0 170 255 0 170 255 0 170 255 0 145 255 0 145 255 0 145 255 0 145 255 0 145 255 0 145 255 0 145 255 0 145 255 0 145 255 0 145 255 0 147 255 0 147 255 0 147 255 0 147 255 0 147 255 0 147 255 0 147 255 0 147 255 0 147 255 0 147 255 0 169 255 0 169 255 0 169 255 0 169 255 0 169 255 0 169 255 0 169 255 0 169 255 0 169 255 0 169 255 0 160 255 0 160 255 0 160 255 0 160 255 0 160 255 0 160 255 0 160 255 0 160 255 0 160 255 0 160 255 0 150 255 0 150 255 0 150 255 0 150 255 0 150 255 0 150 255 0 150 255 0 150 255 0 150 255 0 150 255 0 149 255 0 149 255 0 149 255 0 149 255 0 149 255 0 149 255 0 149 255 0 149 255 0 149 255 0 149 255 0 146 255 0 146 255 0 146 255 0 146 255 0 146 255 0 146 255 0 146 255 0 146 255 0 146 255 0 146 255 0 144 255 0 144 255 0 144 255 0 144 255 0 144 255 0 144 255 0 144 255 0 144 255 0 144 255 0 144 255 0 0 0 0 0 0 0 0 0 0 0 0 0 0 0 0 0 0 0 0 0 0 0 0 0 0 0 0 0 0 0 254 255 0 254 255 0 254 255 0 254 255 0 254 255 0 254 255 0 254 255 0 254 255 0 254 255 0 254 255 0 254 255 0 254 255 0 254 255 0 254 255 0 254 255 0 254 255 0 254 255 0 254 255 0 254 255 0 254 255 0 254 255 0 254 255 0 254 255 0 254 255 0 254 255 0 254 255 0 254 255 0 254 255 0 254 255 0 254 255 
0 0 0 0 0 0 0 0 0 0 0 0 0 0 0 0 0 0 0 0 0 0 0 0 0 0 0 0 0 0 0 0 0 0 0 0 0 0 0 0 0 0 0 0 0 0 0 0 0 0 0 0 0 0 0 0 0 0 0 0 0 0 0 0 0 0 0 0 0 0 0 0 0 0 0 0 0 0 0 0 0 0 0 0 0 0 0 0 0 0 0 0 0 0 0 0 0 0 0 0 0 0 0 0 0 0 0 0 0 0 0 0 0 0 0 0 0 0 0 0 0 0 0 0 0 0 0 0 0 0 0 0 0 0 0 0 0 0 0 0 0 0 0 0 0 0 0 0 0 0 0 0 0 0 0 0 0 0 0 0 0 0 0 0 0 0 0 0 0 0 0 0 0 0 0 0 0 0 0 0 0 0 0 0 0 0 0 0 0 0 0 0 0 0 0 0 0 0 0 0 0 0 0 0 0 0 0 0 0 0 0 0 0 0 0 0 0 0 0 0 0 0 0 0 0 0 0 0 0 0 0 0 0 0 0 0 0 0 0 0 0 0 0 0 0 0 0 0 0 0 0 0 0 0 0 0 0 0 0 0 0 0 0 0 0 0 0 0 0 0 0 0 0 0 0 0 0 0 0 0 0 0 0 0 0 0 0 0 0 0 0 0 0 0 0 0 0 0 0 0 0 0 0 0 0 0 0 0 0 0 0 0 0 0 0 0 0 0 0 0 0 0 0 0 0 0 0 0 0 0 0 0 0 0 0 0 0 0 0 0 0 0 0 0 0 0 0 0 0 0 0 0 0 0 0 0 0 0 0 0 0 0 0 0 0 0 0 0 0 0 0 0 0 0 0 0 0 0 0 0 0 0 0 0 0 0 0 0 0 0 0 0 0 0 0 0 0 0 0 0 0 0 0 0 0 0 0 0 0 0 0 0 0 0 0 0 0 0 0 0 0 0 0 0 0 0 0 0 0 0 0 0 0 0 0 0 0 0 0 0 0 0 0 0 0 0 0 0 0 0 0 0 0 0 0 0 0 0 0 0 0 0 0 0 0 0 0 0 0 0 0 0 0 0 0 0 0 0 0 0 0 0 0 0 0 0 0 0 0 0 0 0 0 0 0 0 0 0 0 0 0 0 0 0 0 0 0 0 0 0 0 0 0 0 0 0 0 0 0 0 0 0 0 0 0 0 0 0 0 0 0 0 0 0 0 0 0 0 0 0 0 0 0 0 0 0 0 0 0 0 0 0 0 0 0 0 0 0 0 0 0 0 0 0 0 0 0 0 0 0 0 0 0 0 0 0 0 0 0 0 0 0 0 0 0 0 0 0 0 0 0 0 0 0 0 0 0 0 0 0 0 0 0 0 0 0 0 0 0 0 0 0 0 0 0 0 0 0 0 0 0 0 0 0 0 0 0 0 0 0 0 0 0 0 0 0 0 0 0 0 0 0 0 0 0 0 0 0 0 0 0 0 0 0 0 0 0 0 0 0 0 0 0 0 0 0 0 0 0 0 0 0 0 0 0 0 0 0 0 0 0 0 0 0 0 0 0 0 0 0 0 0 0 0 0 0 0 0 0 0 0 0 0 0 0 0 0 0 0 0 0 0 0 0 0 0 0 0 0 0 0 0 0 0 0 0 0 0 0 0 0 0 0 0 0 0 0 0 0 0 0 0 0 0 0 0 0 0 0 0 0 0 0 0 0 0 0 0 0 0 0 0 0 0 0 0 0 0 0 0 0 0 0 0 0 0 0 0 0 0 0 0 0 0 0 0 0 0 0 0 0 0 0 0 0 0 0 0 0 0 0 0 0 0 0 0 0 0 0 0 0 0 0 0 0 0 0 0 0 0 0 0 0 0 0 0 0 0 0 0 0 0 0 0 0 0 0 0 0 0 0 0 0 0 0 0 0 0 0 0 0 0 0 0 0 0 0 0 0 0 0 0 0 0 0 0 0 0 0 0 0 0 0 0 0 0 0 0 0 0 0 0 0 0 0 0 0 0 0 0 0 0 0 0 0 0 0 0 0 0 0 0 0 0 0 0 0 0 0 0 0 0 0 0 0 0 0 0 0 0 0 0 0 0 0 0 0 0 0 0 0 0 0 0 0 0 0 0 0 0 0 0 0 0 0 0 0 0 0 0 0 0 0 0 0 0 0 0 0 0 
0 0 0 0 0 0 0 0 0 0 0 0 0 0 0 0 0 0 0 0 0 0 0 0 0 0 0 0 0 0 0 0 0 0 0 0 0 0 0 0 0 0 0 0 0 0 0 0 0 0 0 0 0 0 0 0 0 0 0 0 0 0 0 0 0 0 0 0 0 0 0 0 0 0 0 0 0 0 0 0 0 0 0 0 0 0 0 0 0 0 0 0 0 0 0 0 0 0 0 0 0 0 0 0 0 0 0 0 0 0 0 0 0 0 0 0 0 0 0 0 0 0 0 0 0 0 0 0 0 0 0 0 0 0 0 0 0 0 0 0 0 0 0 0 0 0 0 0 0 0 0 0 0 0 0 0 0 0 0 0 0 0 0 0 0 0 0 0 0 0 0 0 0 0 0 0 0 0 0 0 0 0 0 0 0 0 0 0 0 0 0 0 0 0 0 0 0 0 0 0 0 0 0 0 0 0 0 0 0 0 0 0 0 0 0 0 0 0 0 0 0 0 0 0 0 0 0 0 0 0 0 0 0 0 0 0 0 0 0 0 0 0 0 0 0 0 0 0 0 0 0 0 0 0 0 0 0 0 0 0 0 0 0 0 0 0 0 0 0 0 0 0 0 0 0 0 0 0 0 0 0 0 0 0 0 0 0 0 0 0 0 0 0 0 0 0 0 0 0 0 0 0 0 0 0 0 0 0 0 0 0 0 0 0 0 0 0 0 0 0 0 0 0 0 0 0 0 0 0 0 0 0 0 0 0 0 0 0 0 0 0 0 0 0 0 0 0 0 0 0 0 0 0 0 0 0 0 0 0 0 0 0 0 0 0 0 0 0 0 0 0 0 0 0 0 0 0 0 0 0 0 0 0 0 0 0 0 0 0 0 0 0 0 0 0 0 0 0 0 0 0 0 0 0 0 0 0 0 0 0 0 0 0 0 0 0 0 0 0 0 0 0 0 0 0 0 0 0 0 0 0 0 0 0 0 0 0 0 0 0 0 0 0 0 0 0 0 0 0 0 0 0 0 0 0 0 0 0 0 0 0 0 0 0 0 0 0 0 0 0 0 0 0 0 0 0 0 0 0 0 0 0 0 0 0 0 0 0 0 0 0 0 0 0 0 0 0 0 0 0 0 0 0 0 0 0 0 0 0 0 0 0 0 0 0 0 0 0 0 0 0 0 0 0 0 0 0 0 0 0 0 0 0 0 0 0 0 0 0 0 0 0 0 0 0 0 0 0 0 0 0 0 0 0 0 0 0 0 0 0 0 0 0 0 0 0 0 0 0 0 0 0 0 0 0 0 0 0 0 0 0 0 0 0 0 0 0 0 0 0 0 0 0 0 0 0 0 0 0 0 0 0 0 0 0 0 0 0 0 0 0 0 0 0 0 0 0 0 0 0 0 0 0 0 0 0 0 0 0 0 0 0 0 0 0 0 0 0 0 0 0 0 0 0 0 0 0 0 0 0 0 0 0 0 0 0 0 0 0 0 0 0 0 0 0 0 0 0 0 0 0 0 0 0 0 0 0 0 0 0 0 0 0 0 0 0 0 0 0 0 0 0 0 0 0 0 0 0 0 0 0 0 0 0 0 0 0 0 0 0 0 0 0 0 0 0 0 0 0 0 0 0 0 0 0 0 0 0 0 0 0 0 0 0 0 0 0 0 0 0 0 0 0 0 0 0 0 0 0 0 0 0 0 0 0 0 0 0 0 0 0 0 0 0 0 0 0 0 0 0 0 0 0 0 0 0 0 0 0 0 0 0 0 0 0 0 0 0 0 0 0 0 0 0 0 0 0 0 0 0 0 0 0 0 0 0 0 0 0 0 0 0 0 0 0 0 0 0 0 0 0 0 0 0 0 0 0 0 0 0 0 0 0 0 0 0 0 0 0 0 0 0 0 0 0 0 0 0 0 0 0 0 0 0 0 0 0 0 0 0 0 0 0 0 0 0 0 0 0 0 0 0 0 0 0 0 0 0 0 0 0 0 0 0 0 0 0 0 0 0 0 0 0 0 0 0 0 0 0 0 0 0 0 0 0 0 0 0 0 0 0 0 0 0 0 0 0 0 0 0 0 0 0 0 0 0 0 0 0 0 0 0 0 0 0 0 0 0 0 0 0 0 0 0 0 0 0 0 0 0 0 0 0 0 0 0 0 0 0 0 
0 0 0 0 0 0 0 0 0 0 0 0 0 0 0 0 0 0 0 0 0 0 0 0 0 0 0 0 0 0 0 0 0 0 0 0 0 0 0 0 0 0 0 0 0 0 0 0 0 0 0 0 0 0 0 0 0 0 0 0 0 0 0 0 0 0 0 0 0 0 0 0 0 0 0 0 0 0 0 0 0 0 0 0 0 0 0 0 0 0 0 0 0 0 0 0 0 0 0 0 0 0 0 0 0 0 0 0 0 0 0 0 0 0 0 0 0 0 0 0 0 0 0 0 0 0 0 0 0 0 0 0 0 0 0 0 0 0 0 0 0 0 0 0 0 0 0 0 0 0 0 0 0 0 0 0 0 0 0 0 0 0 0 0 0 0 0 0 0 0 0 0 0 0 0 0 0 0 0 0 0 0 0 0 0 0 0 0 0 0 0 0 0 0 0 0 0 0 0 0 0 0 0 0 0 0 0 0 0 0 0 0 0 0 0 0 0 0 0 0 0 0 0 0 0 0 0 0 0 0 0 0 0 0 0 0 0 0 0 0 0 0 0 0 0 0 0 0 0 0 0 0 0 0 0 0 0 0 0 0 0 0 0 0 0 0 0 0 0 0 0 0 0 0 0 0 0 0 0 0 0 0 0 0 0 0 0 0 0 0 0 0 0 0 0 0 0 0 0 0 0 0 0 0 0 0 0 0 0 0 0 0 0 0 0 0 0 0 0 0 0 0 0 0 0 0 0 0 0 0 0 0 0 0 0 0 0 0 0 0 0 0 0 0 0 0 0 0 0 0 0 0 0 0 0 0 0 0 0 0 0 0 0 0 0 0 0 0 0 0 0 0 0 0 0 0 0 0 0 0 0 0 0 0 0 0 0 0 0 0 0 0 0 0 0 0 0 0 0 0 0 0 0 0 0 0 0 0 0 0 0 0 0 0 0 0 0 0 0 0 0 0 0 0 0 0 0 0 0 0 0 0 0 0 0 0 0 0 0 0 0 0 0 0 0 0 0 0 0 0 0 0 0 0 0 0 0 0 0 0 0 0 0 0 0 0 0 0 0 0 0 0 0 0 0 0 0 0 0 0 0 0 0 0 0 0 0 0 0 0 0 0 0 0 0 0 0 0 0 0 0 0 0 0 0 0 0 0 0 0 0 0 0 0 0 0 0 0 0 0 0 0 0 0 0 0 0 0 0 0 0 0 0 0 0 0 0 0 0 0 0 0 0 0 0 0 0 0 0 0 0 0 0 0 0 0 0 0 0 0 0 0 0 0 0 0 0 0 0 0 0 0 0 0 0 0 0 0 0 0 0 0 0 0 0 0 0 0 0 0 0 0 0 0 0 0 0 0 0 0 0 0 0 0 0 0 0 0 0 0 0 0 0 0 0 0 0 0 0 0 0 0 0 0 0 0 0 0 0 0 0 0 0 0 0 0 0 0 0 0 0 0 0 0 0 0 0 0 0 0 0 0 0 0 0 0 0 0 0 0 0 0 0 0 0 0 0 0 0 0 0 0 0 0 0 0 0 0 0 0 0 0 0 0 0 0 0 0 0 0 0 0 0 0 0 0 0 0 0 0 0 0 0 0 0 0 0 0 0 0 0 0 0 0 0 0 0 0 0 0 0 0 0 0 0 0 0 0 0 0 0 0 0 0 0 0 0 0 0 0 0 0 0 0 0 0 0 0 0 0 0 0 0 0 0 0 0 0 0 0 0 0 0 0 0 0 0 0 0 0 0 0 0 0 0 0 0 0 0 0 0 0 0 0 0 0 0 0 0 0 0 0 0 0 0 0 0 0 0 0 0 0 0 0 0 0 0 0 0 0 0 0 0 0 0 0 0 0 0 0 0 0 0 0 0 0 0 0 0 0 0 0 0 0 0 0 0 0 0 0 0 0 0 0 0 0 0 0 0 0 0 0 0 0 0 0 0 0 0 0 0 0 0 0 0 0 0 0 0 0 0 0 0 0 0 0 0 0 0 0 0 0 0 0 0 0 0 0 0 0 0 0 0 0 0 0 0 0 0 0 0 0 0 0 0 0 0 0 0 0 0 0 0 0 0 0 0 0 0 0 0 0 0 0 0 0 0 0 0 0 0 0 0 0 0 0 0 0 0 0 0 0 0 0 0 0 0 0 0 0 0 0 0 0 0 0 0 0 0 0 
0 0 0 0 0 0 0 0 0 0 0 0 0 0 0 0 0 0 0 0 0 0 0 0 0 0 0 0 0 0 0 0 0 0 0 0 0 0 0 0 0 0 0 0 0 0 0 0 0 0 0 0 0 0 0 0 0 0 0 0 0 0 0 0 0 0 0 0 0 0 0 0 0 0 0 0 0 0 0 0 0 0 0 0 0 0 0 0 0 0 0 0 0 0 0 0 0 0 0 0 0 0 0 0 0 0 0 0 0 0 0 0 0 0 0 0 0 0 0 0 0 0 0 0 0 0 0 0 0 0 0 0 0 0 0 0 0 0 0 0 0 0 0 0 0 0 0 0 0 0 0 0 0 0 0 0 0 0 0 0 0 0 0 0 0 0 0 0 0 0 0 0 0 0 0 0 0 0 0 0 0 0 0 0 0 0 0 0 0 0 0 0 0 0 0 0 0 0 0 0 0 0 0 0 0 0 0 0 0 0 0 0 0 0 0 0 0 0 0 0 0 0 0 0 0 0 0 0 0 0 0 0 0 0 0 0 0 0 0 0 0 0 0 0 0 0 0 0 0 0 0 0 0 0 0 0 0 0 0 0 0 0 0 0 0 0 0 0 0 0 0 0 0 0 0 0 0 0 0 0 0 0 0 0 0 0 0 0 0 0 0 0 0 0 0 0 0 0 0 0 0 0 0 0 0 0 0 0 0 0 0 0 0 0 0 0 0 0 0 0 0 0 0 0 0 0 0 0 0 0 0 0 0 0 0 0 0 0 0 0 0 0 0 0 0 0 0 0 0 0 0 0 0 0 0 0 0 0 0 0 0 0 0 0 0 0 0 0 0 0 0 0 0 0 0 0 0 0 0 0 0 0 0 0 0 0 0 0 0 0 0 0 0 0 0 0 0 0 0 0 0 0 0 0 0 0 0 0 0 0 0 0 0 0 0 0 0 0 0 0 0 0 0 0 0 0 0 0 0 0 0 0 0 0 0 0 0 0 0 0 0 0 0 0 0 0 0 0 0 0 0 0 0 0 0 0 0 0 0 0 0 0 0 0 0 0 0 0 0 0 0 0 0 0 0 0 0 0 0 0 0 0 0 0 0 0 0 0 0 0 0 0 0 0 0 0 0 0 0 0 0 0 0 0 0 0 0 0 0 0 0 0 0 0 0 0 0 0 0 0 0 0 0 0 0 0 0 0 0 0 0 0 0 0 0 0 0 0 0 0 0 0 0 0 0 0 0 0 0 0 0 0 0 0 0 0 0 0 0 0 0 0 0 0 0 0 0 0 0 0 0 0 0 0 0 0 0 0 0 0 0 0 0 0 0 0 0 0 0 0 0 0 0 0 0 0 0 0 0 0 0 0 0 0 0 0 0 0 0 0 0 0 0 0 0 0 0 0 0 0 0 0 0 0 0 0 0 0 0 0 0 0 0 0 0 0 0 0 0 0 0 0 0 0 0 0 0 0 0 0 0 0 0 0 0 0 0 0 0 0 0 0 0 0 0 0 0 0 0 0 0 0 0 0 0 0 0 0 0 0 0 0 0 0 0 0 0 0 0 0 0 0 0 0 0 0 0 0 0 0 0 0 0 0 0 0 0 0 0 0 0 0 0 0 0 0 0 0 0 0 0 0 0 0 0 0 0 0 0 0 0 0 0 0 0 0 0 0 0 0 0 0 0 0 0 0 0 0 0 0 0 0 0 0 0 0 0 0 0 0 0 0 0 0 0 0 0 0 0 0 0 0 0 0 0 0 0 0 0 0 0 0 0 0 0 0 0 0 0 0 0 0 0 0 0 0 0 0 0 0 0 0 0 0 0 0 0 0 0 0 0 0 0 0 0 0 0 0 0 0 0 0 0 0 0 0 0 0 0 0 0 0 0 0 0 0 0 0 0 0 0 0 0 0 0 0 0 0 0 0 0 0 0 0 0 0 0 0 0 0 0 0 0 0 0 0 0 0 0 0 0 0 0 0 0 0 0 0 0 0 0 0 0 0 0 0 0 0 0 0 0 0 0 0 0 0 0 0 0 0 0 0 0 0 0 0 0 0 0 0 0 0 0 0 0 0 0 0 0 0 0 0 0 0 0 0 0 0 0 0 0 0 0 0 0 0 0 0 0 0 0 0 0 0 0 0 0 0 0 0 0 0 0 0 0 0 0 0 0 0 
0 0 0 0 0 0 0 0 0 0 0 0 0 0 0 0 0 0 0 0 0 0 0 0 0 0 0 0 0 0 0 0 0 0 0 0 0 0 0 0 0 0 0 0 0 0 0 0 0 0 0 0 0 0 0 0 0 0 0 0 0 0 0 0 0 0 0 0 0 0 0 0 0 0 0 0 0 0 0 0 0 0 0 0 0 0 0 0 0 0 0 0 0 0 0 0 0 0 0 0 0 0 0 0 0 0 0 0 0 0 0 0 0 0 0 0 0 0 0 0 0 0 0 0 0 0 0 0 0 0 0 0 0 0 0 0 0 0 0 0 0 0 0 0 0 0 0 0 0 0 0 0 0 0 0 0 0 0 0 0 0 0 0 0 0 0 0 0 0 0 0 0 0 0 0 0 0 0 0 0 0 0 0 0 0 0 0 0 0 0 0 0 0 0 0 0 0 0 0 0 0 0 0 0 0 0 0 0 0 0 0 0 0 0 0 0 0 0 0 0 0 0 0 0 0 0 0 0 0 0 0 0 0 0 0 0 0 0 0 0 0 0 0 0 0 0 0 0 0 0 0 0 0 0 0 0 0 0 0 0 0 0 0 0 0 0 0 0 0 0 0 0 0 0 0 0 0 0 0 0 0 0 0 0 0 0 0 0 0 0 0 0 0 0 0 0 0 0 0 0 0 0 0 0 0 0 0 0 0 0 0 0 0 0 0 0 0 0 0 0 0 0 0 0 0 0 0 0 0 0 0 0 0 0 0 0 0 0 0 0 0 0 0 0 0 0 0 0 0 0 0 0 0 0 0 0 0 0 0 0 0 0 0 0 0 0 0 0 0 0 0 0 0 0 0 0 0 0 0 0 0 0 0 0 0 0 0 0 0 0 0 0 0 0 0 0 0 0 0 0 0 0 0 0 0 0 0 0 0 0 0 0 0 0 0 0 0 0 0 0 0 0 0 0 0 0 0 0 0 0 0 0 0 0 0 0 0 0 0 0 0 0 0 0 0 0 0 0 0 0 0 0 0 0 0 0 0 0 0 0 0 0 0 0 0 0 0 0 0 0 0 0 0 0 0 0 0 0 0 0 0 0 0 0 0 0 0 0 0 0 0 0 0 0 0 0 0 0 0 0 0 0 0 0 0 0 0 0 0 0 0 0 0 0 0 0 0 0 0 0 0 0 0 0 0 0 0 0 0 0 0 0 0 0 0 0 0 0 0 0 0 0 0 0 0 0 0 0 0 0 0 0 0 0 0 0 0 0 0 0 0 0 0 0 0 0 0 0 0 0 0 0 0 0 0 0 0 0 0 0 0 0 0 0 0 0 0 0 0 0 0 0 0 0 0 0 0 0 0 0 0 0 0 0 0 0 0 0 0 0 0 0 0 0 0 0 0 0 0 0 0 0 0 0 0 0 0 0 0 0 0 0 0 0 0 0 0 0 0 0 0 0 0 0 0 0 0 0 0 0 0 0 0 0 0 0 0 0 0 0 0 0 0 0 0 0 0 0 0 0 0 0 0 0 0 0 0 0 0 0 0 0 0 0 0 0 0 0 0 0 0 0 0 0 0 0 0 0 0 0 0 0 0 0 0 0 0 0 0 0 0 0 0 0 0 0 0 0 0 0 0 0 0 0 0 0 0 0 0 0 0 0 0 0 0 0 0 0 0 0 0 0 0 0 0 0 0 0 0 0 0 0 0 0 0 0 0 0 0 0 0 0 0 0 0 0 0 0 0 0 0 0 0 0 0 0 0 0 0 0 0 0 0 0 0 0 0 0 0 0 0 0 0 0 0 0 0 0 0 0 0 0 0 0 0 0 0 0 0 0 0 0 0 0 0 0 0 0 0 0 0 0 0 0 0 0 0 0 0 0 0 0 0 0 0 0 0 0 0 0 0 0 0 0 0 0 0 0 0 0 0 0 0 0 0 0 0 0 0 0 0 0 0 0 0 0 0 0 0 0 0 0 0 0 0 0 0 0 0 0 0 0 0 0 0 0 0 0 0 0 0 0 0 0 0 0 0 0 0 0 0 0 0 0 0 0 0 0 0 0 0 0 0 0 0 0 0 0 0 0 0 0 0 0 0 0 0 0 0 0 0 0 0 0 0 0 0 0 0 0 0 0 0 0 0 0 0 0 0 0 0 0 0 0 0 0 0 0 0 0 
0 0 0 0 0 0 0 0 0 0 0 0 0 0 0 0 0 0 0 0 0 0 0 0 0 0 0 0 0 0 0 0 0 0 0 0 0 0 0 0 0 0 0 0 0 0 0 0 0 0 0 0 0 0 0 0 0 0 0 0 0 0 0 0 0 0 0 0 0 0 0 0 0 0 0 0 0 0 0 0 0 0 0 0 0 0 0 0 0 0 0 0 0 0 0 0 0 0 0 0 0 0 0 0 0 0 0 0 0 0 0 0 0 0 0 0 0 0 0 0 0 0 0 0 0 0 0 0 0 0 0 0 0 0 0 0 0 0 0 0 0 0 0 0 0 0 0 0 0 0 0 0 0 0 0 0 0 0 0 0 0 0 0 0 0 0 0 0 0 0 0 0 0 0 0 0 0 0 0 0 0 0 0 0 0 0 0 0 0 0 0 0 0 0 0 0 0 0 0 0 0 0 0 0 0 0 0 0 0 0 0 0 0 0 0 0 0 0 0 0 0 0 0 0 0 0 0 0 0 0 0 0 0 0 0 0 0 0 0 0 0 0 0 0 0 0 0 0 0 0 0 0 0 0 0 0 0 0 0 0 0 0 0 0 0 0 0 0 0 0 0 0 0 0 0 0 0 0 0 0 0 0 0 0 0 0 0 0 0 0 0 0 0 0 0 0 0 0 0 0 0 0 0 0 0 0 0 0 0 0 0 0 0 0 0 0 0 0 0 0 0 0 0 0 0 0 0 0 0 0 0 0 0 0 0 0 0 0 0 0 0 0 0 0 0 0 0 0 0 0 0 0 0 0 0 0 0 0 0 0 0 0 0 0 0 0 0 0 0 0 0 0 0 0 0 0 0 0 0 0 0 0 0 0 0 0 0 0 0 0 0 0 0 0 0 0 0 0 0 0 0 0 0 0 0 0 0 0 0 0 0 0 0 0 0 0 0 0 0 0 0 0 0 0 0 0 0 0 0 0 0 0 0 0 0 0 0 0 0 0 0 0 0 0 0 0 0 0 0 0 0 0 0 0 0 0 0 0 0 0 0 0 0 0 0 0 0 0 0 0 0 0 0 0 0 0 0 0 0 0 0 0 0 0 0 0 0 0 0 0 0 0 0 0 0 0 0 0 0 0 0 0 0 0 0 0 0 0 0 0 0 0 0 0 0 0 0 0 0 0 0 0 0 0 0 0 0 0 0 0 0 0 0 0 0 0 0 0 0 0 0 0 0 0 0 0 0 0 0 0 0 0 0 0 0 0 0 0 0 0 0 0 0 0 0 0 0 0 0 0 0 0 0 0 0 0 0 0 0 0 0 0 0 0 0 0 0 0 0 0 0 0 0 0 0 0 0 0 0 0 0 0 0 0 0 0 0 0 0 0 0 0 0 0 0 0 0 0 0 0 0 0 0 0 0 0 0 0 0 0 0 0 0 0 0 0 0 0 0 0 0 0 0 0 0 0 0 0 0 0 0 0 0 0 0 0 0 0 0 0 0 0 0 0 0 0 0 0 0 0 0 0 0 0 0 0 0 0 0 0 0 0 0 0 0 0 0 0 0 0 0 0 0 0 0 0 0 0 0 0 0 0 0 0 0 0 0 0 0 0 0 0 0 0 0 0 0 0 0 0 0 0 0 0 0 0 0 0 0 0 0 0 0 0 0 0 0 0 0 0 0 0 0 0 0 0 0 0 0 0 0 0 0 0 0 0 0 0 0 0 0 0 0 0 0 0 0 0 0 0 0 0 0 0 0 0 0 0 0 0 0 0 0 0 0 0 0 0 0 0 0 0 0 0 0 0 0 0 0 0 0 0 0 0 0 0 0 0 0 0 0 0 0 0 0 0 0 0 0 0 0 0 0 0 0 0 0 0 0 0 0 0 0 0 0 0 0 0 0 0 0 0 0 0 0 0 0 0 0 0 0 0 0 0 0 0 0 0 0 0 0 0 0 0 0 0 0 0 0 0 0 0 0 0 0 0 0 0 0 0 0 0 0 0 0 0 0 0 0 0 0 0 0 0 0 0 0 0 0 0 0 0 0 0 0 0 0 0 0 0 0 0 0 0 0 0 0 0 0 0 0 0 0 0 0 0 0 0 0 0 0 0 0 0 0 0 0 0 0 0 0 0 0 0 0 0 0 0 0 0 0 0 0 0 0 0 0 0 0 0 
0 0 0 0 0 0 0 0 0 0 0 0 0 0 0 0 0 0 0 0 0 0 0 0 0 0 0 0 0 0 0 0 0 0 0 0 0 0 0 0 0 0 0 0 0 0 0 0 0 0 0 0 0 0 0 0 0 0 0 0 0 0 0 0 0 0 0 0 0 0 0 0 0 0 0 0 0 0 0 0 0 0 0 0 0 0 0 0 0 0 0 0 0 0 0 0 0 0 0 0 0 0 0 0 0 0 0 0 0 0 0 0 0 0 0 0 0 0 0 0 0 0 0 0 0 0 0 0 0 0 0 0 0 0 0 0 0 0 0 0 0 0 0 0 0 0 0 0 0 0 0 0 0 0 0 0 0 0 0 0 0 0 0 0 0 0 0 0 0 0 0 0 0 0 0 0 0 0 0 0 0 0 0 0 0 0 0 0 0 0 0 0 0 0 0 0 0 0 0 0 0 0 0 0 0 0 0 0 0 0 0 0 0 0 0 0 0 0 0 0 0 0 0 0 0 0 0 0 0 0 0 0 0 0 0 0 0 0 0 0 0 0 0 0 0 0 0 0 0 0 0 0 0 0 0 0 0 0 0 0 0 0 0 0 0 0 0 0 0 0 0 0 0 0 0 0 0 0 0 0 0 0 0 0 0 0 0 0 0 0 0 0 0 0 0 0 0 0 0 0 0 0 0 0 0 0 0 0 0 0 0 0 0 0 0 0 0 0 0 0 0 0 0 0 0 0 0 0 0 0 0 0 0 0 0 0 0 0 0 0 0 0 0 0 0 0 0 0 0 0 0 0 0 0 0 0 0 0 0 0 0 0 0 0 0 0 0 0 0 0 0 0 0 0 0 0 0 0 0 0 0 0 0 0 0 0 0 0 0 0 0 0 0 0 0 0 0 0 0 0 0 0 0 0 0 0 0 0 0 0 0 0 0 0 0 0 0 0 0 0 0 0 0 0 0 0 0 0 0 0 0 0 0 0 0 0 0 0 0 0 0 0 0 0 0 0 0 0 0 0 0 0 0 0 0 0 0 0 0 0 0 0 0 0 0 0 0 0 0 0 0 0 0 0 0 0 0 0 0 0 0 0 0 0 0 0 0 0 0 0 0 0 0 0 0 0 0 0 0 0 0 0 0 0 0 0 0 0 0 0 0 0 0 0 0 0 0 0 0 0 0 0 0 0 0 0 0 0 0 0 0 0 0 0 0 0 0 0 0 0 0 0 0 0 0 0 0 0 0 0 0 0 0 0 0 0 0 0 0 0 0 0 0 0 0 0 0 0 0 0 0 0 0 0 0 0 0 0 0 0 0 0 0 0 0 0 0 0 0 0 0 0 0 0 0 0 0 0 0 0 0 0 0 0 0 0 0 0 0 0 0 0 0 0 0 0 0 0 0 0 0 0 0 0 0 0 0 0 0 0 0 0 0 0 0 0 0 0 0 0 0 0 0 0 0 0 0 0 0 0 0 0 0 0 0 0 0 0 0 0 0 0 0 0 0 0 0 0 0 0 0 0 0 0 0 0 0 0 0 0 0 0 0 0 0 0 0 0 0 0 0 0 0 0 0 0 0 0 0 0 0 0 0 0 0 0 0 0 0 0 0 0 0 0 0 0 0 0 0 0 0 0 0 0 0 0 0 0 0 0 0 0 0 0 0 0 0 0 0 0 0 0 0 0 0 0 0 0 0 0 0 0 0 0 0 0 0 0 0 0 0 0 0 0 0 0 0 0 0 0 0 0 0 0 0 0 0 0 0 0 0 0 0 0 0 0 0 0 0 0 0 0 0 0 0 0 0 0 0 0 0 0 0 0 0 0 0 0 0 0 0 0 0 0 0 0 0 0 0 0 0 0 0 0 0 0 0 0 0 0 0 0 0 0 0 0 0 0 0 0 0 0 0 0 0 0 0 0 0 0 0 0 0 0 0 0 0 0 0 0 0 0 0 0 0 0 0 0 0 0 0 0 0 0 0 0 0 0 0 0 0 0 0 0 0 0 0 0 0 0 0 0 0 0 0 0 0 0 0 0 0 0 0 0 0 0 0 0 0 0 0 0 0 0 0 0 0 0 0 0 0 0 0 0 0 0 0 0 0 0 0 0 0 0 0 0 0 0 0 0 0 0 0 0 0 0 0 0 0 0 0 0 0 0 0 0 0 0 0 0 
0 0 0 0 0 0 0 0 0 0 0 0 0 0 0 0 0 0 0 0 0 0 0 0 0 0 0 0 0 0 0 0 0 0 0 0 0 0 0 0 0 0 0 0 0 0 0 0 0 0 0 0 0 0 0 0 0 0 0 0 0 0 0 0 0 0 0 0 0 0 0 0 0 0 0 0 0 0 0 0 0 0 0 0 0 0 0 0 0 0 0 0 0 0 0 0 0 0 0 0 0 0 0 0 0 0 0 0 0 0 0 0 0 0 0 0 0 0 0 0 0 0 0 0 0 0 0 0 0 0 0 0 0 0 0 0 0 0 0 0 0 0 0 0 0 0 0 0 0 0 0 0 0 0 0 0 0 0 0 0 0 0 0 0 0 0 0 0 0 0 0 0 0 0 0 0 0 0 0 0 0 0 0 0 0 0 0 0 0 0 0 0 0 0 0 0 0 0 0 0 0 0 0 0 0 0 0 0 0 0 0 0 0 0 0 0 0 0 0 0 0 0 0 0 0 0 0 0 0 0 0 0 0 0 0 0 0 0 0 0 0 0 0 0 0 0 0 0 0 0 0 0 0 0 0 0 0 0 0 0 0 0 0 0 0 0 0 0 0 0 0 0 0 0 0 0 0 0 0 0 0 0 0 0 0 0 0 0 0 0 0 0 0 0 0 0 0 0 0 0 0 0 0 0 0 0 0 0 0 0 0 0 0 0 0 0 0 0 0 0 0 0 0 0 0 0 0 0 0 0 0 0 0 0 0 0 0 0 0 0 0 0 0 0 0 0 0 0 0 0 0 0 0 0 0 0 0 0 0 0 0 0 0 0 0 0 0 0 0 0 0 0 0 0 0 0 0 0 0 0 0 0 0 0 0 0 0 0 0 0 0 0 0 0 0 0 0 0 0 0 0 0 0 0 0 0 0 0 0 0 0 0 0 0 0 0 0 0 0 0 0 0 0 0 0 0 0 0 0 0 0 0 0 0 0 0 0 0 0 0 0 0 0 0 0 0 0 0 0 0 0 0 0 0 0 0 0 0 0 0 0 0 0 0 0 0 0 0 0 0 0 0 0 0 0 0 0 0 0 0 0 0 0 0 0 0 0 0 0 0 0 0 0 0 0 0 0 0 0 0 0 0 0 0 0 0 0 0 0 0 0 0 0 0 0 0 0 0 0 0 0 0 0 0 0 0 0 0 0 0 0 0 0 0 0 0 0 0 0 0 0 0 0 0 0 0 0 0 0 0 0 0 0 0 0 0 0 0 0 0 0 0 0 0 0 0 0 0 0 0 0 0 0 0 0 0 0 0 0 0 0 0 0 0 0 0 0 0 0 0 0 0 0 0 0 0 0 0 0 0 0 0 0 0 0 0 0 0 0 0 0 0 0 0 0 0 0 0 0 0 0 0 0 0 0 0 0 0 0 0 0 0 0 0 0 0 0 0 0 0 0 0 0 0 0 0 0 0 0 0 0 0 0 0 0 0 0 0 0 0 0 0 0 0 0 0 0 0 0 0 0 0 0 0 0 0 0 0 0 0 0 0 0 0 0 0 0 0 0 0 0 0 0 0 0 0 0 0 0 0 0 0 0 0 0 0 0 0 0 0 0 0 0 0 0 0 0 0 0 0 0 0 0 0 0 0 0 0 0 0 0 0 0 0 0 0 0 0 0 0 0 0 0 0 0 0 0 0 0 0 0 0 0 0 0 0 0 0 0 0 0 0 0 0 0 0 0 0 0 0 0 0 0 0 0 0 0 0 0 0 0 0 0 0 0 0 0 0 0 0 0 0 0 0 0 0 0 0 0 0 0 0 0 0 0 0 0 0 0 0 0 0 0 0 0 0 0 0 0 0 0 0 0 0 0 0 0 0 0 0 0 0 0 0 0 0 0 0 0 0 0 0 0 0 0 0 0 0 0 0 0 0 0 0 0 0 0 0 0 0 0 0 0 0 0 0 0 0 0 0 0 0 0 0 0 0 0 0 0 0 0 0 0 0 0 0 0 0 0 0 0 0 0 0 0 0 0 0 0 0 0 0 0 0 0 0 0 0 0 0 0 0 0 0 0 0 0 0 0 0 0 0 0 0 0 0 0 0 0 0 0 0 0 0 0 0 0 0 0 0 0 0 0 0 0 0 0 0 0 0 0 0 0 0 0 0 0 0 0 0 
0 0 0 0 0 0 0 0 0 0 0 0 0 0 0 0 0 0 0 0 0 0 0 0 0 0 0 0 0 0 0 0 0 0 0 0 0 0 0 0 0 0 0 0 0 0 0 0 0 0 0 0 0 0 0 0 0 0 0 0 0 0 0 0 0 0 0 0 0 0 0 0 0 0 0 0 0 0 0 0 0 0 0 0 0 0 0 0 0 0 0 0 0 0 0 0 0 0 0 0 0 0 0 0 0 0 0 0 0 0 0 0 0 0 0 0 0 0 0 0 0 0 0 0 0 0 0 0 0 0 0 0 0 0 0 0 0 0 0 0 0 0 0 0 0 0 0 0 0 0 0 0 0 0 0 0 0 0 0 0 0 0 0 0 0 0 0 0 0 0 0 0 0 0 0 0 0 0 0 0 0 0 0 0 0 0 0 0 0 0 0 0 0 0 0 0 0 0 0 0 0 0 0 0 0 0 0 0 0 0 0 0 0 0 0 0 0 0 0 0 0 0 0 0 0 0 0 0 0 0 0 0 0 0 0 0 0 0 0 0 0 0 0 0 0 0 0 0 0 0 0 0 0 0 0 0 0 0 0 0 0 0 0 0 0 0 0 0 0 0 0 0 0 0 0 0 0 0 0 0 0 0 0 0 0 0 0 0 0 0 0 0 0 0 0 0 0 0 0 0 0 0 0 0 0 0 0 0 0 0 0 0 0 0 0 0 0 0 0 0 0 0 0 0 0 0 0 0 0 0 0 0 0 0 0 0 0 0 0 0 0 0 0 0 0 0 0 0 0 0 0 0 0 0 0 0 0 0 0 0 0 0 0 0 0 0 0 0 0 0 0 0 0 0 0 0 0 0 0 0 0 0 0 0 0 0 0 0 0 0 0 0 0 0 0 0 0 0 0 0 0 0 0 0 0 0 0 0 0 0 0 0 0 0 0 0 0 0 0 0 0 0 0 0 0 0 0 0 0 0 0 0 0 0 0 0 0 0 0 0 0 0 0 0 0 0 0 0 0 0 0 0 0 0 0 0 0 0 0 0 0 0 0 0 0 0 0 0 0 0 0 0 0 0 0 0 0 0 0 0 0 0 0 0 0 0 0 0 0 0 0 0 0 0 0 0 0 0 0 0 0 0 0 0 0 0 0 0 0 0 0 0 0 0 0 0 0 0 0 0 0 0 0 0 0 0 0 0 0 0 0 0 0 0 0 0 0 0 0 0 0 0 0 0 0 0 0 0 0 0 0 0 0 0 0 0 0 0 0 0 0 0 0 0 0 0 0 0 0 0 0 0 0 0 0 0 0 0 0 0 0 0 0 0 0 0 0 0 0 0 0 0 0 0 0 0 0 0 0 0 0 0 0 0 0 0 0 0 0 0 0 0 0 0 0 0 0 0 0 0 0 0 0 0 0 0 0 0 0 0 0 0 0 0 0 0 0 0 0 0 0 0 0 0 0 0 0 0 0 0 0 0 0 0 0 0 0 0 0 0 0 0 0 0 0 0 0 0 0 0 0 0 0 0 0 0 0 0 0 0 0 0 0 0 0 0 0 0 0 0 0 0 0 0 0 0 0 0 0 0 0 0 0 0 0 0 0 0 0 0 0 0 0 0 0 0 0 0 0 0 0 0 0 0 0 0 0 0 0 0 0 0 0 0 0 0 0 0 0 0 0 0 0 0 0 0 0 0 0 0 0 0 0 0 0 0 0 0 0 0 0 0 0 0 0 0 0 0 0 0 0 0 0 0 0 0 0 0 0 0 0 0 0 0 0 0 0 0 0 0 0 0 0 0 0 0 0 0 0 0 0 0 0 0 0 0 0 0 0 0 0 0 0 0 0 0 0 0 0 0 0 0 0 0 0 0 0 0 0 0 0 0 0 0 0 0 0 0 0 0 0 0 0 0 0 0 0 0 0 0 0 0 0 0 0 0 0 0 0 0 0 0 0 0 0 0 0 0 0 0 0 0 0 0 0 0 0 0 0 0 0 0 0 0 0 0 0 0 0 0 0 0 0 0 0 0 0 0 0 0 0 0 0 0 0 0 0 0 0 0 0 0 0 0 0 0 0 0 0 0 0 0 0 0 0 0 0 0 0 0 0 0 0 0 0 0 0 0 0 0 0 0 0 0 0 0 0 0 0 0 0 0 0 0 0 0 0 0 0 0 
0 0 0 0 0 0 0 0 0 0 0 0 0 0 0 0 0 0 0 0 0 0 0 0 0 0 0 0 0 0 0 0 0 0 0 0 0 0 0 0 0 0 0 0 0 0 0 0 0 0 0 0 0 0 0 0 0 0 0 0 0 0 0 0 0 0 0 0 0 0 0 0 0 0 0 0 0 0 0 0 0 0 0 0 0 0 0 0 0 0 0 0 0 0 0 0 0 0 0 0 0 0 0 0 0 0 0 0 0 0 0 0 0 0 0 0 0 0 0 0 0 0 0 0 0 0 0 0 0 0 0 0 0 0 0 0 0 0 0 0 0 0 0 0 0 0 0 0 0 0 0 0 0 0 0 0 0 0 0 0 0 0 0 0 0 0 0 0 0 0 0 0 0 0 0 0 0 0 0 0 0 0 0 0 0 0 0 0 0 0 0 0 0 0 0 0 0 0 0 0 0 0 0 0 0 0 0 0 0 0 0 0 0 0 0 0 0 0 0 0 0 0 0 0 0 0 0 0 0 0 0 0 0 0 0 0 0 0 0 0 0 0 0 0 0 0 0 0 0 0 0 0 0 0 0 0 0 0 0 0 0 0 0 0 0 0 0 0 0 0 0 0 0 0 0 0 0 0 0 0 0 0 0 0 0 0 0 0 0 0 0 0 0 0 0 0 0 0 0 0 0 0 0 0 0 0 0 0 0 0 0 0 0 0 0 0 0 0 0 0 0 0 0 0 0 0 0 0 0 0 0 0 0 0 0 0 0 0 0 0 0 0 0 0 0 0 0 0 0 0 0 0 0 0 0 0 0 0 0 0 0 0 0 0 0 0 0 0 0 0 0 0 0 0 0 0 0 0 0 0 0 0 0 0 0 0 0 0 0 0 0 0 0 0 0 0 0 0 0 0 0 0 0 0 0 0 0 0 0 0 0 0 0 0 0 0 0 0 0 0 0 0 0 0 0 0 0 0 0 0 0 0 0 0 0 0 0 0 0 0 0 0 0 0 0 0 0 0 0 0 0 0 0 0 0 0 0 0 0 0 0 0 0 0 0 0 0 0 0 0 0 0 0 0 0 0 0 0 0 0 0 0 0 0 0 0 0 0 0 0 0 0 0 0 0 0 0 0 0 0 0 0 0 0 0 0 0 0 0 0 0 0 0 0 0 0 0 0 0 0 0 0 0 0 0 0 0 0 0 0 0 0 0 0 0 0 0 0 0 0 0 0 0 0 0 0 0 0 0 0 0 0 0 0 0 0 0 0 0 0 0 0 0 0 0 0 0 0 0 0 0 0 0 0 0 0 0 0 0 0 0 0 0 0 0 0 0 0 0 0 0 0 0 0 0 0 0 0 0 0 0 0 0 0 0 0 0 0 0 0 0 0 0 0 0 0 0 0 0 0 0 0 0 0 0 0 0 0 0 0 0 0 0 0 0 0 0 0 0 0 0 0 0 0 0 0 0 0 0 0 0 0 0 0 0 0 0 0 0 0 0 0 0 0 0 0 0 0 0 0 0 0 0 0 0 0 0 0 0 0 0 0 0 0 0 0 0 0 0 0 0 0 0 0 0 0 0 0 0 0 0 0 0 0 0 0 0 0 0 0 0 0 0 0 0 0 0 0 0 0 0 0 0 0 0 0 0 0 0 0 0 0 0 0 0 0 0 0 0 0 0 0 0 0 0 0 0 0 0 0 0 0 0 0 0 0 0 0 0 0 0 0 0 0 0 0 0 0 0 0 0 0 0 0 0 0 0 0 0 0 0 0 0 0 0 0 0 0 0 0 0 0 0 0 0 0 0 0 0 0 0 0 0 0 0 0 0 0 0 0 0 0 0 0 0 0 0 0 0 0 0 0 0 0 0 0 0 0 0 0 0 0 0 0 0 0 0 0 0 0 0 0 0 0 0 0 0 0 0 0 0 0 0 0 0 0 0 0 0 0 0 0 0 0 0 0 0 0 0 0 0 0 0 0 0 0 0 0 0 0 0 0 0 0 0 0 0 0 0 0 0 0 0 0 0 0 0 0 0 0 0 0 0 0 0 0 0 0 0 0 0 0 0 0 0 0 0 0 0 0 0 0 0 0 0 0 0 0 0 0 0 0 0 0 0 0 0 0 0 0 0 0 0 0 0 0 0 0 0 0 0 0 0 0 0 0 0 0 0 0 
0 0 0 0 0 0 0 0 0 0 0 0 0 0 0 0 0 0 0 0 0 0 0 0 0 0 0 0 0 0 0 0 0 0 0 0 0 0 0 0 0 0 0 0 0 0 0 0 0 0 0 0 0 0 0 0 0 0 0 0 0 0 0 0 0 0 0 0 0 0 0 0 0 0 0 0 0 0 0 0 0 0 0 0 0 0 0 0 0 0 0 0 0 0 0 0 0 0 0 0 0 0 0 0 0 0 0 0 0 0 0 0 0 0 0 0 0 0 0 0 0 0 0 0 0 0 0 0 0 0 0 0 0 0 0 0 0 0 0 0 0 0 0 0 0 0 0 0 0 0 0 0 0 0 0 0 0 0 0 0 0 0 0 0 0 0 0 0 0 0 0 0 0 0 0 0 0 0 0 0 0 0 0 0 0 0 0 0 0 0 0 0 0 0 0 0 0 0 0 0 0 0 0 0 0 0 0 0 0 0 0 0 0 0 0 0 0 0 0 0 0 0 0 0 0 0 0 0 0 0 0 0 0 0 0 0 0 0 0 0 0 0 0 0 0 0 0 0 0 0 0 0 0 0 0 0 0 0 0 0 0 0 0 0 0 0 0 0 0 0 0 0 0 0 0 0 0 0 0 0 0 0 0 0 0 0 0 0 0 0 0 0 0 0 0 0 0 0 0 0 0 0 0 0 0 0 0 0 0 0 0 0 0 0 0 0 0 0 0 0 0 0 0 0 0 0 0 0 0 0 0 0 0 0 0 0 0 0 0 0 0 0 0 0 0 0 0 0 0 0 0 0 0 0 0 0 0 0 0 0 0 0 0 0 0 0 0 0 0 0 0 0 0 0 0 0 0 0 0 0 0 0 0 0 0 0 0 0 0 0 0 0 0 0 0 0 0 0 0 0 0 0 0 0 0 0 0 0 0 0 0 0 0 0 0 0 0 0 0 0 0 0 0 0 0 0 0 0 0 0 0 0 0 0 0 0 0 0 0 0 0 0 0 0 0 0 0 0 0 0 0 0 0 0 0 0 0 0 0 0 0 0 0 0 0 0 0 0 0 0 0 0 0 0 0 0 0 0 0 0 0 0 0 0 0 0 0 0 0 0 0 0 0 0 0 0 0 0 0 0 0 0 0 0 0 0 0 0 0 0 0 0 0 0 0 0 0 0 0 0 0 0 0 0 0 0 0 0 0 0 0 0 0 0 0 0 0 0 0 0 0 0 0 0 0 0 0 0 0 0 0 0 0 0 0 0 0 0 0 0 0 0 0 0 0 0 0 0 0 0 0 0 0 0 0 0 0 0 0 0 0 0 0 0 0 0 0 0 0 0 0 0 0 0 0 0 0 0 0 0 0 0 0 0 0 0 0 0 0 0 0 0 0 0 0 0 0 0 0 0 0 0 0 0 0 0 0 0 0 0 0 0 0 0 0 0 0 0 0 0 0 0 0 0 0 0 0 0 0 0 0 0 0 0 0 0 0 0 0 0 0 0 0 0 0 0 0 0 0 0 0 0 0 0 0 0 0 0 0 0 0 0 0 0 0 0 0 0 0 0 0 0 0 0 0 0 0 0 0 0 0 0 0 0 0 0 0 0 0 0 0 0 0 0 0 0 0 0 0 0 0 0 0 0 0 0 0 0 0 0 0 0 0 0 0 0 0 0 0 0 0 0 0 0 0 0 0 0 0 0 0 0 0 0 0 0 0 0 0 0 0 0 0 0 0 0 0 0 0 0 0 0 0 0 0 0 0 0 0 0 0 0 0 0 0 0 0 0 0 0 0 0 0 0 0 0 0 0 0 0 0 0 0 0 0 0 0 0 0 0 0 0 0 0 0 0 0 0 0 0 0 0 0 0 0 0 0 0 0 0 0 0 0 0 0 0 0 0 0 0 0 0 0 0 0 0 0 0 0 0 0 0 0 0 0 0 0 0 0 0 0 0 0 0 0 0 0 0 0 0 0 0 0 0 0 0 0 0 0 0 0 0 0 0 0 0 0 0 0 0 0 0 0 0 0 0 0 0 0 0 0 0 0 0 0 0 0 0 0 0 0 0 0 0 0 0 0 0 0 0 0 0 0 0 0 0 0 0 0 0 0 0 0 0 0 0 0 0 0 0 0 0 0 0 0 0 0 0 0 0 0 0 0 0 0 0 0 0 0 0 
0 0 0 0 0 0 0 0 0 0 0 0 0 0 0 0 0 0 0 0 0 0 0 0 0 0 0 0 0 0 0 0 0 0 0 0 0 0 0 0 0 0 0 0 0 0 0 0 0 0 0 0 0 0 0 0 0 0 0 0 0 0 0 0 0 0 0 0 0 0 0 0 0 0 0 0 0 0 0 0 0 0 0 0 0 0 0 0 0 0 0 0 0 0 0 0 0 0 0 0 0 0 0 0 0 0 0 0 0 0 0 0 0 0 0 0 0 0 0 0 0 0 0 0 0 0 0 0 0 0 0 0 0 0 0 0 0 0 0 0 0 0 0 0 0 0 0 0 0 0 0 0 0 0 0 0 0 0 0 0 0 0 0 0 0 0 0 0 0 0 0 0 0 0 0 0 0 0 0 0 0 0 0 0 0 0 0 0 0 0 0 0 0 0 0 0 0 0 0 0 0 0 0 0 0 0 0 0 0 0 0 0 0 0 0 0 0 0 0 0 0 0 0 0 0 0 0 0 0 0 0 0 0 0 0 0 0 0 0 0 0 0 0 0 0 0 0 0 0 0 0 0 0 0 0 0 0 0 0 0 0 0 0 0 0 0 0 0 0 0 0 0 0 0 0 0 0 0 0 0 0 0 0 0 0 0 0 0 0 0 0 0 0 0 0 0 0 0 0 0 0 0 0 0 0 0 0 0 0 0 0 0 0 0 0 0 0 0 0 0 0 0 0 0 0 0 0 0 0 0 0 0 0 0 0 0 0 0 0 0 0 0 0 0 0 0 0 0 0 0 0 0 0 0 0 0 0 0 0 0 0 0 0 0 0 0 0 0 0 0 0 0 0 0 0 0 0 0 0 0 0 0 0 0 0 0 0 0 0 0 0 0 0 0 0 0 0 0 0 0 0 0 0 0 0 0 0 0 0 0 0 0 0 0 0 0 0 0 0 0 0 0 0 0 0 0 0 0 0 0 0 0 0 0 0 0 0 0 0 0 0 0 0 0 0 0 0 0 0 0 0 0 0 0 0 0 0 0 0 0 0 0 0 0 0 0 0 0 0 0 0 0 0 0 0 0 0 0 0 0 0 0 0 0 0 0 0 0 0 0 0 0 0 0 0 0 0 0 0 0 0 0 0 0 0 0 0 0 0 0 0 0 0 0 0 0 0 0 0 0 0 0 0 0 0 0 0 0 0 0 0 0 0 0 0 0 0 0 0 0 0 0 0 0 0 0 0 0 0 0 0 0 0 0 0 0 0 0 0 0 0 0 0 0 0 0 0 0 0 0 0 0 0 0 0 0 0 0 0 0 0 0 0 0 0 0 0 0 0 0 0 0 0 0 0 0 0 0 0 0 0 0 0 0 0 0 0 0 0 0 0 0 0 0 0 0 0 0 0 0 0 0 0 0 0 0 0 0 0 0 0 0 0 0 0 0 0 0 0 0 0 0 0 0 0 0 0 0 0 0 0 0 0 0 0 0 0 0 0 0 0 0 0 0 0 0 0 0 0 0 0 0 0 0 0 0 0 0 0 0 0 0 0 0 0 0 0 0 0 0 0 0 0 0 0 0 0 0 0 0 0 0 0 0 0 0 0 0 0 0 0 0 0 0 0 0 0 0 0 0 0 0 0 0 0 0 0 0 0 0 0 0 0 0 0 0 0 0 0 0 0 0 0 0 0 0 0 0 0 0 0 0 0 0 0 0 0 0 0 0 0 0 0 0 0 0 0 0 0 0 0 0 0 0 0 0 0 0 0 0 0 0 0 0 0 0 0 0 0 0 0 0 0 0 0 0 0 0 0 0 0 0 0 0 0 0 0 0 0 0 0 0 0 0 0 0 0 0 0 0 0 0 0 0 0 0 0 0 0 0 0 0 0 0 0 0 0 0 0 0 0 0 0 0 0 0 0 0 0 0 0 0 0 0 0 0 0 0 0 0 0 0 0 0 0 0 0 0 0 0 0 0 0 0 0 0 0 0 0 0 0 0 0 0 0 0 0 0 0 0 0 0 0 0 0 0 0 0 0 0 0 0 0 0 0 0 0 0 0 0 0 0 0 0 0 0 0 0 0 0 0 0 0 0 0 0 0 0 0 0 0 0 0 0 0 0 0 0 0 0 0 0 0 0 0 0 0 0 0 0 0 0 0 0 0 0 0 0 0 0 
0 0 0 0 0 0 0 0 0 0 0 0 0 0 0 0 0 0 0 0 0 0 0 0 0 0 0 0 0 0 255 255 255 255 255 255 255 255 255 255 255 255 255 255 255 255 255 255 255 255 255 255 255 255 0 0 0 0 0 0 0 0 0 0 0 0 0 0 0 0 0 0 0 0 0 0 0 0 0 0 0 0 0 0 0 0 0 0 0 0 0 0 0 0 0 0 0 0 0 0 0 0 0 0 0 0 0 0 0 0 0 0 0 0 0 0 0 0 0 0 0 0 0 0 0 0 0 0 0 0 0 0 0 0 0 0 0 0 255 255 255 255 255 255 0 0 0 0 0 0 0 0 0 0 0 0 0 0 0 0 0 0 0 0 0 0 0 0 0 0 0 0 0 0 0 0 0 0 0 0 0 0 0 0 0 0 0 0 0 0 0 0 0 0 0 0 0 0 0 0 0 0 0 0 0 0 0 0 0 0 0 0 0 0 0 0 0 0 0 0 0 0 0 0 0 0 0 0 0 0 0 0 0 0 0 0 0 0 0 0 0 0 0 0 0 0 255 255 255 255 255 255 255 255 255 255 255 255 255 255 255 255 255 255 255 255 255 255 255 255 255 255 255 255 255 255 0 0 0 0 0 0 0 0 0 0 0 0 255 255 255 255 255 255 255 255 255 255 255 255 255 255 255 255 255 255 0 0 0 0 0 0 0 0 0 0 0 0 0 0 0 0 0 0 0 0 0 0 0 0 0 0 0 0 0 0 0 0 0 0 0 0 0 0 0 0 0 0 0 0 0 0 0 0 255 255 255 255 255 255 255 255 255 255 255 255 255 255 255 255 255 255 255 255 255 255 255 255 255 255 255 255 255 255 0 0 0 0 0 0 255 255 255 255 255 255 0 0 0 0 0 0 0 0 0 0 0 0 0 0 0 0 0 0 255 255 255 255 255 255 0 0 0 0 0 0 0 0 0 0 0 0 0 0 0 0 0 0 0 0 0 0 0 0 0 0 0 0 0 0 0 0 0 0 0 0 0 0 0 0 0 0 0 0 0 0 0 0 0 0 0 0 0 0 0 0 0 0 0 0 0 0 0 0 0 0 0 0 0 0 0 0 0 0 0 0 0 0 0 0 0 0 0 0 0 0 0 0 0 0 0 0 0 0 0 0 0 0 0 0 0 0 0 0 0 0 0 0 0 0 0 0 0 0 0 0 0 0 0 0 0 0 0 0 0 0 0 0 0 0 0 0 0 0 0 0 0 0 0 0 0 0 0 0 0 0 0 0 0 0 0 0 0 0 0 0 0 0 0 0 0 0 0 0 0 0 0 0 0 0 0 0 0 0 0 0 0 0 0 0 0 0 0 0 0 0 0 0 0 0 0 0 0 0 0 0 0 0 0 0 0 0 0 0 0 0 0 0 0 0 0 0 0 0 0 0 0 0 0 0 0 0 0 0 0 0 0 0 0 0 0 0 0 0 0 0 0 0 0 0 0 0 0 0 0 0 0 0 0 0 0 0 0 0 0 0 0 0 0 0 0 0 0 0 0 0 0 0 0 0 0 0 0 0 0 0 0 0 0 0 0 0 0 0 0 0 0 0 0 0 0 0 0 0 0 0 0 0 0 0 0 0 0 0 0 0 0 0 0 0 0 0 0 0 0 0 0 0 0 0 0 0 0 0 0 0 0 0 0 0 0 0 0 0 0 0 0 0 0 0 0 0 0 0 0 0 0 0 0 0 0 0 0 0 0 0 0 0 0 0 0 0 0 0 0 0 0 0 0 0 0 0 0 0 0 0 0 0 0 0 0 0 0 0 0 0 0 0 0 0 0 0 0 0 0 0 0 0 0 0 0 0 0 0 0 0 0 0 0 0 0 0 0 0 0 0 0 0 0 0 0 0 0 0 0 0 0 0 0 0 0 0 0 0 0 0 0 0 0 0 0 0 0 0 0 0 0 0 0 0 0 0 0 0 0 0 0 0 0 0 0 0 0 0 0 0 0 0 0 0 0 0 0 0 0 0 0 0 0 0 0 0 0 0 0 0 0 0 0 0 0 0 0 0 0 0 0 0 0 0 0 0 0 0 0 0 0 0 0 0 0 0 0 0 0 0 0 0 0 0 0 0 0 0 0 0 0 0 0 0 0 0 0 0 0 0 0 0 0 0 
0 0 0 0 0 0 0 0 0 0 0 0 0 0 0 0 0 0 0 0 0 0 0 0 0 0 0 0 0 0 255 255 255 255 255 255 255 255 255 255 255 255 255 255 255 255 255 255 255 255 255 255 255 255 0 0 0 0 0 0 0 0 0 0 0 0 0 0 0 0 0 0 0 0 0 0 0 0 0 0 0 0 0 0 0 0 0 0 0 0 0 0 0 0 0 0 0 0 0 0 0 0 0 0 0 0 0 0 0 0 0 0 0 0 0 0 0 0 0 0 0 0 0 0 0 0 0 0 0 0 0 0 0 0 0 0 0 0 255 255 255 255 255 255 0 0 0 0 0 0 0 0 0 0 0 0 0 0 0 0 0 0 0 0 0 0 0 0 0 0 0 0 0 0 0 0 0 0 0 0 0 0 0 0 0 0 0 0 0 0 0 0 0 0 0 0 0 0 0 0 0 0 0 0 0 0 0 0 0 0 0 0 0 0 0 0 0 0 0 0 0 0 0 0 0 0 0 0 0 0 0 0 0 0 0 0 0 0 0 0 0 0 0 0 0 0 255 255 255 255 255 255 255 255 255 255 255 255 255 255 255 255 255 255 255 255 255 255 255 255 255 255 255 255 255 255 0 0 0 0 0 0 0 0 0 0 0 0 255 255 255 255 255 255 255 255 255 255 255 255 255 255 255 255 255 255 0 0 0 0 0 0 0 0 0 0 0 0 0 0 0 0 0 0 0 0 0 0 0 0 0 0 0 0 0 0 0 0 0 0 0 0 0 0 0 0 0 0 0 0 0 0 0 0 255 255 255 255 255 255 255 255 255 255 255 255 255 255 255 255 255 255 255 255 255 255 255 255 255 255 255 255 255 255 0 0 0 0 0 0 255 255 255 255 255 255 0 0 0 0 0 0 0 0 0 0 0 0 0 0 0 0 0 0 255 255 255 255 255 255 0 0 0 0 0 0 0 0 0 0 0 0 0 0 0 0 0 0 0 0 0 0 0 0 0 0 0 0 0 0 0 0 0 0 0 0 0 0 0 0 0 0 0 0 0 0 0 0 0 0 0 0 0 0 0 0 0 0 0 0 0 0 0 0 0 0 0 0 0 0 0 0 0 0 0 0 0 0 0 0 0 0 0 0 0 0 0 0 0 0 0 0 0 0 0 0 0 0 0 0 0 0 0 0 0 0 0 0 0 0 0 0 0 0 0 0 0 0 0 0 0 0 0 0 0 0 0 0 0 0 0 0 0 0 0 0 0 0 0 0 0 0 0 0 0 0 0 0 0 0 0 0 0 0 0 0 0 0 0 0 0 0 0 0 0 0 0 0 0 0 0 0 0 0 0 0 0 0 0 0 0 0 0 0 0 0 0 0 0 0 0 0 0 0 0 0 0 0 0 0 0 0 0 0 0 0 0 0 0 0 0 0 0 0 0 0 0 0 0 0 0 0 0 0 0 0 0 0 0 0 0 0 0 0 0 0 0 0 0 0 0 0 0 0 0 0 0 0 0 0 0 0 0 0 0 0 0 0 0 0 0 0 0 0 0 0 0 0 0 0 0 0 0 0 0 0 0 0 0 0 0 0 0 0 0 0 0 0 0 0 0 0 0 0 0 0 0 0 0 0 0 0 0 0 0 0 0 0 0 0 0 0 0 0 0 0 0 0 0 0 0 0 0 0 0 0 0 0 0 0 0 0 0 0 0 0 0 0 0 0 0 0 0 0 0 0 0 0 0 0 0 0 0 0 0 0 0 0 0 0 0 0 0 0 0 0 0 0 0 0 0 0 0 0 0 0 0 0 0 0 0 0 0 0 0 0 0 0 0 0 0 0 0 0 0 0 0 0 0 0 0 0 0 0 0 0 0 0 0 0 0 0 0 0 0 0 0 0 0 0 0 0 0 0 0 0 0 0 0 0 0 0 0 0 0 0 0 0 0 0 0 0 0 0 0 0 0 0 0 0 0 0 0 0 0 0 0 0 0 0 0 0 0 0 0 0 0 0 0 0 0 0 0 0 0 0 0 0 0 0 0 0 0 0 0 0 0 0 0 0 0 0 0 0 0 0 0 0 0 0 0 0 0 0 0 0 0 0 0 0 0 0 0 0 0 0 0 0 0 0 0 0 0 0 0 0 0 0 0 0 0 0 0 0 0 0 0 0 0 0 
0 0 0 0 0 0 0 0 0 0 0 0 0 0 0 0 0 0 0 0 0 0 0 0 0 0 0 0 0 0 255 255 255 255 255 255 0 0 0 0 0 0 0 0 0 0 0 0 0 0 0 0 0 0 255 255 255 255 255 255 0 0 0 0 0 0 0 0 0 0 0 0 255 255 255 255 255 255 0 0 0 0 0 0 255 255 255 255 255 255 255 255 255 255 255 255 0 0 0 0 0 0 0 0 0 0 0 0 255 255 255 255 255 255 255 255 255 255 255 255 255 255 255 255 255 255 0 0 0 0 0 0 0 0 0 0 0 0 255 255 255 255 255 255 0 0 0 0 0 0 0 0 0 0 0 0 0 0 0 0 0 0 0 0 0 0 0 0 0 0 0 0 0 0 0 0 0 0 0 0 255 255 255 255 255 255 255 255 255 255 255 255 0 0 0 0 0 0 0 0 0 0 0 0 0 0 0 0 0 0 0 0 0 0 0 0 0 0 0 0 0 0 0 0 0 0 0 0 0 0 0 0 0 0 0 0 0 0 0 0 0 0 0 0 0 0 0 0 0 0 0 0 0 0 0 0 0 0 0 0 0 0 0 0 0 0 0 0 0 0 255 255 255 255 255 255 0 0 0 0 0 0 255 255 255 255 255 255 0 0 0 0 0 0 0 0 0 0 0 0 0 0 0 0 0 0 255 255 255 255 255 255 0 0 0 0 0 0 0 0 0 0 0 0 0 0 0 0 0 0 0 0 0 0 0 0 0 0 0 0 0 0 0 0 0 0 0 0 0 0 0 0 0 0 0 0 0 0 0 0 0 0 0 0 0 0 0 0 0 0 0 0 0 0 0 0 0 0 255 255 255 255 255 255 0 0 0 0 0 0 0 0 0 0 0 0 255 255 255 255 255 255 0 0 0 0 0 0 255 255 255 255 255 255 0 0 0 0 0 0 0 0 0 0 0 0 0 0 0 0 0 0 0 0 0 0 0 0 0 0 0 0 0 0 0 0 0 0 0 0 0 0 0 0 0 0 0 0 0 0 0 0 0 0 0 0 0 0 0 0 0 0 0 0 0 0 0 0 0 0 0 0 0 0 0 0 0 0 0 0 0 0 0 0 0 0 0 0 0 0 0 0 0 0 0 0 0 0 0 0 0 0 0 0 0 0 0 0 0 0 0 0 0 0 0 0 0 0 0 0 0 0 0 0 0 0 0 0 0 0 0 0 0 0 0 0 0 0 0 0 0 0 0 0 0 0 0 0 0 0 0 0 0 0 0 0 0 0 0 0 0 0 0 0 0 0 0 0 0 0 0 0 0 0 0 0 0 0 0 0 0 0 0 0 0 0 0 0 0 0 0 0 0 0 0 0 0 0 0 0 0 0 0 0 0 0 0 0 0 0 0 0 0 0 0 0 0 0 0 0 0 0 0 0 0 0 0 0 0 0 0 0 0 0 0 0 0 0 0 0 0 0 0 0 0 0 0 0 0 0 0 0 0 0 0 0 0 0 0 0 0 0 0 0 0 0 0 0 0 0 0 0 0 0 0 0 0 0 0 0 0 0 0 0 0 0 0 0 0 0 0 0 0 0 0 0 0 0 0 0 0 0 0 0 0 0 0 0 0 0 0 0 0 0 0 0 0 0 0 0 0 0 0 0 0 0 0 0 0 0 0 0 0 0 0 0 0 0 0 0 0 0 0 0 0 0 0 0 0 0 0 0 0 0 0 0 0 0 0 0 0 0 0 0 0 0 0 0 0 0 0 0 0 0 0 0 0 0 0 0 0 0 0 0 0 0 0 0 0 0 0 0 0 0 0 0 0 0 0 0 0 0 0 0 0 0 0 0 0 0 0 0 0 0 0 0 0 0 0 0 0 0 0 0 0 0 0 0 0 0 0 0 0 0 0 0 0 0 0 0 0 0 0 0 0 0 0 0 0 0 0 0 0 0 0 0 0 0 0 0 0 0 0 0 0 0 0 0 0 0 0 0 0 0 0 0 0 0 0 0 0 0 0 0 0 0 0 0 0 0 0 0 0 0 0 0 0 0 0 0 0 0 0 0 0 0 0 0 0 0 0 0 0 0 0 0 0 0 0 0 0 0 0 0 0 0 0 0 0 0 0 0 0 0 0 0 0 0 0 0 0 0 0 0 0 0 0 0 0 0 
0 0 0 0 0 0 0 0 0 0 0 0 0 0 0 0 0 0 0 0 0 0 0 0 0 0 0 0 0 0 255 255 255 255 255 255 0 0 0 0 0 0 0 0 0 0 0 0 0 0 0 0 0 0 255 255 255 255 255 255 0 0 0 0 0 0 0 0 0 0 0 0 255 255 255 255 255 255 0 0 0 0 0 0 255 255 255 255 255 255 255 255 255 255 255 255 0 0 0 0 0 0 0 0 0 0 0 0 255 255 255 255 255 255 255 255 255 255 255 255 255 255 255 255 255 255 0 0 0 0 0 0 0 0 0 0 0 0 255 255 255 255 255 255 0 0 0 0 0 0 0 0 0 0 0 0 0 0 0 0 0 0 0 0 0 0 0 0 0 0 0 0 0 0 0 0 0 0 0 0 255 255 255 255 255 255 255 255 255 255 255 255 0 0 0 0 0 0 0 0 0 0 0 0 0 0 0 0 0 0 0 0 0 0 0 0 0 0 0 0 0 0 0 0 0 0 0 0 0 0 0 0 0 0 0 0 0 0 0 0 0 0 0 0 0 0 0 0 0 0 0 0 0 0 0 0 0 0 0 0 0 0 0 0 0 0 0 0 0 0 255 255 255 255 255 255 0 0 0 0 0 0 255 255 255 255 255 255 0 0 0 0 0 0 0 0 0 0 0 0 0 0 0 0 0 0 255 255 255 255 255 255 0 0 0 0 0 0 0 0 0 0 0 0 0 0 0 0 0 0 0 0 0 0 0 0 0 0 0 0 0 0 0 0 0 0 0 0 0 0 0 0 0 0 0 0 0 0 0 0 0 0 0 0 0 0 0 0 0 0 0 0 0 0 0 0 0 0 255 255 255 255 255 255 0 0 0 0 0 0 0 0 0 0 0 0 255 255 255 255 255 255 0 0 0 0 0 0 255 255 255 255 255 255 0 0 0 0 0 0 0 0 0 0 0 0 0 0 0 0 0 0 0 0 0 0 0 0 0 0 0 0 0 0 0 0 0 0 0 0 0 0 0 0 0 0 0 0 0 0 0 0 0 0 0 0 0 0 0 0 0 0 0 0 0 0 0 0 0 0 0 0 0 0 0 0 0 0 0 0 0 0 0 0 0 0 0 0 0 0 0 0 0 0 0 0 0 0 0 0 0 0 0 0 0 0 0 0 0 0 0 0 0 0 0 0 0 0 0 0 0 0 0 0 0 0 0 0 0 0 0 0 0 0 0 0 0 0 0 0 0 0 0 0 0 0 0 0 0 0 0 0 0 0 0 0 0 0 0 0 0 0 0 0 0 0 0 0 0 0 0 0 0 0 0 0 0 0 0 0 0 0 0 0 0 0 0 0 0 0 0 0 0 0 0 0 0 0 0 0 0 0 0 0 0 0 0 0 0 0 0 0 0 0 0 0 0 0 0 0 0 0 0 0 0 0 0 0 0 0 0 0 0 0 0 0 0 0 0 0 0 0 0 0 0 0 0 0 0 0 0 0 0 0 0 0 0 0 0 0 0 0 0 0 0 0 0 0 0 0 0 0 0 0 0 0 0 0 0 0 0 0 0 0 0 0 0 0 0 0 0 0 0 0 0 0 0 0 0 0 0 0 0 0 0 0 0 0 0 0 0 0 0 0 0 0 0 0 0 0 0 0 0 0 0 0 0 0 0 0 0 0 0 0 0 0 0 0 0 0 0 0 0 0 0 0 0 0 0 0 0 0 0 0 0 0 0 0 0 0 0 0 0 0 0 0 0 0 0 0 0 0 0 0 0 0 0 0 0 0 0 0 0 0 0 0 0 0 0 0 0 0 0 0 0 0 0 0 0 0 0 0 0 0 0 0 0 0 0 0 0 0 0 0 0 0 0 0 0 0 0 0 0 0 0 0 0 0 0 0 0 0 0 0 0 0 0 0 0 0 0 0 0 0 0 0 0 0 0 0 0 0 0 0 0 0 0 0 0 0 0 0 0 0 0 0 0 0 0 0 0 0 0 0 0 0 0 0 0 0 0 0 0 0 0 0 0 0 0 0 0 0 0 0 0 0 0 0 0 0 0 0 0 0 0 0 0 0 0 0 0 0 0 0 0 0 0 0 0 0 0 0 0 0 0 0 0 0 0 0 0 0 0 0 0 0 0 0 0 0 0 0 0 0 0 0 0 0 0 0 
0 0 0 0 0 0 0 0 0 0 0 0 0 0 0 0 0 0 0 0 0 0 0 0 0 0 0 0 0 0 255 255 255 255 255 255 0 0 0 0 0 0 0 0 0 0 0 0 0 0 0 0 0 0 255 255 255 255 255 255 0 0 0 0 0 0 0 0 0 0 0 0 255 255 255 255 255 255 255 255 255 255 255 255 0 0 0 0 0 0 0 0 0 0 0 0 0 0 0 0 0 0 255 255 255 255 255 255 0 0 0 0 0 0 0 0 0 0 0 0 0 0 0 0 0 0 255 255 255 255 255 255 0 0 0 0 0 0 255 255 255 255 255 255 255 255 255 255 255 255 255 255 255 255 255 255 255 255 255 255 255 255 0 0 0 0 0 0 0 0 0 0 0 0 0 0 0 0 0 0 255 255 255 255 255 255 255 255 255 255 255 255 0 0 0 0 0 0 0 0 0 0 0 0 0 0 0 0 0 0 0 0 0 0 0 0 0 0 0 0 0 0 0 0 0 0 0 0 0 0 0 0 0 0 0 0 0 0 0 0 0 0 0 0 0 0 0 0 0 0 0 0 0 0 0 0 0 0 0 0 0 0 0 0 255 255 255 255 255 255 0 0 0 0 0 0 0 0 0 0 0 0 255 255 255 255 255 255 0 0 0 0 0 0 0 0 0 0 0 0 0 0 0 0 0 0 255 255 255 255 255 255 0 0 0 0 0 0 0 0 0 0 0 0 0 0 0 0 0 0 0 0 0 0 0 0 0 0 0 0 0 0 0 0 0 0 0 0 0 0 0 0 0 0 0 0 0 0 0 0 0 0 0 0 0 0 0 0 0 0 0 0 255 255 255 255 255 255 0 0 0 0 0 0 0 0 0 0 0 0 0 0 0 0 0 0 0 0 0 0 0 0 255 255 255 255 255 255 0 0 0 0 0 0 0 0 0 0 0 0 0 0 0 0 0 0 0 0 0 0 0 0 0 0 0 0 0 0 0 0 0 0 0 0 0 0 0 0 0 0 0 0 0 0 0 0 0 0 0 0 0 0 0 0 0 0 0 0 0 0 0 0 0 0 0 0 0 0 0 0 0 0 0 0 0 0 0 0 0 0 0 0 0 0 0 0 0 0 0 0 0 0 0 0 0 0 0 0 0 0 0 0 0 0 0 0 0 0 0 0 0 0 0 0 0 0 0 0 0 0 0 0 0 0 0 0 0 0 0 0 0 0 0 0 0 0 0 0 0 0 0 0 0 0 0 0 0 0 0 0 0 0 0 0 0 0 0 0 0 0 0 0 0 0 0 0 0 0 0 0 0 0 0 0 0 0 0 0 0 0 0 0 0 0 0 0 0 0 0 0 0 0 0 0 0 0 0 0 0 0 0 0 0 0 0 0 0 0 0 0 0 0 0 0 0 0 0 0 0 0 0 0 0 0 0 0 0 0 0 0 0 0 0 0 0 0 0 0 0 0 0 0 0 0 0 0 0 0 0 0 0 0 0 0 0 0 0 0 0 0 0 0 0 0 0 0 0 0 0 0 0 0 0 0 0 0 0 0 0 0 0 0 0 0 0 0 0 0 0 0 0 0 0 0 0 0 0 0 0 0 0 0 0 0 0 0 0 0 0 0 0 0 0 0 0 0 0 0 0 0 0 0 0 0 0 0 0 0 0 0 0 0 0 0 0 0 0 0 0 0 0 0 0 0 0 0 0 0 0 0 0 0 0 0 0 0 0 0 0 0 0 0 0 0 0 0 0 0 0 0 0 0 0 0 0 0 0 0 0 0 0 0 0 0 0 0 0 0 0 0 0 0 0 0 0 0 0 0 0 0 0 0 0 0 0 0 0 0 0 0 0 0 0 0 0 0 0 0 0 0 0 0 0 0 0 0 0 0 0 0 0 0 0 0 0 0 0 0 0 0 0 0 0 0 0 0 0 0 0 0 0 0 0 0 0 0 0 0 0 0 0 0 0 0 0 0 0 0 0 0 0 0 0 0 0 0 0 0 0 0 0 0 0 0 0 0 0 0 0 0 0 0 0 0 0 0 0 0 0 0 0 0 0 0 0 0 0 0 0 0 0 0 0 0 0 0 0 0 0 0 0 0 0 0 0 0 0 0 0 0 0 0 0 0 0 0 0 0 0 0 0 0 0 0 0 0 0 0 0 0 
0 0 0 0 0 0 0 0 0 0 0 0 0 0 0 0 0 0 0 0 0 0 0 0 0 0 0 0 0 0 255 255 255 255 255 255 0 0 0 0 0 0 0 0 0 0 0 0 0 0 0 0 0 0 255 255 255 255 255 255 0 0 0 0 0 0 0 0 0 0 0 0 255 255 255 255 255 255 255 255 255 255 255 255 0 0 0 0 0 0 0 0 0 0 0 0 0 0 0 0 0 0 255 255 255 255 255 255 0 0 0 0 0 0 0 0 0 0 0 0 0 0 0 0 0 0 255 255 255 255 255 255 0 0 0 0 0 0 255 255 255 255 255 255 255 255 255 255 255 255 255 255 255 255 255 255 255 255 255 255 255 255 0 0 0 0 0 0 0 0 0 0 0 0 0 0 0 0 0 0 255 255 255 255 255 255 255 255 255 255 255 255 0 0 0 0 0 0 0 0 0 0 0 0 0 0 0 0 0 0 0 0 0 0 0 0 0 0 0 0 0 0 0 0 0 0 0 0 0 0 0 0 0 0 0 0 0 0 0 0 0 0 0 0 0 0 0 0 0 0 0 0 0 0 0 0 0 0 0 0 0 0 0 0 255 255 255 255 255 255 0 0 0 0 0 0 0 0 0 0 0 0 255 255 255 255 255 255 0 0 0 0 0 0 0 0 0 0 0 0 0 0 0 0 0 0 255 255 255 255 255 255 0 0 0 0 0 0 0 0 0 0 0 0 0 0 0 0 0 0 0 0 0 0 0 0 0 0 0 0 0 0 0 0 0 0 0 0 0 0 0 0 0 0 0 0 0 0 0 0 0 0 0 0 0 0 0 0 0 0 0 0 255 255 255 255 255 255 0 0 0 0 0 0 0 0 0 0 0 0 0 0 0 0 0 0 0 0 0 0 0 0 255 255 255 255 255 255 0 0 0 0 0 0 0 0 0 0 0 0 0 0 0 0 0 0 0 0 0 0 0 0 0 0 0 0 0 0 0 0 0 0 0 0 0 0 0 0 0 0 0 0 0 0 0 0 0 0 0 0 0 0 0 0 0 0 0 0 0 0 0 0 0 0 0 0 0 0 0 0 0 0 0 0 0 0 0 0 0 0 0 0 0 0 0 0 0 0 0 0 0 0 0 0 0 0 0 0 0 0 0 0 0 0 0 0 0 0 0 0 0 0 0 0 0 0 0 0 0 0 0 0 0 0 0 0 0 0 0 0 0 0 0 0 0 0 0 0 0 0 0 0 0 0 0 0 0 0 0 0 0 0 0 0 0 0 0 0 0 0 0 0 0 0 0 0 0 0 0 0 0 0 0 0 0 0 0 0 0 0 0 0 0 0 0 0 0 0 0 0 0 0 0 0 0 0 0 0 0 0 0 0 0 0 0 0 0 0 0 0 0 0 0 0 0 0 0 0 0 0 0 0 0 0 0 0 0 0 0 0 0 0 0 0 0 0 0 0 0 0 0 0 0 0 0 0 0 0 0 0 0 0 0 0 0 0 0 0 0 0 0 0 0 0 0 0 0 0 0 0 0 0 0 0 0 0 0 0 0 0 0 0 0 0 0 0 0 0 0 0 0 0 0 0 0 0 0 0 0 0 0 0 0 0 0 0 0 0 0 0 0 0 0 0 0 0 0 0 0 0 0 0 0 0 0 0 0 0 0 0 0 0 0 0 0 0 0 0 0 0 0 0 0 0 0 0 0 0 0 0 0 0 0 0 0 0 0 0 0 0 0 0 0 0 0 0 0 0 0 0 0 0 0 0 0 0 0 0 0 0 0 0 0 0 0 0 0 0 0 0 0 0 0 0 0 0 0 0 0 0 0 0 0 0 0 0 0 0 0 0 0 0 0 0 0 0 0 0 0 0 0 0 0 0 0 0 0 0 0 0 0 0 0 0 0 0 0 0 0 0 0 0 0 0 0 0 0 0 0 0 0 0 0 0 0 0 0 0 0 0 0 0 0 0 0 0 0 0 0 0 0 0 0 0 0 0 0 0 0 0 0 0 0 0 0 0 0 0 0 0 0 0 0 0 0 0 0 0 0 0 0 0 0 0 0 0 0 0 0 0 0 0 0 0 0 0 0 0 0 0 0 0 0 0 0 0 0 0 0 0 0 0 0 0 0 0 0 0 0 0 0 0 0 0 0 0 0 0 0 0 
0 0 0 0 0 0 0 0 0 0 0 0 0 0 0 0 0 0 0 0 0 0 0 0 0 0 0 0 0 0 255 255 255 255 255 255 255 255 255 255 255 255 255 255 255 255 255 255 255 255 255 255 255 255 0 0 0 0 0 0 0 0 0 0 0 0 255 255 255 255 255 255 0 0 0 0 0 0 0 0 0 0 0 0 0 0 0 0 0 0 0 0 0 0 0 0 0 0 0 0 0 0 255 255 255 255 255 255 0 0 0 0 0 0 0 0 0 0 0 0 0 0 0 0 0 0 255 255 255 255 255 255 0 0 0 0 0 0 255 255 255 255 255 255 0 0 0 0 0 0 0 0 0 0 0 0 0 0 0 0 0 0 255 255 255 255 255 255 0 0 0 0 0 0 0 0 0 0 0 0 0 0 0 0 0 0 0 0 0 0 0 0 0 0 0 0 0 0 0 0 0 0 0 0 0 0 0 0 0 0 0 0 0 0 0 0 0 0 0 0 0 0 0 0 0 0 0 0 0 0 0 0 0 0 0 0 0 0 0 0 0 0 0 0 0 0 0 0 0 0 0 0 0 0 0 0 0 0 255 255 255 255 255 255 0 0 0 0 0 0 0 0 0 0 0 0 0 0 0 0 0 0 0 0 0 0 0 0 255 255 255 255 255 255 255 255 255 255 255 255 255 255 255 255 255 255 255 255 255 255 255 255 0 0 0 0 0 0 0 0 0 0 0 0 0 0 0 0 0 0 0 0 0 0 0 0 0 0 0 0 0 0 0 0 0 0 0 0 0 0 0 0 0 0 0 0 0 0 0 0 0 0 0 0 0 0 255 255 255 255 255 255 0 0 0 0 0 0 0 0 0 0 0 0 0 0 0 0 0 0 0 0 0 0 0 0 255 255 255 255 255 255 0 0 0 0 0 0 0 0 0 0 0 0 0 0 0 0 0 0 0 0 0 0 0 0 0 0 0 0 0 0 0 0 0 0 0 0 0 0 0 0 0 0 0 0 0 0 0 0 0 0 0 0 0 0 0 0 0 0 0 0 0 0 0 0 0 0 0 0 0 0 0 0 0 0 0 0 0 0 0 0 0 0 0 0 0 0 0 0 0 0 0 0 0 0 0 0 0 0 0 0 0 0 0 0 0 0 0 0 0 0 0 0 0 0 0 0 0 0 0 0 0 0 0 0 0 0 0 0 0 0 0 0 0 0 0 0 0 0 0 0 0 0 0 0 0 0 0 0 0 0 0 0 0 0 0 0 0 0 0 0 0 0 0 0 0 0 0 0 0 0 0 0 0 0 0 0 0 0 0 0 0 0 0 0 0 0 0 0 0 0 0 0 0 0 0 0 0 0 0 0 0 0 0 0 0 0 0 0 0 0 0 0 0 0 0 0 0 0 0 0 0 0 0 0 0 0 0 0 0 0 0 0 0 0 0 0 0 0 0 0 0 0 0 0 0 0 0 0 0 0 0 0 0 0 0 0 0 0 0 0 0 0 0 0 0 0 0 0 0 0 0 0 0 0 0 0 0 0 0 0 0 0 0 0 0 0 0 0 0 0 0 0 0 0 0 0 0 0 0 0 0 0 0 0 0 0 0 0 0 0 0 0 0 0 0 0 0 0 0 0 0 0 0 0 0 0 0 0 0 0 0 0 0 0 0 0 0 0 0 0 0 0 0 0 0 0 0 0 0 0 0 0 0 0 0 0 0 0 0 0 0 0 0 0 0 0 0 0 0 0 0 0 0 0 0 0 0 0 0 0 0 0 0 0 0 0 0 0 0 0 0 0 0 0 0 0 0 0 0 0 0 0 0 0 0 0 0 0 0 0 0 0 0 0 0 0 0 0 0 0 0 0 0 0 0 0 0 0 0 0 0 0 0 0 0 0 0 0 0 0 0 0 0 0 0 0 0 0 0 0 0 0 0 0 0 0 0 0 0 0 0 0 0 0 0 0 0 0 0 0 0 0 0 0 0 0 0 0 0 0 0 0 0 0 0 0 0 0 0 0 0 0 0 0 0 0 0 0 0 0 0 0 0 0 0 0 0 0 0 0 0 0 0 0 0 0 0 0 0 0 0 0 0 0 0 0 0 0 0 0 0 0 0 0 0 0 0 0 0 0 0 0 0 0 0 0 0 0 0 0 0 0 0 0 0 0 0 0 
0 0 0 0 0 0 0 0 0 0 0 0 0 0 0 0 0 0 0 0 0 0 0 0 0 0 0 0 0 0 255 255 255 255 255 255 255 255 255 255 255 255 255 255 255 255 255 255 255 255 255 255 255 255 0 0 0 0 0 0 0 0 0 0 0 0 255 255 255 255 255 255 0 0 0 0 0 0 0 0 0 0 0 0 0 0 0 0 0 0 0 0 0 0 0 0 0 0 0 0 0 0 255 255 255 255 255 255 0 0 0 0 0 0 0 0 0 0 0 0 0 0 0 0 0 0 255 255 255 255 255 255 0 0 0 0 0 0 255 255 255 255 255 255 0 0 0 0 0 0 0 0 0 0 0 0 0 0 0 0 0 0 255 255 255 255 255 255 0 0 0 0 0 0 0 0 0 0 0 0 0 0 0 0 0 0 0 0 0 0 0 0 0 0 0 0 0 0 0 0 0 0 0 0 0 0 0 0 0 0 0 0 0 0 0 0 0 0 0 0 0 0 0 0 0 0 0 0 0 0 0 0 0 0 0 0 0 0 0 0 0 0 0 0 0 0 0 0 0 0 0 0 0 0 0 0 0 0 255 255 255 255 255 255 0 0 0 0 0 0 0 0 0 0 0 0 0 0 0 0 0 0 0 0 0 0 0 0 255 255 255 255 255 255 255 255 255 255 255 255 255 255 255 255 255 255 255 255 255 255 255 255 0 0 0 0 0 0 0 0 0 0 0 0 0 0 0 0 0 0 0 0 0 0 0 0 0 0 0 0 0 0 0 0 0 0 0 0 0 0 0 0 0 0 0 0 0 0 0 0 0 0 0 0 0 0 255 255 255 255 255 255 0 0 0 0 0 0 0 0 0 0 0 0 0 0 0 0 0 0 0 0 0 0 0 0 255 255 255 255 255 255 0 0 0 0 0 0 0 0 0 0 0 0 0 0 0 0 0 0 0 0 0 0 0 0 0 0 0 0 0 0 0 0 0 0 0 0 0 0 0 0 0 0 0 0 0 0 0 0 0 0 0 0 0 0 0 0 0 0 0 0 0 0 0 0 0 0 0 0 0 0 0 0 0 0 0 0 0 0 0 0 0 0 0 0 0 0 0 0 0 0 0 0 0 0 0 0 0 0 0 0 0 0 0 0 0 0 0 0 0 0 0 0 0 0 0 0 0 0 0 0 0 0 0 0 0 0 0 0 0 0 0 0 0 0 0 0 0 0 0 0 0 0 0 0 0 0 0 0 0 0 0 0 0 0 0 0 0 0 0 0 0 0 0 0 0 0 0 0 0 0 0 0 0 0 0 0 0 0 0 0 0 0 0 0 0 0 0 0 0 0 0 0 0 0 0 0 0 0 0 0 0 0 0 0 0 0 0 0 0 0 0 0 0 0 0 0 0 0 0 0 0 0 0 0 0 0 0 0 0 0 0 0 0 0 0 0 0 0 0 0 0 0 0 0 0 0 0 0 0 0 0 0 0 0 0 0 0 0 0 0 0 0 0 0 0 0 0 0 0 0 0 0 0 0 0 0 0 0 0 0 0 0 0 0 0 0 0 0 0 0 0 0 0 0 0 0 0 0 0 0 0 0 0 0 0 0 0 0 0 0 0 0 0 0 0 0 0 0 0 0 0 0 0 0 0 0 0 0 0 0 0 0 0 0 0 0 0 0 0 0 0 0 0 0 0 0 0 0 0 0 0 0 0 0 0 0 0 0 0 0 0 0 0 0 0 0 0 0 0 0 0 0 0 0 0 0 0 0 0 0 0 0 0 0 0 0 0 0 0 0 0 0 0 0 0 0 0 0 0 0 0 0 0 0 0 0 0 0 0 0 0 0 0 0 0 0 0 0 0 0 0 0 0 0 0 0 0 0 0 0 0 0 0 0 0 0 0 0 0 0 0 0 0 0 0 0 0 0 0 0 0 0 0 0 0 0 0 0 0 0 0 0 0 0 0 0 0 0 0 0 0 0 0 0 0 0 0 0 0 0 0 0 0 0 0 0 0 0 0 0 0 0 0 0 0 0 0 0 0 0 0 0 0 0 0 0 0 0 0 0 0 0 0 0 0 0 0 0 0 0 0 0 0 0 0 0 0 0 0 0 0 0 0 0 0 0 0 0 0 0 0 0 0 0 0 0 0 0 0 0 0 0 0 0 0 0 0 0 
0 0 0 0 0 0 0 0 0 0 0 0 0 0 0 0 0 0 0 0 0 0 0 0 0 0 0 0 0 0 255 255 255 255 255 255 0 0 0 0 0 0 0 0 0 0 0 0 0 0 0 0 0 0 0 0 0 0 0 0 0 0 0 0 0 0 255 255 255 255 255 255 0 0 0 0 0 0 0 0 0 0 0 0 0 0 0 0 0 0 0 0 0 0 0 0 0 0 0 0 0 0 255 255 255 255 255 255 0 0 0 0 0 0 0 0 0 0 0 0 0 0 0 0 0 0 255 255 255 255 255 255 0 0 0 0 0 0 255 255 255 255 255 255 0 0 0 0 0 0 0 0 0 0 0 0 0 0 0 0 0 0 255 255 255 255 255 255 0 0 0 0 0 0 0 0 0 0 0 0 255 255 255 255 255 255 255 255 255 255 255 255 0 0 0 0 0 0 0 0 0 0 0 0 0 0 0 0 0 0 0 0 0 0 0 0 0 0 0 0 0 0 0 0 0 0 0 0 0 0 0 0 0 0 0 0 0 0 0 0 0 0 0 0 0 0 0 0 0 0 0 0 255 255 255 255 255 255 0 0 0 0 0 0 0 0 0 0 0 0 0 0 0 0 0 0 0 0 0 0 0 0 0 0 0 0 0 0 0 0 0 0 0 0 0 0 0 0 0 0 0 0 0 0 0 0 255 255 255 255 255 255 0 0 0 0 0 0 0 0 0 0 0 0 0 0 0 0 0 0 0 0 0 0 0 0 0 0 0 0 0 0 0 0 0 0 0 0 0 0 0 0 0 0 0 0 0 0 0 0 255 255 255 255 255 255 0 0 0 0 0 0 0 0 0 0 0 0 0 0 0 0 0 0 0 0 0 0 0 0 255 255 255 255 255 255 0 0 0 0 0 0 255 255 255 255 255 255 0 0 0 0 0 0 0 0 0 0 0 0 0 0 0 0 0 0 0 0 0 0 0 0 0 0 0 0 0 0 0 0 0 0 0 0 0 0 0 0 0 0 0 0 0 0 0 0 0 0 0 0 0 0 0 0 0 0 0 0 0 0 0 0 0 0 0 0 0 0 0 0 0 0 0 0 0 0 0 0 0 0 0 0 0 0 0 0 0 0 0 0 0 0 0 0 0 0 0 0 0 0 0 0 0 0 0 0 0 0 0 0 0 0 0 0 0 0 0 0 0 0 0 0 0 0 0 0 0 0 0 0 0 0 0 0 0 0 0 0 0 0 0 0 0 0 0 0 0 0 0 0 0 0 0 0 0 0 0 0 0 0 0 0 0 0 0 0 0 0 0 0 0 0 0 0 0 0 0 0 0 0 0 0 0 0 0 0 0 0 0 0 0 0 0 0 0 0 0 0 0 0 0 0 0 0 0 0 0 0 0 0 0 0 0 0 0 0 0 0 0 0 0 0 0 0 0 0 0 0 0 0 0 0 0 0 0 0 0 0 0 0 0 0 0 0 0 0 0 0 0 0 0 0 0 0 0 0 0 0 0 0 0 0 0 0 0 0 0 0 0 0 0 0 0 0 0 0 0 0 0 0 0 0 0 0 0 0 0 0 0 0 0 0 0 0 0 0 0 0 0 0 0 0 0 0 0 0 0 0 0 0 0 0 0 0 0 0 0 0 0 0 0 0 0 0 0 0 0 0 0 0 0 0 0 0 0 0 0 0 0 0 0 0 0 0 0 0 0 0 0 0 0 0 0 0 0 0 0 0 0 0 0 0 0 0 0 0 0 0 0 0 0 0 0 0 0 0 0 0 0 0 0 0 0 0 0 0 0 0 0 0 0 0 0 0 0 0 0 0 0 0 0 0 0 0 0 0 0 0 0 0 0 0 0 0 0 0 0 0 0 0 0 0 0 0 0 0 0 0 0 0 0 0 0 0 0 0 0 0 0 0 0 0 0 0 0 0 0 0 0 0 0 0 0 0 0 0 0 0 0 0 0 0 0 0 0 0 0 0 0 0 0 0 0 0 0 0 0 0 0 0 0 0 0 0 0 0 0 0 0 0 0 0 0 0 0 0 0 0 0 0 0 0 0 0 0 0 0 0 0 0 0 0 0 0 0 0 0 0 0 0 0 0 0 0 0 0 0 0 0 0 0 0 0 0 0 0 0 0 0 0 0 0 0 0 0 0 0 0 0 0 
0 0 0 0 0 0 0 0 0 0 0 0 0 0 0 0 0 0 0 0 0 0 0 0 0 0 0 0 0 0 255 255 255 255 255 255 0 0 0 0 0 0 0 0 0 0 0 0 0 0 0 0 0 0 0 0 0 0 0 0 0 0 0 0 0 0 255 255 255 255 255 255 0 0 0 0 0 0 0 0 0 0 0 0 0 0 0 0 0 0 0 0 0 0 0 0 0 0 0 0 0 0 255 255 255 255 255 255 0 0 0 0 0 0 0 0 0 0 0 0 0 0 0 0 0 0 255 255 255 255 255 255 0 0 0 0 0 0 255 255 255 255 255 255 0 0 0 0 0 0 0 0 0 0 0 0 0 0 0 0 0 0 255 255 255 255 255 255 0 0 0 0 0 0 0 0 0 0 0 0 255 255 255 255 255 255 255 255 255 255 255 255 0 0 0 0 0 0 0 0 0 0 0 0 0 0 0 0 0 0 0 0 0 0 0 0 0 0 0 0 0 0 0 0 0 0 0 0 0 0 0 0 0 0 0 0 0 0 0 0 0 0 0 0 0 0 0 0 0 0 0 0 255 255 255 255 255 255 0 0 0 0 0 0 0 0 0 0 0 0 0 0 0 0 0 0 0 0 0 0 0 0 0 0 0 0 0 0 0 0 0 0 0 0 0 0 0 0 0 0 0 0 0 0 0 0 255 255 255 255 255 255 0 0 0 0 0 0 0 0 0 0 0 0 0 0 0 0 0 0 0 0 0 0 0 0 0 0 0 0 0 0 0 0 0 0 0 0 0 0 0 0 0 0 0 0 0 0 0 0 255 255 255 255 255 255 0 0 0 0 0 0 0 0 0 0 0 0 0 0 0 0 0 0 0 0 0 0 0 0 255 255 255 255 255 255 0 0 0 0 0 0 255 255 255 255 255 255 0 0 0 0 0 0 0 0 0 0 0 0 0 0 0 0 0 0 0 0 0 0 0 0 0 0 0 0 0 0 0 0 0 0 0 0 0 0 0 0 0 0 0 0 0 0 0 0 0 0 0 0 0 0 0 0 0 0 0 0 0 0 0 0 0 0 0 0 0 0 0 0 0 0 0 0 0 0 0 0 0 0 0 0 0 0 0 0 0 0 0 0 0 0 0 0 0 0 0 0 0 0 0 0 0 0 0 0 0 0 0 0 0 0 0 0 0 0 0 0 0 0 0 0 0 0 0 0 0 0 0 0 0 0 0 0 0 0 0 0 0 0 0 0 0 0 0 0 0 0 0 0 0 0 0 0 0 0 0 0 0 0 0 0 0 0 0 0 0 0 0 0 0 0 0 0 0 0 0 0 0 0 0 0 0 0 0 0 0 0 0 0 0 0 0 0 0 0 0 0 0 0 0 0 0 0 0 0 0 0 0 0 0 0 0 0 0 0 0 0 0 0 0 0 0 0 0 0 0 0 0 0 0 0 0 0 0 0 0 0 0 0 0 0 0 0 0 0 0 0 0 0 0 0 0 0 0 0 0 0 0 0 0 0 0 0 0 0 0 0 0 0 0 0 0 0 0 0 0 0 0 0 0 0 0 0 0 0 0 0 0 0 0 0 0 0 0 0 0 0 0 0 0 0 0 0 0 0 0 0 0 0 0 0 0 0 0 0 0 0 0 0 0 0 0 0 0 0 0 0 0 0 0 0 0 0 0 0 0 0 0 0 0 0 0 0 0 0 0 0 0 0 0 0 0 0 0 0 0 0 0 0 0 0 0 0 0 0 0 0 0 0 0 0 0 0 0 0 0 0 0 0 0 0 0 0 0 0 0 0 0 0 0 0 0 0 0 0 0 0 0 0 0 0 0 0 0 0 0 0 0 0 0 0 0 0 0 0 0 0 0 0 0 0 0 0 0 0 0 0 0 0 0 0 0 0 0 0 0 0 0 0 0 0 0 0 0 0 0 0 0 0 0 0 0 0 0 0 0 0 0 0 0 0 0 0 0 0 0 0 0 0 0 0 0 0 0 0 0 0 0 0 0 0 0 0 0 0 0 0 0 0 0 0 0 0 0 0 0 0 0 0 0 0 0 0 0 0 0 0 0 0 0 0 0 0 0 0 0 0 0 0 0 0 0 0 0 0 0 0 0 0 0 0 0 0 0 0 0 0 0 0 0 0 0 0 0 0 0 0 0 0 
0 0 0 0 0 0 0 0 0 0 0 0 0 0 0 0 0 0 0 0 0 0 0 0 0 0 0 0 0 0 255 255 255 255 255 255 0 0 0 0 0 0 0 0 0 0 0 0 0 0 0 0 0 0 0 0 0 0 0 0 0 0 0 0 0 0 255 255 255 255 255 255 0 0 0 0 0 0 0 0 0 0 0 0 0 0 0 0 0 0 0 0 0 0 0 0 0 0 0 0 0 0 255 255 255 255 255 255 0 0 0 0 0 0 0 0 0 0 0 0 0 0 0 0 0 0 255 255 255 255 255 255 0 0 0 0 0 0 255 255 255 255 255 255 0 0 0 0 0 0 0 0 0 0 0 0 0 0 0 0 0 0 255 255 255 255 255 255 0 0 0 0 0 0 0 0 0 0 0 0 255 255 255 255 255 255 255 255 255 255 255 255 0 0 0 0 0 0 0 0 0 0 0 0 0 0 0 0 0 0 0 0 0 0 0 0 0 0 0 0 0 0 0 0 0 0 0 0 0 0 0 0 0 0 0 0 0 0 0 0 0 0 0 0 0 0 0 0 0 0 0 0 255 255 255 255 255 255 0 0 0 0 0 0 0 0 0 0 0 0 0 0 0 0 0 0 0 0 0 0 0 0 0 0 0 0 0 0 0 0 0 0 0 0 0 0 0 0 0 0 255 255 255 255 255 255 0 0 0 0 0 0 0 0 0 0 0 0 0 0 0 0 0 0 255 255 255 255 255 255 255 255 255 255 255 255 0 0 0 0 0 0 0 0 0 0 0 0 0 0 0 0 0 0 0 0 0 0 0 0 255 255 255 255 255 255 0 0 0 0 0 0 0 0 0 0 0 0 0 0 0 0 0 0 0 0 0 0 0 0 0 0 0 0 0 0 0 0 0 0 0 0 0 0 0 0 0 0 0 0 0 0 0 0 0 0 0 0 0 0 0 0 0 0 0 0 0 0 0 0 0 0 0 0 0 0 0 0 0 0 0 0 0 0 0 0 0 0 0 0 0 0 0 0 0 0 0 0 0 0 0 0 0 0 0 0 0 0 0 0 0 0 0 0 0 0 0 0 0 0 0 0 0 0 0 0 0 0 0 0 0 0 0 0 0 0 0 0 0 0 0 0 0 0 0 0 0 0 0 0 0 0 0 0 0 0 0 0 0 0 0 0 0 0 0 0 0 0 0 0 0 0 0 0 0 0 0 0 0 0 0 0 0 0 0 0 0 0 0 0 0 0 0 0 0 0 0 0 0 0 0 0 0 0 0 0 0 0 0 0 0 0 0 0 0 0 0 0 0 0 0 0 0 0 0 0 0 0 0 0 0 0 0 0 0 0 0 0 0 0 0 0 0 0 0 0 0 0 0 0 0 0 0 0 0 0 0 0 0 0 0 0 0 0 0 0 0 0 0 0 0 0 0 0 0 0 0 0 0 0 0 0 0 0 0 0 0 0 0 0 0 0 0 0 0 0 0 0 0 0 0 0 0 0 0 0 0 0 0 0 0 0 0 0 0 0 0 0 0 0 0 0 0 0 0 0 0 0 0 0 0 0 0 0 0 0 0 0 0 0 0 0 0 0 0 0 0 0 0 0 0 0 0 0 0 0 0 0 0 0 0 0 0 0 0 0 0 0 0 0 0 0 0 0 0 0 0 0 0 0 0 0 0 0 0 0 0 0 0 0 0 0 0 0 0 0 0 0 0 0 0 0 0 0 0 0 0 0 0 0 0 0 0 0 0 0 0 0 0 0 0 0 0 0 0 0 0 0 0 0 0 0 0 0 0 0 0 0 0 0 0 0 0 0 0 0 0 0 0 0 0 0 0 0 0 0 0 0 0 0 0 0 0 0 0 0 0 0 0 0 0 0 0 0 0 0 0 0 0 0 0 0 0 0 0 0 0 0 0 0 0 0 0 0 0 0 0 0 0 0 0 0 0 0 0 0 0 0 0 0 0 0 0 0 0 0 0 0 0 0 0 0 0 0 0 0 0 0 0 0 0 0 0 0 0 0 0 0 0 0 0 0 0 0 0 0 0 0 0 0 0 0 0 0 0 0 0 0 0 0 0 0 0 0 0 0 0 0 0 0 0 0 0 0 0 0 0 0 0 0 0 0 0 0 0 0 0 0 0 0 0 0 0 0 0 0 0 0 0 0 
0 0 0 0 0 0 0 0 0 0 0 0 0 0 0 0 0 0 0 0 0 0 0 0 0 0 0 0 0 0 255 255 255 255 255 255 0 0 0 0 0 0 0 0 0 0 0 0 0 0 0 0 0 0 0 0 0 0 0 0 0 0 0 0 0 0 255 255 255 255 255 255 0 0 0 0 0 0 0 0 0 0 0 0 0 0 0 0 0 0 0 0 0 0 0 0 0 0 0 0 0 0 255 255 255 255 255 255 0 0 0 0 0 0 0 0 0 0 0 0 0 0 0 0 0 0 255 255 255 255 255 255 0 0 0 0 0 0 255 255 255 255 255 255 0 0 0 0 0 0 0 0 0 0 0 0 0 0 0 0 0 0 255 255 255 255 255 255 0 0 0 0 0 0 0 0 0 0 0 0 255 255 255 255 255 255 255 255 255 255 255 255 0 0 0 0 0 0 0 0 0 0 0 0 0 0 0 0 0 0 0 0 0 0 0 0 0 0 0 0 0 0 0 0 0 0 0 0 0 0 0 0 0 0 0 0 0 0 0 0 0 0 0 0 0 0 0 0 0 0 0 0 255 255 255 255 255 255 0 0 0 0 0 0 0 0 0 0 0 0 0 0 0 0 0 0 0 0 0 0 0 0 0 0 0 0 0 0 0 0 0 0 0 0 0 0 0 0 0 0 255 255 255 255 255 255 0 0 0 0 0 0 0 0 0 0 0 0 0 0 0 0 0 0 255 255 255 255 255 255 255 255 255 255 255 255 0 0 0 0 0 0 0 0 0 0 0 0 0 0 0 0 0 0 0 0 0 0 0 0 255 255 255 255 255 255 0 0 0 0 0 0 0 0 0 0 0 0 0 0 0 0 0 0 0 0 0 0 0 0 0 0 0 0 0 0 0 0 0 0 0 0 0 0 0 0 0 0 0 0 0 0 0 0 0 0 0 0 0 0 0 0 0 0 0 0 0 0 0 0 0 0 0 0 0 0 0 0 0 0 0 0 0 0 0 0 0 0 0 0 0 0 0 0 0 0 0 0 0 0 0 0 0 0 0 0 0 0 0 0 0 0 0 0 0 0 0 0 0 0 0 0 0 0 0 0 0 0 0 0 0 0 0 0 0 0 0 0 0 0 0 0 0 0 0 0 0 0 0 0 0 0 0 0 0 0 0 0 0 0 0 0 0 0 0 0 0 0 0 0 0 0 0 0 0 0 0 0 0 0 0 0 0 0 0 0 0 0 0 0 0 0 0 0 0 0 0 0 0 0 0 0 0 0 0 0 0 0 0 0 0 0 0 0 0 0 0 0 0 0 0 0 0 0 0 0 0 0 0 0 0 0 0 0 0 0 0 0 0 0 0 0 0 0 0 0 0 0 0 0 0 0 0 0 0 0 0 0 0 0 0 0 0 0 0 0 0 0 0 0 0 0 0 0 0 0 0 0 0 0 0 0 0 0 0 0 0 0 0 0 0 0 0 0 0 0 0 0 0 0 0 0 0 0 0 0 0 0 0 0 0 0 0 0 0 0 0 0 0 0 0 0 0 0 0 0 0 0 0 0 0 0 0 0 0 0 0 0 0 0 0 0 0 0 0 0 0 0 0 0 0 0 0 0 0 0 0 0 0 0 0 0 0 0 0 0 0 0 0 0 0 0 0 0 0 0 0 0 0 0 0 0 0 0 0 0 0 0 0 0 0 0 0 0 0 0 0 0 0 0 0 0 0 0 0 0 0 0 0 0 0 0 0 0 0 0 0 0 0 0 0 0 0 0 0 0 0 0 0 0 0 0 0 0 0 0 0 0 0 0 0 0 0 0 0 0 0 0 0 0 0 0 0 0 0 0 0 0 0 0 0 0 0 0 0 0 0 0 0 0 0 0 0 0 0 0 0 0 0 0 0 0 0 0 0 0 0 0 0 0 0 0 0 0 0 0 0 0 0 0 0 0 0 0 0 0 0 0 0 0 0 0 0 0 0 0 0 0 0 0 0 0 0 0 0 0 0 0 0 0 0 0 0 0 0 0 0 0 0 0 0 0 0 0 0 0 0 0 0 0 0 0 0 0 0 0 0 0 0 0 0 0 0 0 0 0 0 0 0 0 0 0 0 0 0 0 0 0 0 0 0 0 0 0 0 0 0 0 0 0 0 0 0 0 0 0 0 0 0 0 
0 0 0 0 0 0 0 0 0 0 0 0 0 0 0 0 0 0 0 0 0 0 0 0 0 0 0 0 0 0 255 255 255 255 255 255 0 0 0 0 0 0 0 0 0 0 0 0 0 0 0 0 0 0 0 0 0 0 0 0 0 0 0 0 0 0 255 255 255 255 255 255 0 0 0 0 0 0 0 0 0 0 0 0 0 0 0 0 0 0 0 0 0 0 0 0 0 0 0 0 0 0 0 0 0 0 0 0 255 255 255 255 255 255 255 255 255 255 255 255 255 255 255 255 255 255 0 0 0 0 0 0 0 0 0 0 0 0 255 255 255 255 255 255 255 255 255 255 255 255 255 255 255 255 255 255 255 255 255 255 255 255 0 0 0 0 0 0 0 0 0 0 0 0 0 0 0 0 0 0 0 0 0 0 0 0 0 0 0 0 0 0 0 0 0 0 0 0 0 0 0 0 0 0 0 0 0 0 0 0 0 0 0 0 0 0 0 0 0 0 0 0 0 0 0 0 0 0 0 0 0 0 0 0 0 0 0 0 0 0 0 0 0 0 0 0 0 0 0 0 0 0 255 255 255 255 255 255 0 0 0 0 0 0 0 0 0 0 0 0 0 0 0 0 0 0 0 0 0 0 0 0 0 0 0 0 0 0 255 255 255 255 255 255 255 255 255 255 255 255 0 0 0 0 0 0 0 0 0 0 0 0 0 0 0 0 0 0 0 0 0 0 0 0 255 255 255 255 255 255 255 255 255 255 255 255 0 0 0 0 0 0 0 0 0 0 0 0 0 0 0 0 0 0 0 0 0 0 0 0 255 255 255 255 255 255 0 0 0 0 0 0 0 0 0 0 0 0 0 0 0 0 0 0 0 0 0 0 0 0 0 0 0 0 0 0 0 0 0 0 0 0 0 0 0 0 0 0 0 0 0 0 0 0 0 0 0 0 0 0 0 0 0 0 0 0 0 0 0 0 0 0 0 0 0 0 0 0 0 0 0 0 0 0 0 0 0 0 0 0 0 0 0 0 0 0 0 0 0 0 0 0 0 0 0 0 0 0 0 0 0 0 0 0 0 0 0 0 0 0 0 0 0 0 0 0 0 0 0 0 0 0 0 0 0 0 0 0 0 0 0 0 0 0 0 0 0 0 0 0 0 0 0 0 0 0 0 0 0 0 0 0 0 0 0 0 0 0 0 0 0 0 0 0 0 0 0 0 0 0 0 0 0 0 0 0 0 0 0 0 0 0 0 0 0 0 0 0 0 0 0 0 0 0 0 0 0 0 0 0 0 0 0 0 0 0 0 0 0 0 0 0 0 0 0 0 0 0 0 0 0 0 0 0 0 0 0 0 0 0 0 0 0 0 0 0 0 0 0 0 0 0 0 0 0 0 0 0 0 0 0 0 0 0 0 0 0 0 0 0 0 0 0 0 0 0 0 0 0 0 0 0 0 0 0 0 0 0 0 0 0 0 0 0 0 0 0 0 0 0 0 0 0 0 0 0 0 0 0 0 0 0 0 0 0 0 0 0 0 0 0 0 0 0 0 0 0 0 0 0 0 0 0 0 0 0 0 0 0 0 0 0 0 0 0 0 0 0 0 0 0 0 0 0 0 0 0 0 0 0 0 0 0 0 0 0 0 0 0 0 0 0 0 0 0 0 0 0 0 0 0 0 0 0 0 0 0 0 0 0 0 0 0 0 0 0 0 0 0 0 0 0 0 0 0 0 0 0 0 0 0 0 0 0 0 0 0 0 0 0 0 0 0 0 0 0 0 0 0 0 0 0 0 0 0 0 0 0 0 0 0 0 0 0 0 0 0 0 0 0 0 0 0 0 0 0 0 0 0 0 0 0 0 0 0 0 0 0 0 0 0 0 0 0 0 0 0 0 0 0 0 0 0 0 0 0 0 0 0 0 0 0 0 0 0 0 0 0 0 0 0 0 0 0 0 0 0 0 0 0 0 0 0 0 0 0 0 0 0 0 0 0 0 0 0 0 0 0 0 0 0 0 0 0 0 0 0 0 0 0 0 0 0 0 0 0 0 0 0 0 0 0 0 0 0 0 0 0 0 0 0 0 0 0 0 0 0 0 0 0 0 0 0 0 0 0 0 0 0 0 0 0 0 0 0 0 0 0 0 0 0 0 0 0 0 0 0 0 0 0 
0 0 0 0 0 0 0 0 0 0 0 0 0 0 0 0 0 0 0 0 0 0 0 0 0 0 0 0 0 0 255 255 255 255 255 255 0 0 0 0 0 0 0 0 0 0 0 0 0 0 0 0 0 0 0 0 0 0 0 0 0 0 0 0 0 0 255 255 255 255 255 255 0 0 0 0 0 0 0 0 0 0 0 0 0 0 0 0 0 0 0 0 0 0 0 0 0 0 0 0 0 0 0 0 0 0 0 0 255 255 255 255 255 255 255 255 255 255 255 255 255 255 255 255 255 255 0 0 0 0 0 0 0 0 0 0 0 0 255 255 255 255 255 255 255 255 255 255 255 255 255 255 255 255 255 255 255 255 255 255 255 255 0 0 0 0 0 0 0 0 0 0 0 0 0 0 0 0 0 0 0 0 0 0 0 0 0 0 0 0 0 0 0 0 0 0 0 0 0 0 0 0 0 0 0 0 0 0 0 0 0 0 0 0 0 0 0 0 0 0 0 0 0 0 0 0 0 0 0 0 0 0 0 0 0 0 0 0 0 0 0 0 0 0 0 0 0 0 0 0 0 0 255 255 255 255 255 255 0 0 0 0 0 0 0 0 0 0 0 0 0 0 0 0 0 0 0 0 0 0 0 0 0 0 0 0 0 0 255 255 255 255 255 255 255 255 255 255 255 255 0 0 0 0 0 0 0 0 0 0 0 0 0 0 0 0 0 0 0 0 0 0 0 0 255 255 255 255 255 255 255 255 255 255 255 255 0 0 0 0 0 0 0 0 0 0 0 0 0 0 0 0 0 0 0 0 0 0 0 0 255 255 255 255 255 255 0 0 0 0 0 0 0 0 0 0 0 0 0 0 0 0 0 0 0 0 0 0 0 0 0 0 0 0 0 0 0 0 0 0 0 0 0 0 0 0 0 0 0 0 0 0 0 0 0 0 0 0 0 0 0 0 0 0 0 0 0 0 0 0 0 0 0 0 0 0 0 0 0 0 0 0 0 0 0 0 0 0 0 0 0 0 0 0 0 0 0 0 0 0 0 0 0 0 0 0 0 0 0 0 0 0 0 0 0 0 0 0 0 0 0 0 0 0 0 0 0 0 0 0 0 0 0 0 0 0 0 0 0 0 0 0 0 0 0 0 0 0 0 0 0 0 0 0 0 0 0 0 0 0 0 0 0 0 0 0 0 0 0 0 0 0 0 0 0 0 0 0 0 0 0 0 0 0 0 0 0 0 0 0 0 0 0 0 0 0 0 0 0 0 0 0 0 0 0 0 0 0 0 0 0 0 0 0 0 0 0 0 0 0 0 0 0 0 0 0 0 0 0 0 0 0 0 0 0 0 0 0 0 0 0 0 0 0 0 0 0 0 0 0 0 0 0 0 0 0 0 0 0 0 0 0 0 0 0 0 0 0 0 0 0 0 0 0 0 0 0 0 0 0 0 0 0 0 0 0 0 0 0 0 0 0 0 0 0 0 0 0 0 0 0 0 0 0 0 0 0 0 0 0 0 0 0 0 0 0 0 0 0 0 0 0 0 0 0 0 0 0 0 0 0 0 0 0 0 0 0 0 0 0 0 0 0 0 0 0 0 0 0 0 0 0 0 0 0 0 0 0 0 0 0 0 0 0 0 0 0 0 0 0 0 0 0 0 0 0 0 0 0 0 0 0 0 0 0 0 0 0 0 0 0 0 0 0 0 0 0 0 0 0 0 0 0 0 0 0 0 0 0 0 0 0 0 0 0 0 0 0 0 0 0 0 0 0 0 0 0 0 0 0 0 0 0 0 0 0 0 0 0 0 0 0 0 0 0 0 0 0 0 0 0 0 0 0 0 0 0 0 0 0 0 0 0 0 0 0 0 0 0 0 0 0 0 0 0 0 0 0 0 0 0 0 0 0 0 0 0 0 0 0 0 0 0 0 0 0 0 0 0 0 0 0 0 0 0 0 0 0 0 0 0 0 0 0 0 0 0 0 0 0 0 0 0 0 0 0 0 0 0 0 0 0 0 0 0 0 0 0 0 0 0 0 0 0 0 0 0 0 0 0 0 0 0 0 0 0 0 0 0 0 0 0 0 0 0 0 0 0 0 0 0 0 0 0 0 0 0 0 0 0 0 0 0 0 0 0 0 0 0 0 0 0 0 0 0 0 0 0 0 0 
0 0 0 0 0 0 0 0 0 0 0 0 0 0 0 0 0 0 0 0 0 0 0 0 0 0 0 0 0 0 0 0 0 0 0 0 0 0 0 0 0 0 0 0 0 0 0 0 0 0 0 0 0 0 0 0 0 0 0 0 0 0 0 0 0 0 0 0 0 0 0 0 0 0 0 0 0 0 0 0 0 0 0 0 0 0 0 0 0 0 0 0 0 0 0 0 0 0 0 0 0 0 0 0 0 0 0 0 0 0 0 0 0 0 0 0 0 0 0 0 0 0 0 0 0 0 0 0 0 0 0 0 0 0 0 0 0 0 0 0 0 0 0 0 0 0 0 0 0 0 0 0 0 0 0 0 0 0 0 0 0 0 0 0 0 0 0 0 0 0 0 0 0 0 0 0 0 0 0 0 0 0 0 0 0 0 0 0 0 0 0 0 0 0 0 0 0 0 0 0 0 0 0 0 0 0 0 0 0 0 0 0 0 0 0 0 0 0 0 0 0 0 0 0 0 0 0 0 0 0 0 0 0 0 0 0 0 0 0 0 0 0 0 0 0 0 0 0 0 0 0 0 0 0 0 0 0 0 0 0 0 0 0 0 0 0 0 0 0 0 0 0 0 0 0 0 0 0 0 0 0 0 0 0 0 0 0 0 0 0 0 0 0 0 0 0 0 0 0 0 0 0 0 0 0 0 0 0 0 0 0 0 0 0 0 0 0 0 0 0 0 0 0 0 0 0 0 0 0 0 0 0 0 0 0 0 0 0 0 0 0 0 0 0 0 0 0 0 0 0 0 0 0 0 0 0 0 0 0 0 0 0 0 0 0 0 0 0 0 0 0 0 0 0 0 0 0 0 0 0 0 0 0 0 0 0 0 0 0 0 0 0 0 0 0 0 0 0 0 0 0 0 0 0 0 0 0 0 0 0 0 0 0 0 0 0 0 0 0 0 0 0 0 0 0 0 0 0 0 0 0 0 0 0 0 0 0 0 0 0 0 0 0 0 0 0 0 0 0 0 0 0 0 0 0 0 0 0 0 0 0 0 0 0 0 0 0 0 0 0 0 0 0 0 0 0 0 0 0 0 0 0 0 0 0 0 0 0 0 0 0 0 0 0 0 0 0 0 0 0 0 0 0 0 0 0 0 0 0 0 0 0 0 0 0 0 0 0 0 0 0 0 0 0 0 0 0 0 0 0 0 0 0 0 0 0 0 0 0 0 0 0 0 0 0 0 0 0 0 0 0 0 0 0 0 0 0 0 0 0 0 0 0 0 0 0 0 0 0 0 0 0 0 0 0 0 0 0 0 0 0 0 0 0 0 0 0 0 0 0 0 0 0 0 0 0 0 0 0 0 0 0 0 0 0 0 0 0 0 0 0 0 0 0 0 0 0 0 0 0 0 0 0 0 0 0 0 0 0 0 0 0 0 0 0 0 0 0 0 0 0 0 0 0 0 0 0 0 0 0 0 0 0 0 0 0 0 0 0 0 0 0 0 0 0 0 0 0 0 0 0 0 0 0 0 0 0 0 0 0 0 0 0 0 0 0 0 0 0 0 0 0 0 0 0 0 0 0 0 0 0 0 0 0 0 0 0 0 0 0 0 0 0 0 0 0 0 0 0 0 0 0 0 0 0 0 0 0 0 0 0 0 0 0 0 0 0 0 0 0 0 0 0 0 0 0 0 0 0 0 0 0 0 0 0 0 0 0 0 0 0 0 0 0 0 0 0 0 0 0 0 0 0 0 0 0 0 0 0 0 0 0 0 0 0 0 0 0 0 0 0 0 0 0 0 0 0 0 0 0 0 0 0 0 0 0 0 0 0 0 0 0 0 0 0 0 0 0 0 0 0 0 0 0 0 0 0 0 0 0 0 0 0 0 0 0 0 0 0 0 0 0 0 0 0 0 0 0 0 0 0 0 0 0 0 0 0 0 0 0 0 0 0 0 0 0 0 0 0 0 0 0 0 0 0 0 0 0 0 0 0 0 0 0 0 0 0 0 0 0 0 0 0 0 0 0 0 0 0 0 0 0 0 0 0 0 0 0 0 0 0 0 0 0 0 0 0 0 0 0 0 0 0 0 0 0 0 0 0 0 0 0 0 0 0 0 0 0 0 0 0 0 0 0 0 0 0 0 0 0 0 0 0 0 0 0 0 0 0 0 
0 0 0 0 0 0 0 0 0 0 0 0 0 0 0 0 0 0 0 0 0 0 0 0 0 0 0 0 0 0 0 0 0 0 0 0 0 0 0 0 0 0 0 0 0 0 0 0 0 0 0 0 0 0 0 0 0 0 0 0 0 0 0 0 0 0 0 0 0 0 0 0 0 0 0 0 0 0 0 0 0 0 0 0 0 0 0 0 0 0 0 0 0 0 0 0 0 0 0 0 0 0 0 0 0 0 0 0 0 0 0 0 0 0 0 0 0 0 0 0 0 0 0 0 0 0 0 0 0 0 0 0 0 0 0 0 0 0 0 0 0 0 0 0 0 0 0 0 0 0 0 0 0 0 0 0 0 0 0 0 0 0 0 0 0 0 0 0 0 0 0 0 0 0 0 0 0 0 0 0 0 0 0 0 0 0 0 0 0 0 0 0 0 0 0 0 0 0 0 0 0 0 0 0 0 0 0 0 0 0 0 0 0 0 0 0 0 0 0 0 0 0 0 0 0 0 0 0 0 0 0 0 0 0 0 0 0 0 0 0 0 0 0 0 0 0 0 0 0 0 0 0 0 0 0 0 0 0 0 0 0 0 0 0 0 0 0 0 0 0 0 0 0 0 0 0 0 0 0 0 0 0 0 0 0 0 0 0 0 0 0 0 0 0 0 0 0 0 0 0 0 0 0 0 0 0 0 0 0 0 0 0 0 0 0 0 0 0 0 0 0 0 0 0 0 0 0 0 0 0 0 0 0 0 0 0 0 0 0 0 0 0 0 0 0 0 0 0 0 0 0 0 0 0 0 0 0 0 0 0 0 0 0 0 0 0 0 0 0 0 0 0 0 0 0 0 0 0 0 0 0 0 0 0 0 0 0 0 0 0 0 0 0 0 0 0 0 0 0 0 0 0 0 0 0 0 0 0 0 0 0 0 0 0 0 0 0 0 0 0 0 0 0 0 0 0 0 0 0 0 0 0 0 0 0 0 0 0 0 0 0 0 0 0 0 0 0 0 0 0 0 0 0 0 0 0 0 0 0 0 0 0 0 0 0 0 0 0 0 0 0 0 0 0 0 0 0 0 0 0 0 0 0 0 0 0 0 0 0 0 0 0 0 0 0 0 0 0 0 0 0 0 0 0 0 0 0 0 0 0 0 0 0 0 0 0 0 0 0 0 0 0 0 0 0 0 0 0 0 0 0 0 0 0 0 0 0 0 0 0 0 0 0 0 0 0 0 0 0 0 0 0 0 0 0 0 0 0 0 0 0 0 0 0 0 0 0 0 0 0 0 0 0 0 0 0 0 0 0 0 0 0 0 0 0 0 0 0 0 0 0 0 0 0 0 0 0 0 0 0 0 0 0 0 0 0 0 0 0 0 0 0 0 0 0 0 0 0 0 0 0 0 0 0 0 0 0 0 0 0 0 0 0 0 0 0 0 0 0 0 0 0 0 0 0 0 0 0 0 0 0 0 0 0 0 0 0 0 0 0 0 0 0 0 0 0 0 0 0 0 0 0 0 0 0 0 0 0 0 0 0 0 0 0 0 0 0 0 0 0 0 0 0 0 0 0 0 0 0 0 0 0 0 0 0 0 0 0 0 0 0 0 0 0 0 0 0 0 0 0 0 0 0 0 0 0 0 0 0 0 0 0 0 0 0 0 0 0 0 0 0 0 0 0 0 0 0 0 0 0 0 0 0 0 0 0 0 0 0 0 0 0 0 0 0 0 0 0 0 0 0 0 0 0 0 0 0 0 0 0 0 0 0 0 0 0 0 0 0 0 0 0 0 0 0 0 0 0 0 0 0 0 0 0 0 0 0 0 0 0 0 0 0 0 0 0 0 0 0 0 0 0 0 0 0 0 0 0 0 0 0 0 0 0 0 0 0 0 0 0 0 0 0 0 0 0 0 0 0 0 0 0 0 0 0 0 0 0 0 0 0 0 0 0 0 0 0 0 0 0 0 0 0 0 0 0 0 0 0 0 0 0 0 0 0 0 0 0 0 0 0 0 0 0 0 0 0 0 0 0 0 0 0 0 0 0 0 0 0 0 0 0 0 0 0 0 0 0 0 0 0 0 0 0 0 0 0 0 0 0 0 0 0 0 0 0 0 0 0 0 0 0 0 0 0 0 0 0 0 0 0 0 0 0 0 0 0 0 0 0 
0 0 0 0 0 0 0 0 0 0 0 0 0 0 0 0 0 0 0 0 0 0 0 0 0 0 0 0 0 0 0 0 0 0 0 0 0 0 0 0 0 0 0 0 0 0 0 0 0 0 0 0 0 0 0 0 0 0 0 0 0 0 0 0 0 0 0 0 0 0 0 0 0 0 0 0 0 0 0 0 0 0 0 0 0 0 0 0 0 0 0 0 0 0 0 0 0 0 0 0 0 0 0 0 0 0 0 0 0 0 0 0 0 0 0 0 0 0 0 0 0 0 0 0 0 0 0 0 0 0 0 0 0 0 0 0 0 0 0 0 0 0 0 0 0 0 0 0 0 0 0 0 0 0 0 0 0 0 0 0 0 0 0 0 0 0 0 0 0 0 0 0 0 0 0 0 0 0 0 0 0 0 0 0 0 0 0 0 0 0 0 0 0 0 0 0 0 0 0 0 0 0 0 0 0 0 0 0 0 0 0 0 0 0 0 0 0 0 0 0 0 0 0 0 0 0 0 0 0 0 0 0 0 0 0 0 0 0 0 0 0 0 0 0 0 0 0 0 0 0 0 0 0 0 0 0 0 0 0 0 0 0 0 0 0 0 0 0 0 0 0 0 0 0 0 0 0 0 0 0 0 0 0 0 0 0 0 0 0 0 0 0 0 0 0 0 0 0 0 0 0 0 0 0 0 0 0 0 0 0 0 0 0 0 0 0 0 0 0 0 0 0 0 0 0 0 0 0 0 0 0 0 0 0 0 0 0 0 0 0 0 0 0 0 0 0 0 0 0 0 0 0 0 0 0 0 0 0 0 0 0 0 0 0 0 0 0 0 0 0 0 0 0 0 0 0 0 0 0 0 0 0 0 0 0 0 0 0 0 0 0 0 0 0 0 0 0 0 0 0 0 0 0 0 0 0 0 0 0 0 0 0 0 0 0 0 0 0 0 0 0 0 0 0 0 0 0 0 0 0 0 0 0 0 0 0 0 0 0 0 0 0 0 0 0 0 0 0 0 0 0 0 0 0 0 0 0 0 0 0 0 0 0 0 0 0 0 0 0 0 0 0 0 0 0 0 0 0 0 0 0 0 0 0 0 0 0 0 0 0 0 0 0 0 0 0 0 0 0 0 0 0 0 0 0 0 0 0 0 0 0 0 0 0 0 0 0 0 0 0 0 0 0 0 0 0 0 0 0 0 0 0 0 0 0 0 0 0 0 0 0 0 0 0 0 0 0 0 0 0 0 0 0 0 0 0 0 0 0 0 0 0 0 0 0 0 0 0 0 0 0 0 0 0 0 0 0 0 0 0 0 0 0 0 0 0 0 0 0 0 0 0 0 0 0 0 0 0 0 0 0 0 0 0 0 0 0 0 0 0 0 0 0 0 0 0 0 0 0 0 0 0 0 0 0 0 0 0 0 0 0 0 0 0 0 0 0 0 0 0 0 0 0 0 0 0 0 0 0 0 0 0 0 0 0 0 0 0 0 0 0 0 0 0 0 0 0 0 0 0 0 0 0 0 0 0 0 0 0 0 0 0 0 0 0 0 0 0 0 0 0 0 0 0 0 0 0 0 0 0 0 0 0 0 0 0 0 0 0 0 0 0 0 0 0 0 0 0 0 0 0 0 0 0 0 0 0 0 0 0 0 0 0 0 0 0 0 0 0 0 0 0 0 0 0 0 0 0 0 0 0 0 0 0 0 0 0 0 0 0 0 0 0 0 0 0 0 0 0 0 0 0 0 0 0 0 0 0 0 0 0 0 0 0 0 0 0 0 0 0 0 0 0 0 0 0 0 0 0 0 0 0 0 0 0 0 0 0 0 0 0 0 0 0 0 0 0 0 0 0 0 0 0 0 0 0 0 0 0 0 0 0 0 0 0 0 0 0 0 0 0 0 0 0 0 0 0 0 0 0 0 0 0 0 0 0 0 0 0 0 0 0 0 0 0 0 0 0 0 0 0 0 0 0 0 0 0 0 0 0 0 0 0 0 0 0 0 0 0 0 0 0 0 0 0 0 0 0 0 0 0 0 0 0 0 0 0 0 0 0 0 0 0 0 0 0 0 0 0 0 0 0 0 0 0 0 0 0 0 0 0 0 0 0 0 0 0 0 0 0 0 0 0 0 0 0 0 0 0 0 0 0 0 0 0 0 0 0 0 0 
0 0 0 0 0 0 0 0 0 0 0 0 0 0 0 0 0 0 0 0 0 0 0 0 0 0 0 0 0 0 0 0 0 0 0 0 0 0 0 0 0 0 0 0 0 0 0 0 0 0 0 0 0 0 0 0 0 0 0 0 0 0 0 0 0 0 0 0 0 0 0 0 0 0 0 0 0 0 0 0 0 0 0 0 0 0 0 0 0 0 0 0 0 0 0 0 0 0 0 0 0 0 0 0 0 0 0 0 0 0 0 0 0 0 0 0 0 0 0 0 0 0 0 0 0 0 0 0 0 0 0 0 0 0 0 0 0 0 0 0 0 0 0 0 0 0 0 0 0 0 0 0 0 0 0 0 0 0 0 0 0 0 0 0 0 0 0 0 0 0 0 0 0 0 0 0 0 0 0 0 0 0 0 0 0 0 0 0 0 0 0 0 0 0 0 0 0 0 0 0 0 0 0 0 0 0 0 0 0 0 0 0 0 0 0 0 0 0 0 0 0 0 0 0 0 0 0 0 0 0 0 0 0 0 0 0 0 0 0 0 0 0 0 0 0 0 0 0 0 0 0 0 0 0 0 0 0 0 0 0 0 0 0 0 0 0 0 0 0 0 0 0 0 0 0 0 0 0 0 0 0 0 0 0 0 0 0 0 0 0 0 0 0 0 0 0 0 0 0 0 0 0 0 0 0 0 0 0 0 0 0 0 0 0 0 0 0 0 0 0 0 0 0 0 0 0 0 0 0 0 0 0 0 0 0 0 0 0 0 0 0 0 0 0 0 0 0 0 0 0 0 0 0 0 0 0 0 0 0 0 0 0 0 0 0 0 0 0 0 0 0 0 0 0 0 0 0 0 0 0 0 0 0 0 0 0 0 0 0 0 0 0 0 0 0 0 0 0 0 0 0 0 0 0 0 0 0 0 0 0 0 0 0 0 0 0 0 0 0 0 0 0 0 0 0 0 0 0 0 0 0 0 0 0 0 0 0 0 0 0 0 0 0 0 0 0 0 0 0 0 0 0 0 0 0 0 0 0 0 0 0 0 0 0 0 0 0 0 0 0 0 0 0 0 0 0 0 0 0 0 0 0 0 0 0 0 0 0 0 0 0 0 0 0 0 0 0 0 0 0 0 0 0 0 0 0 0 0 0 0 0 0 0 0 0 0 0 0 0 0 0 0 0 0 0 0 0 0 0 0 0 0 0 0 0 0 0 0 0 0 0 0 0 0 0 0 0 0 0 0 0 0 0 0 0 0 0 0 0 0 0 0 0 0 0 0 0 0 0 0 0 0 0 0 0 0 0 0 0 0 0 0 0 0 0 0 0 0 0 0 0 0 0 0 0 0 0 0 0 0 0 0 0 0 0 0 0 0 0 0 0 0 0 0 0 0 0 0 0 0 0 0 0 0 0 0 0 0 0 0 0 0 0 0 0 0 0 0 0 0 0 0 0 0 0 0 0 0 0 0 0 0 0 0 0 0 0 0 0 0 0 0 0 0 0 0 0 0 0 0 0 0 0 0 0 0 0 0 0 0 0 0 0 0 0 0 0 0 0 0 0 0 0 0 0 0 0 0 0 0 0 0 0 0 0 0 0 0 0 0 0 0 0 0 0 0 0 0 0 0 0 0 0 0 0 0 0 0 0 0 0 0 0 0 0 0 0 0 0 0 0 0 0 0 0 0 0 0 0 0 0 0 0 0 0 0 0 0 0 0 0 0 0 0 0 0 0 0 0 0 0 0 0 0 0 0 0 0 0 0 0 0 0 0 0 0 0 0 0 0 0 0 0 0 0 0 0 0 0 0 0 0 0 0 0 0 0 0 0 0 0 0 0 0 0 0 0 0 0 0 0 0 0 0 0 0 0 0 0 0 0 0 0 0 0 0 0 0 0 0 0 0 0 0 0 0 0 0 0 0 0 0 0 0 0 0 0 0 0 0 0 0 0 0 0 0 0 0 0 0 0 0 0 0 0 0 0 0 0 0 0 0 0 0 0 0 0 0 0 0 0 0 0 0 0 0 0 0 0 0 0 0 0 0 0 0 0 0 0 0 0 0 0 0 0 0 0 0 0 0 0 0 0 0 0 0 0 0 0 0 0 0 0 0 0 0 0 0 0 0 0 0 0 0 0 0 0 0 0 0 0 0 0 0 0 0 0 0 0 0 
0 0 0 0 0 0 0 0 0 0 0 0 0 0 0 0 0 0 0 0 0 0 0 0 0 0 0 0 0 0 0 0 0 0 0 0 0 0 0 0 0 0 0 0 0 0 0 0 0 0 0 0 0 0 0 0 0 0 0 0 0 0 0 0 0 0 0 0 0 0 0 0 0 0 0 0 0 0 0 0 0 0 0 0 0 0 0 0 0 0 0 0 0 0 0 0 0 0 0 0 0 0 0 0 0 0 0 0 0 0 0 0 0 0 0 0 0 0 0 0 0 0 0 0 0 0 0 0 0 0 0 0 0 0 0 0 0 0 0 0 0 0 0 0 0 0 0 0 0 0 0 0 0 0 0 0 0 0 0 0 0 0 0 0 0 0 0 0 0 0 0 0 0 0 0 0 0 0 0 0 0 0 0 0 0 0 0 0 0 0 0 0 0 0 0 0 0 0 0 0 0 0 0 0 0 0 0 0 0 0 0 0 0 0 0 0 0 0 0 0 0 0 0 0 0 0 0 0 0 0 0 0 0 0 0 0 0 0 0 0 0 0 0 0 0 0 0 0 0 0 0 0 0 0 0 0 0 0 0 0 0 0 0 0 0 0 0 0 0 0 0 0 0 0 0 0 0 0 0 0 0 0 0 0 0 0 0 0 0 0 0 0 0 0 0 0 0 0 0 0 0 0 0 0 0 0 0 0 0 0 0 0 0 0 0 0 0 0 0 0 0 0 0 0 0 0 0 0 0 0 0 0 0 0 0 0 0 0 0 0 0 0 0 0 0 0 0 0 0 0 0 0 0 0 0 0 0 0 0 0 0 0 0 0 0 0 0 0 0 0 0 0 0 0 0 0 0 0 0 0 0 0 0 0 0 0 0 0 0 0 0 0 0 0 0 0 0 0 0 0 0 0 0 0 0 0 0 0 0 0 0 0 0 0 0 0 0 0 0 0 0 0 0 0 0 0 0 0 0 0 0 0 0 0 0 0 0 0 0 0 0 0 0 0 0 0 0 0 0 0 0 0 0 0 0 0 0 0 0 0 0 0 0 0 0 0 0 0 0 0 0 0 0 0 0 0 0 0 0 0 0 0 0 0 0 0 0 0 0 0 0 0 0 0 0 0 0 0 0 0 0 0 0 0 0 0 0 0 0 0 0 0 0 0 0 0 0 0 0 0 0 0 0 0 0 0 0 0 0 0 0 0 0 0 0 0 0 0 0 0 0 0 0 0 0 0 0 0 0 0 0 0 0 0 0 0 0 0 0 0 0 0 0 0 0 0 0 0 0 0 0 0 0 0 0 0 0 0 0 0 0 0 0 0 0 0 0 0 0 0 0 0 0 0 0 0 0 0 0 0 0 0 0 0 0 0 0 0 0 0 0 0 0 0 0 0 0 0 0 0 0 0 0 0 0 0 0 0 0 0 0 0 0 0 0 0 0 0 0 0 0 0 0 0 0 0 0 0 0 0 0 0 0 0 0 0 0 0 0 0 0 0 0 0 0 0 0 0 0 0 0 0 0 0 0 0 0 0 0 0 0 0 0 0 0 0 0 0 0 0 0 0 0 0 0 0 0 0 0 0 0 0 0 0 0 0 0 0 0 0 0 0 0 0 0 0 0 0 0 0 0 0 0 0 0 0 0 0 0 0 0 0 0 0 0 0 0 0 0 0 0 0 0 0 0 0 0 0 0 0 0 0 0 0 0 0 0 0 0 0 0 0 0 0 0 0 0 0 0 0 0 0 0 0 0 0 0 0 0 0 0 0 0 0 0 0 0 0 0 0 0 0 0 0 0 0 0 0 0 0 0 0 0 0 0 0 0 0 0 0 0 0 0 0 0 0 0 0 0 0 0 0 0 0 0 0 0 0 0 0 0 0 0 0 0 0 0 0 0 0 0 0 0 0 0 0 0 0 0 0 0 0 0 0 0 0 0 0 0 0 0 0 0 0 0 0 0 0 0 0 0 0 0 0 0 0 0 0 0 0 0 0 0 0 0 0 0 0 0 0 0 0 0 0 0 0 0 0 0 0 0 0 0 0 0 0 0 0 0 0 0 0 0 0 0 0 0 0 0 0 0 0 0 0 0 0 0 0 0 0 0 0 0 0 0 0 0 0 0 0 0 0 0 0 0 0 0 0 0 0 0 0 0 0 0 0 0 0 0 0 
0 0 0 0 0 0 0 0 0 0 0 0 0 0 0 0 0 0 0 0 0 0 0 0 0 0 0 0 0 0 0 0 0 0 0 0 0 0 0 0 0 0 0 0 0 0 0 0 0 0 0 0 0 0 0 0 0 0 0 0 0 0 0 0 0 0 0 0 0 0 0 0 0 0 0 0 0 0 0 0 0 0 0 0 0 0 0 0 0 0 0 0 0 0 0 0 0 0 0 0 0 0 0 0 0 0 0 0 0 0 0 0 0 0 0 0 0 0 0 0 0 0 0 0 0 0 0 0 0 0 0 0 0 0 0 0 0 0 0 0 0 0 0 0 0 0 0 0 0 0 0 0 0 0 0 0 0 0 0 0 0 0 0 0 0 0 0 0 0 0 0 0 0 0 0 0 0 0 0 0 0 0 0 0 0 0 0 0 0 0 0 0 0 0 0 0 0 0 0 0 0 0 0 0 0 0 0 0 0 0 0 0 0 0 0 0 0 0 0 0 0 0 0 0 0 0 0 0 0 0 0 0 0 0 0 0 0 0 0 0 0 0 0 0 0 0 0 0 0 0 0 0 0 0 0 0 0 0 0 0 0 0 0 0 0 0 0 0 0 0 0 0 0 0 0 0 0 0 0 0 0 0 0 0 0 0 0 0 0 0 0 0 0 0 0 0 0 0 0 0 0 0 0 0 0 0 0 0 0 0 0 0 0 0 0 0 0 0 0 0 0 0 0 0 0 0 0 0 0 0 0 0 0 0 0 0 0 0 0 0 0 0 0 0 0 0 0 0 0 0 0 0 0 0 0 0 0 0 0 0 0 0 0 0 0 0 0 0 0 0 0 0 0 0 0 0 0 0 0 0 0 0 0 0 0 0 0 0 0 0 0 0 0 0 0 0 0 0 0 0 0 0 0 0 0 0 0 0 0 0 0 0 0 0 0 0 0 0 0 0 0 0 0 0 0 0 0 0 0 0 0 0 0 0 0 0 0 0 0 0 0 0 0 0 0 0 0 0 0 0 0 0 0 0 0 0 0 0 0 0 0 0 0 0 0 0 0 0 0 0 0 0 0 0 0 0 0 0 0 0 0 0 0 0 0 0 0 0 0 0 0 0 0 0 0 0 0 0 0 0 0 0 0 0 0 0 0 0 0 0 0 0 0 0 0 0 0 0 0 0 0 0 0 0 0 0 0 0 0 0 0 0 0 0 0 0 0 0 0 0 0 0 0 0 0 0 0 0 0 0 0 0 0 0 0 0 0 0 0 0 0 0 0 0 0 0 0 0 0 0 0 0 0 0 0 0 0 0 0 0 0 0 0 0 0 0 0 0 0 0 0 0 0 0 0 0 0 0 0 0 0 0 0 0 0 0 0 0 0 0 0 0 0 0 0 0 0 0 0 0 0 0 0 0 0 0 0 0 0 0 0 0 0 0 0 0 0 0 0 0 0 0 0 0 0 0 0 0 0 0 0 0 0 0 0 0 0 0 0 0 0 0 0 0 0 0 0 0 0 0 0 0 0 0 0 0 0 0 0 0 0 0 0 0 0 0 0 0 0 0 0 0 0 0 0 0 0 0 0 0 0 0 0 0 0 0 0 0 0 0 0 0 0 0 0 0 0 0 0 0 0 0 0 0 0 0 0 0 0 0 0 0 0 0 0 0 0 0 0 0 0 0 0 0 0 0 0 0 0 0 0 0 0 0 0 0 0 0 0 0 0 0 0 0 0 0 0 0 0 0 0 0 0 0 0 0 0 0 0 0 0 0 0 0 0 0 0 0 0 0 0 0 0 0 0 0 0 0 0 0 0 0 0 0 0 0 0 0 0 0 0 0 0 0 0 0 0 0 0 0 0 0 0 0 0 0 0 0 0 0 0 0 0 0 0 0 0 0 0 0 0 0 0 0 0 0 0 0 0 0 0 0 0 0 0 0 0 0 0 0 0 0 0 0 0 0 0 0 0 0 0 0 0 0 0 0 0 0 0 0 0 0 0 0 0 0 0 0 0 0 0 0 0 0 0 0 0 0 0 0 0 0 0 0 0 0 0 0 0 0 0 0 0 0 0 0 0 0 0 0 0 0 0 0 0 0 0 0 0 0 0 0 0 0 0 0 0 0 0 0 0 0 0 0 0 0 0 0 0 0 0 0 0 0 0 0 0 0 0 0 
0 0 0 0 0 0 0 0 0 0 0 0 0 0 0 0 0 0 0 0 0 0 0 0 0 0 0 0 0 0 0 0 0 0 0 0 0 0 0 0 0 0 0 0 0 0 0 0 0 0 0 0 0 0 0 0 0 0 0 0 0 0 0 0 0 0 0 0 0 0 0 0 0 0 0 0 0 0 0 0 0 0 0 0 0 0 0 0 0 0 0 0 0 0 0 0 0 0 0 0 0 0 0 0 0 0 0 0 0 0 0 0 0 0 0 0 0 0 0 0 0 0 0 0 0 0 0 0 0 0 0 0 0 0 0 0 0 0 0 0 0 0 0 0 0 0 0 0 0 0 0 0 0 0 0 0 0 0 0 0 0 0 0 0 0 0 0 0 0 0 0 0 0 0 0 0 0 0 0 0 0 0 0 0 0 0 0 0 0 0 0 0 0 0 0 0 0 0 0 0 0 0 0 0 0 0 0 0 0 0 0 0 0 0 0 0 0 0 0 0 0 0 0 0 0 0 0 0 0 0 0 0 0 0 0 0 0 0 0 0 0 0 0 0 0 0 0 0 0 0 0 0 0 0 0 0 0 0 0 0 0 0 0 0 0 0 0 0 0 0 0 0 0 0 0 0 0 0 0 0 0 0 0 0 0 0 0 0 0 0 0 0 0 0 0 0 0 0 0 0 0 0 0 0 0 0 0 0 0 0 0 0 0 0 0 0 0 0 0 0 0 0 0 0 0 0 0 0 0 0 0 0 0 0 0 0 0 0 0 0 0 0 0 0 0 0 0 0 0 0 0 0 0 0 0 0 0 0 0 0 0 0 0 0 0 0 0 0 0 0 0 0 0 0 0 0 0 0 0 0 0 0 0 0 0 0 0 0 0 0 0 0 0 0 0 0 0 0 0 0 0 0 0 0 0 0 0 0 0 0 0 0 0 0 0 0 0 0 0 0 0 0 0 0 0 0 0 0 0 0 0 0 0 0 0 0 0 0 0 0 0 0 0 0 0 0 0 0 0 0 0 0 0 0 0 0 0 0 0 0 0 0 0 0 0 0 0 0 0 0 0 0 0 0 0 0 0 0 0 0 0 0 0 0 0 0 0 0 0 0 0 0 0 0 0 0 0 0 0 0 0 0 0 0 0 0 0 0 0 0 0 0 0 0 0 0 0 0 0 0 0 0 0 0 0 0 0 0 0 0 0 0 0 0 0 0 0 0 0 0 0 0 0 0 0 0 0 0 0 0 0 0 0 0 0 0 0 0 0 0 0 0 0 0 0 0 0 0 0 0 0 0 0 0 0 0 0 0 0 0 0 0 0 0 0 0 0 0 0 0 0 0 0 0 0 0 0 0 0 0 0 0 0 0 0 0 0 0 0 0 0 0 0 0 0 0 0 0 0 0 0 0 0 0 0 0 0 0 0 0 0 0 0 0 0 0 0 0 0 0 0 0 0 0 0 0 0 0 0 0 0 0 0 0 0 0 0 0 0 0 0 0 0 0 0 0 0 0 0 0 0 0 0 0 0 0 0 0 0 0 0 0 0 0 0 0 0 0 0 0 0 0 0 0 0 0 0 0 0 0 0 0 0 0 0 0 0 0 0 0 0 0 0 0 0 0 0 0 0 0 0 0 0 0 0 0 0 0 0 0 0 0 0 0 0 0 0 0 0 0 0 0 0 0 0 0 0 0 0 0 0 0 0 0 0 0 0 0 0 0 0 0 0 0 0 0 0 0 0 0 0 0 0 0 0 0 0 0 0 0 0 0 0 0 0 0 0 0 0 0 0 0 0 0 0 0 0 0 0 0 0 0 0 0 0 0 0 0 0 0 0 0 0 0 0 0 0 0 0 0 0 0 0 0 0 0 0 0 0 0 0 0 0 0 0 0 0 0 0 0 0 0 0 0 0 0 0 0 0 0 0 0 0 0 0 0 0 0 0 0 0 0 0 0 0 0 0 0 0 0 0 0 0 0 0 0 0 0 0 0 0 0 0 0 0 0 0 0 0 0 0 0 0 0 0 0 0 0 0 0 0 0 0 0 0 0 0 0 0 0 0 0 0 0 0 0 0 0 0 0 0 0 0 0 0 0 0 0 0 0 0 0 0 0 0 0 0 0 0 0 0 0 0 0 0 0 0 0 0 0 0 0 0 0 0 0 0 0 0 0 
0 0 0 0 0 0 0 0 0 0 0 0 0 0 0 0 0 0 0 0 0 0 0 0 0 0 0 0 0 0 0 0 0 0 0 0 0 0 0 0 0 0 0 0 0 0 0 0 0 0 0 0 0 0 0 0 0 0 0 0 0 0 0 0 0 0 0 0 0 0 0 0 0 0 0 0 0 0 0 0 0 0 0 0 0 0 0 0 0 0 0 0 0 0 0 0 0 0 0 0 0 0 0 0 0 0 0 0 0 0 0 0 0 0 0 0 0 0 0 0 0 0 0 0 0 0 0 0 0 0 0 0 0 0 0 0 0 0 0 0 0 0 0 0 0 0 0 0 0 0 0 0 0 0 0 0 0 0 0 0 0 0 0 0 0 0 0 0 0 0 0 0 0 0 0 0 0 0 0 0 0 0 0 0 0 0 0 0 0 0 0 0 0 0 0 0 0 0 0 0 0 0 0 0 0 0 0 0 0 0 0 0 0 0 0 0 0 0 0 0 0 0 0 0 0 0 0 0 0 0 0 0 0 0 0 0 0 0 0 0 0 0 0 0 0 0 0 0 0 0 0 0 0 0 0 0 0 0 0 0 0 0 0 0 0 0 0 0 0 0 0 0 0 0 0 0 0 0 0 0 0 0 0 0 0 0 0 0 0 0 0 0 0 0 0 0 0 0 0 0 0 0 0 0 0 0 0 0 0 0 0 0 0 0 0 0 0 0 0 0 0 0 0 0 0 0 0 0 0 0 0 0 0 0 0 0 0 0 0 0 0 0 0 0 0 0 0 0 0 0 0 0 0 0 0 0 0 0 0 0 0 0 0 0 0 0 0 0 0 0 0 0 0 0 0 0 0 0 0 0 0 0 0 0 0 0 0 0 0 0 0 0 0 0 0 0 0 0 0 0 0 0 0 0 0 0 0 0 0 0 0 0 0 0 0 0 0 0 0 0 0 0 0 0 0 0 0 0 0 0 0 0 0 0 0 0 0 0 0 0 0 0 0 0 0 0 0 0 0 0 0 0 0 0 0 0 0 0 0 0 0 0 0 0 0 0 0 0 0 0 0 0 0 0 0 0 0 0 0 0 0 0 0 0 0 0 0 0 0 0 0 0 0 0 0 0 0 0 0 0 0 0 0 0 0 0 0 0 0 0 0 0 0 0 0 0 0 0 0 0 0 0 0 0 0 0 0 0 0 0 0 0 0 0 0 0 0 0 0 0 0 0 0 0 0 0 0 0 0 0 0 0 0 0 0 0 0 0 0 0 0 0 0 0 0 0 0 0 0 0 0 0 0 0 0 0 0 0 0 0 0 0 0 0 0 0 0 0 0 0 0 0 0 0 0 0 0 0 0 0 0 0 0 0 0 0 0 0 0 0 0 0 0 0 0 0 0 0 0 0 0 0 0 0 0 0 0 0 0 0 0 0 0 0 0 0 0 0 0 0 0 0 0 0 0 0 0 0 0 0 0 0 0 0 0 0 0 0 0 0 0 0 0 0 0 0 0 0 0 0 0 0 0 0 0 0 0 0 0 0 0 0 0 0 0 0 0 0 0 0 0 0 0 0 0 0 0 0 0 0 0 0 0 0 0 0 0 0 0 0 0 0 0 0 0 0 0 0 0 0 0 0 0 0 0 0 0 0 0 0 0 0 0 0 0 0 0 0 0 0 0 0 0 0 0 0 0 0 0 0 0 0 0 0 0 0 0 0 0 0 0 0 0 0 0 0 0 0 0 0 0 0 0 0 0 0 0 0 0 0 0 0 0 0 0 0 0 0 0 0 0 0 0 0 0 0 0 0 0 0 0 0 0 0 0 0 0 0 0 0 0 0 0 0 0 0 0 0 0 0 0 0 0 0 0 0 0 0 0 0 0 0 0 0 0 0 0 0 0 0 0 0 0 0 0 0 0 0 0 0 0 0 0 0 0 0 0 0 0 0 0 0 0 0 0 0 0 0 0 0 0 0 0 0 0 0 0 0 0 0 0 0 0 0 0 0 0 0 0 0 0 0 0 0 0 0 0 0 0 0 0 0 0 0 0 0 0 0 0 0 0 0 0 0 0 0 0 0 0 0 0 0 0 0 0 0 0 0 0 0 0 0 0 0 0 0 0 0 0 0 0 0 0 0 0 0 0 0 0 0 0 0 0 0 0 0 0 0 0 0 
0 0 0 0 0 0 0 0 0 0 0 0 0 0 0 0 0 0 0 0 0 0 0 0 0 0 0 0 0 0 0 0 0 0 0 0 0 0 0 0 0 0 0 0 0 0 0 0 0 0 0 0 0 0 0 0 0 0 0 0 0 0 0 0 0 0 0 0 0 0 0 0 0 0 0 0 0 0 0 0 0 0 0 0 0 0 0 0 0 0 0 0 0 0 0 0 0 0 0 0 0 0 0 0 0 0 0 0 0 0 0 0 0 0 0 0 0 0 0 0 0 0 0 0 0 0 0 0 0 0 0 0 0 0 0 0 0 0 0 0 0 0 0 0 0 0 0 0 0 0 0 0 0 0 0 0 0 0 0 0 0 0 0 0 0 0 0 0 0 0 0 0 0 0 0 0 0 0 0 0 0 0 0 0 0 0 0 0 0 0 0 0 0 0 0 0 0 0 0 0 0 0 0 0 0 0 0 0 0 0 0 0 0 0 0 0 0 0 0 0 0 0 0 0 0 0 0 0 0 0 0 0 0 0 0 0 0 0 0 0 0 0 0 0 0 0 0 0 0 0 0 0 0 0 0 0 0 0 0 0 0 0 0 0 0 0 0 0 0 0 0 0 0 0 0 0 0 0 0 0 0 0 0 0 0 0 0 0 0 0 0 0 0 0 0 0 0 0 0 0 0 0 0 0 0 0 0 0 0 0 0 0 0 0 0 0 0 0 0 0 0 0 0 0 0 0 0 0 0 0 0 0 0 0 0 0 0 0 0 0 0 0 0 0 0 0 0 0 0 0 0 0 0 0 0 0 0 0 0 0 0 0 0 0 0 0 0 0 0 0 0 0 0 0 0 0 0 0 0 0 0 0 0 0 0 0 0 0 0 0 0 0 0 0 0 0 0 0 0 0 0 0 0 0 0 0 0 0 0 0 0 0 0 0 0 0 0 0 0 0 0 0 0 0 0 0 0 0 0 0 0 0 0 0 0 0 0 0 0 0 0 0 0 0 0 0 0 0 0 0 0 0 0 0 0 0 0 0 0 0 0 0 0 0 0 0 0 0 0 0 0 0 0 0 0 0 0 0 0 0 0 0 0 0 0 0 0 0 0 0 0 0 0 0 0 0 0 0 0 0 0 0 0 0 0 0 0 0 0 0 0 0 0 0 0 0 0 0 0 0 0 0 0 0 0 0 0 0 0 0 0 0 0 0 0 0 0 0 0 0 0 0 0 0 0 0 0 0 0 0 0 0 0 0 0 0 0 0 0 0 0 0 0 0 0 0 0 0 0 0 0 0 0 0 0 0 0 0 0 0 0 0 0 0 0 0 0 0 0 0 0 0 0 0 0 0 0 0 0 0 0 0 0 0 0 0 0 0 0 0 0 0 0 0 0 0 0 0 0 0 0 0 0 0 0 0 0 0 0 0 0 0 0 0 0 0 0 0 0 0 0 0 0 0 0 0 0 0 0 0 0 0 0 0 0 0 0 0 0 0 0 0 0 0 0 0 0 0 0 0 0 0 0 0 0 0 0 0 0 0 0 0 0 0 0 0 0 0 0 0 0 0 0 0 0 0 0 0 0 0 0 0 0 0 0 0 0 0 0 0 0 0 0 0 0 0 0 0 0 0 0 0 0 0 0 0 0 0 0 0 0 0 0 0 0 0 0 0 0 0 0 0 0 0 0 0 0 0 0 0 0 0 0 0 0 0 0 0 0 0 0 0 0 0 0 0 0 0 0 0 0 0 0 0 0 0 0 0 0 0 0 0 0 0 0 0 0 0 0 0 0 0 0 0 0 0 0 0 0 0 0 0 0 0 0 0 0 0 0 0 0 0 0 0 0 0 0 0 0 0 0 0 0 0 0 0 0 0 0 0 0 0 0 0 0 0 0 0 0 0 0 0 0 0 0 0 0 0 0 0 0 0 0 0 0 0 0 0 0 0 0 0 0 0 0 0 0 0 0 0 0 0 0 0 0 0 0 0 0 0 0 0 0 0 0 0 0 0 0 0 0 0 0 0 0 0 0 0 0 0 0 0 0 0 0 0 0 0 0 0 0 0 0 0 0 0 0 0 0 0 0 0 0 0 0 0 0 0 0 0 0 0 0 0 0 0 0 0 0 0 0 0 0 0 0 0 0 0 0 0 0 0 0 0 0 0 0 0 0 0 
0 0 0 0 0 0 0 0 0 0 0 0 0 0 0 0 0 0 0 0 0 0 0 0 0 0 0 0 0 0 0 0 0 0 0 0 0 0 0 0 0 0 0 0 0 0 0 0 0 0 0 0 0 0 0 0 0 0 0 0 0 0 0 0 0 0 0 0 0 0 0 0 0 0 0 0 0 0 0 0 0 0 0 0 0 0 0 0 0 0 0 0 0 0 0 0 0 0 0 0 0 0 0 0 0 0 0 0 0 0 0 0 0 0 0 0 0 0 0 0 0 0 0 0 0 0 0 0 0 0 0 0 0 0 0 0 0 0 0 0 0 0 0 0 0 0 0 0 0 0 0 0 0 0 0 0 0 0 0 0 0 0 0 0 0 0 0 0 0 0 0 0 0 0 0 0 0 0 0 0 0 0 0 0 0 0 0 0 0 0 0 0 0 0 0 0 0 0 0 0 0 0 0 0 0 0 0 0 0 0 0 0 0 0 0 0 0 0 0 0 0 0 0 0 0 0 0 0 0 0 0 0 0 0 0 0 0 0 0 0 0 0 0 0 0 0 0 0 0 0 0 0 0 0 0 0 0 0 0 0 0 0 0 0 0 0 0 0 0 0 0 0 0 0 0 0 0 0 0 0 0 0 0 0 0 0 0 0 0 0 0 0 0 0 0 0 0 0 0 0 0 0 0 0 0 0 0 0 0 0 0 0 0 0 0 0 0 0 0 0 0 0 0 0 0 0 0 0 0 0 0 0 0 0 0 0 0 0 0 0 0 0 0 0 0 0 0 0 0 0 0 0 0 0 0 0 0 0 0 0 0 0 0 0 0 0 0 0 0 0 0 0 0 0 0 0 0 0 0 0 0 0 0 0 0 0 0 0 0 0 0 0 0 0 0 0 0 0 0 0 0 0 0 0 0 0 0 0 0 0 0 0 0 0 0 0 0 0 0 0 0 0 0 0 0 0 0 0 0 0 0 0 0 0 0 0 0 0 0 0 0 0 0 0 0 0 0 0 0 0 0 0 0 0 0 0 0 0 0 0 0 0 0 0 0 0 0 0 0 0 0 0 0 0 0 0 0 0 0 0 0 0 0 0 0 0 0 0 0 0 0 0 0 0 0 0 0 0 0 0 0 0 0 0 0 0 0 0 0 0 0 0 0 0 0 0 0 0 0 0 0 0 0 0 0 0 0 0 0 0 0 0 0 0 0 0 0 0 0 0 0 0 0 0 0 0 0 0 0 0 0 0 0 0 0 0 0 0 0 0 0 0 0 0 0 0 0 0 0 0 0 0 0 0 0 0 0 0 0 0 0 0 0 0 0 0 0 0 0 0 0 0 0 0 0 0 0 0 0 0 0 0 0 0 0 0 0 0 0 0 0 0 0 0 0 0 0 0 0 0 0 0 0 0 0 0 0 0 0 0 0 0 0 0 0 0 0 0 0 0 0 0 0 0 0 0 0 0 0 0 0 0 0 0 0 0 0 0 0 0 0 0 0 0 0 0 0 0 0 0 0 0 0 0 0 0 0 0 0 0 0 0 0 0 0 0 0 0 0 0 0 0 0 0 0 0 0 0 0 0 0 0 0 0 0 0 0 0 0 0 0 0 0 0 0 0 0 0 0 0 0 0 0 0 0 0 0 0 0 0 0 0 0 0 0 0 0 0 0 0 0 0 0 0 0 0 0 0 0 0 0 0 0 0 0 0 0 0 0 0 0 0 0 0 0 0 0 0 0 0 0 0 0 0 0 0 0 0 0 0 0 0 0 0 0 0 0 0 0 0 0 0 0 0 0 0 0 0 0 0 0 0 0 0 0 0 0 0 0 0 0 0 0 0 0 0 0 0 0 0 0 0 0 0 0 0 0 0 0 0 0 0 0 0 0 0 0 0 0 0 0 0 0 0 0 0 0 0 0 0 0 0 0 0 0 0 0 0 0 0 0 0 0 0 0 0 0 0 0 0 0 0 0 0 0 0 0 0 0 0 0 0 0 0 0 0 0 0 0 0 0 0 0 0 0 0 0 0 0 0 0 0 0 0 0 0 0 0 0 0 0 0 0 0 0 0 0 0 0 0 0 0 0 0 0 0 0 0 0 0 0 0 0 0 0 0 0 0 0 0 0 0 0 0 0 0 0 0 0 0 0 0 0 0 0 0 0 0 0 0 
0 0 0 0 0 0 0 0 0 0 0 0 0 0 0 0 0 0 0 0 0 0 0 0 0 0 0 0 0 0 0 0 0 0 0 0 0 0 0 0 0 0 0 0 0 0 0 0 0 0 0 0 0 0 0 0 0 0 0 0 0 0 0 0 0 0 0 0 0 0 0 0 0 0 0 0 0 0 0 0 0 0 0 0 0 0 0 0 0 0 0 0 0 0 0 0 0 0 0 0 0 0 0 0 0 0 0 0 0 0 0 0 0 0 0 0 0 0 0 0 0 0 0 0 0 0 0 0 0 0 0 0 0 0 0 0 0 0 0 0 0 0 0 0 0 0 0 0 0 0 0 0 0 0 0 0 0 0 0 0 0 0 0 0 0 0 0 0 0 0 0 0 0 0 0 0 0 0 0 0 0 0 0 0 0 0 0 0 0 0 0 0 0 0 0 0 0 0 0 0 0 0 0 0 0 0 0 0 0 0 0 0 0 0 0 0 0 0 0 0 0 0 0 0 0 0 0 0 0 0 0 0 0 0 0 0 0 0 0 0 0 0 0 0 0 0 0 0 0 0 0 0 0 0 0 0 0 0 0 0 0 0 0 0 0 0 0 0 0 0 0 0 0 0 0 0 0 0 0 0 0 0 0 0 0 0 0 0 0 0 0 0 0 0 0 0 0 0 0 0 0 0 0 0 0 0 0 0 0 0 0 0 0 0 0 0 0 0 0 0 0 0 0 0 0 0 0 0 0 0 0 0 0 0 0 0 0 0 0 0 0 0 0 0 0 0 0 0 0 0 0 0 0 0 0 0 0 0 0 0 0 0 0 0 0 0 0 0 0 0 0 0 0 0 0 0 0 0 0 0 0 0 0 0 0 0 0 0 0 0 0 0 0 0 0 0 0 0 0 0 0 0 0 0 0 0 0 0 0 0 0 0 0 0 0 0 0 0 0 0 0 0 0 0 0 0 0 0 0 0 0 0 0 0 0 0 0 0 0 0 0 0 0 0 0 0 0 0 0 0 0 0 0 0 0 0 0 0 0 0 0 0 0 0 0 0 0 0 0 0 0 0 0 0 0 0 0 0 0 0 0 0 0 0 0 0 0 0 0 0 0 0 0 0 0 0 0 0 0 0 0 0 0 0 0 0 0 0 0 0 0 0 0 0 0 0 0 0 0 0 0 0 0 0 0 0 0 0 0 0 0 0 0 0 0 0 0 0 0 0 0 0 0 0 0 0 0 0 0 0 0 0 0 0 0 0 0 0 0 0 0 0 0 0 0 0 0 0 0 0 0 0 0 0 0 0 0 0 0 0 0 0 0 0 0 0 0 0 0 0 0 0 0 0 0 0 0 0 0 0 0 0 0 0 0 0 0 0 0 0 0 0 0 0 0 0 0 0 0 0 0 0 0 0 0 0 0 0 0 0 0 0 0 0 0 0 0 0 0 0 0 0 0 0 0 0 0 0 0 0 0 0 0 0 0 0 0 0 0 0 0 0 0 0 0 0 0 0 0 0 0 0 0 0 0 0 0 0 0 0 0 0 0 0 0 0 0 0 0 0 0 0 0 0 0 0 0 0 0 0 0 0 0 0 0 0 0 0 0 0 0 0 0 0 0 0 0 0 0 0 0 0 0 0 0 0 0 0 0 0 0 0 0 0 0 0 0 0 0 0 0 0 0 0 0 0 0 0 0 0 0 0 0 0 0 0 0 0 0 0 0 0 0 0 0 0 0 0 0 0 0 0 0 0 0 0 0 0 0 0 0 0 0 0 0 0 0 0 0 0 0 0 0 0 0 0 0 0 0 0 0 0 0 0 0 0 0 0 0 0 0 0 0 0 0 0 0 0 0 0 0 0 0 0 0 0 0 0 0 0 0 0 0 0 0 0 0 0 0 0 0 0 0 0 0 0 0 0 0 0 0 0 0 0 0 0 0 0 0 0 0 0 0 0 0 0 0 0 0 0 0 0 0 0 0 0 0 0 0 0 0 0 0 0 0 0 0 0 0 0 0 0 0 0 0 0 0 0 0 0 0 0 0 0 0 0 0 0 0 0 0 0 0 0 0 0 0 0 0 0 0 0 0 0 0 0 0 0 0 0 0 0 0 0 0 0 0 0 0 0 0 0 0 0 0 0 0 0 0 0 0 0 0 0 0 0 0 0 0 0 
0 0 0 0 0 0 0 0 0 0 0 0 0 0 0 0 0 0 0 0 0 0 0 0 0 0 0 0 0 0 0 0 0 0 0 0 0 0 0 0 0 0 0 0 0 0 0 0 0 0 0 0 0 0 0 0 0 0 0 0 0 0 0 0 0 0 0 0 0 0 0 0 0 0 0 0 0 0 0 0 0 0 0 0 0 0 0 0 0 0 0 0 0 0 0 0 0 0 0 0 0 0 0 0 0 0 0 0 0 0 0 0 0 0 0 0 0 0 0 0 0 0 0 0 0 0 0 0 0 0 0 0 0 0 0 0 0 0 0 0 0 0 0 0 0 0 0 0 0 0 0 0 0 0 0 0 0 0 0 0 0 0 0 0 0 0 0 0 0 0 0 0 0 0 0 0 0 0 0 0 0 0 0 0 0 0 0 0 0 0 0 0 0 0 0 0 0 0 0 0 0 0 0 0 0 0 0 0 0 0 0 0 0 0 0 0 0 0 0 0 0 0 0 0 0 0 0 0 0 0 0 0 0 0 0 0 0 0 0 0 0 0 0 0 0 0 0 0 0 0 0 0 0 0 0 0 0 0 0 0 0 0 0 0 0 0 0 0 0 0 0 0 0 0 0 0 0 0 0 0 0 0 0 0 0 0 0 0 0 0 0 0 0 0 0 0 0 0 0 0 0 0 0 0 0 0 0 0 0 0 0 0 0 0 0 0 0 0 0 0 0 0 0 0 0 0 0 0 0 0 0 0 0 0 0 0 0 0 0 0 0 0 0 0 0 0 0 0 0 0 0 0 0 0 0 0 0 0 0 0 0 0 0 0 0 0 0 0 0 0 0 0 0 0 0 0 0 0 0 0 0 0 0 0 0 0 0 0 0 0 0 0 0 0 0 0 0 0 0 0 0 0 0 0 0 0 0 0 0 0 0 0 0 0 0 0 0 0 0 0 0 0 0 0 0 0 0 0 0 0 0 0 0 0 0 0 0 0 0 0 0 0 0 0 0 0 0 0 0 0 0 0 0 0 0 0 0 0 0 0 0 0 0 0 0 0 0 0 0 0 0 0 0 0 0 0 0 0 0 0 0 0 0 0 0 0 0 0 0 0 0 0 0 0 0 0 0 0 0 0 0 0 0 0 0 0 0 0 0 0 0 0 0 0 0 0 0 0 0 0 0 0 0 0 0 0 0 0 0 0 0 0 0 0 0 0 0 0 0 0 0 0 0 0 0 0 0 0 0 0 0 0 0 0 0 0 0 0 0 0 0 0 0 0 0 0 0 0 0 0 0 0 0 0 0 0 0 0 0 0 0 0 0 0 0 0 0 0 0 0 0 0 0 0 0 0 0 0 0 0 0 0 0 0 0 0 0 0 0 0 0 0 0 0 0 0 0 0 0 0 0 0 0 0 0 0 0 0 0 0 0 0 0 0 0 0 0 0 0 0 0 0 0 0 0 0 0 0 0 0 0 0 0 0 0 0 0 0 0 0 0 0 0 0 0 0 0 0 0 0 0 0 0 0 0 0 0 0 0 0 0 0 0 0 0 0 0 0 0 0 0 0 0 0 0 0 0 0 0 0 0 0 0 0 0 0 0 0 0 0 0 0 0 0 0 0 0 0 0 0 0 0 0 0 0 0 0 0 0 0 0 0 0 0 0 0 0 0 0 0 0 0 0 0 0 0 0 0 0 0 0 0 0 0 0 0 0 0 0 0 0 0 0 0 0 0 0 0 0 0 0 0 0 0 0 0 0 0 0 0 0 0 0 0 0 0 0 0 0 0 0 0 0 0 0 0 0 0 0 0 0 0 0 0 0 0 0 0 0 0 0 0 0 0 0 0 0 0 0 0 0 0 0 0 0 0 0 0 0 0 0 0 0 0 0 0 0 0 0 0 0 0 0 0 0 0 0 0 0 0 0 0 0 0 0 0 0 0 0 0 0 0 0 0 0 0 0 0 0 0 0 0 0 0 0 0 0 0 0 0 0 0 0 0 0 0 0 0 0 0 0 0 0 0 0 0 0 0 0 0 0 0 0 0 0 0 0 0 0 0 0 0 0 0 0 0 0 0 0 0 0 0 0 0 0 0 0 0 0 0 0 0 0 0 0 0 0 0 0 0 0 0 0 0 0 0 0 0 0 0 0 0 0 0 0 0 0 0 0 0 
0 0 0 0 0 0 0 0 0 0 0 0 0 0 0 0 0 0 0 0 0 0 0 0 0 0 0 0 0 0 0 0 0 0 0 0 0 0 0 0 0 0 0 0 0 0 0 0 0 0 0 0 0 0 0 0 0 0 0 0 0 0 0 0 0 0 0 0 0 0 0 0 0 0 0 0 0 0 0 0 0 0 0 0 0 0 0 0 0 0 0 0 0 0 0 0 0 0 0 0 0 0 0 0 0 0 0 0 0 0 0 0 0 0 0 0 0 0 0 0 0 0 0 0 0 0 0 0 0 0 0 0 0 0 0 0 0 0 0 0 0 0 0 0 0 0 0 0 0 0 0 0 0 0 0 0 0 0 0 0 0 0 0 0 0 0 0 0 0 0 0 0 0 0 0 0 0 0 0 0 0 0 0 0 0 0 0 0 0 0 0 0 0 0 0 0 0 0 0 0 0 0 0 0 0 0 0 0 0 0 0 0 0 0 0 0 0 0 0 0 0 0 0 0 0 0 0 0 0 0 0 0 0 0 0 0 0 0 0 0 0 0 0 0 0 0 0 0 0 0 0 0 0 0 0 0 0 0 0 0 0 0 0 0 0 0 0 0 0 0 0 0 0 0 0 0 0 0 0 0 0 0 0 0 0 0 0 0 0 0 0 0 0 0 0 0 0 0 0 0 0 0 0 0 0 0 0 0 0 0 0 0 0 0 0 0 0 0 0 0 0 0 0 0 0 0 0 0 0 0 0 0 0 0 0 0 0 0 0 0 0 0 0 0 0 0 0 0 0 0 0 0 0 0 0 0 0 0 0 0 0 0 0 0 0 0 0 0 0 0 0 0 0 0 0 0 0 0 0 0 0 0 0 0 0 0 0 0 0 0 0 0 0 0 0 0 0 0 0 0 0 0 0 0 0 0 0 0 0 0 0 0 0 0 0 0 0 0 0 0 0 0 0 0 0 0 0 0 0 0 0 0 0 0 0 0 0 0 0 0 0 0 0 0 0 0 0 0 0 0 0 0 0 0 0 0 0 0 0 0 0 0 0 0 0 0 0 0 0 0 0 0 0 0 0 0 0 0 0 0 0 0 0 0 0 0 0 0 0 0 0 0 0 0 0 0 0 0 0 0 0 0 0 0 0 0 0 0 0 0 0 0 0 0 0 0 0 0 0 0 0 0 0 0 0 0 0 0 0 0 0 0 0 0 0 0 0 0 0 0 0 0 0 0 0 0 0 0 0 0 0 0 0 0 0 0 0 0 0 0 0 0 0 0 0 0 0 0 0 0 0 0 0 0 0 0 0 0 0 0 0 0 0 0 0 0 0 0 0 0 0 0 0 0 0 0 0 0 0 0 0 0 0 0 0 0 0 0 0 0 0 0 0 0 0 0 0 0 0 0 0 0 0 0 0 0 0 0 0 0 0 0 0 0 0 0 0 0 0 0 0 0 0 0 0 0 0 0 0 0 0 0 0 0 0 0 0 0 0 0 0 0 0 0 0 0 0 0 0 0 0 0 0 0 0 0 0 0 0 0 0 0 0 0 0 0 0 0 0 0 0 0 0 0 0 0 0 0 0 0 0 0 0 0 0 0 0 0 0 0 0 0 0 0 0 0 0 0 0 0 0 0 0 0 0 0 0 0 0 0 0 0 0 0 0 0 0 0 0 0 0 0 0 0 0 0 0 0 0 0 0 0 0 0 0 0 0 0 0 0 0 0 0 0 0 0 0 0 0 0 0 0 0 0 0 0 0 0 0 0 0 0 0 0 0 0 0 0 0 0 0 0 0 0 0 0 0 0 0 0 0 0 0 0 0 0 0 0 0 0 0 0 0 0 0 0 0 0 0 0 0 0 0 0 0 0 0 0 0 0 0 0 0 0 0 0 0 0 0 0 0 0 0 0 0 0 0 0 0 0 0 0 0 0 0 0 0 0 0 0 0 0 0 0 0 0 0 0 0 0 0 0 0 0 0 0 0 0 0 0 0 0 0 0 0 0 0 0 0 0 0 0 0 0 0 0 0 0 0 0 0 0 0 0 0 0 0 0 0 0 0 0 0 0 0 0 0 0 0 0 0 0 0 0 0 0 0 0 0 0 0 0 0 0 0 0 0 0 0 0 0 0 0 0 0 0 0 0 0 0 0 0 0 0 0 0 0 0 0 0 
0 0 0 0 0 0 0 0 0 0 0 0 0 0 0 0 0 0 0 0 0 0 0 0 0 0 0 0 0 0 0 0 0 0 0 0 0 0 0 0 0 0 0 0 0 0 0 0 0 0 0 0 0 0 0 0 0 0 0 0 0 0 0 0 0 0 0 0 0 0 0 0 0 0 0 0 0 0 0 0 0 0 0 0 0 0 0 0 0 0 0 0 0 0 0 0 0 0 0 0 0 0 0 0 0 0 0 0 0 0 0 0 0 0 0 0 0 0 0 0 0 0 0 0 0 0 0 0 0 0 0 0 0 0 0 0 0 0 0 0 0 0 0 0 0 0 0 0 0 0 0 0 0 0 0 0 0 0 0 0 0 0 0 0 0 0 0 0 0 0 0 0 0 0 0 0 0 0 0 0 0 0 0 0 0 0 0 0 0 0 0 0 0 0 0 0 0 0 0 0 0 0 0 0 0 0 0 0 0 0 0 0 0 0 0 0 0 0 0 0 0 0 0 0 0 0 0 0 0 0 0 0 0 0 0 0 0 0 0 0 0 0 0 0 0 0 0 0 0 0 0 0 0 0 0 0 0 0 0 0 0 0 0 0 0 0 0 0 0 0 0 0 0 0 0 0 0 0 0 0 0 0 0 0 0 0 0 0 0 0 0 0 0 0 0 0 0 0 0 0 0 0 0 0 0 0 0 0 0 0 0 0 0 0 0 0 0 0 0 0 0 0 0 0 0 0 0 0 0 0 0 0 0 0 0 0 0 0 0 0 0 0 0 0 0 0 0 0 0 0 0 0 0 0 0 0 0 0 0 0 0 0 0 0 0 0 0 0 0 0 0 0 0 0 0 0 0 0 0 0 0 0 0 0 0 0 0 0 0 0 0 0 0 0 0 0 0 0 0 0 0 0 0 0 0 0 0 0 0 0 0 0 0 0 0 0 0 0 0 0 0 0 0 0 0 0 0 0 0 0 0 0 0 0 0 0 0 0 0 0 0 0 0 0 0 0 0 0 0 0 0 0 0 0 0 0 0 0 0 0 0 0 0 0 0 0 0 0 0 0 0 0 0 0 0 0 0 0 0 0 0 0 0 0 0 0 0 0 0 0 0 0 0 0 0 0 0 0 0 0 0 0 0 0 0 0 0 0 0 0 0 0 0 0 0 0 0 0 0 0 0 0 0 0 0 0 0 0 0 0 0 0 0 0 0 0 0 0 0 0 0 0 0 0 0 0 0 0 0 0 0 0 0 0 0 0 0 0 0 0 0 0 0 0 0 0 0 0 0 0 0 0 0 0 0 0 0 0 0 0 0 0 0 0 0 0 0 0 0 0 0 0 0 0 0 0 0 0 0 0 0 0 0 0 0 0 0 0 0 0 0 0 0 0 0 0 0 0 0 0 0 0 0 0 0 0 0 0 0 0 0 0 0 0 0 0 0 0 0 0 0 0 0 0 0 0 0 0 0 0 0 0 0 0 0 0 0 0 0 0 0 0 0 0 0 0 0 0 0 0 0 0 0 0 0 0 0 0 0 0 0 0 0 0 0 0 0 0 0 0 0 0 0 0 0 0 0 0 0 0 0 0 0 0 0 0 0 0 0 0 0 0 0 0 0 0 0 0 0 0 0 0 0 0 0 0 0 0 0 0 0 0 0 0 0 0 0 0 0 0 0 0 0 0 0 0 0 0 0 0 0 0 0 0 0 0 0 0 0 0 0 0 0 0 0 0 0 0 0 0 0 0 0 0 0 0 0 0 0 0 0 0 0 0 0 0 0 0 0 0 0 0 0 0 0 0 0 0 0 0 0 0 0 0 0 0 0 0 0 0 0 0 0 0 0 0 0 0 0 0 0 0 0 0 0 0 0 0 0 0 0 0 0 0 0 0 0 0 0 0 0 0 0 0 0 0 0 0 0 0 0 0 0 0 0 0 0 0 0 0 0 0 0 0 0 0 0 0 0 0 0 0 0 0 0 0 0 0 0 0 0 0 0 0 0 0 0 0 0 0 0 0 0 0 0 0 0 0 0 0 0 0 0 0 0 0 0 0 0 0 0 0 0 0 0 0 0 0 0 0 0 0 0 0 0 0 0 0 0 0 0 0 0 0 0 0 0 0 0 0 0 0 0 0 0 0 0 0 0 0 0 0 0 0 0 0 0 0 0 0 
