P3
320 320
255
147 0 0 147 0 0 147 0 0 147 0 0 147 0 0 147 0 0 147 0 0 147 0 0 147 0 0 147 0 0 128 0 0 128 0 0 128 0 0 128 0 0 128 0 0 128 0 0 128 0 0 128 0 0 128 0 0 128 0 0 127 0 0 127 0 0 127 0 0 127 0 0 127 0 0 127 0 0 127 0 0 127 0 0 127 0 0 127 0 0 150 0 0 150 0 0 150 0 0 150 0 0 150 0 0 150 0 0 150 0 0 150 0 0 150 0 0 150 0 0 132 0 0 132 0 0 132 0 0 132 0 0 132 0 0 132 0 0 132 0 0 132 0 0 132 0 0 132 0 0 155 0 0 155 0 0 155 0 0 155 0 0 155 0 0 155 0 0 155 0 0 155 0 0 155 0 0 155 0 0 124 0 0 124 0 0 124 0 0 124 0 0 124 0 0 124 0 0 124 0 0 124 0 0 124 0 0 124 0 0 112 0 0 112 0 0 112 0 0 112 0 0 112 0 0 112 0 0 112 0 0 112 0 0 112 0 0 112 0 0 142 0 0 142 0 0 142 0 0 142 0 0 142 0 0 142 0 0 142 0 0 142 0 0 142 0 0 142 0 0 125 0 0 125 0 0 125 0 0 125 0 0 125 0 0 125 0 0 125 0 0 125 0 0 125 0 0 125 0 0 143 0 0 143 0 0 143 0 0 143 0 0 143 0 0 143 0 0 143 0 0 143 0 0 143 0 0 143 0 0 113 0 0 113 0 0 113 0 0 113 0 0 113 0 0 113 0 0 113 0 0 113 0 0 113 0 0 113 0 0 148 0 0 148 0 0 148 0 0 148 0 0 148 0 0 148 0 0 148 0 0 148 0 0 148 0 0 148 0 0 139 0 0 139 0 0 139 0 0 139 0 0 139 0 0 139 0 0 139 0 0 139 0 0 139 0 0 139 0 0 136 0 0 136 0 0 136 0 0 136 0 0 136 0 0 136 0 0 136 0 0 136 0 0 136 0 0 136 0 0 125 0 0 125 0 0 125 0 0 125 0 0 125 0 0 125 0 0 125 0 0 125 0 0 125 0 0 125 0 0 120 0 0 120 0 0 120 0 0 120 0 0 120 0 0 120 0 0 120 0 0 120 0 0 120 0 0 120 0 0 151 0 0 151 0 0 151 0 0 151 0 0 151 0 0 151 0 0 151 0 0 151 0 0 151 0 0 151 0 0 134 0 0 134 0 0 134 0 0 134 0 0 134 0 0 134 0 0 134 0 0 134 0 0 134 0 0 134 0 0 124 0 0 124 0 0 124 0 0 124 0 0 124 0 0 124 0 0 124 0 0 124 0 0 124 0 0 124 0 0 137 0 0 137 0 0 137 0 0 137 0 0 137 0 0 137 0 0 137 0 0 137 0 0 137 0 0 137 0 0 111 0 0 111 0 0 111 0 0 111 0 0 111 0 0 111 0 0 111 0 0 111 0 0 111 0 0 111 0 0 148 0 0 148 0 0 148 0 0 148 0 0 148 0 0 148 0 0 148 0 0 148 0 0 148 0 0 148 0 0 137 0 0 137 0 0 137 0 0 137 0 0 137 0 0 137 0 0 137 0 0 137 0 0 137 0 0 137 0 0 109 0 0 109 0 0 109 0 0 109 0 0 109 0 0 109 0 0 109 0 0 109 0 0 109 0 0 109 0 0 151 0 0 151 0 0 151 0 0 151 0 0 151 0 0 151 0 0 151 0 0 151 0 0 151 0 0 151 0 0 142 0 0 142 0 0 142 0 0 142 0 0 142 0 0 142 0 0 142 0 0 142 0 0 142 0 0 142 0 0 155 0 0 155 0 0 155 0 0 155 0 0 155 0 0 155 0 0 155 0 0 155 0 0 155 0 0 155 0 0 0 0 0 0 0 0 0 0 0 0 0 0 0 0 0 0 0 0 0 0 0 0 0 0 0 0 0 0 0 0 255 255 0 255 255 0 255 255 0 255 255 0 255 255 0 255 255 0 255 255 0 255 255 0 255 255 0 255 255 0 255 255 0 255 255 0 255 255 0 255 255 0 255 255 0 255 255 0 255 255 0 255 255 0 255 255 0 255 255 0 255 255 0 255 255 0 255 255 0 255 255 0 255 255 0 255 255 0 255 255 0 255 255 0 255 255 0 255 255 0 
147 0 0 147 0 0 147 0 0 147 0 0 147 0 0 147 0 0 147 0 0 147 0 0 147 0 0 147 0 0 128 0 0 128 0 0 128 0 0 128 0 0 128 0 0 128 0 0 128 0 0 128 0 0 128 0 0 128 0 0 127 0 0 127 0 0 127 0 0 127 0 0 127 0 0 127 0 0 127 0 0 127 0 0 127 0 0 127 0 0 150 0 0 150 0 0 150 0 0 150 0 0 150 0 0 150 0 0 150 0 0 150 0 0 150 0 0 150 0 0 132 0 0 132 0 0 132 0 0 132 0 0 132 0 0 132 0 0 132 0 0 132 0 0 132 0 0 132 0 0 155 0 0 155 0 0 155 0 0 155 0 0 155 0 0 155 0 0 155 0 0 155 0 0 155 0 0 155 0 0 124 0 0 124 0 0 124 0 0 124 0 0 124 0 0 124 0 0 124 0 0 124 0 0 124 0 0 124 0 0 112 0 0 112 0 0 112 0 0 112 0 0 112 0 0 112 0 0 112 0 0 112 0 0 112 0 0 112 0 0 142 0 0 142 0 0 142 0 0 142 0 0 142 0 0 142 0 0 142 0 0 142 0 0 142 0 0 142 0 0 125 0 0 125 0 0 125 0 0 125 0 0 125 0 0 125 0 0 125 0 0 125 0 0 125 0 0 125 0 0 143 0 0 143 0 0 143 0 0 143 0 0 143 0 0 143 0 0 143 0 0 143 0 0 143 0 0 143 0 0 113 0 0 113 0 0 113 0 0 113 0 0 113 0 0 113 0 0 113 0 0 113 0 0 113 0 0 113 0 0 148 0 0 148 0 0 148 0 0 148 0 0 148 0 0 148 0 0 148 0 0 148 0 0 148 0 0 148 0 0 139 0 0 139 0 0 139 0 0 139 0 0 139 0 0 139 0 0 139 0 0 139 0 0 139 0 0 139 0 0 136 0 0 136 0 0 136 0 0 136 0 0 136 0 0 136 0 0 136 0 0 136 0 0 136 0 0 136 0 0 125 0 0 125 0 0 125 0 0 125 0 0 125 0 0 125 0 0 125 0 0 125 0 0 125 0 0 125 0 0 120 0 0 120 0 0 120 0 0 120 0 0 120 0 0 120 0 0 120 0 0 120 0 0 120 0 0 120 0 0 151 0 0 151 0 0 151 0 0 151 0 0 151 0 0 151 0 0 151 0 0 151 0 0 151 0 0 151 0 0 134 0 0 134 0 0 134 0 0 134 0 0 134 0 0 134 0 0 134 0 0 134 0 0 134 0 0 134 0 0 124 0 0 124 0 0 124 0 0 124 0 0 124 0 0 124 0 0 124 0 0 124 0 0 124 0 0 124 0 0 137 0 0 137 0 0 137 0 0 137 0 0 137 0 0 137 0 0 137 0 0 137 0 0 137 0 0 137 0 0 111 0 0 111 0 0 111 0 0 111 0 0 111 0 0 111 0 0 111 0 0 111 0 0 111 0 0 111 0 0 148 0 0 148 0 0 148 0 0 148 0 0 148 0 0 148 0 0 148 0 0 148 0 0 148 0 0 148 0 0 137 0 0 137 0 0 137 0 0 137 0 0 137 0 0 137 0 0 137 0 0 137 0 0 137 0 0 137 0 0 109 0 0 109 0 0 109 0 0 109 0 0 109 0 0 109 0 0 109 0 0 109 0 0 109 0 0 109 0 0 151 0 0 151 0 0 151 0 0 151 0 0 151 0 0 151 0 0 151 0 0 151 0 0 151 0 0 151 0 0 142 0 0 142 0 0 142 0 0 142 0 0 142 0 0 142 0 0 142 0 0 142 0 0 142 0 0 142 0 0 155 0 0 155 0 0 155 0 0 155 0 0 155 0 0 155 0 0 155 0 0 155 0 0 155 0 0 155 0 0 0 0 0 0 0 0 0 0 0 0 0 0 0 0 0 0 0 0 0 0 0 0 0 0 0 0 0 0 0 0 255 251 0 255 251 0 255 251 0 255 251 0 255 251 0 255 251 0 255 251 0 255 251 0 255 251 0 255 251 0 255 251 0 255 251 0 255 251 0 255 251 0 255 251 0 255 251 0 255 251 0 255 251 0 255 251 0 255 251 0 255 251 0 255 251 0 255 251 0 255 251 0 255 251 0 255 251 0 255 251 0 255 251 0 255 251 0 255 251 0 
147 0 0 147 0 0 147 0 0 147 0 0 147 0 0 147 0 0 147 0 0 147 0 0 147 0 0 147 0 0 128 0 0 128 0 0 128 0 0 128 0 0 128 0 0 128 0 0 128 0 0 128 0 0 128 0 0 128 0 0 127 0 0 127 0 0 127 0 0 127 0 0 127 0 0 127 0 0 127 0 0 127 0 0 127 0 0 127 0 0 150 0 0 150 0 0 150 0 0 150 0 0 150 0 0 150 0 0 150 0 0 150 0 0 150 0 0 150 0 0 132 0 0 132 0 0 132 0 0 132 0 0 132 0 0 132 0 0 132 0 0 132 0 0 132 0 0 132 0 0 155 0 0 155 0 0 155 0 0 155 0 0 155 0 0 155 0 0 155 0 0 155 0 0 155 0 0 155 0 0 124 0 0 124 0 0 124 0 0 124 0 0 124 0 0 124 0 0 124 0 0 124 0 0 124 0 0 124 0 0 112 0 0 112 0 0 112 0 0 112 0 0 112 0 0 112 0 0 112 0 0 112 0 0 112 0 0 112 0 0 142 0 0 142 0 0 142 0 0 142 0 0 142 0 0 142 0 0 142 0 0 142 0 0 142 0 0 142 0 0 125 0 0 125 0 0 125 0 0 125 0 0 125 0 0 125 0 0 125 0 0 125 0 0 125 0 0 125 0 0 143 0 0 143 0 0 143 0 0 143 0 0 143 0 0 143 0 0 143 0 0 143 0 0 143 0 0 143 0 0 113 0 0 113 0 0 113 0 0 113 0 0 113 0 0 113 0 0 113 0 0 113 0 0 113 0 0 113 0 0 148 0 0 148 0 0 148 0 0 148 0 0 148 0 0 148 0 0 148 0 0 148 0 0 148 0 0 148 0 0 139 0 0 139 0 0 139 0 0 139 0 0 139 0 0 139 0 0 139 0 0 139 0 0 139 0 0 139 0 0 136 0 0 136 0 0 136 0 0 136 0 0 136 0 0 136 0 0 136 0 0 136 0 0 136 0 0 136 0 0 125 0 0 125 0 0 125 0 0 125 0 0 125 0 0 125 0 0 125 0 0 125 0 0 125 0 0 125 0 0 120 0 0 120 0 0 120 0 0 120 0 0 120 0 0 120 0 0 120 0 0 120 0 0 120 0 0 120 0 0 151 0 0 151 0 0 151 0 0 151 0 0 151 0 0 151 0 0 151 0 0 151 0 0 151 0 0 151 0 0 134 0 0 134 0 0 134 0 0 134 0 0 134 0 0 134 0 0 134 0 0 134 0 0 134 0 0 134 0 0 124 0 0 124 0 0 124 0 0 124 0 0 124 0 0 124 0 0 124 0 0 124 0 0 124 0 0 124 0 0 137 0 0 137 0 0 137 0 0 137 0 0 137 0 0 137 0 0 137 0 0 137 0 0 137 0 0 137 0 0 111 0 0 111 0 0 111 0 0 111 0 0 111 0 0 111 0 0 111 0 0 111 0 0 111 0 0 111 0 0 148 0 0 148 0 0 148 0 0 148 0 0 148 0 0 148 0 0 148 0 0 148 0 0 148 0 0 148 0 0 137 0 0 137 0 0 137 0 0 137 0 0 137 0 0 137 0 0 137 0 0 137 0 0 137 0 0 137 0 0 109 0 0 109 0 0 109 0 0 109 0 0 109 0 0 109 0 0 109 0 0 109 0 0 109 0 0 109 0 0 151 0 0 151 0 0 151 0 0 151 0 0 151 0 0 151 0 0 151 0 0 151 0 0 151 0 0 151 0 0 142 0 0 142 0 0 142 0 0 142 0 0 142 0 0 142 0 0 142 0 0 142 0 0 142 0 0 142 0 0 155 0 0 155 0 0 155 0 0 155 0 0 155 0 0 155 0 0 155 0 0 155 0 0 155 0 0 155 0 0 0 0 0 0 0 0 0 0 0 0 0 0 0 0 0 0 0 0 0 0 0 0 0 0 0 0 0 0 0 0 255 247 0 255 247 0 255 247 0 255 247 0 255 247 0 255 247 0 255 247 0 255 247 0 255 247 0 255 247 0 255 247 0 255 247 0 255 247 0 255 247 0 255 247 0 255 247 0 255 247 0 255 247 0 255 247 0 255 247 0 255 247 0 255 247 0 255 247 0 255 247 0 255 247 0 255 247 0 255 247 0 255 247 0 255 247 0 255 247 0 
147 0 0 147 0 0 147 0 0 147 0 0 147 0 0 147 0 0 147 0 0 147 0 0 147 0 0 147 0 0 128 0 0 128 0 0 128 0 0 128 0 0 128 0 0 128 0 0 128 0 0 128 0 0 128 0 0 128 0 0 127 0 0 127 0 0 127 0 0 127 0 0 127 0 0 127 0 0 127 0 0 127 0 0 127 0 0 127 0 0 150 0 0 150 0 0 150 0 0 150 0 0 150 0 0 150 0 0 150 0 0 150 0 0 150 0 0 150 0 0 132 0 0 132 0 0 132 0 0 132 0 0 132 0 0 132 0 0 132 0 0 132 0 0 132 0 0 132 0 0 155 0 0 155 0 0 155 0 0 155 0 0 155 0 0 155 0 0 155 0 0 155 0 0 155 0 0 155 0 0 124 0 0 124 0 0 124 0 0 124 0 0 124 0 0 124 0 0 124 0 0 124 0 0 124 0 0 124 0 0 112 0 0 112 0 0 112 0 0 112 0 0 112 0 0 112 0 0 112 0 0 112 0 0 112 0 0 112 0 0 142 0 0 142 0 0 142 0 0 142 0 0 142 0 0 142 0 0 142 0 0 142 0 0 142 0 0 142 0 0 125 0 0 125 0 0 125 0 0 125 0 0 125 0 0 125 0 0 125 0 0 125 0 0 125 0 0 125 0 0 143 0 0 143 0 0 143 0 0 143 0 0 143 0 0 143 0 0 143 0 0 143 0 0 143 0 0 143 0 0 113 0 0 113 0 0 113 0 0 113 0 0 113 0 0 113 0 0 113 0 0 113 0 0 113 0 0 113 0 0 148 0 0 148 0 0 148 0 0 148 0 0 148 0 0 148 0 0 148 0 0 148 0 0 148 0 0 148 0 0 139 0 0 139 0 0 139 0 0 139 0 0 139 0 0 139 0 0 139 0 0 139 0 0 139 0 0 139 0 0 136 0 0 136 0 0 136 0 0 136 0 0 136 0 0 136 0 0 136 0 0 136 0 0 136 0 0 136 0 0 125 0 0 125 0 0 125 0 0 125 0 0 125 0 0 125 0 0 125 0 0 125 0 0 125 0 0 125 0 0 120 0 0 120 0 0 120 0 0 120 0 0 120 0 0 120 0 0 120 0 0 120 0 0 120 0 0 120 0 0 151 0 0 151 0 0 151 0 0 151 0 0 151 0 0 151 0 0 151 0 0 151 0 0 151 0 0 151 0 0 134 0 0 134 0 0 134 0 0 134 0 0 134 0 0 134 0 0 134 0 0 134 0 0 134 0 0 134 0 0 124 0 0 124 0 0 124 0 0 124 0 0 124 0 0 124 0 0 124 0 0 124 0 0 124 0 0 124 0 0 137 0 0 137 0 0 137 0 0 137 0 0 137 0 0 137 0 0 137 0 0 137 0 0 137 0 0 137 0 0 111 0 0 111 0 0 111 0 0 111 0 0 111 0 0 111 0 0 111 0 0 111 0 0 111 0 0 111 0 0 148 0 0 148 0 0 148 0 0 148 0 0 148 0 0 148 0 0 148 0 0 148 0 0 148 0 0 148 0 0 137 0 0 137 0 0 137 0 0 137 0 0 137 0 0 137 0 0 137 0 0 137 0 0 137 0 0 137 0 0 109 0 0 109 0 0 109 0 0 109 0 0 109 0 0 109 0 0 109 0 0 109 0 0 109 0 0 109 0 0 151 0 0 151 0 0 151 0 0 151 0 0 151 0 0 151 0 0 151 0 0 151 0 0 151 0 0 151 0 0 142 0 0 142 0 0 142 0 0 142 0 0 142 0 0 142 0 0 142 0 0 142 0 0 142 0 0 142 0 0 155 0 0 155 0 0 155 0 0 155 0 0 155 0 0 155 0 0 155 0 0 155 0 0 155 0 0 155 0 0 0 0 0 0 0 0 0 0 0 0 0 0 0 0 0 0 0 0 0 0 0 0 0 0 0 0 0 0 0 0 255 244 0 255 244 0 255 244 0 255 244 0 255 244 0 255 244 0 255 244 0 255 244 0 255 244 0 255 244 0 255 244 0 255 244 0 255 244 0 255 244 0 255 244 0 255 244 0 255 244 0 255 244 0 255 244 0 255 244 0 255 244 0 255 244 0 255 244 0 255 244 0 255 244 0 255 244 0 255 244 0 255 244 0 255 244 0 255 244 0 
147 0 0 147 0 0 147 0 0 147 0 0 147 0 0 147 0 0 147 0 0 147 0 0 147 0 0 147 0 0 128 0 0 128 0 0 128 0 0 128 0 0 128 0 0 128 0 0 128 0 0 128 0 0 128 0 0 128 0 0 127 0 0 127 0 0 127 0 0 127 0 0 127 0 0 127 0 0 127 0 0 127 0 0 127 0 0 127 0 0 150 0 0 150 0 0 150 0 0 150 0 0 150 0 0 150 0 0 150 0 0 150 0 0 150 0 0 150 0 0 132 0 0 132 0 0 132 0 0 132 0 0 132 0 0 132 0 0 132 0 0 132 0 0 132 0 0 132 0 0 155 0 0 155 0 0 155 0 0 155 0 0 155 0 0 155 0 0 155 0 0 155 0 0 155 0 0 155 0 0 124 0 0 124 0 0 124 0 0 124 0 0 124 0 0 124 0 0 124 0 0 124 0 0 124 0 0 124 0 0 112 0 0 112 0 0 112 0 0 112 0 0 112 0 0 112 0 0 112 0 0 112 0 0 112 0 0 112 0 0 142 0 0 142 0 0 142 0 0 142 0 0 142 0 0 142 0 0 142 0 0 142 0 0 142 0 0 142 0 0 125 0 0 125 0 0 125 0 0 125 0 0 125 0 0 125 0 0 125 0 0 125 0 0 125 0 0 125 0 0 143 0 0 143 0 0 143 0 0 143 0 0 143 0 0 143 0 0 143 0 0 143 0 0 143 0 0 143 0 0 113 0 0 113 0 0 113 0 0 113 0 0 113 0 0 113 0 0 113 0 0 113 0 0 113 0 0 113 0 0 148 0 0 148 0 0 148 0 0 148 0 0 148 0 0 148 0 0 148 0 0 148 0 0 148 0 0 148 0 0 139 0 0 139 0 0 139 0 0 139 0 0 139 0 0 139 0 0 139 0 0 139 0 0 139 0 0 139 0 0 136 0 0 136 0 0 136 0 0 136 0 0 136 0 0 136 0 0 136 0 0 136 0 0 136 0 0 136 0 0 125 0 0 125 0 0 125 0 0 125 0 0 125 0 0 125 0 0 125 0 0 125 0 0 125 0 0 125 0 0 120 0 0 120 0 0 120 0 0 120 0 0 120 0 0 120 0 0 120 0 0 120 0 0 120 0 0 120 0 0 151 0 0 151 0 0 151 0 0 151 0 0 151 0 0 151 0 0 151 0 0 151 0 0 151 0 0 151 0 0 134 0 0 134 0 0 134 0 0 134 0 0 134 0 0 134 0 0 134 0 0 134 0 0 134 0 0 134 0 0 124 0 0 124 0 0 124 0 0 124 0 0 124 0 0 124 0 0 124 0 0 124 0 0 124 0 0 124 0 0 137 0 0 137 0 0 137 0 0 137 0 0 137 0 0 137 0 0 137 0 0 137 0 0 137 0 0 137 0 0 111 0 0 111 0 0 111 0 0 111 0 0 111 0 0 111 0 0 111 0 0 111 0 0 111 0 0 111 0 0 148 0 0 148 0 0 148 0 0 148 0 0 148 0 0 148 0 0 148 0 0 148 0 0 148 0 0 148 0 0 137 0 0 137 0 0 137 0 0 137 0 0 137 0 0 137 0 0 137 0 0 137 0 0 137 0 0 137 0 0 109 0 0 109 0 0 109 0 0 109 0 0 109 0 0 109 0 0 109 0 0 109 0 0 109 0 0 109 0 0 151 0 0 151 0 0 151 0 0 151 0 0 151 0 0 151 0 0 151 0 0 151 0 0 151 0 0 151 0 0 142 0 0 142 0 0 142 0 0 142 0 0 142 0 0 142 0 0 142 0 0 142 0 0 142 0 0 142 0 0 155 0 0 155 0 0 155 0 0 155 0 0 155 0 0 155 0 0 155 0 0 155 0 0 155 0 0 155 0 0 0 0 0 0 0 0 0 0 0 0 0 0 0 0 0 0 0 0 0 0 0 0 0 0 0 0 0 0 0 0 255 240 0 255 240 0 255 240 0 255 240 0 255 240 0 255 240 0 255 240 0 255 240 0 255 240 0 255 240 0 255 240 0 255 240 0 255 240 0 255 240 0 255 240 0 255 240 0 255 240 0 255 240 0 255 240 0 255 240 0 255 240 0 255 240 0 255 240 0 255 240 0 255 240 0 255 240 0 255 240 0 255 240 0 255 240 0 255 240 0 
147 0 0 147 0 0 147 0 0 147 0 0 147 0 0 147 0 0 147 0 0 147 0 0 147 0 0 147 0 0 128 0 0 128 0 0 128 0 0 128 0 0 128 0 0 128 0 0 128 0 0 128 0 0 128 0 0 128 0 0 127 0 0 127 0 0 127 0 0 127 0 0 127 0 0 127 0 0 127 0 0 127 0 0 127 0 0 127 0 0 150 0 0 150 0 0 150 0 0 150 0 0 150 0 0 150 0 0 150 0 0 150 0 0 150 0 0 150 0 0 132 0 0 132 0 0 132 0 0 132 0 0 132 0 0 132 0 0 132 0 0 132 0 0 132 0 0 132 0 0 155 0 0 155 0 0 155 0 0 155 0 0 155 0 0 155 0 0 155 0 0 155 0 0 155 0 0 155 0 0 124 0 0 124 0 0 124 0 0 124 0 0 124 0 0 124 0 0 124 0 0 124 0 0 124 0 0 124 0 0 112 0 0 112 0 0 112 0 0 112 0 0 112 0 0 112 0 0 112 0 0 112 0 0 112 0 0 112 0 0 142 0 0 142 0 0 142 0 0 142 0 0 142 0 0 142 0 0 142 0 0 142 0 0 142 0 0 142 0 0 125 0 0 125 0 0 125 0 0 125 0 0 125 0 0 125 0 0 125 0 0 125 0 0 125 0 0 125 0 0 143 0 0 143 0 0 143 0 0 143 0 0 143 0 0 143 0 0 143 0 0 143 0 0 143 0 0 143 0 0 113 0 0 113 0 0 113 0 0 113 0 0 113 0 0 113 0 0 113 0 0 113 0 0 113 0 0 113 0 0 148 0 0 148 0 0 148 0 0 148 0 0 148 0 0 148 0 0 148 0 0 148 0 0 148 0 0 148 0 0 139 0 0 139 0 0 139 0 0 139 0 0 139 0 0 139 0 0 139 0 0 139 0 0 139 0 0 139 0 0 136 0 0 136 0 0 136 0 0 136 0 0 136 0 0 136 0 0 136 0 0 136 0 0 136 0 0 136 0 0 125 0 0 125 0 0 125 0 0 125 0 0 125 0 0 125 0 0 125 0 0 125 0 0 125 0 0 125 0 0 120 0 0 120 0 0 120 0 0 120 0 0 120 0 0 120 0 0 120 0 0 120 0 0 120 0 0 120 0 0 151 0 0 151 0 0 151 0 0 151 0 0 151 0 0 151 0 0 151 0 0 151 0 0 151 0 0 151 0 0 134 0 0 134 0 0 134 0 0 134 0 0 134 0 0 134 0 0 134 0 0 134 0 0 134 0 0 134 0 0 124 0 0 124 0 0 124 0 0 124 0 0 124 0 0 124 0 0 124 0 0 124 0 0 124 0 0 124 0 0 137 0 0 137 0 0 137 0 0 137 0 0 137 0 0 137 0 0 137 0 0 137 0 0 137 0 0 137 0 0 111 0 0 111 0 0 111 0 0 111 0 0 111 0 0 111 0 0 111 0 0 111 0 0 111 0 0 111 0 0 148 0 0 148 0 0 148 0 0 148 0 0 148 0 0 148 0 0 148 0 0 148 0 0 148 0 0 148 0 0 137 0 0 137 0 0 137 0 0 137 0 0 137 0 0 137 0 0 137 0 0 137 0 0 137 0 0 137 0 0 109 0 0 109 0 0 109 0 0 109 0 0 109 0 0 109 0 0 109 0 0 109 0 0 109 0 0 109 0 0 151 0 0 151 0 0 151 0 0 151 0 0 151 0 0 151 0 0 151 0 0 151 0 0 151 0 0 151 0 0 142 0 0 142 0 0 142 0 0 142 0 0 142 0 0 142 0 0 142 0 0 142 0 0 142 0 0 142 0 0 155 0 0 155 0 0 155 0 0 155 0 0 155 0 0 155 0 0 155 0 0 155 0 0 155 0 0 155 0 0 0 0 0 0 0 0 0 0 0 0 0 0 0 0 0 0 0 0 0 0 0 0 0 0 0 0 0 0 0 0 255 236 0 255 236 0 255 236 0 255 236 0 255 236 0 255 236 0 255 236 0 255 236 0 255 236 0 255 236 0 255 236 0 255 236 0 255 236 0 255 236 0 255 236 0 255 236 0 255 236 0 255 236 0 255 236 0 255 236 0 255 236 0 255 236 0 255 236 0 255 236 0 255 236 0 255 236 0 255 236 0 255 236 0 255 236 0 255 236 0 
147 0 0 147 0 0 147 0 0 147 0 0 147 0 0 147 0 0 147 0 0 147 0 0 147 0 0 147 0 0 128 0 0 128 0 0 128 0 0 128 0 0 128 0 0 128 0 0 128 0 0 128 0 0 128 0 0 128 0 0 127 0 0 127 0 0 127 0 0 127 0 0 127 0 0 127 0 0 127 0 0 127 0 0 127 0 0 127 0 0 150 0 0 150 0 0 150 0 0 150 0 0 150 0 0 150 0 0 150 0 0 150 0 0 150 0 0 150 0 0 132 0 0 132 0 0 132 0 0 132 0 0 132 0 0 132 0 0 132 0 0 132 0 0 132 0 0 132 0 0 155 0 0 155 0 0 155 0 0 155 0 0 155 0 0 155 0 0 155 0 0 155 0 0 155 0 0 155 0 0 124 0 0 124 0 0 124 0 0 124 0 0 124 0 0 124 0 0 124 0 0 124 0 0 124 0 0 124 0 0 112 0 0 112 0 0 112 0 0 112 0 0 112 0 0 112 0 0 112 0 0 112 0 0 112 0 0 112 0 0 142 0 0 142 0 0 142 0 0 142 0 0 142 0 0 142 0 0 142 0 0 142 0 0 142 0 0 142 0 0 125 0 0 125 0 0 125 0 0 125 0 0 125 0 0 125 0 0 125 0 0 125 0 0 125 0 0 125 0 0 143 0 0 143 0 0 143 0 0 143 0 0 143 0 0 143 0 0 143 0 0 143 0 0 143 0 0 143 0 0 113 0 0 113 0 0 113 0 0 113 0 0 113 0 0 113 0 0 113 0 0 113 0 0 113 0 0 113 0 0 148 0 0 148 0 0 148 0 0 148 0 0 148 0 0 148 0 0 148 0 0 148 0 0 148 0 0 148 0 0 139 0 0 139 0 0 139 0 0 139 0 0 139 0 0 139 0 0 139 0 0 139 0 0 139 0 0 139 0 0 136 0 0 136 0 0 136 0 0 136 0 0 136 0 0 136 0 0 136 0 0 136 0 0 136 0 0 136 0 0 125 0 0 125 0 0 125 0 0 125 0 0 125 0 0 125 0 0 125 0 0 125 0 0 125 0 0 125 0 0 120 0 0 120 0 0 120 0 0 120 0 0 120 0 0 120 0 0 120 0 0 120 0 0 120 0 0 120 0 0 151 0 0 151 0 0 151 0 0 151 0 0 151 0 0 151 0 0 151 0 0 151 0 0 151 0 0 151 0 0 134 0 0 134 0 0 134 0 0 134 0 0 134 0 0 134 0 0 134 0 0 134 0 0 134 0 0 134 0 0 124 0 0 124 0 0 124 0 0 124 0 0 124 0 0 124 0 0 124 0 0 124 0 0 124 0 0 124 0 0 137 0 0 137 0 0 137 0 0 137 0 0 137 0 0 137 0 0 137 0 0 137 0 0 137 0 0 137 0 0 111 0 0 111 0 0 111 0 0 111 0 0 111 0 0 111 0 0 111 0 0 111 0 0 111 0 0 111 0 0 148 0 0 148 0 0 148 0 0 148 0 0 148 0 0 148 0 0 148 0 0 148 0 0 148 0 0 148 0 0 137 0 0 137 0 0 137 0 0 137 0 0 137 0 0 137 0 0 137 0 0 137 0 0 137 0 0 137 0 0 109 0 0 109 0 0 109 0 0 109 0 0 109 0 0 109 0 0 109 0 0 109 0 0 109 0 0 109 0 0 151 0 0 151 0 0 151 0 0 151 0 0 151 0 0 151 0 0 151 0 0 151 0 0 151 0 0 151 0 0 142 0 0 142 0 0 142 0 0 142 0 0 142 0 0 142 0 0 142 0 0 142 0 0 142 0 0 142 0 0 155 0 0 155 0 0 155 0 0 155 0 0 155 0 0 155 0 0 155 0 0 155 0 0 155 0 0 155 0 0 0 0 0 0 0 0 0 0 0 0 0 0 0 0 0 0 0 0 0 0 0 0 0 0 0 0 0 0 0 0 255 233 0 255 233 0 255 233 0 255 233 0 255 233 0 255 233 0 255 233 0 255 233 0 255 233 0 255 233 0 255 233 0 255 233 0 255 233 0 255 233 0 255 233 0 255 233 0 255 233 0 255 233 0 255 233 0 255 233 0 255 233 0 255 233 0 255 233 0 255 233 0 255 233 0 255 233 0 255 233 0 255 233 0 255 233 0 255 233 0 
147 0 0 147 0 0 147 0 0 147 0 0 147 0 0 147 0 0 147 0 0 147 0 0 147 0 0 147 0 0 128 0 0 128 0 0 128 0 0 128 0 0 128 0 0 128 0 0 128 0 0 128 0 0 128 0 0 128 0 0 127 0 0 127 0 0 127 0 0 127 0 0 127 0 0 127 0 0 127 0 0 127 0 0 127 0 0 127 0 0 150 0 0 150 0 0 150 0 0 150 0 0 150 0 0 150 0 0 150 0 0 150 0 0 150 0 0 150 0 0 132 0 0 132 0 0 132 0 0 132 0 0 132 0 0 132 0 0 132 0 0 132 0 0 132 0 0 132 0 0 155 0 0 155 0 0 155 0 0 155 0 0 155 0 0 155 0 0 155 0 0 155 0 0 155 0 0 155 0 0 124 0 0 124 0 0 124 0 0 124 0 0 124 0 0 124 0 0 124 0 0 124 0 0 124 0 0 124 0 0 112 0 0 112 0 0 112 0 0 112 0 0 112 0 0 112 0 0 112 0 0 112 0 0 112 0 0 112 0 0 142 0 0 142 0 0 142 0 0 142 0 0 142 0 0 142 0 0 142 0 0 142 0 0 142 0 0 142 0 0 125 0 0 125 0 0 125 0 0 125 0 0 125 0 0 125 0 0 125 0 0 125 0 0 125 0 0 125 0 0 143 0 0 143 0 0 143 0 0 143 0 0 143 0 0 143 0 0 143 0 0 143 0 0 143 0 0 143 0 0 113 0 0 113 0 0 113 0 0 113 0 0 113 0 0 113 0 0 113 0 0 113 0 0 113 0 0 113 0 0 148 0 0 148 0 0 148 0 0 148 0 0 148 0 0 148 0 0 148 0 0 148 0 0 148 0 0 148 0 0 139 0 0 139 0 0 139 0 0 139 0 0 139 0 0 139 0 0 139 0 0 139 0 0 139 0 0 139 0 0 136 0 0 136 0 0 136 0 0 136 0 0 136 0 0 136 0 0 136 0 0 136 0 0 136 0 0 136 0 0 125 0 0 125 0 0 125 0 0 125 0 0 125 0 0 125 0 0 125 0 0 125 0 0 125 0 0 125 0 0 120 0 0 120 0 0 120 0 0 120 0 0 120 0 0 120 0 0 120 0 0 120 0 0 120 0 0 120 0 0 151 0 0 151 0 0 151 0 0 151 0 0 151 0 0 151 0 0 151 0 0 151 0 0 151 0 0 151 0 0 134 0 0 134 0 0 134 0 0 134 0 0 134 0 0 134 0 0 134 0 0 134 0 0 134 0 0 134 0 0 124 0 0 124 0 0 124 0 0 124 0 0 124 0 0 124 0 0 124 0 0 124 0 0 124 0 0 124 0 0 137 0 0 137 0 0 137 0 0 137 0 0 137 0 0 137 0 0 137 0 0 137 0 0 137 0 0 137 0 0 111 0 0 111 0 0 111 0 0 111 0 0 111 0 0 111 0 0 111 0 0 111 0 0 111 0 0 111 0 0 148 0 0 148 0 0 148 0 0 148 0 0 148 0 0 148 0 0 148 0 0 148 0 0 148 0 0 148 0 0 137 0 0 137 0 0 137 0 0 137 0 0 137 0 0 137 0 0 137 0 0 137 0 0 137 0 0 137 0 0 109 0 0 109 0 0 109 0 0 109 0 0 109 0 0 109 0 0 109 0 0 109 0 0 109 0 0 109 0 0 151 0 0 151 0 0 151 0 0 151 0 0 151 0 0 151 0 0 151 0 0 151 0 0 151 0 0 151 0 0 142 0 0 142 0 0 142 0 0 142 0 0 142 0 0 142 0 0 142 0 0 142 0 0 142 0 0 142 0 0 155 0 0 155 0 0 155 0 0 155 0 0 155 0 0 155 0 0 155 0 0 155 0 0 155 0 0 155 0 0 0 0 0 0 0 0 0 0 0 0 0 0 0 0 0 0 0 0 0 0 0 0 0 0 0 0 0 0 0 0 255 229 0 255 229 0 255 229 0 255 229 0 255 229 0 255 229 0 255 229 0 255 229 0 255 229 0 255 229 0 255 229 0 255 229 0 255 229 0 255 229 0 255 229 0 255 229 0 255 229 0 255 229 0 255 229 0 255 229 0 255 229 0 255 229 0 255 229 0 255 229 0 255 229 0 255 229 0 255 229 0 255 229 0 255 229 0 255 229 0 
147 0 0 147 0 0 147 0 0 147 0 0 147 0 0 147 0 0 147 0 0 147 0 0 147 0 0 147 0 0 128 0 0 128 0 0 128 0 0 128 0 0 128 0 0 128 0 0 128 0 0 128 0 0 128 0 0 128 0 0 127 0 0 127 0 0 127 0 0 127 0 0 127 0 0 127 0 0 127 0 0 127 0 0 127 0 0 127 0 0 150 0 0 150 0 0 150 0 0 150 0 0 150 0 0 150 0 0 150 0 0 150 0 0 150 0 0 150 0 0 132 0 0 132 0 0 132 0 0 132 0 0 132 0 0 132 0 0 132 0 0 132 0 0 132 0 0 132 0 0 155 0 0 155 0 0 155 0 0 155 0 0 155 0 0 155 0 0 155 0 0 155 0 0 155 0 0 155 0 0 124 0 0 124 0 0 124 0 0 124 0 0 124 0 0 124 0 0 124 0 0 124 0 0 124 0 0 124 0 0 112 0 0 112 0 0 112 0 0 112 0 0 112 0 0 112 0 0 112 0 0 112 0 0 112 0 0 112 0 0 142 0 0 142 0 0 142 0 0 142 0 0 142 0 0 142 0 0 142 0 0 142 0 0 142 0 0 142 0 0 125 0 0 125 0 0 125 0 0 125 0 0 125 0 0 125 0 0 125 0 0 125 0 0 125 0 0 125 0 0 143 0 0 143 0 0 143 0 0 143 0 0 143 0 0 143 0 0 143 0 0 143 0 0 143 0 0 143 0 0 113 0 0 113 0 0 113 0 0 113 0 0 113 0 0 113 0 0 113 0 0 113 0 0 113 0 0 113 0 0 148 0 0 148 0 0 148 0 0 148 0 0 148 0 0 148 0 0 148 0 0 148 0 0 148 0 0 148 0 0 139 0 0 139 0 0 139 0 0 139 0 0 139 0 0 139 0 0 139 0 0 139 0 0 139 0 0 139 0 0 136 0 0 136 0 0 136 0 0 136 0 0 136 0 0 136 0 0 136 0 0 136 0 0 136 0 0 136 0 0 125 0 0 125 0 0 125 0 0 125 0 0 125 0 0 125 0 0 125 0 0 125 0 0 125 0 0 125 0 0 120 0 0 120 0 0 120 0 0 120 0 0 120 0 0 120 0 0 120 0 0 120 0 0 120 0 0 120 0 0 151 0 0 151 0 0 151 0 0 151 0 0 151 0 0 151 0 0 151 0 0 151 0 0 151 0 0 151 0 0 134 0 0 134 0 0 134 0 0 134 0 0 134 0 0 134 0 0 134 0 0 134 0 0 134 0 0 134 0 0 124 0 0 124 0 0 124 0 0 124 0 0 124 0 0 124 0 0 124 0 0 124 0 0 124 0 0 124 0 0 137 0 0 137 0 0 137 0 0 137 0 0 137 0 0 137 0 0 137 0 0 137 0 0 137 0 0 137 0 0 111 0 0 111 0 0 111 0 0 111 0 0 111 0 0 111 0 0 111 0 0 111 0 0 111 0 0 111 0 0 148 0 0 148 0 0 148 0 0 148 0 0 148 0 0 148 0 0 148 0 0 148 0 0 148 0 0 148 0 0 137 0 0 137 0 0 137 0 0 137 0 0 137 0 0 137 0 0 137 0 0 137 0 0 137 0 0 137 0 0 109 0 0 109 0 0 109 0 0 109 0 0 109 0 0 109 0 0 109 0 0 109 0 0 109 0 0 109 0 0 151 0 0 151 0 0 151 0 0 151 0 0 151 0 0 151 0 0 151 0 0 151 0 0 151 0 0 151 0 0 142 0 0 142 0 0 142 0 0 142 0 0 142 0 0 142 0 0 142 0 0 142 0 0 142 0 0 142 0 0 155 0 0 155 0 0 155 0 0 155 0 0 155 0 0 155 0 0 155 0 0 155 0 0 155 0 0 155 0 0 0 0 0 0 0 0 0 0 0 0 0 0 0 0 0 0 0 0 0 0 0 0 0 0 0 0 0 0 0 0 255 225 0 255 225 0 255 225 0 255 225 0 255 225 0 255 225 0 255 225 0 255 225 0 255 225 0 255 225 0 255 225 0 255 225 0 255 225 0 255 225 0 255 225 0 255 225 0 255 225 0 255 225 0 255 225 0 255 225 0 255 225 0 255 225 0 255 225 0 255 225 0 255 225 0 255 225 0 255 225 0 255 225 0 255 225 0 255 225 0 
147 0 0 147 0 0 147 0 0 147 0 0 147 0 0 147 0 0 147 0 0 147 0 0 147 0 0 147 0 0 128 0 0 128 0 0 128 0 0 128 0 0 128 0 0 128 0 0 128 0 0 128 0 0 128 0 0 128 0 0 127 0 0 127 0 0 127 0 0 127 0 0 127 0 0 127 0 0 127 0 0 127 0 0 127 0 0 127 0 0 150 0 0 150 0 0 150 0 0 150 0 0 150 0 0 150 0 0 150 0 0 150 0 0 150 0 0 150 0 0 132 0 0 132 0 0 132 0 0 132 0 0 132 0 0 132 0 0 132 0 0 132 0 0 132 0 0 132 0 0 155 0 0 155 0 0 155 0 0 155 0 0 155 0 0 155 0 0 155 0 0 155 0 0 155 0 0 155 0 0 124 0 0 124 0 0 124 0 0 124 0 0 124 0 0 124 0 0 124 0 0 124 0 0 124 0 0 124 0 0 112 0 0 112 0 0 112 0 0 112 0 0 112 0 0 112 0 0 112 0 0 112 0 0 112 0 0 112 0 0 142 0 0 142 0 0 142 0 0 142 0 0 142 0 0 142 0 0 142 0 0 142 0 0 142 0 0 142 0 0 125 0 0 125 0 0 125 0 0 125 0 0 125 0 0 125 0 0 125 0 0 125 0 0 125 0 0 125 0 0 143 0 0 143 0 0 143 0 0 143 0 0 143 0 0 143 0 0 143 0 0 143 0 0 143 0 0 143 0 0 113 0 0 113 0 0 113 0 0 113 0 0 113 0 0 113 0 0 113 0 0 113 0 0 113 0 0 113 0 0 148 0 0 148 0 0 148 0 0 148 0 0 148 0 0 148 0 0 148 0 0 148 0 0 148 0 0 148 0 0 139 0 0 139 0 0 139 0 0 139 0 0 139 0 0 139 0 0 139 0 0 139 0 0 139 0 0 139 0 0 136 0 0 136 0 0 136 0 0 136 0 0 136 0 0 136 0 0 136 0 0 136 0 0 136 0 0 136 0 0 125 0 0 125 0 0 125 0 0 125 0 0 125 0 0 125 0 0 125 0 0 125 0 0 125 0 0 125 0 0 120 0 0 120 0 0 120 0 0 120 0 0 120 0 0 120 0 0 120 0 0 120 0 0 120 0 0 120 0 0 151 0 0 151 0 0 151 0 0 151 0 0 151 0 0 151 0 0 151 0 0 151 0 0 151 0 0 151 0 0 134 0 0 134 0 0 134 0 0 134 0 0 134 0 0 134 0 0 134 0 0 134 0 0 134 0 0 134 0 0 124 0 0 124 0 0 124 0 0 124 0 0 124 0 0 124 0 0 124 0 0 124 0 0 124 0 0 124 0 0 137 0 0 137 0 0 137 0 0 137 0 0 137 0 0 137 0 0 137 0 0 137 0 0 137 0 0 137 0 0 111 0 0 111 0 0 111 0 0 111 0 0 111 0 0 111 0 0 111 0 0 111 0 0 111 0 0 111 0 0 148 0 0 148 0 0 148 0 0 148 0 0 148 0 0 148 0 0 148 0 0 148 0 0 148 0 0 148 0 0 137 0 0 137 0 0 137 0 0 137 0 0 137 0 0 137 0 0 137 0 0 137 0 0 137 0 0 137 0 0 109 0 0 109 0 0 109 0 0 109 0 0 109 0 0 109 0 0 109 0 0 109 0 0 109 0 0 109 0 0 151 0 0 151 0 0 151 0 0 151 0 0 151 0 0 151 0 0 151 0 0 151 0 0 151 0 0 151 0 0 142 0 0 142 0 0 142 0 0 142 0 0 142 0 0 142 0 0 142 0 0 142 0 0 142 0 0 142 0 0 155 0 0 155 0 0 155 0 0 155 0 0 155 0 0 155 0 0 155 0 0 155 0 0 155 0 0 155 0 0 0 0 0 0 0 0 0 0 0 0 0 0 0 0 0 0 0 0 0 0 0 0 0 0 0 0 0 0 0 0 255 222 0 255 222 0 255 222 0 255 222 0 255 222 0 255 222 0 255 222 0 255 222 0 255 222 0 255 222 0 255 222 0 255 222 0 255 222 0 255 222 0 255 222 0 255 222 0 255 222 0 255 222 0 255 222 0 255 222 0 255 222 0 255 222 0 255 222 0 255 222 0 255 222 0 255 222 0 255 222 0 255 222 0 255 222 0 255 222 0 
146 0 0 146 0 0 146 0 0 146 0 0 146 0 0 146 0 0 146 0 0 146 0 0 146 0 0 146 0 0 143 0 0 143 0 0 143 0 0 143 0 0 143 0 0 143 0 0 143 0 0 143 0 0 143 0 0 143 0 0 139 0 0 139 0 0 139 0 0 139 0 0 139 0 0 139 0 0 139 0 0 139 0 0 139 0 0 139 0 0 141 0 0 141 0 0 141 0 0 141 0 0 141 0 0 141 0 0 141 0 0 141 0 0 141 0 0 141 0 0 151 0 0 151 0 0 151 0 0 151 0 0 151 0 0 151 0 0 151 0 0 151 0 0 151 0 0 151 0 0 124 0 0 124 0 0 124 0 0 124 0 0 124 0 0 124 0 0 124 0 0 124 0 0 124 0 0 124 0 0 125 0 0 125 0 0 125 0 0 125 0 0 125 0 0 125 0 0 125 0 0 125 0 0 125 0 0 125 0 0 149 0 0 149 0 0 149 0 0 149 0 0 149 0 0 149 0 0 149 0 0 149 0 0 149 0 0 149 0 0 145 0 0 145 0 0 145 0 0 145 0 0 145 0 0 145 0 0 145 0 0 145 0 0 145 0 0 145 0 0 125 0 0 125 0 0 125 0 0 125 0 0 125 0 0 125 0 0 125 0 0 125 0 0 125 0 0 125 0 0 144 0 0 144 0 0 144 0 0 144 0 0 144 0 0 144 0 0 144 0 0 144 0 0 144 0 0 144 0 0 111 0 0 111 0 0 111 0 0 111 0 0 111 0 0 111 0 0 111 0 0 111 0 0 111 0 0 111 0 0 141 0 0 141 0 0 141 0 0 141 0 0 141 0 0 141 0 0 141 0 0 141 0 0 141 0 0 141 0 0 140 0 0 140 0 0 140 0 0 140 0 0 140 0 0 140 0 0 140 0 0 140 0 0 140 0 0 140 0 0 131 0 0 131 0 0 131 0 0 131 0 0 131 0 0 131 0 0 131 0 0 131 0 0 131 0 0 131 0 0 120 0 0 120 0 0 120 0 0 120 0 0 120 0 0 120 0 0 120 0 0 120 0 0 120 0 0 120 0 0 124 0 0 124 0 0 124 0 0 124 0 0 124 0 0 124 0 0 124 0 0 124 0 0 124 0 0 124 0 0 133 0 0 133 0 0 133 0 0 133 0 0 133 0 0 133 0 0 133 0 0 133 0 0 133 0 0 133 0 0 148 0 0 148 0 0 148 0 0 148 0 0 148 0 0 148 0 0 148 0 0 148 0 0 148 0 0 148 0 0 131 0 0 131 0 0 131 0 0 131 0 0 131 0 0 131 0 0 131 0 0 131 0 0 131 0 0 131 0 0 138 0 0 138 0 0 138 0 0 138 0 0 138 0 0 138 0 0 138 0 0 138 0 0 138 0 0 138 0 0 116 0 0 116 0 0 116 0 0 116 0 0 116 0 0 116 0 0 116 0 0 116 0 0 116 0 0 116 0 0 139 0 0 139 0 0 139 0 0 139 0 0 139 0 0 139 0 0 139 0 0 139 0 0 139 0 0 139 0 0 112 0 0 112 0 0 112 0 0 112 0 0 112 0 0 112 0 0 112 0 0 112 0 0 112 0 0 112 0 0 146 0 0 146 0 0 146 0 0 146 0 0 146 0 0 146 0 0 146 0 0 146 0 0 146 0 0 146 0 0 113 0 0 113 0 0 113 0 0 113 0 0 113 0 0 113 0 0 113 0 0 113 0 0 113 0 0 113 0 0 122 0 0 122 0 0 122 0 0 122 0 0 122 0 0 122 0 0 122 0 0 122 0 0 122 0 0 122 0 0 135 0 0 135 0 0 135 0 0 135 0 0 135 0 0 135 0 0 135 0 0 135 0 0 135 0 0 135 0 0 0 0 0 0 0 0 0 0 0 0 0 0 0 0 0 0 0 0 0 0 0 0 0 0 0 0 0 0 0 0 255 218 0 255 218 0 255 218 0 255 218 0 255 218 0 255 218 0 255 218 0 255 218 0 255 218 0 255 218 0 255 218 0 255 218 0 255 218 0 255 218 0 255 218 0 255 218 0 255 218 0 255 218 0 255 218 0 255 218 0 255 218 0 255 218 0 255 218 0 255 218 0 255 218 0 255 218 0 255 218 0 255 218 0 255 218 0 255 218 0 
146 0 0 146 0 0 146 0 0 146 0 0 146 0 0 146 0 0 146 0 0 146 0 0 146 0 0 146 0 0 143 0 0 143 0 0 143 0 0 143 0 0 143 0 0 143 0 0 143 0 0 143 0 0 143 0 0 143 0 0 139 0 0 139 0 0 139 0 0 139 0 0 139 0 0 139 0 0 139 0 0 139 0 0 139 0 0 139 0 0 141 0 0 141 0 0 141 0 0 141 0 0 141 0 0 141 0 0 141 0 0 141 0 0 141 0 0 141 0 0 151 0 0 151 0 0 151 0 0 151 0 0 151 0 0 151 0 0 151 0 0 151 0 0 151 0 0 151 0 0 124 0 0 124 0 0 124 0 0 124 0 0 124 0 0 124 0 0 124 0 0 124 0 0 124 0 0 124 0 0 125 0 0 125 0 0 125 0 0 125 0 0 125 0 0 125 0 0 125 0 0 125 0 0 125 0 0 125 0 0 149 0 0 149 0 0 149 0 0 149 0 0 149 0 0 149 0 0 149 0 0 149 0 0 149 0 0 149 0 0 145 0 0 145 0 0 145 0 0 145 0 0 145 0 0 145 0 0 145 0 0 145 0 0 145 0 0 145 0 0 125 0 0 125 0 0 125 0 0 125 0 0 125 0 0 125 0 0 125 0 0 125 0 0 125 0 0 125 0 0 144 0 0 144 0 0 144 0 0 144 0 0 144 0 0 144 0 0 144 0 0 144 0 0 144 0 0 144 0 0 111 0 0 111 0 0 111 0 0 111 0 0 111 0 0 111 0 0 111 0 0 111 0 0 111 0 0 111 0 0 141 0 0 141 0 0 141 0 0 141 0 0 141 0 0 141 0 0 141 0 0 141 0 0 141 0 0 141 0 0 140 0 0 140 0 0 140 0 0 140 0 0 140 0 0 140 0 0 140 0 0 140 0 0 140 0 0 140 0 0 131 0 0 131 0 0 131 0 0 131 0 0 131 0 0 131 0 0 131 0 0 131 0 0 131 0 0 131 0 0 120 0 0 120 0 0 120 0 0 120 0 0 120 0 0 120 0 0 120 0 0 120 0 0 120 0 0 120 0 0 124 0 0 124 0 0 124 0 0 124 0 0 124 0 0 124 0 0 124 0 0 124 0 0 124 0 0 124 0 0 133 0 0 133 0 0 133 0 0 133 0 0 133 0 0 133 0 0 133 0 0 133 0 0 133 0 0 133 0 0 148 0 0 148 0 0 148 0 0 148 0 0 148 0 0 148 0 0 148 0 0 148 0 0 148 0 0 148 0 0 131 0 0 131 0 0 131 0 0 131 0 0 131 0 0 131 0 0 131 0 0 131 0 0 131 0 0 131 0 0 138 0 0 138 0 0 138 0 0 138 0 0 138 0 0 138 0 0 138 0 0 138 0 0 138 0 0 138 0 0 116 0 0 116 0 0 116 0 0 116 0 0 116 0 0 116 0 0 116 0 0 116 0 0 116 0 0 116 0 0 139 0 0 139 0 0 139 0 0 139 0 0 139 0 0 139 0 0 139 0 0 139 0 0 139 0 0 139 0 0 112 0 0 112 0 0 112 0 0 112 0 0 112 0 0 112 0 0 112 0 0 112 0 0 112 0 0 112 0 0 146 0 0 146 0 0 146 0 0 146 0 0 146 0 0 146 0 0 146 0 0 146 0 0 146 0 0 146 0 0 113 0 0 113 0 0 113 0 0 113 0 0 113 0 0 113 0 0 113 0 0 113 0 0 113 0 0 113 0 0 122 0 0 122 0 0 122 0 0 122 0 0 122 0 0 122 0 0 122 0 0 122 0 0 122 0 0 122 0 0 135 0 0 135 0 0 135 0 0 135 0 0 135 0 0 135 0 0 135 0 0 135 0 0 135 0 0 135 0 0 0 0 0 0 0 0 0 0 0 0 0 0 0 0 0 0 0 0 0 0 0 0 0 0 0 0 0 0 0 0 255 214 0 255 214 0 255 214 0 255 214 0 255 214 0 255 214 0 255 214 0 255 214 0 255 214 0 255 214 0 255 214 0 255 214 0 255 214 0 255 214 0 255 214 0 255 214 0 255 214 0 255 214 0 255 214 0 255 214 0 255 214 0 255 214 0 255 214 0 255 214 0 255 214 0 255 214 0 255 214 0 255 214 0 255 214 0 255 214 0 
146 0 0 146 0 0 146 0 0 146 0 0 146 0 0 146 0 0 146 0 0 146 0 0 146 0 0 146 0 0 143 0 0 143 0 0 143 0 0 143 0 0 143 0 0 143 0 0 143 0 0 143 0 0 143 0 0 143 0 0 139 0 0 139 0 0 139 0 0 139 0 0 139 0 0 139 0 0 139 0 0 139 0 0 139 0 0 139 0 0 141 0 0 141 0 0 141 0 0 141 0 0 141 0 0 141 0 0 141 0 0 141 0 0 141 0 0 141 0 0 151 0 0 151 0 0 151 0 0 151 0 0 151 0 0 151 0 0 151 0 0 151 0 0 151 0 0 151 0 0 124 0 0 124 0 0 124 0 0 124 0 0 124 0 0 124 0 0 124 0 0 124 0 0 124 0 0 124 0 0 125 0 0 125 0 0 125 0 0 125 0 0 125 0 0 125 0 0 125 0 0 125 0 0 125 0 0 125 0 0 149 0 0 149 0 0 149 0 0 149 0 0 149 0 0 149 0 0 149 0 0 149 0 0 149 0 0 149 0 0 145 0 0 145 0 0 145 0 0 145 0 0 145 0 0 145 0 0 145 0 0 145 0 0 145 0 0 145 0 0 125 0 0 125 0 0 125 0 0 125 0 0 125 0 0 125 0 0 125 0 0 125 0 0 125 0 0 125 0 0 144 0 0 144 0 0 144 0 0 144 0 0 144 0 0 144 0 0 144 0 0 144 0 0 144 0 0 144 0 0 111 0 0 111 0 0 111 0 0 111 0 0 111 0 0 111 0 0 111 0 0 111 0 0 111 0 0 111 0 0 141 0 0 141 0 0 141 0 0 141 0 0 141 0 0 141 0 0 141 0 0 141 0 0 141 0 0 141 0 0 140 0 0 140 0 0 140 0 0 140 0 0 140 0 0 140 0 0 140 0 0 140 0 0 140 0 0 140 0 0 131 0 0 131 0 0 131 0 0 131 0 0 131 0 0 131 0 0 131 0 0 131 0 0 131 0 0 131 0 0 120 0 0 120 0 0 120 0 0 120 0 0 120 0 0 120 0 0 120 0 0 120 0 0 120 0 0 120 0 0 124 0 0 124 0 0 124 0 0 124 0 0 124 0 0 124 0 0 124 0 0 124 0 0 124 0 0 124 0 0 133 0 0 133 0 0 133 0 0 133 0 0 133 0 0 133 0 0 133 0 0 133 0 0 133 0 0 133 0 0 148 0 0 148 0 0 148 0 0 148 0 0 148 0 0 148 0 0 148 0 0 148 0 0 148 0 0 148 0 0 131 0 0 131 0 0 131 0 0 131 0 0 131 0 0 131 0 0 131 0 0 131 0 0 131 0 0 131 0 0 138 0 0 138 0 0 138 0 0 138 0 0 138 0 0 138 0 0 138 0 0 138 0 0 138 0 0 138 0 0 116 0 0 116 0 0 116 0 0 116 0 0 116 0 0 116 0 0 116 0 0 116 0 0 116 0 0 116 0 0 139 0 0 139 0 0 139 0 0 139 0 0 139 0 0 139 0 0 139 0 0 139 0 0 139 0 0 139 0 0 112 0 0 112 0 0 112 0 0 112 0 0 112 0 0 112 0 0 112 0 0 112 0 0 112 0 0 112 0 0 146 0 0 146 0 0 146 0 0 146 0 0 146 0 0 146 0 0 146 0 0 146 0 0 146 0 0 146 0 0 113 0 0 113 0 0 113 0 0 113 0 0 113 0 0 113 0 0 113 0 0 113 0 0 113 0 0 113 0 0 122 0 0 122 0 0 122 0 0 122 0 0 122 0 0 122 0 0 122 0 0 122 0 0 122 0 0 122 0 0 135 0 0 135 0 0 135 0 0 135 0 0 135 0 0 135 0 0 135 0 0 135 0 0 135 0 0 135 0 0 0 0 0 0 0 0 0 0 0 0 0 0 0 0 0 0 0 0 0 0 0 0 0 0 0 0 0 0 0 0 255 211 0 255 211 0 255 211 0 255 211 0 255 211 0 255 211 0 255 211 0 255 211 0 255 211 0 255 211 0 255 211 0 255 211 0 255 211 0 255 211 0 255 211 0 255 211 0 255 211 0 255 211 0 255 211 0 255 211 0 255 211 0 255 211 0 255 211 0 255 211 0 255 211 0 255 211 0 255 211 0 255 211 0 255 211 0 255 211 0 
146 0 0 146 0 0 146 0 0 146 0 0 146 0 0 146 0 0 146 0 0 146 0 0 146 0 0 146 0 0 143 0 0 143 0 0 143 0 0 143 0 0 143 0 0 143 0 0 143 0 0 143 0 0 143 0 0 143 0 0 139 0 0 139 0 0 139 0 0 139 0 0 139 0 0 139 0 0 139 0 0 139 0 0 139 0 0 139 0 0 141 0 0 141 0 0 141 0 0 141 0 0 141 0 0 141 0 0 141 0 0 141 0 0 141 0 0 141 0 0 151 0 0 151 0 0 151 0 0 151 0 0 151 0 0 151 0 0 151 0 0 151 0 0 151 0 0 151 0 0 124 0 0 124 0 0 124 0 0 124 0 0 124 0 0 124 0 0 124 0 0 124 0 0 124 0 0 124 0 0 125 0 0 125 0 0 125 0 0 125 0 0 125 0 0 125 0 0 125 0 0 125 0 0 125 0 0 125 0 0 149 0 0 149 0 0 149 0 0 149 0 0 149 0 0 149 0 0 149 0 0 149 0 0 149 0 0 149 0 0 145 0 0 145 0 0 145 0 0 145 0 0 145 0 0 145 0 0 145 0 0 145 0 0 145 0 0 145 0 0 125 0 0 125 0 0 125 0 0 125 0 0 125 0 0 125 0 0 125 0 0 125 0 0 125 0 0 125 0 0 144 0 0 144 0 0 144 0 0 144 0 0 144 0 0 144 0 0 144 0 0 144 0 0 144 0 0 144 0 0 111 0 0 111 0 0 111 0 0 111 0 0 111 0 0 111 0 0 111 0 0 111 0 0 111 0 0 111 0 0 141 0 0 141 0 0 141 0 0 141 0 0 141 0 0 141 0 0 141 0 0 141 0 0 141 0 0 141 0 0 140 0 0 140 0 0 140 0 0 140 0 0 140 0 0 140 0 0 140 0 0 140 0 0 140 0 0 140 0 0 131 0 0 131 0 0 131 0 0 131 0 0 131 0 0 131 0 0 131 0 0 131 0 0 131 0 0 131 0 0 120 0 0 120 0 0 120 0 0 120 0 0 120 0 0 120 0 0 120 0 0 120 0 0 120 0 0 120 0 0 124 0 0 124 0 0 124 0 0 124 0 0 124 0 0 124 0 0 124 0 0 124 0 0 124 0 0 124 0 0 133 0 0 133 0 0 133 0 0 133 0 0 133 0 0 133 0 0 133 0 0 133 0 0 133 0 0 133 0 0 148 0 0 148 0 0 148 0 0 148 0 0 148 0 0 148 0 0 148 0 0 148 0 0 148 0 0 148 0 0 131 0 0 131 0 0 131 0 0 131 0 0 131 0 0 131 0 0 131 0 0 131 0 0 131 0 0 131 0 0 138 0 0 138 0 0 138 0 0 138 0 0 138 0 0 138 0 0 138 0 0 138 0 0 138 0 0 138 0 0 116 0 0 116 0 0 116 0 0 116 0 0 116 0 0 116 0 0 116 0 0 116 0 0 116 0 0 116 0 0 139 0 0 139 0 0 139 0 0 139 0 0 139 0 0 139 0 0 139 0 0 139 0 0 139 0 0 139 0 0 112 0 0 112 0 0 112 0 0 112 0 0 112 0 0 112 0 0 112 0 0 112 0 0 112 0 0 112 0 0 146 0 0 146 0 0 146 0 0 146 0 0 146 0 0 146 0 0 146 0 0 146 0 0 146 0 0 146 0 0 113 0 0 113 0 0 113 0 0 113 0 0 113 0 0 113 0 0 113 0 0 113 0 0 113 0 0 113 0 0 122 0 0 122 0 0 122 0 0 122 0 0 122 0 0 122 0 0 122 0 0 122 0 0 122 0 0 122 0 0 135 0 0 135 0 0 135 0 0 135 0 0 135 0 0 135 0 0 135 0 0 135 0 0 135 0 0 135 0 0 0 0 0 0 0 0 0 0 0 0 0 0 0 0 0 0 0 0 0 0 0 0 0 0 0 0 0 0 0 0 255 207 0 255 207 0 255 207 0 255 207 0 255 207 0 255 207 0 255 207 0 255 207 0 255 207 0 255 207 0 255 207 0 255 207 0 255 207 0 255 207 0 255 207 0 255 207 0 255 207 0 255 207 0 255 207 0 255 207 0 255 207 0 255 207 0 255 207 0 255 207 0 255 207 0 255 207 0 255 207 0 255 207 0 255 207 0 255 207 0 
146 0 0 146 0 0 146 0 0 146 0 0 146 0 0 146 0 0 146 0 0 146 0 0 146 0 0 146 0 0 143 0 0 143 0 0 143 0 0 143 0 0 143 0 0 143 0 0 143 0 0 143 0 0 143 0 0 143 0 0 139 0 0 139 0 0 139 0 0 139 0 0 139 0 0 139 0 0 139 0 0 139 0 0 139 0 0 139 0 0 141 0 0 141 0 0 141 0 0 141 0 0 141 0 0 141 0 0 141 0 0 141 0 0 141 0 0 141 0 0 151 0 0 151 0 0 151 0 0 151 0 0 151 0 0 151 0 0 151 0 0 151 0 0 151 0 0 151 0 0 124 0 0 124 0 0 124 0 0 124 0 0 124 0 0 124 0 0 124 0 0 124 0 0 124 0 0 124 0 0 125 0 0 125 0 0 125 0 0 125 0 0 125 0 0 125 0 0 125 0 0 125 0 0 125 0 0 125 0 0 149 0 0 149 0 0 149 0 0 149 0 0 149 0 0 149 0 0 149 0 0 149 0 0 149 0 0 149 0 0 145 0 0 145 0 0 145 0 0 145 0 0 145 0 0 145 0 0 145 0 0 145 0 0 145 0 0 145 0 0 125 0 0 125 0 0 125 0 0 125 0 0 125 0 0 125 0 0 125 0 0 125 0 0 125 0 0 125 0 0 144 0 0 144 0 0 144 0 0 144 0 0 144 0 0 144 0 0 144 0 0 144 0 0 144 0 0 144 0 0 111 0 0 111 0 0 111 0 0 111 0 0 111 0 0 111 0 0 111 0 0 111 0 0 111 0 0 111 0 0 141 0 0 141 0 0 141 0 0 141 0 0 141 0 0 141 0 0 141 0 0 141 0 0 141 0 0 141 0 0 140 0 0 140 0 0 140 0 0 140 0 0 140 0 0 140 0 0 140 0 0 140 0 0 140 0 0 140 0 0 131 0 0 131 0 0 131 0 0 131 0 0 131 0 0 131 0 0 131 0 0 131 0 0 131 0 0 131 0 0 120 0 0 120 0 0 120 0 0 120 0 0 120 0 0 120 0 0 120 0 0 120 0 0 120 0 0 120 0 0 124 0 0 124 0 0 124 0 0 124 0 0 124 0 0 124 0 0 124 0 0 124 0 0 124 0 0 124 0 0 133 0 0 133 0 0 133 0 0 133 0 0 133 0 0 133 0 0 133 0 0 133 0 0 133 0 0 133 0 0 148 0 0 148 0 0 148 0 0 148 0 0 148 0 0 148 0 0 148 0 0 148 0 0 148 0 0 148 0 0 131 0 0 131 0 0 131 0 0 131 0 0 131 0 0 131 0 0 131 0 0 131 0 0 131 0 0 131 0 0 138 0 0 138 0 0 138 0 0 138 0 0 138 0 0 138 0 0 138 0 0 138 0 0 138 0 0 138 0 0 116 0 0 116 0 0 116 0 0 116 0 0 116 0 0 116 0 0 116 0 0 116 0 0 116 0 0 116 0 0 139 0 0 139 0 0 139 0 0 139 0 0 139 0 0 139 0 0 139 0 0 139 0 0 139 0 0 139 0 0 112 0 0 112 0 0 112 0 0 112 0 0 112 0 0 112 0 0 112 0 0 112 0 0 112 0 0 112 0 0 146 0 0 146 0 0 146 0 0 146 0 0 146 0 0 146 0 0 146 0 0 146 0 0 146 0 0 146 0 0 113 0 0 113 0 0 113 0 0 113 0 0 113 0 0 113 0 0 113 0 0 113 0 0 113 0 0 113 0 0 122 0 0 122 0 0 122 0 0 122 0 0 122 0 0 122 0 0 122 0 0 122 0 0 122 0 0 122 0 0 135 0 0 135 0 0 135 0 0 135 0 0 135 0 0 135 0 0 135 0 0 135 0 0 135 0 0 135 0 0 0 0 0 0 0 0 0 0 0 0 0 0 0 0 0 0 0 0 0 0 0 0 0 0 0 0 0 0 0 0 255 203 0 255 203 0 255 203 0 255 203 0 255 203 0 255 203 0 255 203 0 255 203 0 255 203 0 255 203 0 255 203 0 255 203 0 255 203 0 255 203 0 255 203 0 255 203 0 255 203 0 255 203 0 255 203 0 255 203 0 255 203 0 255 203 0 255 203 0 255 203 0 255 203 0 255 203 0 255 203 0 255 203 0 255 203 0 255 203 0 
146 0 0 146 0 0 146 0 0 146 0 0 146 0 0 146 0 0 146 0 0 146 0 0 146 0 0 146 0 0 143 0 0 143 0 0 143 0 0 143 0 0 143 0 0 143 0 0 143 0 0 143 0 0 143 0 0 143 0 0 139 0 0 139 0 0 139 0 0 139 0 0 139 0 0 139 0 0 139 0 0 139 0 0 139 0 0 139 0 0 141 0 0 141 0 0 141 0 0 141 0 0 141 0 0 141 0 0 141 0 0 141 0 0 141 0 0 141 0 0 151 0 0 151 0 0 151 0 0 151 0 0 151 0 0 151 0 0 151 0 0 151 0 0 151 0 0 151 0 0 124 0 0 124 0 0 124 0 0 124 0 0 124 0 0 124 0 0 124 0 0 124 0 0 124 0 0 124 0 0 125 0 0 125 0 0 125 0 0 125 0 0 125 0 0 125 0 0 125 0 0 125 0 0 125 0 0 125 0 0 149 0 0 149 0 0 149 0 0 149 0 0 149 0 0 149 0 0 149 0 0 149 0 0 149 0 0 149 0 0 145 0 0 145 0 0 145 0 0 145 0 0 145 0 0 145 0 0 145 0 0 145 0 0 145 0 0 145 0 0 125 0 0 125 0 0 125 0 0 125 0 0 125 0 0 125 0 0 125 0 0 125 0 0 125 0 0 125 0 0 144 0 0 144 0 0 144 0 0 144 0 0 144 0 0 144 0 0 144 0 0 144 0 0 144 0 0 144 0 0 111 0 0 111 0 0 111 0 0 111 0 0 111 0 0 111 0 0 111 0 0 111 0 0 111 0 0 111 0 0 141 0 0 141 0 0 141 0 0 141 0 0 141 0 0 141 0 0 141 0 0 141 0 0 141 0 0 141 0 0 140 0 0 140 0 0 140 0 0 140 0 0 140 0 0 140 0 0 140 0 0 140 0 0 140 0 0 140 0 0 131 0 0 131 0 0 131 0 0 131 0 0 131 0 0 131 0 0 131 0 0 131 0 0 131 0 0 131 0 0 120 0 0 120 0 0 120 0 0 120 0 0 120 0 0 120 0 0 120 0 0 120 0 0 120 0 0 120 0 0 124 0 0 124 0 0 124 0 0 124 0 0 124 0 0 124 0 0 124 0 0 124 0 0 124 0 0 124 0 0 133 0 0 133 0 0 133 0 0 133 0 0 133 0 0 133 0 0 133 0 0 133 0 0 133 0 0 133 0 0 148 0 0 148 0 0 148 0 0 148 0 0 148 0 0 148 0 0 148 0 0 148 0 0 148 0 0 148 0 0 131 0 0 131 0 0 131 0 0 131 0 0 131 0 0 131 0 0 131 0 0 131 0 0 131 0 0 131 0 0 138 0 0 138 0 0 138 0 0 138 0 0 138 0 0 138 0 0 138 0 0 138 0 0 138 0 0 138 0 0 116 0 0 116 0 0 116 0 0 116 0 0 116 0 0 116 0 0 116 0 0 116 0 0 116 0 0 116 0 0 139 0 0 139 0 0 139 0 0 139 0 0 139 0 0 139 0 0 139 0 0 139 0 0 139 0 0 139 0 0 112 0 0 112 0 0 112 0 0 112 0 0 112 0 0 112 0 0 112 0 0 112 0 0 112 0 0 112 0 0 146 0 0 146 0 0 146 0 0 146 0 0 146 0 0 146 0 0 146 0 0 146 0 0 146 0 0 146 0 0 113 0 0 113 0 0 113 0 0 113 0 0 113 0 0 113 0 0 113 0 0 113 0 0 113 0 0 113 0 0 122 0 0 122 0 0 122 0 0 122 0 0 122 0 0 122 0 0 122 0 0 122 0 0 122 0 0 122 0 0 135 0 0 135 0 0 135 0 0 135 0 0 135 0 0 135 0 0 135 0 0 135 0 0 135 0 0 135 0 0 0 0 0 0 0 0 0 0 0 0 0 0 0 0 0 0 0 0 0 0 0 0 0 0 0 0 0 0 0 0 255 200 0 255 200 0 255 200 0 255 200 0 255 200 0 255 200 0 255 200 0 255 200 0 255 200 0 255 200 0 255 200 0 255 200 0 255 200 0 255 200 0 255 200 0 255 200 0 255 200 0 255 200 0 255 200 0 255 200 0 255 200 0 255 200 0 255 200 0 255 200 0 255 200 0 255 200 0 255 200 0 255 200 0 255 200 0 255 200 0 
146 0 0 146 0 0 146 0 0 146 0 0 146 0 0 146 0 0 146 0 0 146 0 0 146 0 0 146 0 0 143 0 0 143 0 0 143 0 0 143 0 0 143 0 0 143 0 0 143 0 0 143 0 0 143 0 0 143 0 0 139 0 0 139 0 0 139 0 0 139 0 0 139 0 0 139 0 0 139 0 0 139 0 0 139 0 0 139 0 0 141 0 0 141 0 0 141 0 0 141 0 0 141 0 0 141 0 0 141 0 0 141 0 0 141 0 0 141 0 0 151 0 0 151 0 0 151 0 0 151 0 0 151 0 0 151 0 0 151 0 0 151 0 0 151 0 0 151 0 0 124 0 0 124 0 0 124 0 0 124 0 0 124 0 0 124 0 0 124 0 0 124 0 0 124 0 0 124 0 0 125 0 0 125 0 0 125 0 0 125 0 0 125 0 0 125 0 0 125 0 0 125 0 0 125 0 0 125 0 0 149 0 0 149 0 0 149 0 0 149 0 0 149 0 0 149 0 0 149 0 0 149 0 0 149 0 0 149 0 0 145 0 0 145 0 0 145 0 0 145 0 0 145 0 0 145 0 0 145 0 0 145 0 0 145 0 0 145 0 0 125 0 0 125 0 0 125 0 0 125 0 0 125 0 0 125 0 0 125 0 0 125 0 0 125 0 0 125 0 0 144 0 0 144 0 0 144 0 0 144 0 0 144 0 0 144 0 0 144 0 0 144 0 0 144 0 0 144 0 0 111 0 0 111 0 0 111 0 0 111 0 0 111 0 0 111 0 0 111 0 0 111 0 0 111 0 0 111 0 0 141 0 0 141 0 0 141 0 0 141 0 0 141 0 0 141 0 0 141 0 0 141 0 0 141 0 0 141 0 0 140 0 0 140 0 0 140 0 0 140 0 0 140 0 0 140 0 0 140 0 0 140 0 0 140 0 0 140 0 0 131 0 0 131 0 0 131 0 0 131 0 0 131 0 0 131 0 0 131 0 0 131 0 0 131 0 0 131 0 0 120 0 0 120 0 0 120 0 0 120 0 0 120 0 0 120 0 0 120 0 0 120 0 0 120 0 0 120 0 0 124 0 0 124 0 0 124 0 0 124 0 0 124 0 0 124 0 0 124 0 0 124 0 0 124 0 0 124 0 0 133 0 0 133 0 0 133 0 0 133 0 0 133 0 0 133 0 0 133 0 0 133 0 0 133 0 0 133 0 0 148 0 0 148 0 0 148 0 0 148 0 0 148 0 0 148 0 0 148 0 0 148 0 0 148 0 0 148 0 0 131 0 0 131 0 0 131 0 0 131 0 0 131 0 0 131 0 0 131 0 0 131 0 0 131 0 0 131 0 0 138 0 0 138 0 0 138 0 0 138 0 0 138 0 0 138 0 0 138 0 0 138 0 0 138 0 0 138 0 0 116 0 0 116 0 0 116 0 0 116 0 0 116 0 0 116 0 0 116 0 0 116 0 0 116 0 0 116 0 0 139 0 0 139 0 0 139 0 0 139 0 0 139 0 0 139 0 0 139 0 0 139 0 0 139 0 0 139 0 0 112 0 0 112 0 0 112 0 0 112 0 0 112 0 0 112 0 0 112 0 0 112 0 0 112 0 0 112 0 0 146 0 0 146 0 0 146 0 0 146 0 0 146 0 0 146 0 0 146 0 0 146 0 0 146 0 0 146 0 0 113 0 0 113 0 0 113 0 0 113 0 0 113 0 0 113 0 0 113 0 0 113 0 0 113 0 0 113 0 0 122 0 0 122 0 0 122 0 0 122 0 0 122 0 0 122 0 0 122 0 0 122 0 0 122 0 0 122 0 0 135 0 0 135 0 0 135 0 0 135 0 0 135 0 0 135 0 0 135 0 0 135 0 0 135 0 0 135 0 0 0 0 0 0 0 0 0 0 0 0 0 0 0 0 0 0 0 0 0 0 0 0 0 0 0 0 0 0 0 0 255 196 0 255 196 0 255 196 0 255 196 0 255 196 0 255 196 0 255 196 0 255 196 0 255 196 0 255 196 0 255 196 0 255 196 0 255 196 0 255 196 0 255 196 0 255 196 0 255 196 0 255 196 0 255 196 0 255 196 0 255 196 0 255 196 0 255 196 0 255 196 0 255 196 0 255 196 0 255 196 0 255 196 0 255 196 0 255 196 0 
146 0 0 146 0 0 146 0 0 146 0 0 146 0 0 146 0 0 146 0 0 146 0 0 146 0 0 146 0 0 143 0 0 143 0 0 143 0 0 143 0 0 143 0 0 143 0 0 143 0 0 143 0 0 143 0 0 143 0 0 139 0 0 139 0 0 139 0 0 139 0 0 139 0 0 139 0 0 139 0 0 139 0 0 139 0 0 139 0 0 141 0 0 141 0 0 141 0 0 141 0 0 141 0 0 141 0 0 141 0 0 141 0 0 141 0 0 141 0 0 151 0 0 151 0 0 151 0 0 151 0 0 151 0 0 151 0 0 151 0 0 151 0 0 151 0 0 151 0 0 124 0 0 124 0 0 124 0 0 124 0 0 124 0 0 124 0 0 124 0 0 124 0 0 124 0 0 124 0 0 125 0 0 125 0 0 125 0 0 125 0 0 125 0 0 125 0 0 125 0 0 125 0 0 125 0 0 125 0 0 149 0 0 149 0 0 149 0 0 149 0 0 149 0 0 149 0 0 149 0 0 149 0 0 149 0 0 149 0 0 145 0 0 145 0 0 145 0 0 145 0 0 145 0 0 145 0 0 145 0 0 145 0 0 145 0 0 145 0 0 125 0 0 125 0 0 125 0 0 125 0 0 125 0 0 125 0 0 125 0 0 125 0 0 125 0 0 125 0 0 144 0 0 144 0 0 144 0 0 144 0 0 144 0 0 144 0 0 144 0 0 144 0 0 144 0 0 144 0 0 111 0 0 111 0 0 111 0 0 111 0 0 111 0 0 111 0 0 111 0 0 111 0 0 111 0 0 111 0 0 141 0 0 141 0 0 141 0 0 141 0 0 141 0 0 141 0 0 141 0 0 141 0 0 141 0 0 141 0 0 140 0 0 140 0 0 140 0 0 140 0 0 140 0 0 140 0 0 140 0 0 140 0 0 140 0 0 140 0 0 131 0 0 131 0 0 131 0 0 131 0 0 131 0 0 131 0 0 131 0 0 131 0 0 131 0 0 131 0 0 120 0 0 120 0 0 120 0 0 120 0 0 120 0 0 120 0 0 120 0 0 120 0 0 120 0 0 120 0 0 124 0 0 124 0 0 124 0 0 124 0 0 124 0 0 124 0 0 124 0 0 124 0 0 124 0 0 124 0 0 133 0 0 133 0 0 133 0 0 133 0 0 133 0 0 133 0 0 133 0 0 133 0 0 133 0 0 133 0 0 148 0 0 148 0 0 148 0 0 148 0 0 148 0 0 148 0 0 148 0 0 148 0 0 148 0 0 148 0 0 131 0 0 131 0 0 131 0 0 131 0 0 131 0 0 131 0 0 131 0 0 131 0 0 131 0 0 131 0 0 138 0 0 138 0 0 138 0 0 138 0 0 138 0 0 138 0 0 138 0 0 138 0 0 138 0 0 138 0 0 116 0 0 116 0 0 116 0 0 116 0 0 116 0 0 116 0 0 116 0 0 116 0 0 116 0 0 116 0 0 139 0 0 139 0 0 139 0 0 139 0 0 139 0 0 139 0 0 139 0 0 139 0 0 139 0 0 139 0 0 112 0 0 112 0 0 112 0 0 112 0 0 112 0 0 112 0 0 112 0 0 112 0 0 112 0 0 112 0 0 146 0 0 146 0 0 146 0 0 146 0 0 146 0 0 146 0 0 146 0 0 146 0 0 146 0 0 146 0 0 113 0 0 113 0 0 113 0 0 113 0 0 113 0 0 113 0 0 113 0 0 113 0 0 113 0 0 113 0 0 122 0 0 122 0 0 122 0 0 122 0 0 122 0 0 122 0 0 122 0 0 122 0 0 122 0 0 122 0 0 135 0 0 135 0 0 135 0 0 135 0 0 135 0 0 135 0 0 135 0 0 135 0 0 135 0 0 135 0 0 0 0 0 0 0 0 0 0 0 0 0 0 0 0 0 0 0 0 0 0 0 0 0 0 0 0 0 0 0 0 255 192 0 255 192 0 255 192 0 255 192 0 255 192 0 255 192 0 255 192 0 255 192 0 255 192 0 255 192 0 255 192 0 255 192 0 255 192 0 255 192 0 255 192 0 255 192 0 255 192 0 255 192 0 255 192 0 255 192 0 255 192 0 255 192 0 255 192 0 255 192 0 255 192 0 255 192 0 255 192 0 255 192 0 255 192 0 255 192 0 
146 0 0 146 0 0 146 0 0 146 0 0 146 0 0 146 0 0 146 0 0 146 0 0 146 0 0 146 0 0 143 0 0 143 0 0 143 0 0 143 0 0 143 0 0 143 0 0 143 0 0 143 0 0 143 0 0 143 0 0 139 0 0 139 0 0 139 0 0 139 0 0 139 0 0 139 0 0 139 0 0 139 0 0 139 0 0 139 0 0 141 0 0 141 0 0 141 0 0 141 0 0 141 0 0 141 0 0 141 0 0 141 0 0 141 0 0 141 0 0 151 0 0 151 0 0 151 0 0 151 0 0 151 0 0 151 0 0 151 0 0 151 0 0 151 0 0 151 0 0 124 0 0 124 0 0 124 0 0 124 0 0 124 0 0 124 0 0 124 0 0 124 0 0 124 0 0 124 0 0 125 0 0 125 0 0 125 0 0 125 0 0 125 0 0 125 0 0 125 0 0 125 0 0 125 0 0 125 0 0 149 0 0 149 0 0 149 0 0 149 0 0 149 0 0 149 0 0 149 0 0 149 0 0 149 0 0 149 0 0 145 0 0 145 0 0 145 0 0 145 0 0 145 0 0 145 0 0 145 0 0 145 0 0 145 0 0 145 0 0 125 0 0 125 0 0 125 0 0 125 0 0 125 0 0 125 0 0 125 0 0 125 0 0 125 0 0 125 0 0 144 0 0 144 0 0 144 0 0 144 0 0 144 0 0 144 0 0 144 0 0 144 0 0 144 0 0 144 0 0 111 0 0 111 0 0 111 0 0 111 0 0 111 0 0 111 0 0 111 0 0 111 0 0 111 0 0 111 0 0 141 0 0 141 0 0 141 0 0 141 0 0 141 0 0 141 0 0 141 0 0 141 0 0 141 0 0 141 0 0 140 0 0 140 0 0 140 0 0 140 0 0 140 0 0 140 0 0 140 0 0 140 0 0 140 0 0 140 0 0 131 0 0 131 0 0 131 0 0 131 0 0 131 0 0 131 0 0 131 0 0 131 0 0 131 0 0 131 0 0 120 0 0 120 0 0 120 0 0 120 0 0 120 0 0 120 0 0 120 0 0 120 0 0 120 0 0 120 0 0 124 0 0 124 0 0 124 0 0 124 0 0 124 0 0 124 0 0 124 0 0 124 0 0 124 0 0 124 0 0 133 0 0 133 0 0 133 0 0 133 0 0 133 0 0 133 0 0 133 0 0 133 0 0 133 0 0 133 0 0 148 0 0 148 0 0 148 0 0 148 0 0 148 0 0 148 0 0 148 0 0 148 0 0 148 0 0 148 0 0 131 0 0 131 0 0 131 0 0 131 0 0 131 0 0 131 0 0 131 0 0 131 0 0 131 0 0 131 0 0 138 0 0 138 0 0 138 0 0 138 0 0 138 0 0 138 0 0 138 0 0 138 0 0 138 0 0 138 0 0 116 0 0 116 0 0 116 0 0 116 0 0 116 0 0 116 0 0 116 0 0 116 0 0 116 0 0 116 0 0 139 0 0 139 0 0 139 0 0 139 0 0 139 0 0 139 0 0 139 0 0 139 0 0 139 0 0 139 0 0 112 0 0 112 0 0 112 0 0 112 0 0 112 0 0 112 0 0 112 0 0 112 0 0 112 0 0 112 0 0 146 0 0 146 0 0 146 0 0 146 0 0 146 0 0 146 0 0 146 0 0 146 0 0 146 0 0 146 0 0 113 0 0 113 0 0 113 0 0 113 0 0 113 0 0 113 0 0 113 0 0 113 0 0 113 0 0 113 0 0 122 0 0 122 0 0 122 0 0 122 0 0 122 0 0 122 0 0 122 0 0 122 0 0 122 0 0 122 0 0 135 0 0 135 0 0 135 0 0 135 0 0 135 0 0 135 0 0 135 0 0 135 0 0 135 0 0 135 0 0 0 0 0 0 0 0 0 0 0 0 0 0 0 0 0 0 0 0 0 0 0 0 0 0 0 0 0 0 0 0 255 189 0 255 189 0 255 189 0 255 189 0 255 189 0 255 189 0 255 189 0 255 189 0 255 189 0 255 189 0 255 189 0 255 189 0 255 189 0 255 189 0 255 189 0 255 189 0 255 189 0 255 189 0 255 189 0 255 189 0 255 189 0 255 189 0 255 189 0 255 189 0 255 189 0 255 189 0 255 189 0 255 189 0 255 189 0 255 189 0 
146 0 0 146 0 0 146 0 0 146 0 0 146 0 0 146 0 0 146 0 0 146 0 0 146 0 0 146 0 0 143 0 0 143 0 0 143 0 0 143 0 0 143 0 0 143 0 0 143 0 0 143 0 0 143 0 0 143 0 0 139 0 0 139 0 0 139 0 0 139 0 0 139 0 0 139 0 0 139 0 0 139 0 0 139 0 0 139 0 0 141 0 0 141 0 0 141 0 0 141 0 0 141 0 0 141 0 0 141 0 0 141 0 0 141 0 0 141 0 0 151 0 0 151 0 0 151 0 0 151 0 0 151 0 0 151 0 0 151 0 0 151 0 0 151 0 0 151 0 0 124 0 0 124 0 0 124 0 0 124 0 0 124 0 0 124 0 0 124 0 0 124 0 0 124 0 0 124 0 0 125 0 0 125 0 0 125 0 0 125 0 0 125 0 0 125 0 0 125 0 0 125 0 0 125 0 0 125 0 0 149 0 0 149 0 0 149 0 0 149 0 0 149 0 0 149 0 0 149 0 0 149 0 0 149 0 0 149 0 0 145 0 0 145 0 0 145 0 0 145 0 0 145 0 0 145 0 0 145 0 0 145 0 0 145 0 0 145 0 0 125 0 0 125 0 0 125 0 0 125 0 0 125 0 0 125 0 0 125 0 0 125 0 0 125 0 0 125 0 0 144 0 0 144 0 0 144 0 0 144 0 0 144 0 0 144 0 0 144 0 0 144 0 0 144 0 0 144 0 0 111 0 0 111 0 0 111 0 0 111 0 0 111 0 0 111 0 0 111 0 0 111 0 0 111 0 0 111 0 0 141 0 0 141 0 0 141 0 0 141 0 0 141 0 0 141 0 0 141 0 0 141 0 0 141 0 0 141 0 0 140 0 0 140 0 0 140 0 0 140 0 0 140 0 0 140 0 0 140 0 0 140 0 0 140 0 0 140 0 0 131 0 0 131 0 0 131 0 0 131 0 0 131 0 0 131 0 0 131 0 0 131 0 0 131 0 0 131 0 0 120 0 0 120 0 0 120 0 0 120 0 0 120 0 0 120 0 0 120 0 0 120 0 0 120 0 0 120 0 0 124 0 0 124 0 0 124 0 0 124 0 0 124 0 0 124 0 0 124 0 0 124 0 0 124 0 0 124 0 0 133 0 0 133 0 0 133 0 0 133 0 0 133 0 0 133 0 0 133 0 0 133 0 0 133 0 0 133 0 0 148 0 0 148 0 0 148 0 0 148 0 0 148 0 0 148 0 0 148 0 0 148 0 0 148 0 0 148 0 0 131 0 0 131 0 0 131 0 0 131 0 0 131 0 0 131 0 0 131 0 0 131 0 0 131 0 0 131 0 0 138 0 0 138 0 0 138 0 0 138 0 0 138 0 0 138 0 0 138 0 0 138 0 0 138 0 0 138 0 0 116 0 0 116 0 0 116 0 0 116 0 0 116 0 0 116 0 0 116 0 0 116 0 0 116 0 0 116 0 0 139 0 0 139 0 0 139 0 0 139 0 0 139 0 0 139 0 0 139 0 0 139 0 0 139 0 0 139 0 0 112 0 0 112 0 0 112 0 0 112 0 0 112 0 0 112 0 0 112 0 0 112 0 0 112 0 0 112 0 0 146 0 0 146 0 0 146 0 0 146 0 0 146 0 0 146 0 0 146 0 0 146 0 0 146 0 0 146 0 0 113 0 0 113 0 0 113 0 0 113 0 0 113 0 0 113 0 0 113 0 0 113 0 0 113 0 0 113 0 0 122 0 0 122 0 0 122 0 0 122 0 0 122 0 0 122 0 0 122 0 0 122 0 0 122 0 0 122 0 0 135 0 0 135 0 0 135 0 0 135 0 0 135 0 0 135 0 0 135 0 0 135 0 0 135 0 0 135 0 0 0 0 0 0 0 0 0 0 0 0 0 0 0 0 0 0 0 0 0 0 0 0 0 0 0 0 0 0 0 0 255 185 0 255 185 0 255 185 0 255 185 0 255 185 0 255 185 0 255 185 0 255 185 0 255 185 0 255 185 0 255 185 0 255 185 0 255 185 0 255 185 0 255 185 0 255 185 0 255 185 0 255 185 0 255 185 0 255 185 0 255 185 0 255 185 0 255 185 0 255 185 0 255 185 0 255 185 0 255 185 0 255 185 0 255 185 0 255 185 0 
118 0 0 118 0 0 118 0 0 118 0 0 118 0 0 118 0 0 118 0 0 118 0 0 118 0 0 118 0 0 121 0 0 121 0 0 121 0 0 121 0 0 121 0 0 121 0 0 121 0 0 121 0 0 121 0 0 121 0 0 127 0 0 127 0 0 127 0 0 127 0 0 127 0 0 127 0 0 127 0 0 127 0 0 127 0 0 127 0 0 112 0 0 112 0 0 112 0 0 112 0 0 112 0 0 112 0 0 112 0 0 112 0 0 112 0 0 112 0 0 132 0 0 132 0 0 132 0 0 132 0 0 132 0 0 132 0 0 132 0 0 132 0 0 132 0 0 132 0 0 120 0 0 120 0 0 120 0 0 120 0 0 120 0 0 120 0 0 120 0 0 120 0 0 120 0 0 120 0 0 123 0 0 123 0 0 123 0 0 123 0 0 123 0 0 123 0 0 123 0 0 123 0 0 123 0 0 123 0 0 144 0 0 144 0 0 144 0 0 144 0 0 144 0 0 144 0 0 144 0 0 144 0 0 144 0 0 144 0 0 112 0 0 112 0 0 112 0 0 112 0 0 112 0 0 112 0 0 112 0 0 112 0 0 112 0 0 112 0 0 109 0 0 109 0 0 109 0 0 109 0 0 109 0 0 109 0 0 109 0 0 109 0 0 109 0 0 109 0 0 134 0 0 134 0 0 134 0 0 134 0 0 134 0 0 134 0 0 134 0 0 134 0 0 134 0 0 134 0 0 134 0 0 134 0 0 134 0 0 134 0 0 134 0 0 134 0 0 134 0 0 134 0 0 134 0 0 134 0 0 116 0 0 116 0 0 116 0 0 116 0 0 116 0 0 116 0 0 116 0 0 116 0 0 116 0 0 116 0 0 118 0 0 118 0 0 118 0 0 118 0 0 118 0 0 118 0 0 118 0 0 118 0 0 118 0 0 118 0 0 168 0 0 168 0 0 168 0 0 168 0 0 168 0 0 168 0 0 168 0 0 168 0 0 168 0 0 168 0 0 179 0 0 179 0 0 179 0 0 179 0 0 179 0 0 179 0 0 179 0 0 179 0 0 179 0 0 179 0 0 133 0 0 133 0 0 133 0 0 133 0 0 133 0 0 133 0 0 133 0 0 133 0 0 133 0 0 133 0 0 132 0 0 132 0 0 132 0 0 132 0 0 132 0 0 132 0 0 132 0 0 132 0 0 132 0 0 132 0 0 120 0 0 120 0 0 120 0 0 120 0 0 120 0 0 120 0 0 120 0 0 120 0 0 120 0 0 120 0 0 148 0 0 148 0 0 148 0 0 148 0 0 148 0 0 148 0 0 148 0 0 148 0 0 148 0 0 148 0 0 130 0 0 130 0 0 130 0 0 130 0 0 130 0 0 130 0 0 130 0 0 130 0 0 130 0 0 130 0 0 136 0 0 136 0 0 136 0 0 136 0 0 136 0 0 136 0 0 136 0 0 136 0 0 136 0 0 136 0 0 133 0 0 133 0 0 133 0 0 133 0 0 133 0 0 133 0 0 133 0 0 133 0 0 133 0 0 133 0 0 146 0 0 146 0 0 146 0 0 146 0 0 146 0 0 146 0 0 146 0 0 146 0 0 146 0 0 146 0 0 141 0 0 141 0 0 141 0 0 141 0 0 141 0 0 141 0 0 141 0 0 141 0 0 141 0 0 141 0 0 121 0 0 121 0 0 121 0 0 121 0 0 121 0 0 121 0 0 121 0 0 121 0 0 121 0 0 121 0 0 127 0 0 127 0 0 127 0 0 127 0 0 127 0 0 127 0 0 127 0 0 127 0 0 127 0 0 127 0 0 127 0 0 127 0 0 127 0 0 127 0 0 127 0 0 127 0 0 127 0 0 127 0 0 127 0 0 127 0 0 0 0 0 0 0 0 0 0 0 0 0 0 0 0 0 0 0 0 0 0 0 0 0 0 0 0 0 0 0 0 255 181 0 255 181 0 255 181 0 255 181 0 255 181 0 255 181 0 255 181 0 255 181 0 255 181 0 255 181 0 255 181 0 255 181 0 255 181 0 255 181 0 255 181 0 255 181 0 255 181 0 255 181 0 255 181 0 255 181 0 255 181 0 255 181 0 255 181 0 255 181 0 255 181 0 255 181 0 255 181 0 255 181 0 255 181 0 255 181 0 
118 0 0 118 0 0 118 0 0 118 0 0 118 0 0 118 0 0 118 0 0 118 0 0 118 0 0 118 0 0 121 0 0 121 0 0 121 0 0 121 0 0 121 0 0 121 0 0 121 0 0 121 0 0 121 0 0 121 0 0 127 0 0 127 0 0 127 0 0 127 0 0 127 0 0 127 0 0 127 0 0 127 0 0 127 0 0 127 0 0 112 0 0 112 0 0 112 0 0 112 0 0 112 0 0 112 0 0 112 0 0 112 0 0 112 0 0 112 0 0 132 0 0 132 0 0 132 0 0 132 0 0 132 0 0 132 0 0 132 0 0 132 0 0 132 0 0 132 0 0 120 0 0 120 0 0 120 0 0 120 0 0 120 0 0 120 0 0 120 0 0 120 0 0 120 0 0 120 0 0 123 0 0 123 0 0 123 0 0 123 0 0 123 0 0 123 0 0 123 0 0 123 0 0 123 0 0 123 0 0 144 0 0 144 0 0 144 0 0 144 0 0 144 0 0 144 0 0 144 0 0 144 0 0 144 0 0 144 0 0 112 0 0 112 0 0 112 0 0 112 0 0 112 0 0 112 0 0 112 0 0 112 0 0 112 0 0 112 0 0 109 0 0 109 0 0 109 0 0 109 0 0 109 0 0 109 0 0 109 0 0 109 0 0 109 0 0 109 0 0 134 0 0 134 0 0 134 0 0 134 0 0 134 0 0 134 0 0 134 0 0 134 0 0 134 0 0 134 0 0 134 0 0 134 0 0 134 0 0 134 0 0 134 0 0 134 0 0 134 0 0 134 0 0 134 0 0 134 0 0 116 0 0 116 0 0 116 0 0 116 0 0 116 0 0 116 0 0 116 0 0 116 0 0 116 0 0 116 0 0 118 0 0 118 0 0 118 0 0 118 0 0 118 0 0 118 0 0 118 0 0 118 0 0 118 0 0 118 0 0 168 0 0 168 0 0 168 0 0 168 0 0 168 0 0 168 0 0 168 0 0 168 0 0 168 0 0 168 0 0 179 0 0 179 0 0 179 0 0 179 0 0 179 0 0 179 0 0 179 0 0 179 0 0 179 0 0 179 0 0 133 0 0 133 0 0 133 0 0 133 0 0 133 0 0 133 0 0 133 0 0 133 0 0 133 0 0 133 0 0 132 0 0 132 0 0 132 0 0 132 0 0 132 0 0 132 0 0 132 0 0 132 0 0 132 0 0 132 0 0 120 0 0 120 0 0 120 0 0 120 0 0 120 0 0 120 0 0 120 0 0 120 0 0 120 0 0 120 0 0 148 0 0 148 0 0 148 0 0 148 0 0 148 0 0 148 0 0 148 0 0 148 0 0 148 0 0 148 0 0 130 0 0 130 0 0 130 0 0 130 0 0 130 0 0 130 0 0 130 0 0 130 0 0 130 0 0 130 0 0 136 0 0 136 0 0 136 0 0 136 0 0 136 0 0 136 0 0 136 0 0 136 0 0 136 0 0 136 0 0 133 0 0 133 0 0 133 0 0 133 0 0 133 0 0 133 0 0 133 0 0 133 0 0 133 0 0 133 0 0 146 0 0 146 0 0 146 0 0 146 0 0 146 0 0 146 0 0 146 0 0 146 0 0 146 0 0 146 0 0 141 0 0 141 0 0 141 0 0 141 0 0 141 0 0 141 0 0 141 0 0 141 0 0 141 0 0 141 0 0 121 0 0 121 0 0 121 0 0 121 0 0 121 0 0 121 0 0 121 0 0 121 0 0 121 0 0 121 0 0 127 0 0 127 0 0 127 0 0 127 0 0 127 0 0 127 0 0 127 0 0 127 0 0 127 0 0 127 0 0 127 0 0 127 0 0 127 0 0 127 0 0 127 0 0 127 0 0 127 0 0 127 0 0 127 0 0 127 0 0 0 0 0 0 0 0 0 0 0 0 0 0 0 0 0 0 0 0 0 0 0 0 0 0 0 0 0 0 0 0 255 178 0 255 178 0 255 178 0 255 178 0 255 178 0 255 178 0 255 178 0 255 178 0 255 178 0 255 178 0 255 178 0 255 178 0 255 178 0 255 178 0 255 178 0 255 178 0 255 178 0 255 178 0 255 178 0 255 178 0 255 178 0 255 178 0 255 178 0 255 178 0 255 178 0 255 178 0 255 178 0 255 178 0 255 178 0 255 178 0 
118 0 0 118 0 0 118 0 0 118 0 0 118 0 0 118 0 0 118 0 0 118 0 0 118 0 0 118 0 0 121 0 0 121 0 0 121 0 0 121 0 0 121 0 0 121 0 0 121 0 0 121 0 0 121 0 0 121 0 0 127 0 0 127 0 0 127 0 0 127 0 0 127 0 0 127 0 0 127 0 0 127 0 0 127 0 0 127 0 0 112 0 0 112 0 0 112 0 0 112 0 0 112 0 0 112 0 0 112 0 0 112 0 0 112 0 0 112 0 0 132 0 0 132 0 0 132 0 0 132 0 0 132 0 0 132 0 0 132 0 0 132 0 0 132 0 0 132 0 0 120 0 0 120 0 0 120 0 0 120 0 0 120 0 0 120 0 0 120 0 0 120 0 0 120 0 0 120 0 0 123 0 0 123 0 0 123 0 0 123 0 0 123 0 0 123 0 0 123 0 0 123 0 0 123 0 0 123 0 0 144 0 0 144 0 0 144 0 0 144 0 0 144 0 0 144 0 0 144 0 0 144 0 0 144 0 0 144 0 0 112 0 0 112 0 0 112 0 0 112 0 0 112 0 0 112 0 0 112 0 0 112 0 0 112 0 0 112 0 0 109 0 0 109 0 0 109 0 0 109 0 0 109 0 0 109 0 0 109 0 0 109 0 0 109 0 0 109 0 0 134 0 0 134 0 0 134 0 0 134 0 0 134 0 0 134 0 0 134 0 0 134 0 0 134 0 0 134 0 0 134 0 0 134 0 0 134 0 0 134 0 0 134 0 0 134 0 0 134 0 0 134 0 0 134 0 0 134 0 0 116 0 0 116 0 0 116 0 0 116 0 0 116 0 0 116 0 0 116 0 0 116 0 0 116 0 0 116 0 0 118 0 0 118 0 0 118 0 0 118 0 0 118 0 0 118 0 0 118 0 0 118 0 0 118 0 0 118 0 0 168 0 0 168 0 0 168 0 0 168 0 0 168 0 0 168 0 0 168 0 0 168 0 0 168 0 0 168 0 0 179 0 0 179 0 0 179 0 0 179 0 0 179 0 0 179 0 0 179 0 0 179 0 0 179 0 0 179 0 0 133 0 0 133 0 0 133 0 0 133 0 0 133 0 0 133 0 0 133 0 0 133 0 0 133 0 0 133 0 0 132 0 0 132 0 0 132 0 0 132 0 0 132 0 0 132 0 0 132 0 0 132 0 0 132 0 0 132 0 0 120 0 0 120 0 0 120 0 0 120 0 0 120 0 0 120 0 0 120 0 0 120 0 0 120 0 0 120 0 0 148 0 0 148 0 0 148 0 0 148 0 0 148 0 0 148 0 0 148 0 0 148 0 0 148 0 0 148 0 0 130 0 0 130 0 0 130 0 0 130 0 0 130 0 0 130 0 0 130 0 0 130 0 0 130 0 0 130 0 0 136 0 0 136 0 0 136 0 0 136 0 0 136 0 0 136 0 0 136 0 0 136 0 0 136 0 0 136 0 0 133 0 0 133 0 0 133 0 0 133 0 0 133 0 0 133 0 0 133 0 0 133 0 0 133 0 0 133 0 0 146 0 0 146 0 0 146 0 0 146 0 0 146 0 0 146 0 0 146 0 0 146 0 0 146 0 0 146 0 0 141 0 0 141 0 0 141 0 0 141 0 0 141 0 0 141 0 0 141 0 0 141 0 0 141 0 0 141 0 0 121 0 0 121 0 0 121 0 0 121 0 0 121 0 0 121 0 0 121 0 0 121 0 0 121 0 0 121 0 0 127 0 0 127 0 0 127 0 0 127 0 0 127 0 0 127 0 0 127 0 0 127 0 0 127 0 0 127 0 0 127 0 0 127 0 0 127 0 0 127 0 0 127 0 0 127 0 0 127 0 0 127 0 0 127 0 0 127 0 0 0 0 0 0 0 0 0 0 0 0 0 0 0 0 0 0 0 0 0 0 0 0 0 0 0 0 0 0 0 0 255 174 0 255 174 0 255 174 0 255 174 0 255 174 0 255 174 0 255 174 0 255 174 0 255 174 0 255 174 0 255 174 0 255 174 0 255 174 0 255 174 0 255 174 0 255 174 0 255 174 0 255 174 0 255 174 0 255 174 0 255 174 0 255 174 0 255 174 0 255 174 0 255 174 0 255 174 0 255 174 0 255 174 0 255 174 0 255 174 0 
118 0 0 118 0 0 118 0 0 118 0 0 118 0 0 118 0 0 118 0 0 118 0 0 118 0 0 118 0 0 121 0 0 121 0 0 121 0 0 121 0 0 121 0 0 121 0 0 121 0 0 121 0 0 121 0 0 121 0 0 127 0 0 127 0 0 127 0 0 127 0 0 127 0 0 127 0 0 127 0 0 127 0 0 127 0 0 127 0 0 112 0 0 112 0 0 112 0 0 112 0 0 112 0 0 112 0 0 112 0 0 112 0 0 112 0 0 112 0 0 132 0 0 132 0 0 132 0 0 132 0 0 132 0 0 132 0 0 132 0 0 132 0 0 132 0 0 132 0 0 120 0 0 120 0 0 120 0 0 120 0 0 120 0 0 120 0 0 120 0 0 120 0 0 120 0 0 120 0 0 123 0 0 123 0 0 123 0 0 123 0 0 123 0 0 123 0 0 123 0 0 123 0 0 123 0 0 123 0 0 144 0 0 144 0 0 144 0 0 144 0 0 144 0 0 144 0 0 144 0 0 144 0 0 144 0 0 144 0 0 112 0 0 112 0 0 112 0 0 112 0 0 112 0 0 112 0 0 112 0 0 112 0 0 112 0 0 112 0 0 109 0 0 109 0 0 109 0 0 109 0 0 109 0 0 109 0 0 109 0 0 109 0 0 109 0 0 109 0 0 134 0 0 134 0 0 134 0 0 134 0 0 134 0 0 134 0 0 134 0 0 134 0 0 134 0 0 134 0 0 134 0 0 134 0 0 134 0 0 134 0 0 134 0 0 134 0 0 134 0 0 134 0 0 134 0 0 134 0 0 116 0 0 116 0 0 116 0 0 116 0 0 116 0 0 116 0 0 116 0 0 116 0 0 116 0 0 116 0 0 118 0 0 118 0 0 118 0 0 118 0 0 118 0 0 118 0 0 118 0 0 118 0 0 118 0 0 118 0 0 168 0 0 168 0 0 168 0 0 168 0 0 168 0 0 168 0 0 168 0 0 168 0 0 168 0 0 168 0 0 179 0 0 179 0 0 179 0 0 179 0 0 179 0 0 179 0 0 179 0 0 179 0 0 179 0 0 179 0 0 133 0 0 133 0 0 133 0 0 133 0 0 133 0 0 133 0 0 133 0 0 133 0 0 133 0 0 133 0 0 132 0 0 132 0 0 132 0 0 132 0 0 132 0 0 132 0 0 132 0 0 132 0 0 132 0 0 132 0 0 120 0 0 120 0 0 120 0 0 120 0 0 120 0 0 120 0 0 120 0 0 120 0 0 120 0 0 120 0 0 148 0 0 148 0 0 148 0 0 148 0 0 148 0 0 148 0 0 148 0 0 148 0 0 148 0 0 148 0 0 130 0 0 130 0 0 130 0 0 130 0 0 130 0 0 130 0 0 130 0 0 130 0 0 130 0 0 130 0 0 136 0 0 136 0 0 136 0 0 136 0 0 136 0 0 136 0 0 136 0 0 136 0 0 136 0 0 136 0 0 133 0 0 133 0 0 133 0 0 133 0 0 133 0 0 133 0 0 133 0 0 133 0 0 133 0 0 133 0 0 146 0 0 146 0 0 146 0 0 146 0 0 146 0 0 146 0 0 146 0 0 146 0 0 146 0 0 146 0 0 141 0 0 141 0 0 141 0 0 141 0 0 141 0 0 141 0 0 141 0 0 141 0 0 141 0 0 141 0 0 121 0 0 121 0 0 121 0 0 121 0 0 121 0 0 121 0 0 121 0 0 121 0 0 121 0 0 121 0 0 127 0 0 127 0 0 127 0 0 127 0 0 127 0 0 127 0 0 127 0 0 127 0 0 127 0 0 127 0 0 127 0 0 127 0 0 127 0 0 127 0 0 127 0 0 127 0 0 127 0 0 127 0 0 127 0 0 127 0 0 0 0 0 0 0 0 0 0 0 0 0 0 0 0 0 0 0 0 0 0 0 0 0 0 0 0 0 0 0 0 255 170 0 255 170 0 255 170 0 255 170 0 255 170 0 255 170 0 255 170 0 255 170 0 255 170 0 255 170 0 255 170 0 255 170 0 255 170 0 255 170 0 255 170 0 255 170 0 255 170 0 255 170 0 255 170 0 255 170 0 255 170 0 255 170 0 255 170 0 255 170 0 255 170 0 255 170 0 255 170 0 255 170 0 255 170 0 255 170 0 
118 0 0 118 0 0 118 0 0 118 0 0 118 0 0 118 0 0 118 0 0 118 0 0 118 0 0 118 0 0 121 0 0 121 0 0 121 0 0 121 0 0 121 0 0 121 0 0 121 0 0 121 0 0 121 0 0 121 0 0 127 0 0 127 0 0 127 0 0 127 0 0 127 0 0 127 0 0 127 0 0 127 0 0 127 0 0 127 0 0 112 0 0 112 0 0 112 0 0 112 0 0 112 0 0 112 0 0 112 0 0 112 0 0 112 0 0 112 0 0 132 0 0 132 0 0 132 0 0 132 0 0 132 0 0 132 0 0 132 0 0 132 0 0 132 0 0 132 0 0 120 0 0 120 0 0 120 0 0 120 0 0 120 0 0 120 0 0 120 0 0 120 0 0 120 0 0 120 0 0 123 0 0 123 0 0 123 0 0 123 0 0 123 0 0 123 0 0 123 0 0 123 0 0 123 0 0 123 0 0 144 0 0 144 0 0 144 0 0 144 0 0 144 0 0 144 0 0 144 0 0 144 0 0 144 0 0 144 0 0 112 0 0 112 0 0 112 0 0 112 0 0 112 0 0 112 0 0 112 0 0 112 0 0 112 0 0 112 0 0 109 0 0 109 0 0 109 0 0 109 0 0 109 0 0 109 0 0 109 0 0 109 0 0 109 0 0 109 0 0 134 0 0 134 0 0 134 0 0 134 0 0 134 0 0 134 0 0 134 0 0 134 0 0 134 0 0 134 0 0 134 0 0 134 0 0 134 0 0 134 0 0 134 0 0 134 0 0 134 0 0 134 0 0 134 0 0 134 0 0 116 0 0 116 0 0 116 0 0 116 0 0 116 0 0 116 0 0 116 0 0 116 0 0 116 0 0 116 0 0 118 0 0 118 0 0 118 0 0 118 0 0 118 0 0 118 0 0 118 0 0 118 0 0 118 0 0 118 0 0 168 0 0 168 0 0 168 0 0 168 0 0 168 0 0 168 0 0 168 0 0 168 0 0 168 0 0 168 0 0 179 0 0 179 0 0 179 0 0 179 0 0 179 0 0 179 0 0 179 0 0 179 0 0 179 0 0 179 0 0 133 0 0 133 0 0 133 0 0 133 0 0 133 0 0 133 0 0 133 0 0 133 0 0 133 0 0 133 0 0 132 0 0 132 0 0 132 0 0 132 0 0 132 0 0 132 0 0 132 0 0 132 0 0 132 0 0 132 0 0 120 0 0 120 0 0 120 0 0 120 0 0 120 0 0 120 0 0 120 0 0 120 0 0 120 0 0 120 0 0 148 0 0 148 0 0 148 0 0 148 0 0 148 0 0 148 0 0 148 0 0 148 0 0 148 0 0 148 0 0 130 0 0 130 0 0 130 0 0 130 0 0 130 0 0 130 0 0 130 0 0 130 0 0 130 0 0 130 0 0 136 0 0 136 0 0 136 0 0 136 0 0 136 0 0 136 0 0 136 0 0 136 0 0 136 0 0 136 0 0 133 0 0 133 0 0 133 0 0 133 0 0 133 0 0 133 0 0 133 0 0 133 0 0 133 0 0 133 0 0 146 0 0 146 0 0 146 0 0 146 0 0 146 0 0 146 0 0 146 0 0 146 0 0 146 0 0 146 0 0 141 0 0 141 0 0 141 0 0 141 0 0 141 0 0 141 0 0 141 0 0 141 0 0 141 0 0 141 0 0 121 0 0 121 0 0 121 0 0 121 0 0 121 0 0 121 0 0 121 0 0 121 0 0 121 0 0 121 0 0 127 0 0 127 0 0 127 0 0 127 0 0 127 0 0 127 0 0 127 0 0 127 0 0 127 0 0 127 0 0 127 0 0 127 0 0 127 0 0 127 0 0 127 0 0 127 0 0 127 0 0 127 0 0 127 0 0 127 0 0 0 0 0 0 0 0 0 0 0 0 0 0 0 0 0 0 0 0 0 0 0 0 0 0 0 0 0 0 0 0 255 167 0 255 167 0 255 167 0 255 167 0 255 167 0 255 167 0 255 167 0 255 167 0 255 167 0 255 167 0 255 167 0 255 167 0 255 167 0 255 167 0 255 167 0 255 167 0 255 167 0 255 167 0 255 167 0 255 167 0 255 167 0 255 167 0 255 167 0 255 167 0 255 167 0 255 167 0 255 167 0 255 167 0 255 167 0 255 167 0 
118 0 0 118 0 0 118 0 0 118 0 0 118 0 0 118 0 0 118 0 0 118 0 0 118 0 0 118 0 0 121 0 0 121 0 0 121 0 0 121 0 0 121 0 0 121 0 0 121 0 0 121 0 0 121 0 0 121 0 0 127 0 0 127 0 0 127 0 0 127 0 0 127 0 0 127 0 0 127 0 0 127 0 0 127 0 0 127 0 0 112 0 0 112 0 0 112 0 0 112 0 0 112 0 0 112 0 0 112 0 0 112 0 0 112 0 0 112 0 0 132 0 0 132 0 0 132 0 0 132 0 0 132 0 0 132 0 0 132 0 0 132 0 0 132 0 0 132 0 0 120 0 0 120 0 0 120 0 0 120 0 0 120 0 0 120 0 0 120 0 0 120 0 0 120 0 0 120 0 0 123 0 0 123 0 0 123 0 0 123 0 0 123 0 0 123 0 0 123 0 0 123 0 0 123 0 0 123 0 0 144 0 0 144 0 0 144 0 0 144 0 0 144 0 0 144 0 0 144 0 0 144 0 0 144 0 0 144 0 0 112 0 0 112 0 0 112 0 0 112 0 0 112 0 0 112 0 0 112 0 0 112 0 0 112 0 0 112 0 0 109 0 0 109 0 0 109 0 0 109 0 0 109 0 0 109 0 0 109 0 0 109 0 0 109 0 0 109 0 0 134 0 0 134 0 0 134 0 0 134 0 0 134 0 0 134 0 0 134 0 0 134 0 0 134 0 0 134 0 0 134 0 0 134 0 0 134 0 0 134 0 0 134 0 0 134 0 0 134 0 0 134 0 0 134 0 0 134 0 0 116 0 0 116 0 0 116 0 0 116 0 0 116 0 0 116 0 0 116 0 0 116 0 0 116 0 0 116 0 0 118 0 0 118 0 0 118 0 0 118 0 0 118 0 0 118 0 0 118 0 0 118 0 0 118 0 0 118 0 0 168 0 0 168 0 0 168 0 0 168 0 0 168 0 0 168 0 0 168 0 0 168 0 0 168 0 0 168 0 0 179 0 0 179 0 0 179 0 0 179 0 0 179 0 0 179 0 0 179 0 0 179 0 0 179 0 0 179 0 0 133 0 0 133 0 0 133 0 0 133 0 0 133 0 0 133 0 0 133 0 0 133 0 0 133 0 0 133 0 0 132 0 0 132 0 0 132 0 0 132 0 0 132 0 0 132 0 0 132 0 0 132 0 0 132 0 0 132 0 0 120 0 0 120 0 0 120 0 0 120 0 0 120 0 0 120 0 0 120 0 0 120 0 0 120 0 0 120 0 0 148 0 0 148 0 0 148 0 0 148 0 0 148 0 0 148 0 0 148 0 0 148 0 0 148 0 0 148 0 0 130 0 0 130 0 0 130 0 0 130 0 0 130 0 0 130 0 0 130 0 0 130 0 0 130 0 0 130 0 0 136 0 0 136 0 0 136 0 0 136 0 0 136 0 0 136 0 0 136 0 0 136 0 0 136 0 0 136 0 0 133 0 0 133 0 0 133 0 0 133 0 0 133 0 0 133 0 0 133 0 0 133 0 0 133 0 0 133 0 0 146 0 0 146 0 0 146 0 0 146 0 0 146 0 0 146 0 0 146 0 0 146 0 0 146 0 0 146 0 0 141 0 0 141 0 0 141 0 0 141 0 0 141 0 0 141 0 0 141 0 0 141 0 0 141 0 0 141 0 0 121 0 0 121 0 0 121 0 0 121 0 0 121 0 0 121 0 0 121 0 0 121 0 0 121 0 0 121 0 0 127 0 0 127 0 0 127 0 0 127 0 0 127 0 0 127 0 0 127 0 0 127 0 0 127 0 0 127 0 0 127 0 0 127 0 0 127 0 0 127 0 0 127 0 0 127 0 0 127 0 0 127 0 0 127 0 0 127 0 0 0 0 0 0 0 0 0 0 0 0 0 0 0 0 0 0 0 0 0 0 0 0 0 0 0 0 0 0 0 0 255 163 0 255 163 0 255 163 0 255 163 0 255 163 0 255 163 0 255 163 0 255 163 0 255 163 0 255 163 0 255 163 0 255 163 0 255 163 0 255 163 0 255 163 0 255 163 0 255 163 0 255 163 0 255 163 0 255 163 0 255 163 0 255 163 0 255 163 0 255 163 0 255 163 0 255 163 0 255 163 0 255 163 0 255 163 0 255 163 0 
118 0 0 118 0 0 118 0 0 118 0 0 118 0 0 118 0 0 118 0 0 118 0 0 118 0 0 118 0 0 121 0 0 121 0 0 121 0 0 121 0 0 121 0 0 121 0 0 121 0 0 121 0 0 121 0 0 121 0 0 127 0 0 127 0 0 127 0 0 127 0 0 127 0 0 127 0 0 127 0 0 127 0 0 127 0 0 127 0 0 112 0 0 112 0 0 112 0 0 112 0 0 112 0 0 112 0 0 112 0 0 112 0 0 112 0 0 112 0 0 132 0 0 132 0 0 132 0 0 132 0 0 132 0 0 132 0 0 132 0 0 132 0 0 132 0 0 132 0 0 120 0 0 120 0 0 120 0 0 120 0 0 120 0 0 120 0 0 120 0 0 120 0 0 120 0 0 120 0 0 123 0 0 123 0 0 123 0 0 123 0 0 123 0 0 123 0 0 123 0 0 123 0 0 123 0 0 123 0 0 144 0 0 144 0 0 144 0 0 144 0 0 144 0 0 144 0 0 144 0 0 144 0 0 144 0 0 144 0 0 112 0 0 112 0 0 112 0 0 112 0 0 112 0 0 112 0 0 112 0 0 112 0 0 112 0 0 112 0 0 109 0 0 109 0 0 109 0 0 109 0 0 109 0 0 109 0 0 109 0 0 109 0 0 109 0 0 109 0 0 134 0 0 134 0 0 134 0 0 134 0 0 134 0 0 134 0 0 134 0 0 134 0 0 134 0 0 134 0 0 134 0 0 134 0 0 134 0 0 134 0 0 134 0 0 134 0 0 134 0 0 134 0 0 134 0 0 134 0 0 116 0 0 116 0 0 116 0 0 116 0 0 116 0 0 116 0 0 116 0 0 116 0 0 116 0 0 116 0 0 118 0 0 118 0 0 118 0 0 118 0 0 118 0 0 118 0 0 118 0 0 118 0 0 118 0 0 118 0 0 168 0 0 168 0 0 168 0 0 168 0 0 168 0 0 168 0 0 168 0 0 168 0 0 168 0 0 168 0 0 179 0 0 179 0 0 179 0 0 179 0 0 179 0 0 179 0 0 179 0 0 179 0 0 179 0 0 179 0 0 133 0 0 133 0 0 133 0 0 133 0 0 133 0 0 133 0 0 133 0 0 133 0 0 133 0 0 133 0 0 132 0 0 132 0 0 132 0 0 132 0 0 132 0 0 132 0 0 132 0 0 132 0 0 132 0 0 132 0 0 120 0 0 120 0 0 120 0 0 120 0 0 120 0 0 120 0 0 120 0 0 120 0 0 120 0 0 120 0 0 148 0 0 148 0 0 148 0 0 148 0 0 148 0 0 148 0 0 148 0 0 148 0 0 148 0 0 148 0 0 130 0 0 130 0 0 130 0 0 130 0 0 130 0 0 130 0 0 130 0 0 130 0 0 130 0 0 130 0 0 136 0 0 136 0 0 136 0 0 136 0 0 136 0 0 136 0 0 136 0 0 136 0 0 136 0 0 136 0 0 133 0 0 133 0 0 133 0 0 133 0 0 133 0 0 133 0 0 133 0 0 133 0 0 133 0 0 133 0 0 146 0 0 146 0 0 146 0 0 146 0 0 146 0 0 146 0 0 146 0 0 146 0 0 146 0 0 146 0 0 141 0 0 141 0 0 141 0 0 141 0 0 141 0 0 141 0 0 141 0 0 141 0 0 141 0 0 141 0 0 121 0 0 121 0 0 121 0 0 121 0 0 121 0 0 121 0 0 121 0 0 121 0 0 121 0 0 121 0 0 127 0 0 127 0 0 127 0 0 127 0 0 127 0 0 127 0 0 127 0 0 127 0 0 127 0 0 127 0 0 127 0 0 127 0 0 127 0 0 127 0 0 127 0 0 127 0 0 127 0 0 127 0 0 127 0 0 127 0 0 0 0 0 0 0 0 0 0 0 0 0 0 0 0 0 0 0 0 0 0 0 0 0 0 0 0 0 0 0 0 255 159 0 255 159 0 255 159 0 255 159 0 255 159 0 255 159 0 255 159 0 255 159 0 255 159 0 255 159 0 255 159 0 255 159 0 255 159 0 255 159 0 255 159 0 255 159 0 255 159 0 255 159 0 255 159 0 255 159 0 255 159 0 255 159 0 255 159 0 255 159 0 255 159 0 255 159 0 255 159 0 255 159 0 255 159 0 255 159 0 
118 0 0 118 0 0 118 0 0 118 0 0 118 0 0 118 0 0 118 0 0 118 0 0 118 0 0 118 0 0 121 0 0 121 0 0 121 0 0 121 0 0 121 0 0 121 0 0 121 0 0 121 0 0 121 0 0 121 0 0 127 0 0 127 0 0 127 0 0 127 0 0 127 0 0 127 0 0 127 0 0 127 0 0 127 0 0 127 0 0 112 0 0 112 0 0 112 0 0 112 0 0 112 0 0 112 0 0 112 0 0 112 0 0 112 0 0 112 0 0 132 0 0 132 0 0 132 0 0 132 0 0 132 0 0 132 0 0 132 0 0 132 0 0 132 0 0 132 0 0 120 0 0 120 0 0 120 0 0 120 0 0 120 0 0 120 0 0 120 0 0 120 0 0 120 0 0 120 0 0 123 0 0 123 0 0 123 0 0 123 0 0 123 0 0 123 0 0 123 0 0 123 0 0 123 0 0 123 0 0 144 0 0 144 0 0 144 0 0 144 0 0 144 0 0 144 0 0 144 0 0 144 0 0 144 0 0 144 0 0 112 0 0 112 0 0 112 0 0 112 0 0 112 0 0 112 0 0 112 0 0 112 0 0 112 0 0 112 0 0 109 0 0 109 0 0 109 0 0 109 0 0 109 0 0 109 0 0 109 0 0 109 0 0 109 0 0 109 0 0 134 0 0 134 0 0 134 0 0 134 0 0 134 0 0 134 0 0 134 0 0 134 0 0 134 0 0 134 0 0 134 0 0 134 0 0 134 0 0 134 0 0 134 0 0 134 0 0 134 0 0 134 0 0 134 0 0 134 0 0 116 0 0 116 0 0 116 0 0 116 0 0 116 0 0 116 0 0 116 0 0 116 0 0 116 0 0 116 0 0 118 0 0 118 0 0 118 0 0 118 0 0 118 0 0 118 0 0 118 0 0 118 0 0 118 0 0 118 0 0 168 0 0 168 0 0 168 0 0 168 0 0 168 0 0 168 0 0 168 0 0 168 0 0 168 0 0 168 0 0 179 0 0 179 0 0 179 0 0 179 0 0 179 0 0 179 0 0 179 0 0 179 0 0 179 0 0 179 0 0 133 0 0 133 0 0 133 0 0 133 0 0 133 0 0 133 0 0 133 0 0 133 0 0 133 0 0 133 0 0 132 0 0 132 0 0 132 0 0 132 0 0 132 0 0 132 0 0 132 0 0 132 0 0 132 0 0 132 0 0 120 0 0 120 0 0 120 0 0 120 0 0 120 0 0 120 0 0 120 0 0 120 0 0 120 0 0 120 0 0 148 0 0 148 0 0 148 0 0 148 0 0 148 0 0 148 0 0 148 0 0 148 0 0 148 0 0 148 0 0 130 0 0 130 0 0 130 0 0 130 0 0 130 0 0 130 0 0 130 0 0 130 0 0 130 0 0 130 0 0 136 0 0 136 0 0 136 0 0 136 0 0 136 0 0 136 0 0 136 0 0 136 0 0 136 0 0 136 0 0 133 0 0 133 0 0 133 0 0 133 0 0 133 0 0 133 0 0 133 0 0 133 0 0 133 0 0 133 0 0 146 0 0 146 0 0 146 0 0 146 0 0 146 0 0 146 0 0 146 0 0 146 0 0 146 0 0 146 0 0 141 0 0 141 0 0 141 0 0 141 0 0 141 0 0 141 0 0 141 0 0 141 0 0 141 0 0 141 0 0 121 0 0 121 0 0 121 0 0 121 0 0 121 0 0 121 0 0 121 0 0 121 0 0 121 0 0 121 0 0 127 0 0 127 0 0 127 0 0 127 0 0 127 0 0 127 0 0 127 0 0 127 0 0 127 0 0 127 0 0 127 0 0 127 0 0 127 0 0 127 0 0 127 0 0 127 0 0 127 0 0 127 0 0 127 0 0 127 0 0 0 0 0 0 0 0 0 0 0 0 0 0 0 0 0 0 0 0 0 0 0 0 0 0 0 0 0 0 0 0 255 156 0 255 156 0 255 156 0 255 156 0 255 156 0 255 156 0 255 156 0 255 156 0 255 156 0 255 156 0 255 156 0 255 156 0 255 156 0 255 156 0 255 156 0 255 156 0 255 156 0 255 156 0 255 156 0 255 156 0 255 156 0 255 156 0 255 156 0 255 156 0 255 156 0 255 156 0 255 156 0 255 156 0 255 156 0 255 156 0 
118 0 0 118 0 0 118 0 0 118 0 0 118 0 0 118 0 0 118 0 0 118 0 0 118 0 0 118 0 0 121 0 0 121 0 0 121 0 0 121 0 0 121 0 0 121 0 0 121 0 0 121 0 0 121 0 0 121 0 0 127 0 0 127 0 0 127 0 0 127 0 0 127 0 0 127 0 0 127 0 0 127 0 0 127 0 0 127 0 0 112 0 0 112 0 0 112 0 0 112 0 0 112 0 0 112 0 0 112 0 0 112 0 0 112 0 0 112 0 0 132 0 0 132 0 0 132 0 0 132 0 0 132 0 0 132 0 0 132 0 0 132 0 0 132 0 0 132 0 0 120 0 0 120 0 0 120 0 0 120 0 0 120 0 0 120 0 0 120 0 0 120 0 0 120 0 0 120 0 0 123 0 0 123 0 0 123 0 0 123 0 0 123 0 0 123 0 0 123 0 0 123 0 0 123 0 0 123 0 0 144 0 0 144 0 0 144 0 0 144 0 0 144 0 0 144 0 0 144 0 0 144 0 0 144 0 0 144 0 0 112 0 0 112 0 0 112 0 0 112 0 0 112 0 0 112 0 0 112 0 0 112 0 0 112 0 0 112 0 0 109 0 0 109 0 0 109 0 0 109 0 0 109 0 0 109 0 0 109 0 0 109 0 0 109 0 0 109 0 0 134 0 0 134 0 0 134 0 0 134 0 0 134 0 0 134 0 0 134 0 0 134 0 0 134 0 0 134 0 0 134 0 0 134 0 0 134 0 0 134 0 0 134 0 0 134 0 0 134 0 0 134 0 0 134 0 0 134 0 0 116 0 0 116 0 0 116 0 0 116 0 0 116 0 0 116 0 0 116 0 0 116 0 0 116 0 0 116 0 0 118 0 0 118 0 0 118 0 0 118 0 0 118 0 0 118 0 0 118 0 0 118 0 0 118 0 0 118 0 0 168 0 0 168 0 0 168 0 0 168 0 0 168 0 0 168 0 0 168 0 0 168 0 0 168 0 0 168 0 0 179 0 0 179 0 0 179 0 0 179 0 0 179 0 0 179 0 0 179 0 0 179 0 0 179 0 0 179 0 0 133 0 0 133 0 0 133 0 0 133 0 0 133 0 0 133 0 0 133 0 0 133 0 0 133 0 0 133 0 0 132 0 0 132 0 0 132 0 0 132 0 0 132 0 0 132 0 0 132 0 0 132 0 0 132 0 0 132 0 0 120 0 0 120 0 0 120 0 0 120 0 0 120 0 0 120 0 0 120 0 0 120 0 0 120 0 0 120 0 0 148 0 0 148 0 0 148 0 0 148 0 0 148 0 0 148 0 0 148 0 0 148 0 0 148 0 0 148 0 0 130 0 0 130 0 0 130 0 0 130 0 0 130 0 0 130 0 0 130 0 0 130 0 0 130 0 0 130 0 0 136 0 0 136 0 0 136 0 0 136 0 0 136 0 0 136 0 0 136 0 0 136 0 0 136 0 0 136 0 0 133 0 0 133 0 0 133 0 0 133 0 0 133 0 0 133 0 0 133 0 0 133 0 0 133 0 0 133 0 0 146 0 0 146 0 0 146 0 0 146 0 0 146 0 0 146 0 0 146 0 0 146 0 0 146 0 0 146 0 0 141 0 0 141 0 0 141 0 0 141 0 0 141 0 0 141 0 0 141 0 0 141 0 0 141 0 0 141 0 0 121 0 0 121 0 0 121 0 0 121 0 0 121 0 0 121 0 0 121 0 0 121 0 0 121 0 0 121 0 0 127 0 0 127 0 0 127 0 0 127 0 0 127 0 0 127 0 0 127 0 0 127 0 0 127 0 0 127 0 0 127 0 0 127 0 0 127 0 0 127 0 0 127 0 0 127 0 0 127 0 0 127 0 0 127 0 0 127 0 0 0 0 0 0 0 0 0 0 0 0 0 0 0 0 0 0 0 0 0 0 0 0 0 0 0 0 0 0 0 0 255 152 0 255 152 0 255 152 0 255 152 0 255 152 0 255 152 0 255 152 0 255 152 0 255 152 0 255 152 0 255 152 0 255 152 0 255 152 0 255 152 0 255 152 0 255 152 0 255 152 0 255 152 0 255 152 0 255 152 0 255 152 0 255 152 0 255 152 0 255 152 0 255 152 0 255 152 0 255 152 0 255 152 0 255 152 0 255 152 0 
118 0 0 118 0 0 118 0 0 118 0 0 118 0 0 118 0 0 118 0 0 118 0 0 118 0 0 118 0 0 121 0 0 121 0 0 121 0 0 121 0 0 121 0 0 121 0 0 121 0 0 121 0 0 121 0 0 121 0 0 127 0 0 127 0 0 127 0 0 127 0 0 127 0 0 127 0 0 127 0 0 127 0 0 127 0 0 127 0 0 112 0 0 112 0 0 112 0 0 112 0 0 112 0 0 112 0 0 112 0 0 112 0 0 112 0 0 112 0 0 132 0 0 132 0 0 132 0 0 132 0 0 132 0 0 132 0 0 132 0 0 132 0 0 132 0 0 132 0 0 120 0 0 120 0 0 120 0 0 120 0 0 120 0 0 120 0 0 120 0 0 120 0 0 120 0 0 120 0 0 123 0 0 123 0 0 123 0 0 123 0 0 123 0 0 123 0 0 123 0 0 123 0 0 123 0 0 123 0 0 144 0 0 144 0 0 144 0 0 144 0 0 144 0 0 144 0 0 144 0 0 144 0 0 144 0 0 144 0 0 112 0 0 112 0 0 112 0 0 112 0 0 112 0 0 112 0 0 112 0 0 112 0 0 112 0 0 112 0 0 109 0 0 109 0 0 109 0 0 109 0 0 109 0 0 109 0 0 109 0 0 109 0 0 109 0 0 109 0 0 134 0 0 134 0 0 134 0 0 134 0 0 134 0 0 134 0 0 134 0 0 134 0 0 134 0 0 134 0 0 134 0 0 134 0 0 134 0 0 134 0 0 134 0 0 134 0 0 134 0 0 134 0 0 134 0 0 134 0 0 116 0 0 116 0 0 116 0 0 116 0 0 116 0 0 116 0 0 116 0 0 116 0 0 116 0 0 116 0 0 118 0 0 118 0 0 118 0 0 118 0 0 118 0 0 118 0 0 118 0 0 118 0 0 118 0 0 118 0 0 168 0 0 168 0 0 168 0 0 168 0 0 168 0 0 168 0 0 168 0 0 168 0 0 168 0 0 168 0 0 179 0 0 179 0 0 179 0 0 179 0 0 179 0 0 179 0 0 179 0 0 179 0 0 179 0 0 179 0 0 133 0 0 133 0 0 133 0 0 133 0 0 133 0 0 133 0 0 133 0 0 133 0 0 133 0 0 133 0 0 132 0 0 132 0 0 132 0 0 132 0 0 132 0 0 132 0 0 132 0 0 132 0 0 132 0 0 132 0 0 120 0 0 120 0 0 120 0 0 120 0 0 120 0 0 120 0 0 120 0 0 120 0 0 120 0 0 120 0 0 148 0 0 148 0 0 148 0 0 148 0 0 148 0 0 148 0 0 148 0 0 148 0 0 148 0 0 148 0 0 130 0 0 130 0 0 130 0 0 130 0 0 130 0 0 130 0 0 130 0 0 130 0 0 130 0 0 130 0 0 136 0 0 136 0 0 136 0 0 136 0 0 136 0 0 136 0 0 136 0 0 136 0 0 136 0 0 136 0 0 133 0 0 133 0 0 133 0 0 133 0 0 133 0 0 133 0 0 133 0 0 133 0 0 133 0 0 133 0 0 146 0 0 146 0 0 146 0 0 146 0 0 146 0 0 146 0 0 146 0 0 146 0 0 146 0 0 146 0 0 141 0 0 141 0 0 141 0 0 141 0 0 141 0 0 141 0 0 141 0 0 141 0 0 141 0 0 141 0 0 121 0 0 121 0 0 121 0 0 121 0 0 121 0 0 121 0 0 121 0 0 121 0 0 121 0 0 121 0 0 127 0 0 127 0 0 127 0 0 127 0 0 127 0 0 127 0 0 127 0 0 127 0 0 127 0 0 127 0 0 127 0 0 127 0 0 127 0 0 127 0 0 127 0 0 127 0 0 127 0 0 127 0 0 127 0 0 127 0 0 0 0 0 0 0 0 0 0 0 0 0 0 0 0 0 0 0 0 0 0 0 0 0 0 0 0 0 0 0 0 255 148 0 255 148 0 255 148 0 255 148 0 255 148 0 255 148 0 255 148 0 255 148 0 255 148 0 255 148 0 255 148 0 255 148 0 255 148 0 255 148 0 255 148 0 255 148 0 255 148 0 255 148 0 255 148 0 255 148 0 255 148 0 255 148 0 255 148 0 255 148 0 255 148 0 255 148 0 255 148 0 255 148 0 255 148 0 255 148 0 
151 0 0 151 0 0 151 0 0 151 0 0 151 0 0 151 0 0 151 0 0 151 0 0 151 0 0 151 0 0 128 0 0 128 0 0 128 0 0 128 0 0 128 0 0 128 0 0 128 0 0 128 0 0 128 0 0 128 0 0 138 0 0 138 0 0 138 0 0 138 0 0 138 0 0 138 0 0 138 0 0 138 0 0 138 0 0 138 0 0 141 0 0 141 0 0 141 0 0 141 0 0 141 0 0 141 0 0 141 0 0 141 0 0 141 0 0 141 0 0 123 0 0 123 0 0 123 0 0 123 0 0 123 0 0 123 0 0 123 0 0 123 0 0 123 0 0 123 0 0 140 0 0 140 0 0 140 0 0 140 0 0 140 0 0 140 0 0 140 0 0 140 0 0 140 0 0 140 0 0 136 0 0 136 0 0 136 0 0 136 0 0 136 0 0 136 0 0 136 0 0 136 0 0 136 0 0 136 0 0 120 0 0 120 0 0 120 0 0 120 0 0 120 0 0 120 0 0 120 0 0 120 0 0 120 0 0 120 0 0 111 0 0 111 0 0 111 0 0 111 0 0 111 0 0 111 0 0 111 0 0 111 0 0 111 0 0 111 0 0 97 0 0 97 0 0 97 0 0 97 0 0 97 0 0 97 0 0 97 0 0 97 0 0 97 0 0 97 0 0 122 0 0 122 0 0 122 0 0 122 0 0 122 0 0 122 0 0 122 0 0 122 0 0 122 0 0 122 0 0 79 0 0 79 0 0 79 0 0 79 0 0 79 0 0 79 0 0 79 0 0 79 0 0 79 0 0 79 0 0 125 0 0 125 0 0 125 0 0 125 0 0 125 0 0 125 0 0 125 0 0 125 0 0 125 0 0 125 0 0 111 0 0 111 0 0 111 0 0 111 0 0 111 0 0 111 0 0 111 0 0 111 0 0 111 0 0 111 0 0 144 0 0 144 0 0 144 0 0 144 0 0 144 0 0 144 0 0 144 0 0 144 0 0 144 0 0 144 0 0 159 0 0 159 0 0 159 0 0 159 0 0 159 0 0 159 0 0 159 0 0 159 0 0 159 0 0 159 0 0 138 0 0 138 0 0 138 0 0 138 0 0 138 0 0 138 0 0 138 0 0 138 0 0 138 0 0 138 0 0 122 0 0 122 0 0 122 0 0 122 0 0 122 0 0 122 0 0 122 0 0 122 0 0 122 0 0 122 0 0 119 0 0 119 0 0 119 0 0 119 0 0 119 0 0 119 0 0 119 0 0 119 0 0 119 0 0 119 0 0 98 0 0 98 0 0 98 0 0 98 0 0 98 0 0 98 0 0 98 0 0 98 0 0 98 0 0 98 0 0 114 0 0 114 0 0 114 0 0 114 0 0 114 0 0 114 0 0 114 0 0 114 0 0 114 0 0 114 0 0 128 0 0 128 0 0 128 0 0 128 0 0 128 0 0 128 0 0 128 0 0 128 0 0 128 0 0 128 0 0 107 0 0 107 0 0 107 0 0 107 0 0 107 0 0 107 0 0 107 0 0 107 0 0 107 0 0 107 0 0 117 0 0 117 0 0 117 0 0 117 0 0 117 0 0 117 0 0 117 0 0 117 0 0 117 0 0 117 0 0 122 0 0 122 0 0 122 0 0 122 0 0 122 0 0 122 0 0 122 0 0 122 0 0 122 0 0 122 0 0 116 0 0 116 0 0 116 0 0 116 0 0 116 0 0 116 0 0 116 0 0 116 0 0 116 0 0 116 0 0 123 0 0 123 0 0 123 0 0 123 0 0 123 0 0 123 0 0 123 0 0 123 0 0 123 0 0 123 0 0 142 0 0 142 0 0 142 0 0 142 0 0 142 0 0 142 0 0 142 0 0 142 0 0 142 0 0 142 0 0 0 0 0 0 0 0 0 0 0 0 0 0 0 0 0 0 0 0 0 0 0 0 0 0 0 0 0 0 0 0 255 145 0 255 145 0 255 145 0 255 145 0 255 145 0 255 145 0 255 145 0 255 145 0 255 145 0 255 145 0 255 145 0 255 145 0 255 145 0 255 145 0 255 145 0 255 145 0 255 145 0 255 145 0 255 145 0 255 145 0 255 145 0 255 145 0 255 145 0 255 145 0 255 145 0 255 145 0 255 145 0 255 145 0 255 145 0 255 145 0 
151 0 0 151 0 0 151 0 0 151 0 0 151 0 0 151 0 0 151 0 0 151 0 0 151 0 0 151 0 0 128 0 0 128 0 0 128 0 0 128 0 0 128 0 0 128 0 0 128 0 0 128 0 0 128 0 0 128 0 0 138 0 0 138 0 0 138 0 0 138 0 0 138 0 0 138 0 0 138 0 0 138 0 0 138 0 0 138 0 0 141 0 0 141 0 0 141 0 0 141 0 0 141 0 0 141 0 0 141 0 0 141 0 0 141 0 0 141 0 0 123 0 0 123 0 0 123 0 0 123 0 0 123 0 0 123 0 0 123 0 0 123 0 0 123 0 0 123 0 0 140 0 0 140 0 0 140 0 0 140 0 0 140 0 0 140 0 0 140 0 0 140 0 0 140 0 0 140 0 0 136 0 0 136 0 0 136 0 0 136 0 0 136 0 0 136 0 0 136 0 0 136 0 0 136 0 0 136 0 0 120 0 0 120 0 0 120 0 0 120 0 0 120 0 0 120 0 0 120 0 0 120 0 0 120 0 0 120 0 0 111 0 0 111 0 0 111 0 0 111 0 0 111 0 0 111 0 0 111 0 0 111 0 0 111 0 0 111 0 0 97 0 0 97 0 0 97 0 0 97 0 0 97 0 0 97 0 0 97 0 0 97 0 0 97 0 0 97 0 0 122 0 0 122 0 0 122 0 0 122 0 0 122 0 0 122 0 0 122 0 0 122 0 0 122 0 0 122 0 0 79 0 0 79 0 0 79 0 0 79 0 0 79 0 0 79 0 0 79 0 0 79 0 0 79 0 0 79 0 0 125 0 0 125 0 0 125 0 0 125 0 0 125 0 0 125 0 0 125 0 0 125 0 0 125 0 0 125 0 0 111 0 0 111 0 0 111 0 0 111 0 0 111 0 0 111 0 0 111 0 0 111 0 0 111 0 0 111 0 0 144 0 0 144 0 0 144 0 0 144 0 0 144 0 0 144 0 0 144 0 0 144 0 0 144 0 0 144 0 0 159 0 0 159 0 0 159 0 0 159 0 0 159 0 0 159 0 0 159 0 0 159 0 0 159 0 0 159 0 0 138 0 0 138 0 0 138 0 0 138 0 0 138 0 0 138 0 0 138 0 0 138 0 0 138 0 0 138 0 0 122 0 0 122 0 0 122 0 0 122 0 0 122 0 0 122 0 0 122 0 0 122 0 0 122 0 0 122 0 0 119 0 0 119 0 0 119 0 0 119 0 0 119 0 0 119 0 0 119 0 0 119 0 0 119 0 0 119 0 0 98 0 0 98 0 0 98 0 0 98 0 0 98 0 0 98 0 0 98 0 0 98 0 0 98 0 0 98 0 0 114 0 0 114 0 0 114 0 0 114 0 0 114 0 0 114 0 0 114 0 0 114 0 0 114 0 0 114 0 0 128 0 0 128 0 0 128 0 0 128 0 0 128 0 0 128 0 0 128 0 0 128 0 0 128 0 0 128 0 0 107 0 0 107 0 0 107 0 0 107 0 0 107 0 0 107 0 0 107 0 0 107 0 0 107 0 0 107 0 0 117 0 0 117 0 0 117 0 0 117 0 0 117 0 0 117 0 0 117 0 0 117 0 0 117 0 0 117 0 0 122 0 0 122 0 0 122 0 0 122 0 0 122 0 0 122 0 0 122 0 0 122 0 0 122 0 0 122 0 0 116 0 0 116 0 0 116 0 0 116 0 0 116 0 0 116 0 0 116 0 0 116 0 0 116 0 0 116 0 0 123 0 0 123 0 0 123 0 0 123 0 0 123 0 0 123 0 0 123 0 0 123 0 0 123 0 0 123 0 0 142 0 0 142 0 0 142 0 0 142 0 0 142 0 0 142 0 0 142 0 0 142 0 0 142 0 0 142 0 0 0 0 0 0 0 0 0 0 0 0 0 0 0 0 0 0 0 0 0 0 0 0 0 0 0 0 0 0 0 0 255 141 0 255 141 0 255 141 0 255 141 0 255 141 0 255 141 0 255 141 0 255 141 0 255 141 0 255 141 0 255 141 0 255 141 0 255 141 0 255 141 0 255 141 0 255 141 0 255 141 0 255 141 0 255 141 0 255 141 0 255 141 0 255 141 0 255 141 0 255 141 0 255 141 0 255 141 0 255 141 0 255 141 0 255 141 0 255 141 0 
151 0 0 151 0 0 151 0 0 151 0 0 151 0 0 151 0 0 151 0 0 151 0 0 151 0 0 151 0 0 128 0 0 128 0 0 128 0 0 128 0 0 128 0 0 128 0 0 128 0 0 128 0 0 128 0 0 128 0 0 138 0 0 138 0 0 138 0 0 138 0 0 138 0 0 138 0 0 138 0 0 138 0 0 138 0 0 138 0 0 141 0 0 141 0 0 141 0 0 141 0 0 141 0 0 141 0 0 141 0 0 141 0 0 141 0 0 141 0 0 123 0 0 123 0 0 123 0 0 123 0 0 123 0 0 123 0 0 123 0 0 123 0 0 123 0 0 123 0 0 140 0 0 140 0 0 140 0 0 140 0 0 140 0 0 140 0 0 140 0 0 140 0 0 140 0 0 140 0 0 136 0 0 136 0 0 136 0 0 136 0 0 136 0 0 136 0 0 136 0 0 136 0 0 136 0 0 136 0 0 120 0 0 120 0 0 120 0 0 120 0 0 120 0 0 120 0 0 120 0 0 120 0 0 120 0 0 120 0 0 111 0 0 111 0 0 111 0 0 111 0 0 111 0 0 111 0 0 111 0 0 111 0 0 111 0 0 111 0 0 97 0 0 97 0 0 97 0 0 97 0 0 97 0 0 97 0 0 97 0 0 97 0 0 97 0 0 97 0 0 122 0 0 122 0 0 122 0 0 122 0 0 122 0 0 122 0 0 122 0 0 122 0 0 122 0 0 122 0 0 79 0 0 79 0 0 79 0 0 79 0 0 79 0 0 79 0 0 79 0 0 79 0 0 79 0 0 79 0 0 125 0 0 125 0 0 125 0 0 125 0 0 125 0 0 125 0 0 125 0 0 125 0 0 125 0 0 125 0 0 111 0 0 111 0 0 111 0 0 111 0 0 111 0 0 111 0 0 111 0 0 111 0 0 111 0 0 111 0 0 144 0 0 144 0 0 144 0 0 144 0 0 144 0 0 144 0 0 144 0 0 144 0 0 144 0 0 144 0 0 159 0 0 159 0 0 159 0 0 159 0 0 159 0 0 159 0 0 159 0 0 159 0 0 159 0 0 159 0 0 138 0 0 138 0 0 138 0 0 138 0 0 138 0 0 138 0 0 138 0 0 138 0 0 138 0 0 138 0 0 122 0 0 122 0 0 122 0 0 122 0 0 122 0 0 122 0 0 122 0 0 122 0 0 122 0 0 122 0 0 119 0 0 119 0 0 119 0 0 119 0 0 119 0 0 119 0 0 119 0 0 119 0 0 119 0 0 119 0 0 98 0 0 98 0 0 98 0 0 98 0 0 98 0 0 98 0 0 98 0 0 98 0 0 98 0 0 98 0 0 114 0 0 114 0 0 114 0 0 114 0 0 114 0 0 114 0 0 114 0 0 114 0 0 114 0 0 114 0 0 128 0 0 128 0 0 128 0 0 128 0 0 128 0 0 128 0 0 128 0 0 128 0 0 128 0 0 128 0 0 107 0 0 107 0 0 107 0 0 107 0 0 107 0 0 107 0 0 107 0 0 107 0 0 107 0 0 107 0 0 117 0 0 117 0 0 117 0 0 117 0 0 117 0 0 117 0 0 117 0 0 117 0 0 117 0 0 117 0 0 122 0 0 122 0 0 122 0 0 122 0 0 122 0 0 122 0 0 122 0 0 122 0 0 122 0 0 122 0 0 116 0 0 116 0 0 116 0 0 116 0 0 116 0 0 116 0 0 116 0 0 116 0 0 116 0 0 116 0 0 123 0 0 123 0 0 123 0 0 123 0 0 123 0 0 123 0 0 123 0 0 123 0 0 123 0 0 123 0 0 142 0 0 142 0 0 142 0 0 142 0 0 142 0 0 142 0 0 142 0 0 142 0 0 142 0 0 142 0 0 0 0 0 0 0 0 0 0 0 0 0 0 0 0 0 0 0 0 0 0 0 0 0 0 0 0 0 0 0 0 255 138 0 255 138 0 255 138 0 255 138 0 255 138 0 255 138 0 255 138 0 255 138 0 255 138 0 255 138 0 255 138 0 255 138 0 255 138 0 255 138 0 255 138 0 255 138 0 255 138 0 255 138 0 255 138 0 255 138 0 255 138 0 255 138 0 255 138 0 255 138 0 255 138 0 255 138 0 255 138 0 255 138 0 255 138 0 255 138 0 
151 0 0 151 0 0 151 0 0 151 0 0 151 0 0 151 0 0 151 0 0 151 0 0 151 0 0 151 0 0 128 0 0 128 0 0 128 0 0 128 0 0 128 0 0 128 0 0 128 0 0 128 0 0 128 0 0 128 0 0 138 0 0 138 0 0 138 0 0 138 0 0 138 0 0 138 0 0 138 0 0 138 0 0 138 0 0 138 0 0 141 0 0 141 0 0 141 0 0 141 0 0 141 0 0 141 0 0 141 0 0 141 0 0 141 0 0 141 0 0 123 0 0 123 0 0 123 0 0 123 0 0 123 0 0 123 0 0 123 0 0 123 0 0 123 0 0 123 0 0 140 0 0 140 0 0 140 0 0 140 0 0 140 0 0 140 0 0 140 0 0 140 0 0 140 0 0 140 0 0 136 0 0 136 0 0 136 0 0 136 0 0 136 0 0 136 0 0 136 0 0 136 0 0 136 0 0 136 0 0 120 0 0 120 0 0 120 0 0 120 0 0 120 0 0 120 0 0 120 0 0 120 0 0 120 0 0 120 0 0 111 0 0 111 0 0 111 0 0 111 0 0 111 0 0 111 0 0 111 0 0 111 0 0 111 0 0 111 0 0 97 0 0 97 0 0 97 0 0 97 0 0 97 0 0 97 0 0 97 0 0 97 0 0 97 0 0 97 0 0 122 0 0 122 0 0 122 0 0 122 0 0 122 0 0 122 0 0 122 0 0 122 0 0 122 0 0 122 0 0 79 0 0 79 0 0 79 0 0 79 0 0 79 0 0 79 0 0 79 0 0 79 0 0 79 0 0 79 0 0 125 0 0 125 0 0 125 0 0 125 0 0 125 0 0 125 0 0 125 0 0 125 0 0 125 0 0 125 0 0 111 0 0 111 0 0 111 0 0 111 0 0 111 0 0 111 0 0 111 0 0 111 0 0 111 0 0 111 0 0 144 0 0 144 0 0 144 0 0 144 0 0 144 0 0 144 0 0 144 0 0 144 0 0 144 0 0 144 0 0 159 0 0 159 0 0 159 0 0 159 0 0 159 0 0 159 0 0 159 0 0 159 0 0 159 0 0 159 0 0 138 0 0 138 0 0 138 0 0 138 0 0 138 0 0 138 0 0 138 0 0 138 0 0 138 0 0 138 0 0 122 0 0 122 0 0 122 0 0 122 0 0 122 0 0 122 0 0 122 0 0 122 0 0 122 0 0 122 0 0 119 0 0 119 0 0 119 0 0 119 0 0 119 0 0 119 0 0 119 0 0 119 0 0 119 0 0 119 0 0 98 0 0 98 0 0 98 0 0 98 0 0 98 0 0 98 0 0 98 0 0 98 0 0 98 0 0 98 0 0 114 0 0 114 0 0 114 0 0 114 0 0 114 0 0 114 0 0 114 0 0 114 0 0 114 0 0 114 0 0 128 0 0 128 0 0 128 0 0 128 0 0 128 0 0 128 0 0 128 0 0 128 0 0 128 0 0 128 0 0 107 0 0 107 0 0 107 0 0 107 0 0 107 0 0 107 0 0 107 0 0 107 0 0 107 0 0 107 0 0 117 0 0 117 0 0 117 0 0 117 0 0 117 0 0 117 0 0 117 0 0 117 0 0 117 0 0 117 0 0 122 0 0 122 0 0 122 0 0 122 0 0 122 0 0 122 0 0 122 0 0 122 0 0 122 0 0 122 0 0 116 0 0 116 0 0 116 0 0 116 0 0 116 0 0 116 0 0 116 0 0 116 0 0 116 0 0 116 0 0 123 0 0 123 0 0 123 0 0 123 0 0 123 0 0 123 0 0 123 0 0 123 0 0 123 0 0 123 0 0 142 0 0 142 0 0 142 0 0 142 0 0 142 0 0 142 0 0 142 0 0 142 0 0 142 0 0 142 0 0 0 0 0 0 0 0 0 0 0 0 0 0 0 0 0 0 0 0 0 0 0 0 0 0 0 0 0 0 0 0 255 134 0 255 134 0 255 134 0 255 134 0 255 134 0 255 134 0 255 134 0 255 134 0 255 134 0 255 134 0 255 134 0 255 134 0 255 134 0 255 134 0 255 134 0 255 134 0 255 134 0 255 134 0 255 134 0 255 134 0 255 134 0 255 134 0 255 134 0 255 134 0 255 134 0 255 134 0 255 134 0 255 134 0 255 134 0 255 134 0 
151 0 0 151 0 0 151 0 0 151 0 0 151 0 0 151 0 0 151 0 0 151 0 0 151 0 0 151 0 0 128 0 0 128 0 0 128 0 0 128 0 0 128 0 0 128 0 0 128 0 0 128 0 0 128 0 0 128 0 0 138 0 0 138 0 0 138 0 0 138 0 0 138 0 0 138 0 0 138 0 0 138 0 0 138 0 0 138 0 0 141 0 0 141 0 0 141 0 0 141 0 0 141 0 0 141 0 0 141 0 0 141 0 0 141 0 0 141 0 0 123 0 0 123 0 0 123 0 0 123 0 0 123 0 0 123 0 0 123 0 0 123 0 0 123 0 0 123 0 0 140 0 0 140 0 0 140 0 0 140 0 0 140 0 0 140 0 0 140 0 0 140 0 0 140 0 0 140 0 0 136 0 0 136 0 0 136 0 0 136 0 0 136 0 0 136 0 0 136 0 0 136 0 0 136 0 0 136 0 0 120 0 0 120 0 0 120 0 0 120 0 0 120 0 0 120 0 0 120 0 0 120 0 0 120 0 0 120 0 0 111 0 0 111 0 0 111 0 0 111 0 0 111 0 0 111 0 0 111 0 0 111 0 0 111 0 0 111 0 0 97 0 0 97 0 0 97 0 0 97 0 0 97 0 0 97 0 0 97 0 0 97 0 0 97 0 0 97 0 0 122 0 0 122 0 0 122 0 0 122 0 0 122 0 0 122 0 0 122 0 0 122 0 0 122 0 0 122 0 0 79 0 0 79 0 0 79 0 0 79 0 0 79 0 0 79 0 0 79 0 0 79 0 0 79 0 0 79 0 0 125 0 0 125 0 0 125 0 0 125 0 0 125 0 0 125 0 0 125 0 0 125 0 0 125 0 0 125 0 0 111 0 0 111 0 0 111 0 0 111 0 0 111 0 0 111 0 0 111 0 0 111 0 0 111 0 0 111 0 0 144 0 0 144 0 0 144 0 0 144 0 0 144 0 0 144 0 0 144 0 0 144 0 0 144 0 0 144 0 0 159 0 0 159 0 0 159 0 0 159 0 0 159 0 0 159 0 0 159 0 0 159 0 0 159 0 0 159 0 0 138 0 0 138 0 0 138 0 0 138 0 0 138 0 0 138 0 0 138 0 0 138 0 0 138 0 0 138 0 0 122 0 0 122 0 0 122 0 0 122 0 0 122 0 0 122 0 0 122 0 0 122 0 0 122 0 0 122 0 0 119 0 0 119 0 0 119 0 0 119 0 0 119 0 0 119 0 0 119 0 0 119 0 0 119 0 0 119 0 0 98 0 0 98 0 0 98 0 0 98 0 0 98 0 0 98 0 0 98 0 0 98 0 0 98 0 0 98 0 0 114 0 0 114 0 0 114 0 0 114 0 0 114 0 0 114 0 0 114 0 0 114 0 0 114 0 0 114 0 0 128 0 0 128 0 0 128 0 0 128 0 0 128 0 0 128 0 0 128 0 0 128 0 0 128 0 0 128 0 0 107 0 0 107 0 0 107 0 0 107 0 0 107 0 0 107 0 0 107 0 0 107 0 0 107 0 0 107 0 0 117 0 0 117 0 0 117 0 0 117 0 0 117 0 0 117 0 0 117 0 0 117 0 0 117 0 0 117 0 0 122 0 0 122 0 0 122 0 0 122 0 0 122 0 0 122 0 0 122 0 0 122 0 0 122 0 0 122 0 0 116 0 0 116 0 0 116 0 0 116 0 0 116 0 0 116 0 0 116 0 0 116 0 0 116 0 0 116 0 0 123 0 0 123 0 0 123 0 0 123 0 0 123 0 0 123 0 0 123 0 0 123 0 0 123 0 0 123 0 0 142 0 0 142 0 0 142 0 0 142 0 0 142 0 0 142 0 0 142 0 0 142 0 0 142 0 0 142 0 0 0 0 0 0 0 0 0 0 0 0 0 0 0 0 0 0 0 0 0 0 0 0 0 0 0 0 0 0 0 0 255 130 0 255 130 0 255 130 0 255 130 0 255 130 0 255 130 0 255 130 0 255 130 0 255 130 0 255 130 0 255 130 0 255 130 0 255 130 0 255 130 0 255 130 0 255 130 0 255 130 0 255 130 0 255 130 0 255 130 0 255 130 0 255 130 0 255 130 0 255 130 0 255 130 0 255 130 0 255 130 0 255 130 0 255 130 0 255 130 0 
151 0 0 151 0 0 151 0 0 151 0 0 151 0 0 151 0 0 151 0 0 151 0 0 151 0 0 151 0 0 128 0 0 128 0 0 128 0 0 128 0 0 128 0 0 128 0 0 128 0 0 128 0 0 128 0 0 128 0 0 138 0 0 138 0 0 138 0 0 138 0 0 138 0 0 138 0 0 138 0 0 138 0 0 138 0 0 138 0 0 141 0 0 141 0 0 141 0 0 141 0 0 141 0 0 141 0 0 141 0 0 141 0 0 141 0 0 141 0 0 123 0 0 123 0 0 123 0 0 123 0 0 123 0 0 123 0 0 123 0 0 123 0 0 123 0 0 123 0 0 140 0 0 140 0 0 140 0 0 140 0 0 140 0 0 140 0 0 140 0 0 140 0 0 140 0 0 140 0 0 136 0 0 136 0 0 136 0 0 136 0 0 136 0 0 136 0 0 136 0 0 136 0 0 136 0 0 136 0 0 120 0 0 120 0 0 120 0 0 120 0 0 120 0 0 120 0 0 120 0 0 120 0 0 120 0 0 120 0 0 111 0 0 111 0 0 111 0 0 111 0 0 111 0 0 111 0 0 111 0 0 111 0 0 111 0 0 111 0 0 97 0 0 97 0 0 97 0 0 97 0 0 97 0 0 97 0 0 97 0 0 97 0 0 97 0 0 97 0 0 122 0 0 122 0 0 122 0 0 122 0 0 122 0 0 122 0 0 122 0 0 122 0 0 122 0 0 122 0 0 79 0 0 79 0 0 79 0 0 79 0 0 79 0 0 79 0 0 79 0 0 79 0 0 79 0 0 79 0 0 125 0 0 125 0 0 125 0 0 125 0 0 125 0 0 125 0 0 125 0 0 125 0 0 125 0 0 125 0 0 111 0 0 111 0 0 111 0 0 111 0 0 111 0 0 111 0 0 111 0 0 111 0 0 111 0 0 111 0 0 144 0 0 144 0 0 144 0 0 144 0 0 144 0 0 144 0 0 144 0 0 144 0 0 144 0 0 144 0 0 159 0 0 159 0 0 159 0 0 159 0 0 159 0 0 159 0 0 159 0 0 159 0 0 159 0 0 159 0 0 138 0 0 138 0 0 138 0 0 138 0 0 138 0 0 138 0 0 138 0 0 138 0 0 138 0 0 138 0 0 122 0 0 122 0 0 122 0 0 122 0 0 122 0 0 122 0 0 122 0 0 122 0 0 122 0 0 122 0 0 119 0 0 119 0 0 119 0 0 119 0 0 119 0 0 119 0 0 119 0 0 119 0 0 119 0 0 119 0 0 98 0 0 98 0 0 98 0 0 98 0 0 98 0 0 98 0 0 98 0 0 98 0 0 98 0 0 98 0 0 114 0 0 114 0 0 114 0 0 114 0 0 114 0 0 114 0 0 114 0 0 114 0 0 114 0 0 114 0 0 128 0 0 128 0 0 128 0 0 128 0 0 128 0 0 128 0 0 128 0 0 128 0 0 128 0 0 128 0 0 107 0 0 107 0 0 107 0 0 107 0 0 107 0 0 107 0 0 107 0 0 107 0 0 107 0 0 107 0 0 117 0 0 117 0 0 117 0 0 117 0 0 117 0 0 117 0 0 117 0 0 117 0 0 117 0 0 117 0 0 122 0 0 122 0 0 122 0 0 122 0 0 122 0 0 122 0 0 122 0 0 122 0 0 122 0 0 122 0 0 116 0 0 116 0 0 116 0 0 116 0 0 116 0 0 116 0 0 116 0 0 116 0 0 116 0 0 116 0 0 123 0 0 123 0 0 123 0 0 123 0 0 123 0 0 123 0 0 123 0 0 123 0 0 123 0 0 123 0 0 142 0 0 142 0 0 142 0 0 142 0 0 142 0 0 142 0 0 142 0 0 142 0 0 142 0 0 142 0 0 0 0 0 0 0 0 0 0 0 0 0 0 0 0 0 0 0 0 0 0 0 0 0 0 0 0 0 0 0 0 255 127 0 255 127 0 255 127 0 255 127 0 255 127 0 255 127 0 255 127 0 255 127 0 255 127 0 255 127 0 255 127 0 255 127 0 255 127 0 255 127 0 255 127 0 255 127 0 255 127 0 255 127 0 255 127 0 255 127 0 255 127 0 255 127 0 255 127 0 255 127 0 255 127 0 255 127 0 255 127 0 255 127 0 255 127 0 255 127 0 
151 0 0 151 0 0 151 0 0 151 0 0 151 0 0 151 0 0 151 0 0 151 0 0 151 0 0 151 0 0 128 0 0 128 0 0 128 0 0 128 0 0 128 0 0 128 0 0 128 0 0 128 0 0 128 0 0 128 0 0 138 0 0 138 0 0 138 0 0 138 0 0 138 0 0 138 0 0 138 0 0 138 0 0 138 0 0 138 0 0 141 0 0 141 0 0 141 0 0 141 0 0 141 0 0 141 0 0 141 0 0 141 0 0 141 0 0 141 0 0 123 0 0 123 0 0 123 0 0 123 0 0 123 0 0 123 0 0 123 0 0 123 0 0 123 0 0 123 0 0 140 0 0 140 0 0 140 0 0 140 0 0 140 0 0 140 0 0 140 0 0 140 0 0 140 0 0 140 0 0 136 0 0 136 0 0 136 0 0 136 0 0 136 0 0 136 0 0 136 0 0 136 0 0 136 0 0 136 0 0 120 0 0 120 0 0 120 0 0 120 0 0 120 0 0 120 0 0 120 0 0 120 0 0 120 0 0 120 0 0 111 0 0 111 0 0 111 0 0 111 0 0 111 0 0 111 0 0 111 0 0 111 0 0 111 0 0 111 0 0 97 0 0 97 0 0 97 0 0 97 0 0 97 0 0 97 0 0 97 0 0 97 0 0 97 0 0 97 0 0 122 0 0 122 0 0 122 0 0 122 0 0 122 0 0 122 0 0 122 0 0 122 0 0 122 0 0 122 0 0 79 0 0 79 0 0 79 0 0 79 0 0 79 0 0 79 0 0 79 0 0 79 0 0 79 0 0 79 0 0 125 0 0 125 0 0 125 0 0 125 0 0 125 0 0 125 0 0 125 0 0 125 0 0 125 0 0 125 0 0 111 0 0 111 0 0 111 0 0 111 0 0 111 0 0 111 0 0 111 0 0 111 0 0 111 0 0 111 0 0 144 0 0 144 0 0 144 0 0 144 0 0 144 0 0 144 0 0 144 0 0 144 0 0 144 0 0 144 0 0 159 0 0 159 0 0 159 0 0 159 0 0 159 0 0 159 0 0 159 0 0 159 0 0 159 0 0 159 0 0 138 0 0 138 0 0 138 0 0 138 0 0 138 0 0 138 0 0 138 0 0 138 0 0 138 0 0 138 0 0 122 0 0 122 0 0 122 0 0 122 0 0 122 0 0 122 0 0 122 0 0 122 0 0 122 0 0 122 0 0 119 0 0 119 0 0 119 0 0 119 0 0 119 0 0 119 0 0 119 0 0 119 0 0 119 0 0 119 0 0 98 0 0 98 0 0 98 0 0 98 0 0 98 0 0 98 0 0 98 0 0 98 0 0 98 0 0 98 0 0 114 0 0 114 0 0 114 0 0 114 0 0 114 0 0 114 0 0 114 0 0 114 0 0 114 0 0 114 0 0 128 0 0 128 0 0 128 0 0 128 0 0 128 0 0 128 0 0 128 0 0 128 0 0 128 0 0 128 0 0 107 0 0 107 0 0 107 0 0 107 0 0 107 0 0 107 0 0 107 0 0 107 0 0 107 0 0 107 0 0 117 0 0 117 0 0 117 0 0 117 0 0 117 0 0 117 0 0 117 0 0 117 0 0 117 0 0 117 0 0 122 0 0 122 0 0 122 0 0 122 0 0 122 0 0 122 0 0 122 0 0 122 0 0 122 0 0 122 0 0 116 0 0 116 0 0 116 0 0 116 0 0 116 0 0 116 0 0 116 0 0 116 0 0 116 0 0 116 0 0 123 0 0 123 0 0 123 0 0 123 0 0 123 0 0 123 0 0 123 0 0 123 0 0 123 0 0 123 0 0 142 0 0 142 0 0 142 0 0 142 0 0 142 0 0 142 0 0 142 0 0 142 0 0 142 0 0 142 0 0 0 0 0 0 0 0 0 0 0 0 0 0 0 0 0 0 0 0 0 0 0 0 0 0 0 0 0 0 0 0 255 123 0 255 123 0 255 123 0 255 123 0 255 123 0 255 123 0 255 123 0 255 123 0 255 123 0 255 123 0 255 123 0 255 123 0 255 123 0 255 123 0 255 123 0 255 123 0 255 123 0 255 123 0 255 123 0 255 123 0 255 123 0 255 123 0 255 123 0 255 123 0 255 123 0 255 123 0 255 123 0 255 123 0 255 123 0 255 123 0 
151 0 0 151 0 0 151 0 0 151 0 0 151 0 0 151 0 0 151 0 0 151 0 0 151 0 0 151 0 0 128 0 0 128 0 0 128 0 0 128 0 0 128 0 0 128 0 0 128 0 0 128 0 0 128 0 0 128 0 0 138 0 0 138 0 0 138 0 0 138 0 0 138 0 0 138 0 0 138 0 0 138 0 0 138 0 0 138 0 0 141 0 0 141 0 0 141 0 0 141 0 0 141 0 0 141 0 0 141 0 0 141 0 0 141 0 0 141 0 0 123 0 0 123 0 0 123 0 0 123 0 0 123 0 0 123 0 0 123 0 0 123 0 0 123 0 0 123 0 0 140 0 0 140 0 0 140 0 0 140 0 0 140 0 0 140 0 0 140 0 0 140 0 0 140 0 0 140 0 0 136 0 0 136 0 0 136 0 0 136 0 0 136 0 0 136 0 0 136 0 0 136 0 0 136 0 0 136 0 0 120 0 0 120 0 0 120 0 0 120 0 0 120 0 0 120 0 0 120 0 0 120 0 0 120 0 0 120 0 0 111 0 0 111 0 0 111 0 0 111 0 0 111 0 0 111 0 0 111 0 0 111 0 0 111 0 0 111 0 0 97 0 0 97 0 0 97 0 0 97 0 0 97 0 0 97 0 0 97 0 0 97 0 0 97 0 0 97 0 0 122 0 0 122 0 0 122 0 0 122 0 0 122 0 0 122 0 0 122 0 0 122 0 0 122 0 0 122 0 0 79 0 0 79 0 0 79 0 0 79 0 0 79 0 0 79 0 0 79 0 0 79 0 0 79 0 0 79 0 0 125 0 0 125 0 0 125 0 0 125 0 0 125 0 0 125 0 0 125 0 0 125 0 0 125 0 0 125 0 0 111 0 0 111 0 0 111 0 0 111 0 0 111 0 0 111 0 0 111 0 0 111 0 0 111 0 0 111 0 0 144 0 0 144 0 0 144 0 0 144 0 0 144 0 0 144 0 0 144 0 0 144 0 0 144 0 0 144 0 0 159 0 0 159 0 0 159 0 0 159 0 0 159 0 0 159 0 0 159 0 0 159 0 0 159 0 0 159 0 0 138 0 0 138 0 0 138 0 0 138 0 0 138 0 0 138 0 0 138 0 0 138 0 0 138 0 0 138 0 0 122 0 0 122 0 0 122 0 0 122 0 0 122 0 0 122 0 0 122 0 0 122 0 0 122 0 0 122 0 0 119 0 0 119 0 0 119 0 0 119 0 0 119 0 0 119 0 0 119 0 0 119 0 0 119 0 0 119 0 0 98 0 0 98 0 0 98 0 0 98 0 0 98 0 0 98 0 0 98 0 0 98 0 0 98 0 0 98 0 0 114 0 0 114 0 0 114 0 0 114 0 0 114 0 0 114 0 0 114 0 0 114 0 0 114 0 0 114 0 0 128 0 0 128 0 0 128 0 0 128 0 0 128 0 0 128 0 0 128 0 0 128 0 0 128 0 0 128 0 0 107 0 0 107 0 0 107 0 0 107 0 0 107 0 0 107 0 0 107 0 0 107 0 0 107 0 0 107 0 0 117 0 0 117 0 0 117 0 0 117 0 0 117 0 0 117 0 0 117 0 0 117 0 0 117 0 0 117 0 0 122 0 0 122 0 0 122 0 0 122 0 0 122 0 0 122 0 0 122 0 0 122 0 0 122 0 0 122 0 0 116 0 0 116 0 0 116 0 0 116 0 0 116 0 0 116 0 0 116 0 0 116 0 0 116 0 0 116 0 0 123 0 0 123 0 0 123 0 0 123 0 0 123 0 0 123 0 0 123 0 0 123 0 0 123 0 0 123 0 0 142 0 0 142 0 0 142 0 0 142 0 0 142 0 0 142 0 0 142 0 0 142 0 0 142 0 0 142 0 0 0 0 0 0 0 0 0 0 0 0 0 0 0 0 0 0 0 0 0 0 0 0 0 0 0 0 0 0 0 0 255 119 0 255 119 0 255 119 0 255 119 0 255 119 0 255 119 0 255 119 0 255 119 0 255 119 0 255 119 0 255 119 0 255 119 0 255 119 0 255 119 0 255 119 0 255 119 0 255 119 0 255 119 0 255 119 0 255 119 0 255 119 0 255 119 0 255 119 0 255 119 0 255 119 0 255 119 0 255 119 0 255 119 0 255 119 0 255 119 0 
151 0 0 151 0 0 151 0 0 151 0 0 151 0 0 151 0 0 151 0 0 151 0 0 151 0 0 151 0 0 128 0 0 128 0 0 128 0 0 128 0 0 128 0 0 128 0 0 128 0 0 128 0 0 128 0 0 128 0 0 138 0 0 138 0 0 138 0 0 138 0 0 138 0 0 138 0 0 138 0 0 138 0 0 138 0 0 138 0 0 141 0 0 141 0 0 141 0 0 141 0 0 141 0 0 141 0 0 141 0 0 141 0 0 141 0 0 141 0 0 123 0 0 123 0 0 123 0 0 123 0 0 123 0 0 123 0 0 123 0 0 123 0 0 123 0 0 123 0 0 140 0 0 140 0 0 140 0 0 140 0 0 140 0 0 140 0 0 140 0 0 140 0 0 140 0 0 140 0 0 136 0 0 136 0 0 136 0 0 136 0 0 136 0 0 136 0 0 136 0 0 136 0 0 136 0 0 136 0 0 120 0 0 120 0 0 120 0 0 120 0 0 120 0 0 120 0 0 120 0 0 120 0 0 120 0 0 120 0 0 111 0 0 111 0 0 111 0 0 111 0 0 111 0 0 111 0 0 111 0 0 111 0 0 111 0 0 111 0 0 97 0 0 97 0 0 97 0 0 97 0 0 97 0 0 97 0 0 97 0 0 97 0 0 97 0 0 97 0 0 122 0 0 122 0 0 122 0 0 122 0 0 122 0 0 122 0 0 122 0 0 122 0 0 122 0 0 122 0 0 79 0 0 79 0 0 79 0 0 79 0 0 79 0 0 79 0 0 79 0 0 79 0 0 79 0 0 79 0 0 125 0 0 125 0 0 125 0 0 125 0 0 125 0 0 125 0 0 125 0 0 125 0 0 125 0 0 125 0 0 111 0 0 111 0 0 111 0 0 111 0 0 111 0 0 111 0 0 111 0 0 111 0 0 111 0 0 111 0 0 144 0 0 144 0 0 144 0 0 144 0 0 144 0 0 144 0 0 144 0 0 144 0 0 144 0 0 144 0 0 159 0 0 159 0 0 159 0 0 159 0 0 159 0 0 159 0 0 159 0 0 159 0 0 159 0 0 159 0 0 138 0 0 138 0 0 138 0 0 138 0 0 138 0 0 138 0 0 138 0 0 138 0 0 138 0 0 138 0 0 122 0 0 122 0 0 122 0 0 122 0 0 122 0 0 122 0 0 122 0 0 122 0 0 122 0 0 122 0 0 119 0 0 119 0 0 119 0 0 119 0 0 119 0 0 119 0 0 119 0 0 119 0 0 119 0 0 119 0 0 98 0 0 98 0 0 98 0 0 98 0 0 98 0 0 98 0 0 98 0 0 98 0 0 98 0 0 98 0 0 114 0 0 114 0 0 114 0 0 114 0 0 114 0 0 114 0 0 114 0 0 114 0 0 114 0 0 114 0 0 128 0 0 128 0 0 128 0 0 128 0 0 128 0 0 128 0 0 128 0 0 128 0 0 128 0 0 128 0 0 107 0 0 107 0 0 107 0 0 107 0 0 107 0 0 107 0 0 107 0 0 107 0 0 107 0 0 107 0 0 117 0 0 117 0 0 117 0 0 117 0 0 117 0 0 117 0 0 117 0 0 117 0 0 117 0 0 117 0 0 122 0 0 122 0 0 122 0 0 122 0 0 122 0 0 122 0 0 122 0 0 122 0 0 122 0 0 122 0 0 116 0 0 116 0 0 116 0 0 116 0 0 116 0 0 116 0 0 116 0 0 116 0 0 116 0 0 116 0 0 123 0 0 123 0 0 123 0 0 123 0 0 123 0 0 123 0 0 123 0 0 123 0 0 123 0 0 123 0 0 142 0 0 142 0 0 142 0 0 142 0 0 142 0 0 142 0 0 142 0 0 142 0 0 142 0 0 142 0 0 0 0 0 0 0 0 0 0 0 0 0 0 0 0 0 0 0 0 0 0 0 0 0 0 0 0 0 0 0 0 255 116 0 255 116 0 255 116 0 255 116 0 255 116 0 255 116 0 255 116 0 255 116 0 255 116 0 255 116 0 255 116 0 255 116 0 255 116 0 255 116 0 255 116 0 255 116 0 255 116 0 255 116 0 255 116 0 255 116 0 255 116 0 255 116 0 255 116 0 255 116 0 255 116 0 255 116 0 255 116 0 255 116 0 255 116 0 255 116 0 
151 0 0 151 0 0 151 0 0 151 0 0 151 0 0 151 0 0 151 0 0 151 0 0 151 0 0 151 0 0 128 0 0 128 0 0 128 0 0 128 0 0 128 0 0 128 0 0 128 0 0 128 0 0 128 0 0 128 0 0 138 0 0 138 0 0 138 0 0 138 0 0 138 0 0 138 0 0 138 0 0 138 0 0 138 0 0 138 0 0 141 0 0 141 0 0 141 0 0 141 0 0 141 0 0 141 0 0 141 0 0 141 0 0 141 0 0 141 0 0 123 0 0 123 0 0 123 0 0 123 0 0 123 0 0 123 0 0 123 0 0 123 0 0 123 0 0 123 0 0 140 0 0 140 0 0 140 0 0 140 0 0 140 0 0 140 0 0 140 0 0 140 0 0 140 0 0 140 0 0 136 0 0 136 0 0 136 0 0 136 0 0 136 0 0 136 0 0 136 0 0 136 0 0 136 0 0 136 0 0 120 0 0 120 0 0 120 0 0 120 0 0 120 0 0 120 0 0 120 0 0 120 0 0 120 0 0 120 0 0 111 0 0 111 0 0 111 0 0 111 0 0 111 0 0 111 0 0 111 0 0 111 0 0 111 0 0 111 0 0 97 0 0 97 0 0 97 0 0 97 0 0 97 0 0 97 0 0 97 0 0 97 0 0 97 0 0 97 0 0 122 0 0 122 0 0 122 0 0 122 0 0 122 0 0 122 0 0 122 0 0 122 0 0 122 0 0 122 0 0 79 0 0 79 0 0 79 0 0 79 0 0 79 0 0 79 0 0 79 0 0 79 0 0 79 0 0 79 0 0 125 0 0 125 0 0 125 0 0 125 0 0 125 0 0 125 0 0 125 0 0 125 0 0 125 0 0 125 0 0 111 0 0 111 0 0 111 0 0 111 0 0 111 0 0 111 0 0 111 0 0 111 0 0 111 0 0 111 0 0 144 0 0 144 0 0 144 0 0 144 0 0 144 0 0 144 0 0 144 0 0 144 0 0 144 0 0 144 0 0 159 0 0 159 0 0 159 0 0 159 0 0 159 0 0 159 0 0 159 0 0 159 0 0 159 0 0 159 0 0 138 0 0 138 0 0 138 0 0 138 0 0 138 0 0 138 0 0 138 0 0 138 0 0 138 0 0 138 0 0 122 0 0 122 0 0 122 0 0 122 0 0 122 0 0 122 0 0 122 0 0 122 0 0 122 0 0 122 0 0 119 0 0 119 0 0 119 0 0 119 0 0 119 0 0 119 0 0 119 0 0 119 0 0 119 0 0 119 0 0 98 0 0 98 0 0 98 0 0 98 0 0 98 0 0 98 0 0 98 0 0 98 0 0 98 0 0 98 0 0 114 0 0 114 0 0 114 0 0 114 0 0 114 0 0 114 0 0 114 0 0 114 0 0 114 0 0 114 0 0 128 0 0 128 0 0 128 0 0 128 0 0 128 0 0 128 0 0 128 0 0 128 0 0 128 0 0 128 0 0 107 0 0 107 0 0 107 0 0 107 0 0 107 0 0 107 0 0 107 0 0 107 0 0 107 0 0 107 0 0 117 0 0 117 0 0 117 0 0 117 0 0 117 0 0 117 0 0 117 0 0 117 0 0 117 0 0 117 0 0 122 0 0 122 0 0 122 0 0 122 0 0 122 0 0 122 0 0 122 0 0 122 0 0 122 0 0 122 0 0 116 0 0 116 0 0 116 0 0 116 0 0 116 0 0 116 0 0 116 0 0 116 0 0 116 0 0 116 0 0 123 0 0 123 0 0 123 0 0 123 0 0 123 0 0 123 0 0 123 0 0 123 0 0 123 0 0 123 0 0 142 0 0 142 0 0 142 0 0 142 0 0 142 0 0 142 0 0 142 0 0 142 0 0 142 0 0 142 0 0 0 0 0 0 0 0 0 0 0 0 0 0 0 0 0 0 0 0 0 0 0 0 0 0 0 0 0 0 0 0 255 112 0 255 112 0 255 112 0 255 112 0 255 112 0 255 112 0 255 112 0 255 112 0 255 112 0 255 112 0 255 112 0 255 112 0 255 112 0 255 112 0 255 112 0 255 112 0 255 112 0 255 112 0 255 112 0 255 112 0 255 112 0 255 112 0 255 112 0 255 112 0 255 112 0 255 112 0 255 112 0 255 112 0 255 112 0 255 112 0 
140 0 0 140 0 0 140 0 0 140 0 0 140 0 0 140 0 0 140 0 0 140 0 0 140 0 0 140 0 0 149 0 0 149 0 0 149 0 0 149 0 0 149 0 0 149 0 0 149 0 0 149 0 0 149 0 0 149 0 0 115 0 0 115 0 0 115 0 0 115 0 0 115 0 0 115 0 0 115 0 0 115 0 0 115 0 0 115 0 0 130 0 0 130 0 0 130 0 0 130 0 0 130 0 0 130 0 0 130 0 0 130 0 0 130 0 0 130 0 0 141 0 0 141 0 0 141 0 0 141 0 0 141 0 0 141 0 0 141 0 0 141 0 0 141 0 0 141 0 0 118 0 0 118 0 0 118 0 0 118 0 0 118 0 0 118 0 0 118 0 0 118 0 0 118 0 0 118 0 0 144 0 0 144 0 0 144 0 0 144 0 0 144 0 0 144 0 0 144 0 0 144 0 0 144 0 0 144 0 0 126 0 0 126 0 0 126 0 0 126 0 0 126 0 0 126 0 0 126 0 0 126 0 0 126 0 0 126 0 0 130 0 0 130 0 0 130 0 0 130 0 0 130 0 0 130 0 0 130 0 0 130 0 0 130 0 0 130 0 0 121 0 0 121 0 0 121 0 0 121 0 0 121 0 0 121 0 0 121 0 0 121 0 0 121 0 0 121 0 0 115 0 0 115 0 0 115 0 0 115 0 0 115 0 0 115 0 0 115 0 0 115 0 0 115 0 0 115 0 0 110 0 0 110 0 0 110 0 0 110 0 0 110 0 0 110 0 0 110 0 0 110 0 0 110 0 0 110 0 0 175 0 0 175 0 0 175 0 0 175 0 0 175 0 0 175 0 0 175 0 0 175 0 0 175 0 0 175 0 0 208 0 0 208 0 0 208 0 0 208 0 0 208 0 0 208 0 0 208 0 0 208 0 0 208 0 0 208 0 0 222 0 0 222 0 0 222 0 0 222 0 0 222 0 0 222 0 0 222 0 0 222 0 0 222 0 0 222 0 0 226 0 0 226 0 0 226 0 0 226 0 0 226 0 0 226 0 0 226 0 0 226 0 0 226 0 0 226 0 0 160 0 0 160 0 0 160 0 0 160 0 0 160 0 0 160 0 0 160 0 0 160 0 0 160 0 0 160 0 0 137 0 0 137 0 0 137 0 0 137 0 0 137 0 0 137 0 0 137 0 0 137 0 0 137 0 0 137 0 0 147 0 0 147 0 0 147 0 0 147 0 0 147 0 0 147 0 0 147 0 0 147 0 0 147 0 0 147 0 0 173 0 0 173 0 0 173 0 0 173 0 0 173 0 0 173 0 0 173 0 0 173 0 0 173 0 0 173 0 0 183 0 0 183 0 0 183 0 0 183 0 0 183 0 0 183 0 0 183 0 0 183 0 0 183 0 0 183 0 0 178 0 0 178 0 0 178 0 0 178 0 0 178 0 0 178 0 0 178 0 0 178 0 0 178 0 0 178 0 0 182 0 0 182 0 0 182 0 0 182 0 0 182 0 0 182 0 0 182 0 0 182 0 0 182 0 0 182 0 0 136 0 0 136 0 0 136 0 0 136 0 0 136 0 0 136 0 0 136 0 0 136 0 0 136 0 0 136 0 0 109 0 0 109 0 0 109 0 0 109 0 0 109 0 0 109 0 0 109 0 0 109 0 0 109 0 0 109 0 0 129 0 0 129 0 0 129 0 0 129 0 0 129 0 0 129 0 0 129 0 0 129 0 0 129 0 0 129 0 0 131 0 0 131 0 0 131 0 0 131 0 0 131 0 0 131 0 0 131 0 0 131 0 0 131 0 0 131 0 0 125 0 0 125 0 0 125 0 0 125 0 0 125 0 0 125 0 0 125 0 0 125 0 0 125 0 0 125 0 0 0 0 0 0 0 0 0 0 0 0 0 0 0 0 0 0 0 0 0 0 0 0 0 0 0 0 0 0 0 0 255 108 0 255 108 0 255 108 0 255 108 0 255 108 0 255 108 0 255 108 0 255 108 0 255 108 0 255 108 0 255 108 0 255 108 0 255 108 0 255 108 0 255 108 0 255 108 0 255 108 0 255 108 0 255 108 0 255 108 0 255 108 0 255 108 0 255 108 0 255 108 0 255 108 0 255 108 0 255 108 0 255 108 0 255 108 0 255 108 0 
140 0 0 140 0 0 140 0 0 140 0 0 140 0 0 140 0 0 140 0 0 140 0 0 140 0 0 140 0 0 149 0 0 149 0 0 149 0 0 149 0 0 149 0 0 149 0 0 149 0 0 149 0 0 149 0 0 149 0 0 115 0 0 115 0 0 115 0 0 115 0 0 115 0 0 115 0 0 115 0 0 115 0 0 115 0 0 115 0 0 130 0 0 130 0 0 130 0 0 130 0 0 130 0 0 130 0 0 130 0 0 130 0 0 130 0 0 130 0 0 141 0 0 141 0 0 141 0 0 141 0 0 141 0 0 141 0 0 141 0 0 141 0 0 141 0 0 141 0 0 118 0 0 118 0 0 118 0 0 118 0 0 118 0 0 118 0 0 118 0 0 118 0 0 118 0 0 118 0 0 144 0 0 144 0 0 144 0 0 144 0 0 144 0 0 144 0 0 144 0 0 144 0 0 144 0 0 144 0 0 126 0 0 126 0 0 126 0 0 126 0 0 126 0 0 126 0 0 126 0 0 126 0 0 126 0 0 126 0 0 130 0 0 130 0 0 130 0 0 130 0 0 130 0 0 130 0 0 130 0 0 130 0 0 130 0 0 130 0 0 121 0 0 121 0 0 121 0 0 121 0 0 121 0 0 121 0 0 121 0 0 121 0 0 121 0 0 121 0 0 115 0 0 115 0 0 115 0 0 115 0 0 115 0 0 115 0 0 115 0 0 115 0 0 115 0 0 115 0 0 110 0 0 110 0 0 110 0 0 110 0 0 110 0 0 110 0 0 110 0 0 110 0 0 110 0 0 110 0 0 175 0 0 175 0 0 175 0 0 175 0 0 175 0 0 175 0 0 175 0 0 175 0 0 175 0 0 175 0 0 208 0 0 208 0 0 208 0 0 208 0 0 208 0 0 208 0 0 208 0 0 208 0 0 208 0 0 208 0 0 222 0 0 222 0 0 222 0 0 222 0 0 222 0 0 222 0 0 222 0 0 222 0 0 222 0 0 222 0 0 226 0 0 226 0 0 226 0 0 226 0 0 226 0 0 226 0 0 226 0 0 226 0 0 226 0 0 226 0 0 160 0 0 160 0 0 160 0 0 160 0 0 160 0 0 160 0 0 160 0 0 160 0 0 160 0 0 160 0 0 137 0 0 137 0 0 137 0 0 137 0 0 137 0 0 137 0 0 137 0 0 137 0 0 137 0 0 137 0 0 147 0 0 147 0 0 147 0 0 147 0 0 147 0 0 147 0 0 147 0 0 147 0 0 147 0 0 147 0 0 173 0 0 173 0 0 173 0 0 173 0 0 173 0 0 173 0 0 173 0 0 173 0 0 173 0 0 173 0 0 183 0 0 183 0 0 183 0 0 183 0 0 183 0 0 183 0 0 183 0 0 183 0 0 183 0 0 183 0 0 178 0 0 178 0 0 178 0 0 178 0 0 178 0 0 178 0 0 178 0 0 178 0 0 178 0 0 178 0 0 182 0 0 182 0 0 182 0 0 182 0 0 182 0 0 182 0 0 182 0 0 182 0 0 182 0 0 182 0 0 136 0 0 136 0 0 136 0 0 136 0 0 136 0 0 136 0 0 136 0 0 136 0 0 136 0 0 136 0 0 109 0 0 109 0 0 109 0 0 109 0 0 109 0 0 109 0 0 109 0 0 109 0 0 109 0 0 109 0 0 129 0 0 129 0 0 129 0 0 129 0 0 129 0 0 129 0 0 129 0 0 129 0 0 129 0 0 129 0 0 131 0 0 131 0 0 131 0 0 131 0 0 131 0 0 131 0 0 131 0 0 131 0 0 131 0 0 131 0 0 125 0 0 125 0 0 125 0 0 125 0 0 125 0 0 125 0 0 125 0 0 125 0 0 125 0 0 125 0 0 0 0 0 0 0 0 0 0 0 0 0 0 0 0 0 0 0 0 0 0 0 0 0 0 0 0 0 0 0 0 255 105 0 255 105 0 255 105 0 255 105 0 255 105 0 255 105 0 255 105 0 255 105 0 255 105 0 255 105 0 255 105 0 255 105 0 255 105 0 255 105 0 255 105 0 255 105 0 255 105 0 255 105 0 255 105 0 255 105 0 255 105 0 255 105 0 255 105 0 255 105 0 255 105 0 255 105 0 255 105 0 255 105 0 255 105 0 255 105 0 
140 0 0 140 0 0 140 0 0 140 0 0 140 0 0 140 0 0 140 0 0 140 0 0 140 0 0 140 0 0 149 0 0 149 0 0 149 0 0 149 0 0 149 0 0 149 0 0 149 0 0 149 0 0 149 0 0 149 0 0 115 0 0 115 0 0 115 0 0 115 0 0 115 0 0 115 0 0 115 0 0 115 0 0 115 0 0 115 0 0 130 0 0 130 0 0 130 0 0 130 0 0 130 0 0 130 0 0 130 0 0 130 0 0 130 0 0 130 0 0 141 0 0 141 0 0 141 0 0 141 0 0 141 0 0 141 0 0 141 0 0 141 0 0 141 0 0 141 0 0 118 0 0 118 0 0 118 0 0 118 0 0 118 0 0 118 0 0 118 0 0 118 0 0 118 0 0 118 0 0 144 0 0 144 0 0 144 0 0 144 0 0 144 0 0 144 0 0 144 0 0 144 0 0 144 0 0 144 0 0 126 0 0 126 0 0 126 0 0 126 0 0 126 0 0 126 0 0 126 0 0 126 0 0 126 0 0 126 0 0 130 0 0 130 0 0 130 0 0 130 0 0 130 0 0 130 0 0 130 0 0 130 0 0 130 0 0 130 0 0 121 0 0 121 0 0 121 0 0 121 0 0 121 0 0 121 0 0 121 0 0 121 0 0 121 0 0 121 0 0 115 0 0 115 0 0 115 0 0 115 0 0 115 0 0 115 0 0 115 0 0 115 0 0 115 0 0 115 0 0 110 0 0 110 0 0 110 0 0 110 0 0 110 0 0 110 0 0 110 0 0 110 0 0 110 0 0 110 0 0 175 0 0 175 0 0 175 0 0 175 0 0 175 0 0 175 0 0 175 0 0 175 0 0 175 0 0 175 0 0 208 0 0 208 0 0 208 0 0 208 0 0 208 0 0 208 0 0 208 0 0 208 0 0 208 0 0 208 0 0 222 0 0 222 0 0 222 0 0 222 0 0 222 0 0 222 0 0 222 0 0 222 0 0 222 0 0 222 0 0 226 0 0 226 0 0 226 0 0 226 0 0 226 0 0 226 0 0 226 0 0 226 0 0 226 0 0 226 0 0 160 0 0 160 0 0 160 0 0 160 0 0 160 0 0 160 0 0 160 0 0 160 0 0 160 0 0 160 0 0 137 0 0 137 0 0 137 0 0 137 0 0 137 0 0 137 0 0 137 0 0 137 0 0 137 0 0 137 0 0 147 0 0 147 0 0 147 0 0 147 0 0 147 0 0 147 0 0 147 0 0 147 0 0 147 0 0 147 0 0 173 0 0 173 0 0 173 0 0 173 0 0 173 0 0 173 0 0 173 0 0 173 0 0 173 0 0 173 0 0 183 0 0 183 0 0 183 0 0 183 0 0 183 0 0 183 0 0 183 0 0 183 0 0 183 0 0 183 0 0 178 0 0 178 0 0 178 0 0 178 0 0 178 0 0 178 0 0 178 0 0 178 0 0 178 0 0 178 0 0 182 0 0 182 0 0 182 0 0 182 0 0 182 0 0 182 0 0 182 0 0 182 0 0 182 0 0 182 0 0 136 0 0 136 0 0 136 0 0 136 0 0 136 0 0 136 0 0 136 0 0 136 0 0 136 0 0 136 0 0 109 0 0 109 0 0 109 0 0 109 0 0 109 0 0 109 0 0 109 0 0 109 0 0 109 0 0 109 0 0 129 0 0 129 0 0 129 0 0 129 0 0 129 0 0 129 0 0 129 0 0 129 0 0 129 0 0 129 0 0 131 0 0 131 0 0 131 0 0 131 0 0 131 0 0 131 0 0 131 0 0 131 0 0 131 0 0 131 0 0 125 0 0 125 0 0 125 0 0 125 0 0 125 0 0 125 0 0 125 0 0 125 0 0 125 0 0 125 0 0 0 0 0 0 0 0 0 0 0 0 0 0 0 0 0 0 0 0 0 0 0 0 0 0 0 0 0 0 0 0 255 101 0 255 101 0 255 101 0 255 101 0 255 101 0 255 101 0 255 101 0 255 101 0 255 101 0 255 101 0 255 101 0 255 101 0 255 101 0 255 101 0 255 101 0 255 101 0 255 101 0 255 101 0 255 101 0 255 101 0 255 101 0 255 101 0 255 101 0 255 101 0 255 101 0 255 101 0 255 101 0 255 101 0 255 101 0 255 101 0 
140 0 0 140 0 0 140 0 0 140 0 0 140 0 0 140 0 0 140 0 0 140 0 0 140 0 0 140 0 0 149 0 0 149 0 0 149 0 0 149 0 0 149 0 0 149 0 0 149 0 0 149 0 0 149 0 0 149 0 0 115 0 0 115 0 0 115 0 0 115 0 0 115 0 0 115 0 0 115 0 0 115 0 0 115 0 0 115 0 0 130 0 0 130 0 0 130 0 0 130 0 0 130 0 0 130 0 0 130 0 0 130 0 0 130 0 0 130 0 0 141 0 0 141 0 0 141 0 0 141 0 0 141 0 0 141 0 0 141 0 0 141 0 0 141 0 0 141 0 0 118 0 0 118 0 0 118 0 0 118 0 0 118 0 0 118 0 0 118 0 0 118 0 0 118 0 0 118 0 0 144 0 0 144 0 0 144 0 0 144 0 0 144 0 0 144 0 0 144 0 0 144 0 0 144 0 0 144 0 0 126 0 0 126 0 0 126 0 0 126 0 0 126 0 0 126 0 0 126 0 0 126 0 0 126 0 0 126 0 0 130 0 0 130 0 0 130 0 0 130 0 0 130 0 0 130 0 0 130 0 0 130 0 0 130 0 0 130 0 0 121 0 0 121 0 0 121 0 0 121 0 0 121 0 0 121 0 0 121 0 0 121 0 0 121 0 0 121 0 0 115 0 0 115 0 0 115 0 0 115 0 0 115 0 0 115 0 0 115 0 0 115 0 0 115 0 0 115 0 0 110 0 0 110 0 0 110 0 0 110 0 0 110 0 0 110 0 0 110 0 0 110 0 0 110 0 0 110 0 0 175 0 0 175 0 0 175 0 0 175 0 0 175 0 0 175 0 0 175 0 0 175 0 0 175 0 0 175 0 0 208 0 0 208 0 0 208 0 0 208 0 0 208 0 0 208 0 0 208 0 0 208 0 0 208 0 0 208 0 0 222 0 0 222 0 0 222 0 0 222 0 0 222 0 0 222 0 0 222 0 0 222 0 0 222 0 0 222 0 0 226 0 0 226 0 0 226 0 0 226 0 0 226 0 0 226 0 0 226 0 0 226 0 0 226 0 0 226 0 0 160 0 0 160 0 0 160 0 0 160 0 0 160 0 0 160 0 0 160 0 0 160 0 0 160 0 0 160 0 0 137 0 0 137 0 0 137 0 0 137 0 0 137 0 0 137 0 0 137 0 0 137 0 0 137 0 0 137 0 0 147 0 0 147 0 0 147 0 0 147 0 0 147 0 0 147 0 0 147 0 0 147 0 0 147 0 0 147 0 0 173 0 0 173 0 0 173 0 0 173 0 0 173 0 0 173 0 0 173 0 0 173 0 0 173 0 0 173 0 0 183 0 0 183 0 0 183 0 0 183 0 0 183 0 0 183 0 0 183 0 0 183 0 0 183 0 0 183 0 0 178 0 0 178 0 0 178 0 0 178 0 0 178 0 0 178 0 0 178 0 0 178 0 0 178 0 0 178 0 0 182 0 0 182 0 0 182 0 0 182 0 0 182 0 0 182 0 0 182 0 0 182 0 0 182 0 0 182 0 0 136 0 0 136 0 0 136 0 0 136 0 0 136 0 0 136 0 0 136 0 0 136 0 0 136 0 0 136 0 0 109 0 0 109 0 0 109 0 0 109 0 0 109 0 0 109 0 0 109 0 0 109 0 0 109 0 0 109 0 0 129 0 0 129 0 0 129 0 0 129 0 0 129 0 0 129 0 0 129 0 0 129 0 0 129 0 0 129 0 0 131 0 0 131 0 0 131 0 0 131 0 0 131 0 0 131 0 0 131 0 0 131 0 0 131 0 0 131 0 0 125 0 0 125 0 0 125 0 0 125 0 0 125 0 0 125 0 0 125 0 0 125 0 0 125 0 0 125 0 0 0 0 0 0 0 0 0 0 0 0 0 0 0 0 0 0 0 0 0 0 0 0 0 0 0 0 0 0 0 0 255 97 0 255 97 0 255 97 0 255 97 0 255 97 0 255 97 0 255 97 0 255 97 0 255 97 0 255 97 0 255 97 0 255 97 0 255 97 0 255 97 0 255 97 0 255 97 0 255 97 0 255 97 0 255 97 0 255 97 0 255 97 0 255 97 0 255 97 0 255 97 0 255 97 0 255 97 0 255 97 0 255 97 0 255 97 0 255 97 0 
140 0 0 140 0 0 140 0 0 140 0 0 140 0 0 140 0 0 140 0 0 140 0 0 140 0 0 140 0 0 149 0 0 149 0 0 149 0 0 149 0 0 149 0 0 149 0 0 149 0 0 149 0 0 149 0 0 149 0 0 115 0 0 115 0 0 115 0 0 115 0 0 115 0 0 115 0 0 115 0 0 115 0 0 115 0 0 115 0 0 130 0 0 130 0 0 130 0 0 130 0 0 130 0 0 130 0 0 130 0 0 130 0 0 130 0 0 130 0 0 141 0 0 141 0 0 141 0 0 141 0 0 141 0 0 141 0 0 141 0 0 141 0 0 141 0 0 141 0 0 118 0 0 118 0 0 118 0 0 118 0 0 118 0 0 118 0 0 118 0 0 118 0 0 118 0 0 118 0 0 144 0 0 144 0 0 144 0 0 144 0 0 144 0 0 144 0 0 144 0 0 144 0 0 144 0 0 144 0 0 126 0 0 126 0 0 126 0 0 126 0 0 126 0 0 126 0 0 126 0 0 126 0 0 126 0 0 126 0 0 130 0 0 130 0 0 130 0 0 130 0 0 130 0 0 130 0 0 130 0 0 130 0 0 130 0 0 130 0 0 121 0 0 121 0 0 121 0 0 121 0 0 121 0 0 121 0 0 121 0 0 121 0 0 121 0 0 121 0 0 115 0 0 115 0 0 115 0 0 115 0 0 115 0 0 115 0 0 115 0 0 115 0 0 115 0 0 115 0 0 110 0 0 110 0 0 110 0 0 110 0 0 110 0 0 110 0 0 110 0 0 110 0 0 110 0 0 110 0 0 175 0 0 175 0 0 175 0 0 175 0 0 175 0 0 175 0 0 175 0 0 175 0 0 175 0 0 175 0 0 208 0 0 208 0 0 208 0 0 208 0 0 208 0 0 208 0 0 208 0 0 208 0 0 208 0 0 208 0 0 222 0 0 222 0 0 222 0 0 222 0 0 222 0 0 222 0 0 222 0 0 222 0 0 222 0 0 222 0 0 226 0 0 226 0 0 226 0 0 226 0 0 226 0 0 226 0 0 226 0 0 226 0 0 226 0 0 226 0 0 160 0 0 160 0 0 160 0 0 160 0 0 160 0 0 160 0 0 160 0 0 160 0 0 160 0 0 160 0 0 137 0 0 137 0 0 137 0 0 137 0 0 137 0 0 137 0 0 137 0 0 137 0 0 137 0 0 137 0 0 147 0 0 147 0 0 147 0 0 147 0 0 147 0 0 147 0 0 147 0 0 147 0 0 147 0 0 147 0 0 173 0 0 173 0 0 173 0 0 173 0 0 173 0 0 173 0 0 173 0 0 173 0 0 173 0 0 173 0 0 183 0 0 183 0 0 183 0 0 183 0 0 183 0 0 183 0 0 183 0 0 183 0 0 183 0 0 183 0 0 178 0 0 178 0 0 178 0 0 178 0 0 178 0 0 178 0 0 178 0 0 178 0 0 178 0 0 178 0 0 182 0 0 182 0 0 182 0 0 182 0 0 182 0 0 182 0 0 182 0 0 182 0 0 182 0 0 182 0 0 136 0 0 136 0 0 136 0 0 136 0 0 136 0 0 136 0 0 136 0 0 136 0 0 136 0 0 136 0 0 109 0 0 109 0 0 109 0 0 109 0 0 109 0 0 109 0 0 109 0 0 109 0 0 109 0 0 109 0 0 129 0 0 129 0 0 129 0 0 129 0 0 129 0 0 129 0 0 129 0 0 129 0 0 129 0 0 129 0 0 131 0 0 131 0 0 131 0 0 131 0 0 131 0 0 131 0 0 131 0 0 131 0 0 131 0 0 131 0 0 125 0 0 125 0 0 125 0 0 125 0 0 125 0 0 125 0 0 125 0 0 125 0 0 125 0 0 125 0 0 0 0 0 0 0 0 0 0 0 0 0 0 0 0 0 0 0 0 0 0 0 0 0 0 0 0 0 0 0 0 255 94 0 255 94 0 255 94 0 255 94 0 255 94 0 255 94 0 255 94 0 255 94 0 255 94 0 255 94 0 255 94 0 255 94 0 255 94 0 255 94 0 255 94 0 255 94 0 255 94 0 255 94 0 255 94 0 255 94 0 255 94 0 255 94 0 255 94 0 255 94 0 255 94 0 255 94 0 255 94 0 255 94 0 255 94 0 255 94 0 
140 0 0 140 0 0 140 0 0 140 0 0 140 0 0 140 0 0 140 0 0 140 0 0 140 0 0 140 0 0 149 0 0 149 0 0 149 0 0 149 0 0 149 0 0 149 0 0 149 0 0 149 0 0 149 0 0 149 0 0 115 0 0 115 0 0 115 0 0 115 0 0 115 0 0 115 0 0 115 0 0 115 0 0 115 0 0 115 0 0 130 0 0 130 0 0 130 0 0 130 0 0 130 0 0 130 0 0 130 0 0 130 0 0 130 0 0 130 0 0 141 0 0 141 0 0 141 0 0 141 0 0 141 0 0 141 0 0 141 0 0 141 0 0 141 0 0 141 0 0 118 0 0 118 0 0 118 0 0 118 0 0 118 0 0 118 0 0 118 0 0 118 0 0 118 0 0 118 0 0 144 0 0 144 0 0 144 0 0 144 0 0 144 0 0 144 0 0 144 0 0 144 0 0 144 0 0 144 0 0 126 0 0 126 0 0 126 0 0 126 0 0 126 0 0 126 0 0 126 0 0 126 0 0 126 0 0 126 0 0 130 0 0 130 0 0 130 0 0 130 0 0 130 0 0 130 0 0 130 0 0 130 0 0 130 0 0 130 0 0 121 0 0 121 0 0 121 0 0 121 0 0 121 0 0 121 0 0 121 0 0 121 0 0 121 0 0 121 0 0 115 0 0 115 0 0 115 0 0 115 0 0 115 0 0 115 0 0 115 0 0 115 0 0 115 0 0 115 0 0 110 0 0 110 0 0 110 0 0 110 0 0 110 0 0 110 0 0 110 0 0 110 0 0 110 0 0 110 0 0 175 0 0 175 0 0 175 0 0 175 0 0 175 0 0 175 0 0 175 0 0 175 0 0 175 0 0 175 0 0 208 0 0 208 0 0 208 0 0 208 0 0 208 0 0 208 0 0 208 0 0 208 0 0 208 0 0 208 0 0 222 0 0 222 0 0 222 0 0 222 0 0 222 0 0 222 0 0 222 0 0 222 0 0 222 0 0 222 0 0 226 0 0 226 0 0 226 0 0 226 0 0 226 0 0 226 0 0 226 0 0 226 0 0 226 0 0 226 0 0 160 0 0 160 0 0 160 0 0 160 0 0 160 0 0 160 0 0 160 0 0 160 0 0 160 0 0 160 0 0 137 0 0 137 0 0 137 0 0 137 0 0 137 0 0 137 0 0 137 0 0 137 0 0 137 0 0 137 0 0 147 0 0 147 0 0 147 0 0 147 0 0 147 0 0 147 0 0 147 0 0 147 0 0 147 0 0 147 0 0 173 0 0 173 0 0 173 0 0 173 0 0 173 0 0 173 0 0 173 0 0 173 0 0 173 0 0 173 0 0 183 0 0 183 0 0 183 0 0 183 0 0 183 0 0 183 0 0 183 0 0 183 0 0 183 0 0 183 0 0 178 0 0 178 0 0 178 0 0 178 0 0 178 0 0 178 0 0 178 0 0 178 0 0 178 0 0 178 0 0 182 0 0 182 0 0 182 0 0 182 0 0 182 0 0 182 0 0 182 0 0 182 0 0 182 0 0 182 0 0 136 0 0 136 0 0 136 0 0 136 0 0 136 0 0 136 0 0 136 0 0 136 0 0 136 0 0 136 0 0 109 0 0 109 0 0 109 0 0 109 0 0 109 0 0 109 0 0 109 0 0 109 0 0 109 0 0 109 0 0 129 0 0 129 0 0 129 0 0 129 0 0 129 0 0 129 0 0 129 0 0 129 0 0 129 0 0 129 0 0 131 0 0 131 0 0 131 0 0 131 0 0 131 0 0 131 0 0 131 0 0 131 0 0 131 0 0 131 0 0 125 0 0 125 0 0 125 0 0 125 0 0 125 0 0 125 0 0 125 0 0 125 0 0 125 0 0 125 0 0 0 0 0 0 0 0 0 0 0 0 0 0 0 0 0 0 0 0 0 0 0 0 0 0 0 0 0 0 0 0 255 90 0 255 90 0 255 90 0 255 90 0 255 90 0 255 90 0 255 90 0 255 90 0 255 90 0 255 90 0 255 90 0 255 90 0 255 90 0 255 90 0 255 90 0 255 90 0 255 90 0 255 90 0 255 90 0 255 90 0 255 90 0 255 90 0 255 90 0 255 90 0 255 90 0 255 90 0 255 90 0 255 90 0 255 90 0 255 90 0 
140 0 0 140 0 0 140 0 0 140 0 0 140 0 0 140 0 0 140 0 0 140 0 0 140 0 0 140 0 0 149 0 0 149 0 0 149 0 0 149 0 0 149 0 0 149 0 0 149 0 0 149 0 0 149 0 0 149 0 0 115 0 0 115 0 0 115 0 0 115 0 0 115 0 0 115 0 0 115 0 0 115 0 0 115 0 0 115 0 0 130 0 0 130 0 0 130 0 0 130 0 0 130 0 0 130 0 0 130 0 0 130 0 0 130 0 0 130 0 0 141 0 0 141 0 0 141 0 0 141 0 0 141 0 0 141 0 0 141 0 0 141 0 0 141 0 0 141 0 0 118 0 0 118 0 0 118 0 0 118 0 0 118 0 0 118 0 0 118 0 0 118 0 0 118 0 0 118 0 0 144 0 0 144 0 0 144 0 0 144 0 0 144 0 0 144 0 0 144 0 0 144 0 0 144 0 0 144 0 0 126 0 0 126 0 0 126 0 0 126 0 0 126 0 0 126 0 0 126 0 0 126 0 0 126 0 0 126 0 0 130 0 0 130 0 0 130 0 0 130 0 0 130 0 0 130 0 0 130 0 0 130 0 0 130 0 0 130 0 0 121 0 0 121 0 0 121 0 0 121 0 0 121 0 0 121 0 0 121 0 0 121 0 0 121 0 0 121 0 0 115 0 0 115 0 0 115 0 0 115 0 0 115 0 0 115 0 0 115 0 0 115 0 0 115 0 0 115 0 0 110 0 0 110 0 0 110 0 0 110 0 0 110 0 0 110 0 0 110 0 0 110 0 0 110 0 0 110 0 0 175 0 0 175 0 0 175 0 0 175 0 0 175 0 0 175 0 0 175 0 0 175 0 0 175 0 0 175 0 0 208 0 0 208 0 0 208 0 0 208 0 0 208 0 0 208 0 0 208 0 0 208 0 0 208 0 0 208 0 0 222 0 0 222 0 0 222 0 0 222 0 0 222 0 0 222 0 0 222 0 0 222 0 0 222 0 0 222 0 0 226 0 0 226 0 0 226 0 0 226 0 0 226 0 0 226 0 0 226 0 0 226 0 0 226 0 0 226 0 0 160 0 0 160 0 0 160 0 0 160 0 0 160 0 0 160 0 0 160 0 0 160 0 0 160 0 0 160 0 0 137 0 0 137 0 0 137 0 0 137 0 0 137 0 0 137 0 0 137 0 0 137 0 0 137 0 0 137 0 0 147 0 0 147 0 0 147 0 0 147 0 0 147 0 0 147 0 0 147 0 0 147 0 0 147 0 0 147 0 0 173 0 0 173 0 0 173 0 0 173 0 0 173 0 0 173 0 0 173 0 0 173 0 0 173 0 0 173 0 0 183 0 0 183 0 0 183 0 0 183 0 0 183 0 0 183 0 0 183 0 0 183 0 0 183 0 0 183 0 0 178 0 0 178 0 0 178 0 0 178 0 0 178 0 0 178 0 0 178 0 0 178 0 0 178 0 0 178 0 0 182 0 0 182 0 0 182 0 0 182 0 0 182 0 0 182 0 0 182 0 0 182 0 0 182 0 0 182 0 0 136 0 0 136 0 0 136 0 0 136 0 0 136 0 0 136 0 0 136 0 0 136 0 0 136 0 0 136 0 0 109 0 0 109 0 0 109 0 0 109 0 0 109 0 0 109 0 0 109 0 0 109 0 0 109 0 0 109 0 0 129 0 0 129 0 0 129 0 0 129 0 0 129 0 0 129 0 0 129 0 0 129 0 0 129 0 0 129 0 0 131 0 0 131 0 0 131 0 0 131 0 0 131 0 0 131 0 0 131 0 0 131 0 0 131 0 0 131 0 0 125 0 0 125 0 0 125 0 0 125 0 0 125 0 0 125 0 0 125 0 0 125 0 0 125 0 0 125 0 0 0 0 0 0 0 0 0 0 0 0 0 0 0 0 0 0 0 0 0 0 0 0 0 0 0 0 0 0 0 0 255 86 0 255 86 0 255 86 0 255 86 0 255 86 0 255 86 0 255 86 0 255 86 0 255 86 0 255 86 0 255 86 0 255 86 0 255 86 0 255 86 0 255 86 0 255 86 0 255 86 0 255 86 0 255 86 0 255 86 0 255 86 0 255 86 0 255 86 0 255 86 0 255 86 0 255 86 0 255 86 0 255 86 0 255 86 0 255 86 0 
140 0 0 140 0 0 140 0 0 140 0 0 140 0 0 140 0 0 140 0 0 140 0 0 140 0 0 140 0 0 149 0 0 149 0 0 149 0 0 149 0 0 149 0 0 149 0 0 149 0 0 149 0 0 149 0 0 149 0 0 115 0 0 115 0 0 115 0 0 115 0 0 115 0 0 115 0 0 115 0 0 115 0 0 115 0 0 115 0 0 130 0 0 130 0 0 130 0 0 130 0 0 130 0 0 130 0 0 130 0 0 130 0 0 130 0 0 130 0 0 141 0 0 141 0 0 141 0 0 141 0 0 141 0 0 141 0 0 141 0 0 141 0 0 141 0 0 141 0 0 118 0 0 118 0 0 118 0 0 118 0 0 118 0 0 118 0 0 118 0 0 118 0 0 118 0 0 118 0 0 144 0 0 144 0 0 144 0 0 144 0 0 144 0 0 144 0 0 144 0 0 144 0 0 144 0 0 144 0 0 126 0 0 126 0 0 126 0 0 126 0 0 126 0 0 126 0 0 126 0 0 126 0 0 126 0 0 126 0 0 130 0 0 130 0 0 130 0 0 130 0 0 130 0 0 130 0 0 130 0 0 130 0 0 130 0 0 130 0 0 121 0 0 121 0 0 121 0 0 121 0 0 121 0 0 121 0 0 121 0 0 121 0 0 121 0 0 121 0 0 115 0 0 115 0 0 115 0 0 115 0 0 115 0 0 115 0 0 115 0 0 115 0 0 115 0 0 115 0 0 110 0 0 110 0 0 110 0 0 110 0 0 110 0 0 110 0 0 110 0 0 110 0 0 110 0 0 110 0 0 175 0 0 175 0 0 175 0 0 175 0 0 175 0 0 175 0 0 175 0 0 175 0 0 175 0 0 175 0 0 208 0 0 208 0 0 208 0 0 208 0 0 208 0 0 208 0 0 208 0 0 208 0 0 208 0 0 208 0 0 222 0 0 222 0 0 222 0 0 222 0 0 222 0 0 222 0 0 222 0 0 222 0 0 222 0 0 222 0 0 226 0 0 226 0 0 226 0 0 226 0 0 226 0 0 226 0 0 226 0 0 226 0 0 226 0 0 226 0 0 160 0 0 160 0 0 160 0 0 160 0 0 160 0 0 160 0 0 160 0 0 160 0 0 160 0 0 160 0 0 137 0 0 137 0 0 137 0 0 137 0 0 137 0 0 137 0 0 137 0 0 137 0 0 137 0 0 137 0 0 147 0 0 147 0 0 147 0 0 147 0 0 147 0 0 147 0 0 147 0 0 147 0 0 147 0 0 147 0 0 173 0 0 173 0 0 173 0 0 173 0 0 173 0 0 173 0 0 173 0 0 173 0 0 173 0 0 173 0 0 183 0 0 183 0 0 183 0 0 183 0 0 183 0 0 183 0 0 183 0 0 183 0 0 183 0 0 183 0 0 178 0 0 178 0 0 178 0 0 178 0 0 178 0 0 178 0 0 178 0 0 178 0 0 178 0 0 178 0 0 182 0 0 182 0 0 182 0 0 182 0 0 182 0 0 182 0 0 182 0 0 182 0 0 182 0 0 182 0 0 136 0 0 136 0 0 136 0 0 136 0 0 136 0 0 136 0 0 136 0 0 136 0 0 136 0 0 136 0 0 109 0 0 109 0 0 109 0 0 109 0 0 109 0 0 109 0 0 109 0 0 109 0 0 109 0 0 109 0 0 129 0 0 129 0 0 129 0 0 129 0 0 129 0 0 129 0 0 129 0 0 129 0 0 129 0 0 129 0 0 131 0 0 131 0 0 131 0 0 131 0 0 131 0 0 131 0 0 131 0 0 131 0 0 131 0 0 131 0 0 125 0 0 125 0 0 125 0 0 125 0 0 125 0 0 125 0 0 125 0 0 125 0 0 125 0 0 125 0 0 0 0 0 0 0 0 0 0 0 0 0 0 0 0 0 0 0 0 0 0 0 0 0 0 0 0 0 0 0 0 255 83 0 255 83 0 255 83 0 255 83 0 255 83 0 255 83 0 255 83 0 255 83 0 255 83 0 255 83 0 255 83 0 255 83 0 255 83 0 255 83 0 255 83 0 255 83 0 255 83 0 255 83 0 255 83 0 255 83 0 255 83 0 255 83 0 255 83 0 255 83 0 255 83 0 255 83 0 255 83 0 255 83 0 255 83 0 255 83 0 
140 0 0 140 0 0 140 0 0 140 0 0 140 0 0 140 0 0 140 0 0 140 0 0 140 0 0 140 0 0 149 0 0 149 0 0 149 0 0 149 0 0 149 0 0 149 0 0 149 0 0 149 0 0 149 0 0 149 0 0 115 0 0 115 0 0 115 0 0 115 0 0 115 0 0 115 0 0 115 0 0 115 0 0 115 0 0 115 0 0 130 0 0 130 0 0 130 0 0 130 0 0 130 0 0 130 0 0 130 0 0 130 0 0 130 0 0 130 0 0 141 0 0 141 0 0 141 0 0 141 0 0 141 0 0 141 0 0 141 0 0 141 0 0 141 0 0 141 0 0 118 0 0 118 0 0 118 0 0 118 0 0 118 0 0 118 0 0 118 0 0 118 0 0 118 0 0 118 0 0 144 0 0 144 0 0 144 0 0 144 0 0 144 0 0 144 0 0 144 0 0 144 0 0 144 0 0 144 0 0 126 0 0 126 0 0 126 0 0 126 0 0 126 0 0 126 0 0 126 0 0 126 0 0 126 0 0 126 0 0 130 0 0 130 0 0 130 0 0 130 0 0 130 0 0 130 0 0 130 0 0 130 0 0 130 0 0 130 0 0 121 0 0 121 0 0 121 0 0 121 0 0 121 0 0 121 0 0 121 0 0 121 0 0 121 0 0 121 0 0 115 0 0 115 0 0 115 0 0 115 0 0 115 0 0 115 0 0 115 0 0 115 0 0 115 0 0 115 0 0 110 0 0 110 0 0 110 0 0 110 0 0 110 0 0 110 0 0 110 0 0 110 0 0 110 0 0 110 0 0 175 0 0 175 0 0 175 0 0 175 0 0 175 0 0 175 0 0 175 0 0 175 0 0 175 0 0 175 0 0 208 0 0 208 0 0 208 0 0 208 0 0 208 0 0 208 0 0 208 0 0 208 0 0 208 0 0 208 0 0 222 0 0 222 0 0 222 0 0 222 0 0 222 0 0 222 0 0 222 0 0 222 0 0 222 0 0 222 0 0 226 0 0 226 0 0 226 0 0 226 0 0 226 0 0 226 0 0 226 0 0 226 0 0 226 0 0 226 0 0 160 0 0 160 0 0 160 0 0 160 0 0 160 0 0 160 0 0 160 0 0 160 0 0 160 0 0 160 0 0 137 0 0 137 0 0 137 0 0 137 0 0 137 0 0 137 0 0 137 0 0 137 0 0 137 0 0 137 0 0 147 0 0 147 0 0 147 0 0 147 0 0 147 0 0 147 0 0 147 0 0 147 0 0 147 0 0 147 0 0 173 0 0 173 0 0 173 0 0 173 0 0 173 0 0 173 0 0 173 0 0 173 0 0 173 0 0 173 0 0 183 0 0 183 0 0 183 0 0 183 0 0 183 0 0 183 0 0 183 0 0 183 0 0 183 0 0 183 0 0 178 0 0 178 0 0 178 0 0 178 0 0 178 0 0 178 0 0 178 0 0 178 0 0 178 0 0 178 0 0 182 0 0 182 0 0 182 0 0 182 0 0 182 0 0 182 0 0 182 0 0 182 0 0 182 0 0 182 0 0 136 0 0 136 0 0 136 0 0 136 0 0 136 0 0 136 0 0 136 0 0 136 0 0 136 0 0 136 0 0 109 0 0 109 0 0 109 0 0 109 0 0 109 0 0 109 0 0 109 0 0 109 0 0 109 0 0 109 0 0 129 0 0 129 0 0 129 0 0 129 0 0 129 0 0 129 0 0 129 0 0 129 0 0 129 0 0 129 0 0 131 0 0 131 0 0 131 0 0 131 0 0 131 0 0 131 0 0 131 0 0 131 0 0 131 0 0 131 0 0 125 0 0 125 0 0 125 0 0 125 0 0 125 0 0 125 0 0 125 0 0 125 0 0 125 0 0 125 0 0 0 0 0 0 0 0 0 0 0 0 0 0 0 0 0 0 0 0 0 0 0 0 0 0 0 0 0 0 0 0 255 79 0 255 79 0 255 79 0 255 79 0 255 79 0 255 79 0 255 79 0 255 79 0 255 79 0 255 79 0 255 79 0 255 79 0 255 79 0 255 79 0 255 79 0 255 79 0 255 79 0 255 79 0 255 79 0 255 79 0 255 79 0 255 79 0 255 79 0 255 79 0 255 79 0 255 79 0 255 79 0 255 79 0 255 79 0 255 79 0 
140 0 0 140 0 0 140 0 0 140 0 0 140 0 0 140 0 0 140 0 0 140 0 0 140 0 0 140 0 0 149 0 0 149 0 0 149 0 0 149 0 0 149 0 0 149 0 0 149 0 0 149 0 0 149 0 0 149 0 0 115 0 0 115 0 0 115 0 0 115 0 0 115 0 0 115 0 0 115 0 0 115 0 0 115 0 0 115 0 0 130 0 0 130 0 0 130 0 0 130 0 0 130 0 0 130 0 0 130 0 0 130 0 0 130 0 0 130 0 0 141 0 0 141 0 0 141 0 0 141 0 0 141 0 0 141 0 0 141 0 0 141 0 0 141 0 0 141 0 0 118 0 0 118 0 0 118 0 0 118 0 0 118 0 0 118 0 0 118 0 0 118 0 0 118 0 0 118 0 0 144 0 0 144 0 0 144 0 0 144 0 0 144 0 0 144 0 0 144 0 0 144 0 0 144 0 0 144 0 0 126 0 0 126 0 0 126 0 0 126 0 0 126 0 0 126 0 0 126 0 0 126 0 0 126 0 0 126 0 0 130 0 0 130 0 0 130 0 0 130 0 0 130 0 0 130 0 0 130 0 0 130 0 0 130 0 0 130 0 0 121 0 0 121 0 0 121 0 0 121 0 0 121 0 0 121 0 0 121 0 0 121 0 0 121 0 0 121 0 0 115 0 0 115 0 0 115 0 0 115 0 0 115 0 0 115 0 0 115 0 0 115 0 0 115 0 0 115 0 0 110 0 0 110 0 0 110 0 0 110 0 0 110 0 0 110 0 0 110 0 0 110 0 0 110 0 0 110 0 0 175 0 0 175 0 0 175 0 0 175 0 0 175 0 0 175 0 0 175 0 0 175 0 0 175 0 0 175 0 0 208 0 0 208 0 0 208 0 0 208 0 0 208 0 0 208 0 0 208 0 0 208 0 0 208 0 0 208 0 0 222 0 0 222 0 0 222 0 0 222 0 0 222 0 0 222 0 0 222 0 0 222 0 0 222 0 0 222 0 0 226 0 0 226 0 0 226 0 0 226 0 0 226 0 0 226 0 0 226 0 0 226 0 0 226 0 0 226 0 0 160 0 0 160 0 0 160 0 0 160 0 0 160 0 0 160 0 0 160 0 0 160 0 0 160 0 0 160 0 0 137 0 0 137 0 0 137 0 0 137 0 0 137 0 0 137 0 0 137 0 0 137 0 0 137 0 0 137 0 0 147 0 0 147 0 0 147 0 0 147 0 0 147 0 0 147 0 0 147 0 0 147 0 0 147 0 0 147 0 0 173 0 0 173 0 0 173 0 0 173 0 0 173 0 0 173 0 0 173 0 0 173 0 0 173 0 0 173 0 0 183 0 0 183 0 0 183 0 0 183 0 0 183 0 0 183 0 0 183 0 0 183 0 0 183 0 0 183 0 0 178 0 0 178 0 0 178 0 0 178 0 0 178 0 0 178 0 0 178 0 0 178 0 0 178 0 0 178 0 0 182 0 0 182 0 0 182 0 0 182 0 0 182 0 0 182 0 0 182 0 0 182 0 0 182 0 0 182 0 0 136 0 0 136 0 0 136 0 0 136 0 0 136 0 0 136 0 0 136 0 0 136 0 0 136 0 0 136 0 0 109 0 0 109 0 0 109 0 0 109 0 0 109 0 0 109 0 0 109 0 0 109 0 0 109 0 0 109 0 0 129 0 0 129 0 0 129 0 0 129 0 0 129 0 0 129 0 0 129 0 0 129 0 0 129 0 0 129 0 0 131 0 0 131 0 0 131 0 0 131 0 0 131 0 0 131 0 0 131 0 0 131 0 0 131 0 0 131 0 0 125 0 0 125 0 0 125 0 0 125 0 0 125 0 0 125 0 0 125 0 0 125 0 0 125 0 0 125 0 0 0 0 0 0 0 0 0 0 0 0 0 0 0 0 0 0 0 0 0 0 0 0 0 0 0 0 0 0 0 0 255 75 0 255 75 0 255 75 0 255 75 0 255 75 0 255 75 0 255 75 0 255 75 0 255 75 0 255 75 0 255 75 0 255 75 0 255 75 0 255 75 0 255 75 0 255 75 0 255 75 0 255 75 0 255 75 0 255 75 0 255 75 0 255 75 0 255 75 0 255 75 0 255 75 0 255 75 0 255 75 0 255 75 0 255 75 0 255 75 0 
119 0 0 119 0 0 119 0 0 119 0 0 119 0 0 119 0 0 119 0 0 119 0 0 119 0 0 119 0 0 133 0 0 133 0 0 133 0 0 133 0 0 133 0 0 133 0 0 133 0 0 133 0 0 133 0 0 133 0 0 125 0 0 125 0 0 125 0 0 125 0 0 125 0 0 125 0 0 125 0 0 125 0 0 125 0 0 125 0 0 154 0 0 154 0 0 154 0 0 154 0 0 154 0 0 154 0 0 154 0 0 154 0 0 154 0 0 154 0 0 135 0 0 135 0 0 135 0 0 135 0 0 135 0 0 135 0 0 135 0 0 135 0 0 135 0 0 135 0 0 125 0 0 125 0 0 125 0 0 125 0 0 125 0 0 125 0 0 125 0 0 125 0 0 125 0 0 125 0 0 116 0 0 116 0 0 116 0 0 116 0 0 116 0 0 116 0 0 116 0 0 116 0 0 116 0 0 116 0 0 102 0 0 102 0 0 102 0 0 102 0 0 102 0 0 102 0 0 102 0 0 102 0 0 102 0 0 102 0 0 60 0 0 60 0 0 60 0 0 60 0 0 60 0 0 60 0 0 60 0 0 60 0 0 60 0 0 60 0 0 71 0 0 71 0 0 71 0 0 71 0 0 71 0 0 71 0 0 71 0 0 71 0 0 71 0 0 71 0 0 76 0 0 76 0 0 76 0 0 76 0 0 76 0 0 76 0 0 76 0 0 76 0 0 76 0 0 76 0 0 98 0 0 98 0 0 98 0 0 98 0 0 98 0 0 98 0 0 98 0 0 98 0 0 98 0 0 98 0 0 120 0 0 120 0 0 120 0 0 120 0 0 120 0 0 120 0 0 120 0 0 120 0 0 120 0 0 120 0 0 157 0 0 157 0 0 157 0 0 157 0 0 157 0 0 157 0 0 157 0 0 157 0 0 157 0 0 157 0 0 187 0 0 187 0 0 187 0 0 187 0 0 187 0 0 187 0 0 187 0 0 187 0 0 187 0 0 187 0 0 183 0 0 183 0 0 183 0 0 183 0 0 183 0 0 183 0 0 183 0 0 183 0 0 183 0 0 183 0 0 130 0 0 130 0 0 130 0 0 130 0 0 130 0 0 130 0 0 130 0 0 130 0 0 130 0 0 130 0 0 110 0 0 110 0 0 110 0 0 110 0 0 110 0 0 110 0 0 110 0 0 110 0 0 110 0 0 110 0 0 106 0 0 106 0 0 106 0 0 106 0 0 106 0 0 106 0 0 106 0 0 106 0 0 106 0 0 106 0 0 176 0 0 176 0 0 176 0 0 176 0 0 176 0 0 176 0 0 176 0 0 176 0 0 176 0 0 176 0 0 216 0 0 216 0 0 216 0 0 216 0 0 216 0 0 216 0 0 216 0 0 216 0 0 216 0 0 216 0 0 229 0 0 229 0 0 229 0 0 229 0 0 229 0 0 229 0 0 229 0 0 229 0 0 229 0 0 229 0 0 201 0 0 201 0 0 201 0 0 201 0 0 201 0 0 201 0 0 201 0 0 201 0 0 201 0 0 201 0 0 176 0 0 176 0 0 176 0 0 176 0 0 176 0 0 176 0 0 176 0 0 176 0 0 176 0 0 176 0 0 147 0 0 147 0 0 147 0 0 147 0 0 147 0 0 147 0 0 147 0 0 147 0 0 147 0 0 147 0 0 129 0 0 129 0 0 129 0 0 129 0 0 129 0 0 129 0 0 129 0 0 129 0 0 129 0 0 129 0 0 118 0 0 118 0 0 118 0 0 118 0 0 118 0 0 118 0 0 118 0 0 118 0 0 118 0 0 118 0 0 150 0 0 150 0 0 150 0 0 150 0 0 150 0 0 150 0 0 150 0 0 150 0 0 150 0 0 150 0 0 0 0 0 0 0 0 0 0 0 0 0 0 0 0 0 0 0 0 0 0 0 0 0 0 0 0 0 0 0 0 255 72 0 255 72 0 255 72 0 255 72 0 255 72 0 255 72 0 255 72 0 255 72 0 255 72 0 255 72 0 255 72 0 255 72 0 255 72 0 255 72 0 255 72 0 255 72 0 255 72 0 255 72 0 255 72 0 255 72 0 255 72 0 255 72 0 255 72 0 255 72 0 255 72 0 255 72 0 255 72 0 255 72 0 255 72 0 255 72 0 
119 0 0 119 0 0 119 0 0 119 0 0 119 0 0 119 0 0 119 0 0 119 0 0 119 0 0 119 0 0 133 0 0 133 0 0 133 0 0 133 0 0 133 0 0 133 0 0 133 0 0 133 0 0 133 0 0 133 0 0 125 0 0 125 0 0 125 0 0 125 0 0 125 0 0 125 0 0 125 0 0 125 0 0 125 0 0 125 0 0 154 0 0 154 0 0 154 0 0 154 0 0 154 0 0 154 0 0 154 0 0 154 0 0 154 0 0 154 0 0 135 0 0 135 0 0 135 0 0 135 0 0 135 0 0 135 0 0 135 0 0 135 0 0 135 0 0 135 0 0 125 0 0 125 0 0 125 0 0 125 0 0 125 0 0 125 0 0 125 0 0 125 0 0 125 0 0 125 0 0 116 0 0 116 0 0 116 0 0 116 0 0 116 0 0 116 0 0 116 0 0 116 0 0 116 0 0 116 0 0 102 0 0 102 0 0 102 0 0 102 0 0 102 0 0 102 0 0 102 0 0 102 0 0 102 0 0 102 0 0 60 0 0 60 0 0 60 0 0 60 0 0 60 0 0 60 0 0 60 0 0 60 0 0 60 0 0 60 0 0 71 0 0 71 0 0 71 0 0 71 0 0 71 0 0 71 0 0 71 0 0 71 0 0 71 0 0 71 0 0 76 0 0 76 0 0 76 0 0 76 0 0 76 0 0 76 0 0 76 0 0 76 0 0 76 0 0 76 0 0 98 0 0 98 0 0 98 0 0 98 0 0 98 0 0 98 0 0 98 0 0 98 0 0 98 0 0 98 0 0 120 0 0 120 0 0 120 0 0 120 0 0 120 0 0 120 0 0 120 0 0 120 0 0 120 0 0 120 0 0 157 0 0 157 0 0 157 0 0 157 0 0 157 0 0 157 0 0 157 0 0 157 0 0 157 0 0 157 0 0 187 0 0 187 0 0 187 0 0 187 0 0 187 0 0 187 0 0 187 0 0 187 0 0 187 0 0 187 0 0 183 0 0 183 0 0 183 0 0 183 0 0 183 0 0 183 0 0 183 0 0 183 0 0 183 0 0 183 0 0 130 0 0 130 0 0 130 0 0 130 0 0 130 0 0 130 0 0 130 0 0 130 0 0 130 0 0 130 0 0 110 0 0 110 0 0 110 0 0 110 0 0 110 0 0 110 0 0 110 0 0 110 0 0 110 0 0 110 0 0 106 0 0 106 0 0 106 0 0 106 0 0 106 0 0 106 0 0 106 0 0 106 0 0 106 0 0 106 0 0 176 0 0 176 0 0 176 0 0 176 0 0 176 0 0 176 0 0 176 0 0 176 0 0 176 0 0 176 0 0 216 0 0 216 0 0 216 0 0 216 0 0 216 0 0 216 0 0 216 0 0 216 0 0 216 0 0 216 0 0 229 0 0 229 0 0 229 0 0 229 0 0 229 0 0 229 0 0 229 0 0 229 0 0 229 0 0 229 0 0 201 0 0 201 0 0 201 0 0 201 0 0 201 0 0 201 0 0 201 0 0 201 0 0 201 0 0 201 0 0 176 0 0 176 0 0 176 0 0 176 0 0 176 0 0 176 0 0 176 0 0 176 0 0 176 0 0 176 0 0 147 0 0 147 0 0 147 0 0 147 0 0 147 0 0 147 0 0 147 0 0 147 0 0 147 0 0 147 0 0 129 0 0 129 0 0 129 0 0 129 0 0 129 0 0 129 0 0 129 0 0 129 0 0 129 0 0 129 0 0 118 0 0 118 0 0 118 0 0 118 0 0 118 0 0 118 0 0 118 0 0 118 0 0 118 0 0 118 0 0 150 0 0 150 0 0 150 0 0 150 0 0 150 0 0 150 0 0 150 0 0 150 0 0 150 0 0 150 0 0 0 0 0 0 0 0 0 0 0 0 0 0 0 0 0 0 0 0 0 0 0 0 0 0 0 0 0 0 0 0 255 68 0 255 68 0 255 68 0 255 68 0 255 68 0 255 68 0 255 68 0 255 68 0 255 68 0 255 68 0 255 68 0 255 68 0 255 68 0 255 68 0 255 68 0 255 68 0 255 68 0 255 68 0 255 68 0 255 68 0 255 68 0 255 68 0 255 68 0 255 68 0 255 68 0 255 68 0 255 68 0 255 68 0 255 68 0 255 68 0 
119 0 0 119 0 0 119 0 0 119 0 0 119 0 0 119 0 0 119 0 0 119 0 0 119 0 0 119 0 0 133 0 0 133 0 0 133 0 0 133 0 0 133 0 0 133 0 0 133 0 0 133 0 0 133 0 0 133 0 0 125 0 0 125 0 0 125 0 0 125 0 0 125 0 0 125 0 0 125 0 0 125 0 0 125 0 0 125 0 0 154 0 0 154 0 0 154 0 0 154 0 0 154 0 0 154 0 0 154 0 0 154 0 0 154 0 0 154 0 0 135 0 0 135 0 0 135 0 0 135 0 0 135 0 0 135 0 0 135 0 0 135 0 0 135 0 0 135 0 0 125 0 0 125 0 0 125 0 0 125 0 0 125 0 0 125 0 0 125 0 0 125 0 0 125 0 0 125 0 0 116 0 0 116 0 0 116 0 0 116 0 0 116 0 0 116 0 0 116 0 0 116 0 0 116 0 0 116 0 0 102 0 0 102 0 0 102 0 0 102 0 0 102 0 0 102 0 0 102 0 0 102 0 0 102 0 0 102 0 0 60 0 0 60 0 0 60 0 0 60 0 0 60 0 0 60 0 0 60 0 0 60 0 0 60 0 0 60 0 0 71 0 0 71 0 0 71 0 0 71 0 0 71 0 0 71 0 0 71 0 0 71 0 0 71 0 0 71 0 0 76 0 0 76 0 0 76 0 0 76 0 0 76 0 0 76 0 0 76 0 0 76 0 0 76 0 0 76 0 0 98 0 0 98 0 0 98 0 0 98 0 0 98 0 0 98 0 0 98 0 0 98 0 0 98 0 0 98 0 0 120 0 0 120 0 0 120 0 0 120 0 0 120 0 0 120 0 0 120 0 0 120 0 0 120 0 0 120 0 0 157 0 0 157 0 0 157 0 0 157 0 0 157 0 0 157 0 0 157 0 0 157 0 0 157 0 0 157 0 0 187 0 0 187 0 0 187 0 0 187 0 0 187 0 0 187 0 0 187 0 0 187 0 0 187 0 0 187 0 0 183 0 0 183 0 0 183 0 0 183 0 0 183 0 0 183 0 0 183 0 0 183 0 0 183 0 0 183 0 0 130 0 0 130 0 0 130 0 0 130 0 0 130 0 0 130 0 0 130 0 0 130 0 0 130 0 0 130 0 0 110 0 0 110 0 0 110 0 0 110 0 0 110 0 0 110 0 0 110 0 0 110 0 0 110 0 0 110 0 0 106 0 0 106 0 0 106 0 0 106 0 0 106 0 0 106 0 0 106 0 0 106 0 0 106 0 0 106 0 0 176 0 0 176 0 0 176 0 0 176 0 0 176 0 0 176 0 0 176 0 0 176 0 0 176 0 0 176 0 0 216 0 0 216 0 0 216 0 0 216 0 0 216 0 0 216 0 0 216 0 0 216 0 0 216 0 0 216 0 0 229 0 0 229 0 0 229 0 0 229 0 0 229 0 0 229 0 0 229 0 0 229 0 0 229 0 0 229 0 0 201 0 0 201 0 0 201 0 0 201 0 0 201 0 0 201 0 0 201 0 0 201 0 0 201 0 0 201 0 0 176 0 0 176 0 0 176 0 0 176 0 0 176 0 0 176 0 0 176 0 0 176 0 0 176 0 0 176 0 0 147 0 0 147 0 0 147 0 0 147 0 0 147 0 0 147 0 0 147 0 0 147 0 0 147 0 0 147 0 0 129 0 0 129 0 0 129 0 0 129 0 0 129 0 0 129 0 0 129 0 0 129 0 0 129 0 0 129 0 0 118 0 0 118 0 0 118 0 0 118 0 0 118 0 0 118 0 0 118 0 0 118 0 0 118 0 0 118 0 0 150 0 0 150 0 0 150 0 0 150 0 0 150 0 0 150 0 0 150 0 0 150 0 0 150 0 0 150 0 0 0 0 0 0 0 0 0 0 0 0 0 0 0 0 0 0 0 0 0 0 0 0 0 0 0 0 0 0 0 0 255 64 0 255 64 0 255 64 0 255 64 0 255 64 0 255 64 0 255 64 0 255 64 0 255 64 0 255 64 0 255 64 0 255 64 0 255 64 0 255 64 0 255 64 0 255 64 0 255 64 0 255 64 0 255 64 0 255 64 0 255 64 0 255 64 0 255 64 0 255 64 0 255 64 0 255 64 0 255 64 0 255 64 0 255 64 0 255 64 0 
119 0 0 119 0 0 119 0 0 119 0 0 119 0 0 119 0 0 119 0 0 119 0 0 119 0 0 119 0 0 133 0 0 133 0 0 133 0 0 133 0 0 133 0 0 133 0 0 133 0 0 133 0 0 133 0 0 133 0 0 125 0 0 125 0 0 125 0 0 125 0 0 125 0 0 125 0 0 125 0 0 125 0 0 125 0 0 125 0 0 154 0 0 154 0 0 154 0 0 154 0 0 154 0 0 154 0 0 154 0 0 154 0 0 154 0 0 154 0 0 135 0 0 135 0 0 135 0 0 135 0 0 135 0 0 135 0 0 135 0 0 135 0 0 135 0 0 135 0 0 125 0 0 125 0 0 125 0 0 125 0 0 125 0 0 125 0 0 125 0 0 125 0 0 125 0 0 125 0 0 116 0 0 116 0 0 116 0 0 116 0 0 116 0 0 116 0 0 116 0 0 116 0 0 116 0 0 116 0 0 102 0 0 102 0 0 102 0 0 102 0 0 102 0 0 102 0 0 102 0 0 102 0 0 102 0 0 102 0 0 60 0 0 60 0 0 60 0 0 60 0 0 60 0 0 60 0 0 60 0 0 60 0 0 60 0 0 60 0 0 71 0 0 71 0 0 71 0 0 71 0 0 71 0 0 71 0 0 71 0 0 71 0 0 71 0 0 71 0 0 76 0 0 76 0 0 76 0 0 76 0 0 76 0 0 76 0 0 76 0 0 76 0 0 76 0 0 76 0 0 98 0 0 98 0 0 98 0 0 98 0 0 98 0 0 98 0 0 98 0 0 98 0 0 98 0 0 98 0 0 120 0 0 120 0 0 120 0 0 120 0 0 120 0 0 120 0 0 120 0 0 120 0 0 120 0 0 120 0 0 157 0 0 157 0 0 157 0 0 157 0 0 157 0 0 157 0 0 157 0 0 157 0 0 157 0 0 157 0 0 187 0 0 187 0 0 187 0 0 187 0 0 187 0 0 187 0 0 187 0 0 187 0 0 187 0 0 187 0 0 183 0 0 183 0 0 183 0 0 183 0 0 183 0 0 183 0 0 183 0 0 183 0 0 183 0 0 183 0 0 130 0 0 130 0 0 130 0 0 130 0 0 130 0 0 130 0 0 130 0 0 130 0 0 130 0 0 130 0 0 110 0 0 110 0 0 110 0 0 110 0 0 110 0 0 110 0 0 110 0 0 110 0 0 110 0 0 110 0 0 106 0 0 106 0 0 106 0 0 106 0 0 106 0 0 106 0 0 106 0 0 106 0 0 106 0 0 106 0 0 176 0 0 176 0 0 176 0 0 176 0 0 176 0 0 176 0 0 176 0 0 176 0 0 176 0 0 176 0 0 216 0 0 216 0 0 216 0 0 216 0 0 216 0 0 216 0 0 216 0 0 216 0 0 216 0 0 216 0 0 229 0 0 229 0 0 229 0 0 229 0 0 229 0 0 229 0 0 229 0 0 229 0 0 229 0 0 229 0 0 201 0 0 201 0 0 201 0 0 201 0 0 201 0 0 201 0 0 201 0 0 201 0 0 201 0 0 201 0 0 176 0 0 176 0 0 176 0 0 176 0 0 176 0 0 176 0 0 176 0 0 176 0 0 176 0 0 176 0 0 147 0 0 147 0 0 147 0 0 147 0 0 147 0 0 147 0 0 147 0 0 147 0 0 147 0 0 147 0 0 129 0 0 129 0 0 129 0 0 129 0 0 129 0 0 129 0 0 129 0 0 129 0 0 129 0 0 129 0 0 118 0 0 118 0 0 118 0 0 118 0 0 118 0 0 118 0 0 118 0 0 118 0 0 118 0 0 118 0 0 150 0 0 150 0 0 150 0 0 150 0 0 150 0 0 150 0 0 150 0 0 150 0 0 150 0 0 150 0 0 0 0 0 0 0 0 0 0 0 0 0 0 0 0 0 0 0 0 0 0 0 0 0 0 0 0 0 0 0 0 255 61 0 255 61 0 255 61 0 255 61 0 255 61 0 255 61 0 255 61 0 255 61 0 255 61 0 255 61 0 255 61 0 255 61 0 255 61 0 255 61 0 255 61 0 255 61 0 255 61 0 255 61 0 255 61 0 255 61 0 255 61 0 255 61 0 255 61 0 255 61 0 255 61 0 255 61 0 255 61 0 255 61 0 255 61 0 255 61 0 
119 0 0 119 0 0 119 0 0 119 0 0 119 0 0 119 0 0 119 0 0 119 0 0 119 0 0 119 0 0 133 0 0 133 0 0 133 0 0 133 0 0 133 0 0 133 0 0 133 0 0 133 0 0 133 0 0 133 0 0 125 0 0 125 0 0 125 0 0 125 0 0 125 0 0 125 0 0 125 0 0 125 0 0 125 0 0 125 0 0 154 0 0 154 0 0 154 0 0 154 0 0 154 0 0 154 0 0 154 0 0 154 0 0 154 0 0 154 0 0 135 0 0 135 0 0 135 0 0 135 0 0 135 0 0 135 0 0 135 0 0 135 0 0 135 0 0 135 0 0 125 0 0 125 0 0 125 0 0 125 0 0 125 0 0 125 0 0 125 0 0 125 0 0 125 0 0 125 0 0 116 0 0 116 0 0 116 0 0 116 0 0 116 0 0 116 0 0 116 0 0 116 0 0 116 0 0 116 0 0 102 0 0 102 0 0 102 0 0 102 0 0 102 0 0 102 0 0 102 0 0 102 0 0 102 0 0 102 0 0 60 0 0 60 0 0 60 0 0 60 0 0 60 0 0 60 0 0 60 0 0 60 0 0 60 0 0 60 0 0 71 0 0 71 0 0 71 0 0 71 0 0 71 0 0 71 0 0 71 0 0 71 0 0 71 0 0 71 0 0 76 0 0 76 0 0 76 0 0 76 0 0 76 0 0 76 0 0 76 0 0 76 0 0 76 0 0 76 0 0 98 0 0 98 0 0 98 0 0 98 0 0 98 0 0 98 0 0 98 0 0 98 0 0 98 0 0 98 0 0 120 0 0 120 0 0 120 0 0 120 0 0 120 0 0 120 0 0 120 0 0 120 0 0 120 0 0 120 0 0 157 0 0 157 0 0 157 0 0 157 0 0 157 0 0 157 0 0 157 0 0 157 0 0 157 0 0 157 0 0 187 0 0 187 0 0 187 0 0 187 0 0 187 0 0 187 0 0 187 0 0 187 0 0 187 0 0 187 0 0 183 0 0 183 0 0 183 0 0 183 0 0 183 0 0 183 0 0 183 0 0 183 0 0 183 0 0 183 0 0 130 0 0 130 0 0 130 0 0 130 0 0 130 0 0 130 0 0 130 0 0 130 0 0 130 0 0 130 0 0 110 0 0 110 0 0 110 0 0 110 0 0 110 0 0 110 0 0 110 0 0 110 0 0 110 0 0 110 0 0 106 0 0 106 0 0 106 0 0 106 0 0 106 0 0 106 0 0 106 0 0 106 0 0 106 0 0 106 0 0 176 0 0 176 0 0 176 0 0 176 0 0 176 0 0 176 0 0 176 0 0 176 0 0 176 0 0 176 0 0 216 0 0 216 0 0 216 0 0 216 0 0 216 0 0 216 0 0 216 0 0 216 0 0 216 0 0 216 0 0 229 0 0 229 0 0 229 0 0 229 0 0 229 0 0 229 0 0 229 0 0 229 0 0 229 0 0 229 0 0 201 0 0 201 0 0 201 0 0 201 0 0 201 0 0 201 0 0 201 0 0 201 0 0 201 0 0 201 0 0 176 0 0 176 0 0 176 0 0 176 0 0 176 0 0 176 0 0 176 0 0 176 0 0 176 0 0 176 0 0 147 0 0 147 0 0 147 0 0 147 0 0 147 0 0 147 0 0 147 0 0 147 0 0 147 0 0 147 0 0 129 0 0 129 0 0 129 0 0 129 0 0 129 0 0 129 0 0 129 0 0 129 0 0 129 0 0 129 0 0 118 0 0 118 0 0 118 0 0 118 0 0 118 0 0 118 0 0 118 0 0 118 0 0 118 0 0 118 0 0 150 0 0 150 0 0 150 0 0 150 0 0 150 0 0 150 0 0 150 0 0 150 0 0 150 0 0 150 0 0 0 0 0 0 0 0 0 0 0 0 0 0 0 0 0 0 0 0 0 0 0 0 0 0 0 0 0 0 0 0 255 57 0 255 57 0 255 57 0 255 57 0 255 57 0 255 57 0 255 57 0 255 57 0 255 57 0 255 57 0 255 57 0 255 57 0 255 57 0 255 57 0 255 57 0 255 57 0 255 57 0 255 57 0 255 57 0 255 57 0 255 57 0 255 57 0 255 57 0 255 57 0 255 57 0 255 57 0 255 57 0 255 57 0 255 57 0 255 57 0 
119 0 0 119 0 0 119 0 0 119 0 0 119 0 0 119 0 0 119 0 0 119 0 0 119 0 0 119 0 0 133 0 0 133 0 0 133 0 0 133 0 0 133 0 0 133 0 0 133 0 0 133 0 0 133 0 0 133 0 0 125 0 0 125 0 0 125 0 0 125 0 0 125 0 0 125 0 0 125 0 0 125 0 0 125 0 0 125 0 0 154 0 0 154 0 0 154 0 0 154 0 0 154 0 0 154 0 0 154 0 0 154 0 0 154 0 0 154 0 0 135 0 0 135 0 0 135 0 0 135 0 0 135 0 0 135 0 0 135 0 0 135 0 0 135 0 0 135 0 0 125 0 0 125 0 0 125 0 0 125 0 0 125 0 0 125 0 0 125 0 0 125 0 0 125 0 0 125 0 0 116 0 0 116 0 0 116 0 0 116 0 0 116 0 0 116 0 0 116 0 0 116 0 0 116 0 0 116 0 0 102 0 0 102 0 0 102 0 0 102 0 0 102 0 0 102 0 0 102 0 0 102 0 0 102 0 0 102 0 0 60 0 0 60 0 0 60 0 0 60 0 0 60 0 0 60 0 0 60 0 0 60 0 0 60 0 0 60 0 0 71 0 0 71 0 0 71 0 0 71 0 0 71 0 0 71 0 0 71 0 0 71 0 0 71 0 0 71 0 0 76 0 0 76 0 0 76 0 0 76 0 0 76 0 0 76 0 0 76 0 0 76 0 0 76 0 0 76 0 0 98 0 0 98 0 0 98 0 0 98 0 0 98 0 0 98 0 0 98 0 0 98 0 0 98 0 0 98 0 0 120 0 0 120 0 0 120 0 0 120 0 0 120 0 0 120 0 0 120 0 0 120 0 0 120 0 0 120 0 0 157 0 0 157 0 0 157 0 0 157 0 0 157 0 0 157 0 0 157 0 0 157 0 0 157 0 0 157 0 0 187 0 0 187 0 0 187 0 0 187 0 0 187 0 0 187 0 0 187 0 0 187 0 0 187 0 0 187 0 0 183 0 0 183 0 0 183 0 0 183 0 0 183 0 0 183 0 0 183 0 0 183 0 0 183 0 0 183 0 0 130 0 0 130 0 0 130 0 0 130 0 0 130 0 0 130 0 0 130 0 0 130 0 0 130 0 0 130 0 0 110 0 0 110 0 0 110 0 0 110 0 0 110 0 0 110 0 0 110 0 0 110 0 0 110 0 0 110 0 0 106 0 0 106 0 0 106 0 0 106 0 0 106 0 0 106 0 0 106 0 0 106 0 0 106 0 0 106 0 0 176 0 0 176 0 0 176 0 0 176 0 0 176 0 0 176 0 0 176 0 0 176 0 0 176 0 0 176 0 0 216 0 0 216 0 0 216 0 0 216 0 0 216 0 0 216 0 0 216 0 0 216 0 0 216 0 0 216 0 0 229 0 0 229 0 0 229 0 0 229 0 0 229 0 0 229 0 0 229 0 0 229 0 0 229 0 0 229 0 0 201 0 0 201 0 0 201 0 0 201 0 0 201 0 0 201 0 0 201 0 0 201 0 0 201 0 0 201 0 0 176 0 0 176 0 0 176 0 0 176 0 0 176 0 0 176 0 0 176 0 0 176 0 0 176 0 0 176 0 0 147 0 0 147 0 0 147 0 0 147 0 0 147 0 0 147 0 0 147 0 0 147 0 0 147 0 0 147 0 0 129 0 0 129 0 0 129 0 0 129 0 0 129 0 0 129 0 0 129 0 0 129 0 0 129 0 0 129 0 0 118 0 0 118 0 0 118 0 0 118 0 0 118 0 0 118 0 0 118 0 0 118 0 0 118 0 0 118 0 0 150 0 0 150 0 0 150 0 0 150 0 0 150 0 0 150 0 0 150 0 0 150 0 0 150 0 0 150 0 0 0 0 0 0 0 0 0 0 0 0 0 0 0 0 0 0 0 0 0 0 0 0 0 0 0 0 0 0 0 0 255 53 0 255 53 0 255 53 0 255 53 0 255 53 0 255 53 0 255 53 0 255 53 0 255 53 0 255 53 0 255 53 0 255 53 0 255 53 0 255 53 0 255 53 0 255 53 0 255 53 0 255 53 0 255 53 0 255 53 0 255 53 0 255 53 0 255 53 0 255 53 0 255 53 0 255 53 0 255 53 0 255 53 0 255 53 0 255 53 0 
119 0 0 119 0 0 119 0 0 119 0 0 119 0 0 119 0 0 119 0 0 119 0 0 119 0 0 119 0 0 133 0 0 133 0 0 133 0 0 133 0 0 133 0 0 133 0 0 133 0 0 133 0 0 133 0 0 133 0 0 125 0 0 125 0 0 125 0 0 125 0 0 125 0 0 125 0 0 125 0 0 125 0 0 125 0 0 125 0 0 154 0 0 154 0 0 154 0 0 154 0 0 154 0 0 154 0 0 154 0 0 154 0 0 154 0 0 154 0 0 135 0 0 135 0 0 135 0 0 135 0 0 135 0 0 135 0 0 135 0 0 135 0 0 135 0 0 135 0 0 125 0 0 125 0 0 125 0 0 125 0 0 125 0 0 125 0 0 125 0 0 125 0 0 125 0 0 125 0 0 116 0 0 116 0 0 116 0 0 116 0 0 116 0 0 116 0 0 116 0 0 116 0 0 116 0 0 116 0 0 102 0 0 102 0 0 102 0 0 102 0 0 102 0 0 102 0 0 102 0 0 102 0 0 102 0 0 102 0 0 60 0 0 60 0 0 60 0 0 60 0 0 60 0 0 60 0 0 60 0 0 60 0 0 60 0 0 60 0 0 71 0 0 71 0 0 71 0 0 71 0 0 71 0 0 71 0 0 71 0 0 71 0 0 71 0 0 71 0 0 76 0 0 76 0 0 76 0 0 76 0 0 76 0 0 76 0 0 76 0 0 76 0 0 76 0 0 76 0 0 98 0 0 98 0 0 98 0 0 98 0 0 98 0 0 98 0 0 98 0 0 98 0 0 98 0 0 98 0 0 120 0 0 120 0 0 120 0 0 120 0 0 120 0 0 120 0 0 120 0 0 120 0 0 120 0 0 120 0 0 157 0 0 157 0 0 157 0 0 157 0 0 157 0 0 157 0 0 157 0 0 157 0 0 157 0 0 157 0 0 187 0 0 187 0 0 187 0 0 187 0 0 187 0 0 187 0 0 187 0 0 187 0 0 187 0 0 187 0 0 183 0 0 183 0 0 183 0 0 183 0 0 183 0 0 183 0 0 183 0 0 183 0 0 183 0 0 183 0 0 130 0 0 130 0 0 130 0 0 130 0 0 130 0 0 130 0 0 130 0 0 130 0 0 130 0 0 130 0 0 110 0 0 110 0 0 110 0 0 110 0 0 110 0 0 110 0 0 110 0 0 110 0 0 110 0 0 110 0 0 106 0 0 106 0 0 106 0 0 106 0 0 106 0 0 106 0 0 106 0 0 106 0 0 106 0 0 106 0 0 176 0 0 176 0 0 176 0 0 176 0 0 176 0 0 176 0 0 176 0 0 176 0 0 176 0 0 176 0 0 216 0 0 216 0 0 216 0 0 216 0 0 216 0 0 216 0 0 216 0 0 216 0 0 216 0 0 216 0 0 229 0 0 229 0 0 229 0 0 229 0 0 229 0 0 229 0 0 229 0 0 229 0 0 229 0 0 229 0 0 201 0 0 201 0 0 201 0 0 201 0 0 201 0 0 201 0 0 201 0 0 201 0 0 201 0 0 201 0 0 176 0 0 176 0 0 176 0 0 176 0 0 176 0 0 176 0 0 176 0 0 176 0 0 176 0 0 176 0 0 147 0 0 147 0 0 147 0 0 147 0 0 147 0 0 147 0 0 147 0 0 147 0 0 147 0 0 147 0 0 129 0 0 129 0 0 129 0 0 129 0 0 129 0 0 129 0 0 129 0 0 129 0 0 129 0 0 129 0 0 118 0 0 118 0 0 118 0 0 118 0 0 118 0 0 118 0 0 118 0 0 118 0 0 118 0 0 118 0 0 150 0 0 150 0 0 150 0 0 150 0 0 150 0 0 150 0 0 150 0 0 150 0 0 150 0 0 150 0 0 0 0 0 0 0 0 0 0 0 0 0 0 0 0 0 0 0 0 0 0 0 0 0 0 0 0 0 0 0 0 255 50 0 255 50 0 255 50 0 255 50 0 255 50 0 255 50 0 255 50 0 255 50 0 255 50 0 255 50 0 255 50 0 255 50 0 255 50 0 255 50 0 255 50 0 255 50 0 255 50 0 255 50 0 255 50 0 255 50 0 255 50 0 255 50 0 255 50 0 255 50 0 255 50 0 255 50 0 255 50 0 255 50 0 255 50 0 255 50 0 
119 0 0 119 0 0 119 0 0 119 0 0 119 0 0 119 0 0 119 0 0 119 0 0 119 0 0 119 0 0 133 0 0 133 0 0 133 0 0 133 0 0 133 0 0 133 0 0 133 0 0 133 0 0 133 0 0 133 0 0 125 0 0 125 0 0 125 0 0 125 0 0 125 0 0 125 0 0 125 0 0 125 0 0 125 0 0 125 0 0 154 0 0 154 0 0 154 0 0 154 0 0 154 0 0 154 0 0 154 0 0 154 0 0 154 0 0 154 0 0 135 0 0 135 0 0 135 0 0 135 0 0 135 0 0 135 0 0 135 0 0 135 0 0 135 0 0 135 0 0 125 0 0 125 0 0 125 0 0 125 0 0 125 0 0 125 0 0 125 0 0 125 0 0 125 0 0 125 0 0 116 0 0 116 0 0 116 0 0 116 0 0 116 0 0 116 0 0 116 0 0 116 0 0 116 0 0 116 0 0 102 0 0 102 0 0 102 0 0 102 0 0 102 0 0 102 0 0 102 0 0 102 0 0 102 0 0 102 0 0 60 0 0 60 0 0 60 0 0 60 0 0 60 0 0 60 0 0 60 0 0 60 0 0 60 0 0 60 0 0 71 0 0 71 0 0 71 0 0 71 0 0 71 0 0 71 0 0 71 0 0 71 0 0 71 0 0 71 0 0 76 0 0 76 0 0 76 0 0 76 0 0 76 0 0 76 0 0 76 0 0 76 0 0 76 0 0 76 0 0 98 0 0 98 0 0 98 0 0 98 0 0 98 0 0 98 0 0 98 0 0 98 0 0 98 0 0 98 0 0 120 0 0 120 0 0 120 0 0 120 0 0 120 0 0 120 0 0 120 0 0 120 0 0 120 0 0 120 0 0 157 0 0 157 0 0 157 0 0 157 0 0 157 0 0 157 0 0 157 0 0 157 0 0 157 0 0 157 0 0 187 0 0 187 0 0 187 0 0 187 0 0 187 0 0 187 0 0 187 0 0 187 0 0 187 0 0 187 0 0 183 0 0 183 0 0 183 0 0 183 0 0 183 0 0 183 0 0 183 0 0 183 0 0 183 0 0 183 0 0 130 0 0 130 0 0 130 0 0 130 0 0 130 0 0 130 0 0 130 0 0 130 0 0 130 0 0 130 0 0 110 0 0 110 0 0 110 0 0 110 0 0 110 0 0 110 0 0 110 0 0 110 0 0 110 0 0 110 0 0 106 0 0 106 0 0 106 0 0 106 0 0 106 0 0 106 0 0 106 0 0 106 0 0 106 0 0 106 0 0 176 0 0 176 0 0 176 0 0 176 0 0 176 0 0 176 0 0 176 0 0 176 0 0 176 0 0 176 0 0 216 0 0 216 0 0 216 0 0 216 0 0 216 0 0 216 0 0 216 0 0 216 0 0 216 0 0 216 0 0 229 0 0 229 0 0 229 0 0 229 0 0 229 0 0 229 0 0 229 0 0 229 0 0 229 0 0 229 0 0 201 0 0 201 0 0 201 0 0 201 0 0 201 0 0 201 0 0 201 0 0 201 0 0 201 0 0 201 0 0 176 0 0 176 0 0 176 0 0 176 0 0 176 0 0 176 0 0 176 0 0 176 0 0 176 0 0 176 0 0 147 0 0 147 0 0 147 0 0 147 0 0 147 0 0 147 0 0 147 0 0 147 0 0 147 0 0 147 0 0 129 0 0 129 0 0 129 0 0 129 0 0 129 0 0 129 0 0 129 0 0 129 0 0 129 0 0 129 0 0 118 0 0 118 0 0 118 0 0 118 0 0 118 0 0 118 0 0 118 0 0 118 0 0 118 0 0 118 0 0 150 0 0 150 0 0 150 0 0 150 0 0 150 0 0 150 0 0 150 0 0 150 0 0 150 0 0 150 0 0 0 0 0 0 0 0 0 0 0 0 0 0 0 0 0 0 0 0 0 0 0 0 0 0 0 0 0 0 0 0 255 46 0 255 46 0 255 46 0 255 46 0 255 46 0 255 46 0 255 46 0 255 46 0 255 46 0 255 46 0 255 46 0 255 46 0 255 46 0 255 46 0 255 46 0 255 46 0 255 46 0 255 46 0 255 46 0 255 46 0 255 46 0 255 46 0 255 46 0 255 46 0 255 46 0 255 46 0 255 46 0 255 46 0 255 46 0 255 46 0 
119 0 0 119 0 0 119 0 0 119 0 0 119 0 0 119 0 0 119 0 0 119 0 0 119 0 0 119 0 0 133 0 0 133 0 0 133 0 0 133 0 0 133 0 0 133 0 0 133 0 0 133 0 0 133 0 0 133 0 0 125 0 0 125 0 0 125 0 0 125 0 0 125 0 0 125 0 0 125 0 0 125 0 0 125 0 0 125 0 0 154 0 0 154 0 0 154 0 0 154 0 0 154 0 0 154 0 0 154 0 0 154 0 0 154 0 0 154 0 0 135 0 0 135 0 0 135 0 0 135 0 0 135 0 0 135 0 0 135 0 0 135 0 0 135 0 0 135 0 0 125 0 0 125 0 0 125 0 0 125 0 0 125 0 0 125 0 0 125 0 0 125 0 0 125 0 0 125 0 0 116 0 0 116 0 0 116 0 0 116 0 0 116 0 0 116 0 0 116 0 0 116 0 0 116 0 0 116 0 0 102 0 0 102 0 0 102 0 0 102 0 0 102 0 0 102 0 0 102 0 0 102 0 0 102 0 0 102 0 0 60 0 0 60 0 0 60 0 0 60 0 0 60 0 0 60 0 0 60 0 0 60 0 0 60 0 0 60 0 0 71 0 0 71 0 0 71 0 0 71 0 0 71 0 0 71 0 0 71 0 0 71 0 0 71 0 0 71 0 0 76 0 0 76 0 0 76 0 0 76 0 0 76 0 0 76 0 0 76 0 0 76 0 0 76 0 0 76 0 0 98 0 0 98 0 0 98 0 0 98 0 0 98 0 0 98 0 0 98 0 0 98 0 0 98 0 0 98 0 0 120 0 0 120 0 0 120 0 0 120 0 0 120 0 0 120 0 0 120 0 0 120 0 0 120 0 0 120 0 0 157 0 0 157 0 0 157 0 0 157 0 0 157 0 0 157 0 0 157 0 0 157 0 0 157 0 0 157 0 0 187 0 0 187 0 0 187 0 0 187 0 0 187 0 0 187 0 0 187 0 0 187 0 0 187 0 0 187 0 0 183 0 0 183 0 0 183 0 0 183 0 0 183 0 0 183 0 0 183 0 0 183 0 0 183 0 0 183 0 0 130 0 0 130 0 0 130 0 0 130 0 0 130 0 0 130 0 0 130 0 0 130 0 0 130 0 0 130 0 0 110 0 0 110 0 0 110 0 0 110 0 0 110 0 0 110 0 0 110 0 0 110 0 0 110 0 0 110 0 0 106 0 0 106 0 0 106 0 0 106 0 0 106 0 0 106 0 0 106 0 0 106 0 0 106 0 0 106 0 0 176 0 0 176 0 0 176 0 0 176 0 0 176 0 0 176 0 0 176 0 0 176 0 0 176 0 0 176 0 0 216 0 0 216 0 0 216 0 0 216 0 0 216 0 0 216 0 0 216 0 0 216 0 0 216 0 0 216 0 0 229 0 0 229 0 0 229 0 0 229 0 0 229 0 0 229 0 0 229 0 0 229 0 0 229 0 0 229 0 0 201 0 0 201 0 0 201 0 0 201 0 0 201 0 0 201 0 0 201 0 0 201 0 0 201 0 0 201 0 0 176 0 0 176 0 0 176 0 0 176 0 0 176 0 0 176 0 0 176 0 0 176 0 0 176 0 0 176 0 0 147 0 0 147 0 0 147 0 0 147 0 0 147 0 0 147 0 0 147 0 0 147 0 0 147 0 0 147 0 0 129 0 0 129 0 0 129 0 0 129 0 0 129 0 0 129 0 0 129 0 0 129 0 0 129 0 0 129 0 0 118 0 0 118 0 0 118 0 0 118 0 0 118 0 0 118 0 0 118 0 0 118 0 0 118 0 0 118 0 0 150 0 0 150 0 0 150 0 0 150 0 0 150 0 0 150 0 0 150 0 0 150 0 0 150 0 0 150 0 0 0 0 0 0 0 0 0 0 0 0 0 0 0 0 0 0 0 0 0 0 0 0 0 0 0 0 0 0 0 0 255 42 0 255 42 0 255 42 0 255 42 0 255 42 0 255 42 0 255 42 0 255 42 0 255 42 0 255 42 0 255 42 0 255 42 0 255 42 0 255 42 0 255 42 0 255 42 0 255 42 0 255 42 0 255 42 0 255 42 0 255 42 0 255 42 0 255 42 0 255 42 0 255 42 0 255 42 0 255 42 0 255 42 0 255 42 0 255 42 0 
119 0 0 119 0 0 119 0 0 119 0 0 119 0 0 119 0 0 119 0 0 119 0 0 119 0 0 119 0 0 133 0 0 133 0 0 133 0 0 133 0 0 133 0 0 133 0 0 133 0 0 133 0 0 133 0 0 133 0 0 125 0 0 125 0 0 125 0 0 125 0 0 125 0 0 125 0 0 125 0 0 125 0 0 125 0 0 125 0 0 154 0 0 154 0 0 154 0 0 154 0 0 154 0 0 154 0 0 154 0 0 154 0 0 154 0 0 154 0 0 135 0 0 135 0 0 135 0 0 135 0 0 135 0 0 135 0 0 135 0 0 135 0 0 135 0 0 135 0 0 125 0 0 125 0 0 125 0 0 125 0 0 125 0 0 125 0 0 125 0 0 125 0 0 125 0 0 125 0 0 116 0 0 116 0 0 116 0 0 116 0 0 116 0 0 116 0 0 116 0 0 116 0 0 116 0 0 116 0 0 102 0 0 102 0 0 102 0 0 102 0 0 102 0 0 102 0 0 102 0 0 102 0 0 102 0 0 102 0 0 60 0 0 60 0 0 60 0 0 60 0 0 60 0 0 60 0 0 60 0 0 60 0 0 60 0 0 60 0 0 71 0 0 71 0 0 71 0 0 71 0 0 71 0 0 71 0 0 71 0 0 71 0 0 71 0 0 71 0 0 76 0 0 76 0 0 76 0 0 76 0 0 76 0 0 76 0 0 76 0 0 76 0 0 76 0 0 76 0 0 98 0 0 98 0 0 98 0 0 98 0 0 98 0 0 98 0 0 98 0 0 98 0 0 98 0 0 98 0 0 120 0 0 120 0 0 120 0 0 120 0 0 120 0 0 120 0 0 120 0 0 120 0 0 120 0 0 120 0 0 157 0 0 157 0 0 157 0 0 157 0 0 157 0 0 157 0 0 157 0 0 157 0 0 157 0 0 157 0 0 187 0 0 187 0 0 187 0 0 187 0 0 187 0 0 187 0 0 187 0 0 187 0 0 187 0 0 187 0 0 183 0 0 183 0 0 183 0 0 183 0 0 183 0 0 183 0 0 183 0 0 183 0 0 183 0 0 183 0 0 130 0 0 130 0 0 130 0 0 130 0 0 130 0 0 130 0 0 130 0 0 130 0 0 130 0 0 130 0 0 110 0 0 110 0 0 110 0 0 110 0 0 110 0 0 110 0 0 110 0 0 110 0 0 110 0 0 110 0 0 106 0 0 106 0 0 106 0 0 106 0 0 106 0 0 106 0 0 106 0 0 106 0 0 106 0 0 106 0 0 176 0 0 176 0 0 176 0 0 176 0 0 176 0 0 176 0 0 176 0 0 176 0 0 176 0 0 176 0 0 216 0 0 216 0 0 216 0 0 216 0 0 216 0 0 216 0 0 216 0 0 216 0 0 216 0 0 216 0 0 229 0 0 229 0 0 229 0 0 229 0 0 229 0 0 229 0 0 229 0 0 229 0 0 229 0 0 229 0 0 201 0 0 201 0 0 201 0 0 201 0 0 201 0 0 201 0 0 201 0 0 201 0 0 201 0 0 201 0 0 176 0 0 176 0 0 176 0 0 176 0 0 176 0 0 176 0 0 176 0 0 176 0 0 176 0 0 176 0 0 147 0 0 147 0 0 147 0 0 147 0 0 147 0 0 147 0 0 147 0 0 147 0 0 147 0 0 147 0 0 129 0 0 129 0 0 129 0 0 129 0 0 129 0 0 129 0 0 129 0 0 129 0 0 129 0 0 129 0 0 118 0 0 118 0 0 118 0 0 118 0 0 118 0 0 118 0 0 118 0 0 118 0 0 118 0 0 118 0 0 150 0 0 150 0 0 150 0 0 150 0 0 150 0 0 150 0 0 150 0 0 150 0 0 150 0 0 150 0 0 0 0 0 0 0 0 0 0 0 0 0 0 0 0 0 0 0 0 0 0 0 0 0 0 0 0 0 0 0 0 255 39 0 255 39 0 255 39 0 255 39 0 255 39 0 255 39 0 255 39 0 255 39 0 255 39 0 255 39 0 255 39 0 255 39 0 255 39 0 255 39 0 255 39 0 255 39 0 255 39 0 255 39 0 255 39 0 255 39 0 255 39 0 255 39 0 255 39 0 255 39 0 255 39 0 255 39 0 255 39 0 255 39 0 255 39 0 255 39 0 
127 0 0 127 0 0 127 0 0 127 0 0 127 0 0 127 0 0 127 0 0 127 0 0 127 0 0 127 0 0 134 0 0 134 0 0 134 0 0 134 0 0 134 0 0 134 0 0 134 0 0 134 0 0 134 0 0 134 0 0 123 0 0 123 0 0 123 0 0 123 0 0 123 0 0 123 0 0 123 0 0 123 0 0 123 0 0 123 0 0 111 0 0 111 0 0 111 0 0 111 0 0 111 0 0 111 0 0 111 0 0 111 0 0 111 0 0 111 0 0 138 0 0 138 0 0 138 0 0 138 0 0 138 0 0 138 0 0 138 0 0 138 0 0 138 0 0 138 0 0 108 0 0 108 0 0 108 0 0 108 0 0 108 0 0 108 0 0 108 0 0 108 0 0 108 0 0 108 0 0 100 0 0 100 0 0 100 0 0 100 0 0 100 0 0 100 0 0 100 0 0 100 0 0 100 0 0 100 0 0 93 0 0 93 0 0 93 0 0 93 0 0 93 0 0 93 0 0 93 0 0 93 0 0 93 0 0 93 0 0 34 0 0 34 0 0 34 0 0 34 0 0 34 0 0 34 0 0 34 0 0 34 0 0 34 0 0 34 0 0 26 0 0 26 0 0 26 0 0 26 0 0 26 0 0 26 0 0 26 0 0 26 0 0 26 0 0 26 0 0 50 0 0 50 0 0 50 0 0 50 0 0 50 0 0 50 0 0 50 0 0 50 0 0 50 0 0 50 0 0 80 0 0 80 0 0 80 0 0 80 0 0 80 0 0 80 0 0 80 0 0 80 0 0 80 0 0 80 0 0 97 0 0 97 0 0 97 0 0 97 0 0 97 0 0 97 0 0 97 0 0 97 0 0 97 0 0 97 0 0 117 0 0 117 0 0 117 0 0 117 0 0 117 0 0 117 0 0 117 0 0 117 0 0 117 0 0 117 0 0 80 0 0 80 0 0 80 0 0 80 0 0 80 0 0 80 0 0 80 0 0 80 0 0 80 0 0 80 0 0 52 0 0 52 0 0 52 0 0 52 0 0 52 0 0 52 0 0 52 0 0 52 0 0 52 0 0 52 0 0 20 0 0 20 0 0 20 0 0 20 0 0 20 0 0 20 0 0 20 0 0 20 0 0 20 0 0 20 0 0 29 0 0 29 0 0 29 0 0 29 0 0 29 0 0 29 0 0 29 0 0 29 0 0 29 0 0 29 0 0 93 0 0 93 0 0 93 0 0 93 0 0 93 0 0 93 0 0 93 0 0 93 0 0 93 0 0 93 0 0 101 0 0 101 0 0 101 0 0 101 0 0 101 0 0 101 0 0 101 0 0 101 0 0 101 0 0 101 0 0 187 0 0 187 0 0 187 0 0 187 0 0 187 0 0 187 0 0 187 0 0 187 0 0 187 0 0 187 0 0 185 0 0 185 0 0 185 0 0 185 0 0 185 0 0 185 0 0 185 0 0 185 0 0 185 0 0 185 0 0 158 0 0 158 0 0 158 0 0 158 0 0 158 0 0 158 0 0 158 0 0 158 0 0 158 0 0 158 0 0 163 0 0 163 0 0 163 0 0 163 0 0 163 0 0 163 0 0 163 0 0 163 0 0 163 0 0 163 0 0 114 0 0 114 0 0 114 0 0 114 0 0 114 0 0 114 0 0 114 0 0 114 0 0 114 0 0 114 0 0 106 0 0 106 0 0 106 0 0 106 0 0 106 0 0 106 0 0 106 0 0 106 0 0 106 0 0 106 0 0 128 0 0 128 0 0 128 0 0 128 0 0 128 0 0 128 0 0 128 0 0 128 0 0 128 0 0 128 0 0 111 0 0 111 0 0 111 0 0 111 0 0 111 0 0 111 0 0 111 0 0 111 0 0 111 0 0 111 0 0 0 0 0 0 0 0 0 0 0 0 0 0 0 0 0 0 0 0 0 0 0 0 0 0 0 0 0 0 0 0 255 35 0 255 35 0 255 35 0 255 35 0 255 35 0 255 35 0 255 35 0 255 35 0 255 35 0 255 35 0 255 35 0 255 35 0 255 35 0 255 35 0 255 35 0 255 35 0 255 35 0 255 35 0 255 35 0 255 35 0 255 35 0 255 35 0 255 35 0 255 35 0 255 35 0 255 35 0 255 35 0 255 35 0 255 35 0 255 35 0 
127 0 0 127 0 0 127 0 0 127 0 0 127 0 0 127 0 0 127 0 0 127 0 0 127 0 0 127 0 0 134 0 0 134 0 0 134 0 0 134 0 0 134 0 0 134 0 0 134 0 0 134 0 0 134 0 0 134 0 0 123 0 0 123 0 0 123 0 0 123 0 0 123 0 0 123 0 0 123 0 0 123 0 0 123 0 0 123 0 0 111 0 0 111 0 0 111 0 0 111 0 0 111 0 0 111 0 0 111 0 0 111 0 0 111 0 0 111 0 0 138 0 0 138 0 0 138 0 0 138 0 0 138 0 0 138 0 0 138 0 0 138 0 0 138 0 0 138 0 0 108 0 0 108 0 0 108 0 0 108 0 0 108 0 0 108 0 0 108 0 0 108 0 0 108 0 0 108 0 0 100 0 0 100 0 0 100 0 0 100 0 0 100 0 0 100 0 0 100 0 0 100 0 0 100 0 0 100 0 0 93 0 0 93 0 0 93 0 0 93 0 0 93 0 0 93 0 0 93 0 0 93 0 0 93 0 0 93 0 0 34 0 0 34 0 0 34 0 0 34 0 0 34 0 0 34 0 0 34 0 0 34 0 0 34 0 0 34 0 0 26 0 0 26 0 0 26 0 0 26 0 0 26 0 0 26 0 0 26 0 0 26 0 0 26 0 0 26 0 0 50 0 0 50 0 0 50 0 0 50 0 0 50 0 0 50 0 0 50 0 0 50 0 0 50 0 0 50 0 0 80 0 0 80 0 0 80 0 0 80 0 0 80 0 0 80 0 0 80 0 0 80 0 0 80 0 0 80 0 0 97 0 0 97 0 0 97 0 0 97 0 0 97 0 0 97 0 0 97 0 0 97 0 0 97 0 0 97 0 0 117 0 0 117 0 0 117 0 0 117 0 0 117 0 0 117 0 0 117 0 0 117 0 0 117 0 0 117 0 0 80 0 0 80 0 0 80 0 0 80 0 0 80 0 0 80 0 0 80 0 0 80 0 0 80 0 0 80 0 0 52 0 0 52 0 0 52 0 0 52 0 0 52 0 0 52 0 0 52 0 0 52 0 0 52 0 0 52 0 0 20 0 0 20 0 0 20 0 0 20 0 0 20 0 0 20 0 0 20 0 0 20 0 0 20 0 0 20 0 0 29 0 0 29 0 0 29 0 0 29 0 0 29 0 0 29 0 0 29 0 0 29 0 0 29 0 0 29 0 0 93 0 0 93 0 0 93 0 0 93 0 0 93 0 0 93 0 0 93 0 0 93 0 0 93 0 0 93 0 0 101 0 0 101 0 0 101 0 0 101 0 0 101 0 0 101 0 0 101 0 0 101 0 0 101 0 0 101 0 0 187 0 0 187 0 0 187 0 0 187 0 0 187 0 0 187 0 0 187 0 0 187 0 0 187 0 0 187 0 0 185 0 0 185 0 0 185 0 0 185 0 0 185 0 0 185 0 0 185 0 0 185 0 0 185 0 0 185 0 0 158 0 0 158 0 0 158 0 0 158 0 0 158 0 0 158 0 0 158 0 0 158 0 0 158 0 0 158 0 0 163 0 0 163 0 0 163 0 0 163 0 0 163 0 0 163 0 0 163 0 0 163 0 0 163 0 0 163 0 0 114 0 0 114 0 0 114 0 0 114 0 0 114 0 0 114 0 0 114 0 0 114 0 0 114 0 0 114 0 0 106 0 0 106 0 0 106 0 0 106 0 0 106 0 0 106 0 0 106 0 0 106 0 0 106 0 0 106 0 0 128 0 0 128 0 0 128 0 0 128 0 0 128 0 0 128 0 0 128 0 0 128 0 0 128 0 0 128 0 0 111 0 0 111 0 0 111 0 0 111 0 0 111 0 0 111 0 0 111 0 0 111 0 0 111 0 0 111 0 0 0 0 0 0 0 0 0 0 0 0 0 0 0 0 0 0 0 0 0 0 0 0 0 0 0 0 0 0 0 0 255 31 0 255 31 0 255 31 0 255 31 0 255 31 0 255 31 0 255 31 0 255 31 0 255 31 0 255 31 0 255 31 0 255 31 0 255 31 0 255 31 0 255 31 0 255 31 0 255 31 0 255 31 0 255 31 0 255 31 0 255 31 0 255 31 0 255 31 0 255 31 0 255 31 0 255 31 0 255 31 0 255 31 0 255 31 0 255 31 0 
127 0 0 127 0 0 127 0 0 127 0 0 127 0 0 127 0 0 127 0 0 127 0 0 127 0 0 127 0 0 134 0 0 134 0 0 134 0 0 134 0 0 134 0 0 134 0 0 134 0 0 134 0 0 134 0 0 134 0 0 123 0 0 123 0 0 123 0 0 123 0 0 123 0 0 123 0 0 123 0 0 123 0 0 123 0 0 123 0 0 111 0 0 111 0 0 111 0 0 111 0 0 111 0 0 111 0 0 111 0 0 111 0 0 111 0 0 111 0 0 138 0 0 138 0 0 138 0 0 138 0 0 138 0 0 138 0 0 138 0 0 138 0 0 138 0 0 138 0 0 108 0 0 108 0 0 108 0 0 108 0 0 108 0 0 108 0 0 108 0 0 108 0 0 108 0 0 108 0 0 100 0 0 100 0 0 100 0 0 100 0 0 100 0 0 100 0 0 100 0 0 100 0 0 100 0 0 100 0 0 93 0 0 93 0 0 93 0 0 93 0 0 93 0 0 93 0 0 93 0 0 93 0 0 93 0 0 93 0 0 34 0 0 34 0 0 34 0 0 34 0 0 34 0 0 34 0 0 34 0 0 34 0 0 34 0 0 34 0 0 26 0 0 26 0 0 26 0 0 26 0 0 26 0 0 26 0 0 26 0 0 26 0 0 26 0 0 26 0 0 50 0 0 50 0 0 50 0 0 50 0 0 50 0 0 50 0 0 50 0 0 50 0 0 50 0 0 50 0 0 80 0 0 80 0 0 80 0 0 80 0 0 80 0 0 80 0 0 80 0 0 80 0 0 80 0 0 80 0 0 97 0 0 97 0 0 97 0 0 97 0 0 97 0 0 97 0 0 97 0 0 97 0 0 97 0 0 97 0 0 117 0 0 117 0 0 117 0 0 117 0 0 117 0 0 117 0 0 117 0 0 117 0 0 117 0 0 117 0 0 80 0 0 80 0 0 80 0 0 80 0 0 80 0 0 80 0 0 80 0 0 80 0 0 80 0 0 80 0 0 52 0 0 52 0 0 52 0 0 52 0 0 52 0 0 52 0 0 52 0 0 52 0 0 52 0 0 52 0 0 20 0 0 20 0 0 20 0 0 20 0 0 20 0 0 20 0 0 20 0 0 20 0 0 20 0 0 20 0 0 29 0 0 29 0 0 29 0 0 29 0 0 29 0 0 29 0 0 29 0 0 29 0 0 29 0 0 29 0 0 93 0 0 93 0 0 93 0 0 93 0 0 93 0 0 93 0 0 93 0 0 93 0 0 93 0 0 93 0 0 101 0 0 101 0 0 101 0 0 101 0 0 101 0 0 101 0 0 101 0 0 101 0 0 101 0 0 101 0 0 187 0 0 187 0 0 187 0 0 187 0 0 187 0 0 187 0 0 187 0 0 187 0 0 187 0 0 187 0 0 185 0 0 185 0 0 185 0 0 185 0 0 185 0 0 185 0 0 185 0 0 185 0 0 185 0 0 185 0 0 158 0 0 158 0 0 158 0 0 158 0 0 158 0 0 158 0 0 158 0 0 158 0 0 158 0 0 158 0 0 163 0 0 163 0 0 163 0 0 163 0 0 163 0 0 163 0 0 163 0 0 163 0 0 163 0 0 163 0 0 114 0 0 114 0 0 114 0 0 114 0 0 114 0 0 114 0 0 114 0 0 114 0 0 114 0 0 114 0 0 106 0 0 106 0 0 106 0 0 106 0 0 106 0 0 106 0 0 106 0 0 106 0 0 106 0 0 106 0 0 128 0 0 128 0 0 128 0 0 128 0 0 128 0 0 128 0 0 128 0 0 128 0 0 128 0 0 128 0 0 111 0 0 111 0 0 111 0 0 111 0 0 111 0 0 111 0 0 111 0 0 111 0 0 111 0 0 111 0 0 0 0 0 0 0 0 0 0 0 0 0 0 0 0 0 0 0 0 0 0 0 0 0 0 0 0 0 0 0 0 255 28 0 255 28 0 255 28 0 255 28 0 255 28 0 255 28 0 255 28 0 255 28 0 255 28 0 255 28 0 255 28 0 255 28 0 255 28 0 255 28 0 255 28 0 255 28 0 255 28 0 255 28 0 255 28 0 255 28 0 255 28 0 255 28 0 255 28 0 255 28 0 255 28 0 255 28 0 255 28 0 255 28 0 255 28 0 255 28 0 
127 0 0 127 0 0 127 0 0 127 0 0 127 0 0 127 0 0 127 0 0 127 0 0 127 0 0 127 0 0 134 0 0 134 0 0 134 0 0 134 0 0 134 0 0 134 0 0 134 0 0 134 0 0 134 0 0 134 0 0 123 0 0 123 0 0 123 0 0 123 0 0 123 0 0 123 0 0 123 0 0 123 0 0 123 0 0 123 0 0 111 0 0 111 0 0 111 0 0 111 0 0 111 0 0 111 0 0 111 0 0 111 0 0 111 0 0 111 0 0 138 0 0 138 0 0 138 0 0 138 0 0 138 0 0 138 0 0 138 0 0 138 0 0 138 0 0 138 0 0 108 0 0 108 0 0 108 0 0 108 0 0 108 0 0 108 0 0 108 0 0 108 0 0 108 0 0 108 0 0 100 0 0 100 0 0 100 0 0 100 0 0 100 0 0 100 0 0 100 0 0 100 0 0 100 0 0 100 0 0 93 0 0 93 0 0 93 0 0 93 0 0 93 0 0 93 0 0 93 0 0 93 0 0 93 0 0 93 0 0 34 0 0 34 0 0 34 0 0 34 0 0 34 0 0 34 0 0 34 0 0 34 0 0 34 0 0 34 0 0 26 0 0 26 0 0 26 0 0 26 0 0 26 0 0 26 0 0 26 0 0 26 0 0 26 0 0 26 0 0 50 0 0 50 0 0 50 0 0 50 0 0 50 0 0 50 0 0 50 0 0 50 0 0 50 0 0 50 0 0 80 0 0 80 0 0 80 0 0 80 0 0 80 0 0 80 0 0 80 0 0 80 0 0 80 0 0 80 0 0 97 0 0 97 0 0 97 0 0 97 0 0 97 0 0 97 0 0 97 0 0 97 0 0 97 0 0 97 0 0 117 0 0 117 0 0 117 0 0 117 0 0 117 0 0 117 0 0 117 0 0 117 0 0 117 0 0 117 0 0 80 0 0 80 0 0 80 0 0 80 0 0 80 0 0 80 0 0 80 0 0 80 0 0 80 0 0 80 0 0 52 0 0 52 0 0 52 0 0 52 0 0 52 0 0 52 0 0 52 0 0 52 0 0 52 0 0 52 0 0 20 0 0 20 0 0 20 0 0 20 0 0 20 0 0 20 0 0 20 0 0 20 0 0 20 0 0 20 0 0 29 0 0 29 0 0 29 0 0 29 0 0 29 0 0 29 0 0 29 0 0 29 0 0 29 0 0 29 0 0 93 0 0 93 0 0 93 0 0 93 0 0 93 0 0 93 0 0 93 0 0 93 0 0 93 0 0 93 0 0 101 0 0 101 0 0 101 0 0 101 0 0 101 0 0 101 0 0 101 0 0 101 0 0 101 0 0 101 0 0 187 0 0 187 0 0 187 0 0 187 0 0 187 0 0 187 0 0 187 0 0 187 0 0 187 0 0 187 0 0 185 0 0 185 0 0 185 0 0 185 0 0 185 0 0 185 0 0 185 0 0 185 0 0 185 0 0 185 0 0 158 0 0 158 0 0 158 0 0 158 0 0 158 0 0 158 0 0 158 0 0 158 0 0 158 0 0 158 0 0 163 0 0 163 0 0 163 0 0 163 0 0 163 0 0 163 0 0 163 0 0 163 0 0 163 0 0 163 0 0 114 0 0 114 0 0 114 0 0 114 0 0 114 0 0 114 0 0 114 0 0 114 0 0 114 0 0 114 0 0 106 0 0 106 0 0 106 0 0 106 0 0 106 0 0 106 0 0 106 0 0 106 0 0 106 0 0 106 0 0 128 0 0 128 0 0 128 0 0 128 0 0 128 0 0 128 0 0 128 0 0 128 0 0 128 0 0 128 0 0 111 0 0 111 0 0 111 0 0 111 0 0 111 0 0 111 0 0 111 0 0 111 0 0 111 0 0 111 0 0 0 0 0 0 0 0 0 0 0 0 0 0 0 0 0 0 0 0 0 0 0 0 0 0 0 0 0 0 0 0 255 24 0 255 24 0 255 24 0 255 24 0 255 24 0 255 24 0 255 24 0 255 24 0 255 24 0 255 24 0 255 24 0 255 24 0 255 24 0 255 24 0 255 24 0 255 24 0 255 24 0 255 24 0 255 24 0 255 24 0 255 24 0 255 24 0 255 24 0 255 24 0 255 24 0 255 24 0 255 24 0 255 24 0 255 24 0 255 24 0 
127 0 0 127 0 0 127 0 0 127 0 0 127 0 0 127 0 0 127 0 0 127 0 0 127 0 0 127 0 0 134 0 0 134 0 0 134 0 0 134 0 0 134 0 0 134 0 0 134 0 0 134 0 0 134 0 0 134 0 0 123 0 0 123 0 0 123 0 0 123 0 0 123 0 0 123 0 0 123 0 0 123 0 0 123 0 0 123 0 0 111 0 0 111 0 0 111 0 0 111 0 0 111 0 0 111 0 0 111 0 0 111 0 0 111 0 0 111 0 0 138 0 0 138 0 0 138 0 0 138 0 0 138 0 0 138 0 0 138 0 0 138 0 0 138 0 0 138 0 0 108 0 0 108 0 0 108 0 0 108 0 0 108 0 0 108 0 0 108 0 0 108 0 0 108 0 0 108 0 0 100 0 0 100 0 0 100 0 0 100 0 0 100 0 0 100 0 0 100 0 0 100 0 0 100 0 0 100 0 0 93 0 0 93 0 0 93 0 0 93 0 0 93 0 0 93 0 0 93 0 0 93 0 0 93 0 0 93 0 0 34 0 0 34 0 0 34 0 0 34 0 0 34 0 0 34 0 0 34 0 0 34 0 0 34 0 0 34 0 0 26 0 0 26 0 0 26 0 0 26 0 0 26 0 0 26 0 0 26 0 0 26 0 0 26 0 0 26 0 0 50 0 0 50 0 0 50 0 0 50 0 0 50 0 0 50 0 0 50 0 0 50 0 0 50 0 0 50 0 0 80 0 0 80 0 0 80 0 0 80 0 0 80 0 0 80 0 0 80 0 0 80 0 0 80 0 0 80 0 0 97 0 0 97 0 0 97 0 0 97 0 0 97 0 0 97 0 0 97 0 0 97 0 0 97 0 0 97 0 0 117 0 0 117 0 0 117 0 0 117 0 0 117 0 0 117 0 0 117 0 0 117 0 0 117 0 0 117 0 0 80 0 0 80 0 0 80 0 0 80 0 0 80 0 0 80 0 0 80 0 0 80 0 0 80 0 0 80 0 0 52 0 0 52 0 0 52 0 0 52 0 0 52 0 0 52 0 0 52 0 0 52 0 0 52 0 0 52 0 0 20 0 0 20 0 0 20 0 0 20 0 0 20 0 0 20 0 0 20 0 0 20 0 0 20 0 0 20 0 0 29 0 0 29 0 0 29 0 0 29 0 0 29 0 0 29 0 0 29 0 0 29 0 0 29 0 0 29 0 0 93 0 0 93 0 0 93 0 0 93 0 0 93 0 0 93 0 0 93 0 0 93 0 0 93 0 0 93 0 0 101 0 0 101 0 0 101 0 0 101 0 0 101 0 0 101 0 0 101 0 0 101 0 0 101 0 0 101 0 0 187 0 0 187 0 0 187 0 0 187 0 0 187 0 0 187 0 0 187 0 0 187 0 0 187 0 0 187 0 0 185 0 0 185 0 0 185 0 0 185 0 0 185 0 0 185 0 0 185 0 0 185 0 0 185 0 0 185 0 0 158 0 0 158 0 0 158 0 0 158 0 0 158 0 0 158 0 0 158 0 0 158 0 0 158 0 0 158 0 0 163 0 0 163 0 0 163 0 0 163 0 0 163 0 0 163 0 0 163 0 0 163 0 0 163 0 0 163 0 0 114 0 0 114 0 0 114 0 0 114 0 0 114 0 0 114 0 0 114 0 0 114 0 0 114 0 0 114 0 0 106 0 0 106 0 0 106 0 0 106 0 0 106 0 0 106 0 0 106 0 0 106 0 0 106 0 0 106 0 0 128 0 0 128 0 0 128 0 0 128 0 0 128 0 0 128 0 0 128 0 0 128 0 0 128 0 0 128 0 0 111 0 0 111 0 0 111 0 0 111 0 0 111 0 0 111 0 0 111 0 0 111 0 0 111 0 0 111 0 0 0 0 0 0 0 0 0 0 0 0 0 0 0 0 0 0 0 0 0 0 0 0 0 0 0 0 0 0 0 0 255 21 0 255 21 0 255 21 0 255 21 0 255 21 0 255 21 0 255 21 0 255 21 0 255 21 0 255 21 0 255 21 0 255 21 0 255 21 0 255 21 0 255 21 0 255 21 0 255 21 0 255 21 0 255 21 0 255 21 0 255 21 0 255 21 0 255 21 0 255 21 0 255 21 0 255 21 0 255 21 0 255 21 0 255 21 0 255 21 0 
127 0 0 127 0 0 127 0 0 127 0 0 127 0 0 127 0 0 127 0 0 127 0 0 127 0 0 127 0 0 134 0 0 134 0 0 134 0 0 134 0 0 134 0 0 134 0 0 134 0 0 134 0 0 134 0 0 134 0 0 123 0 0 123 0 0 123 0 0 123 0 0 123 0 0 123 0 0 123 0 0 123 0 0 123 0 0 123 0 0 111 0 0 111 0 0 111 0 0 111 0 0 111 0 0 111 0 0 111 0 0 111 0 0 111 0 0 111 0 0 138 0 0 138 0 0 138 0 0 138 0 0 138 0 0 138 0 0 138 0 0 138 0 0 138 0 0 138 0 0 108 0 0 108 0 0 108 0 0 108 0 0 108 0 0 108 0 0 108 0 0 108 0 0 108 0 0 108 0 0 100 0 0 100 0 0 100 0 0 100 0 0 100 0 0 100 0 0 100 0 0 100 0 0 100 0 0 100 0 0 93 0 0 93 0 0 93 0 0 93 0 0 93 0 0 93 0 0 93 0 0 93 0 0 93 0 0 93 0 0 34 0 0 34 0 0 34 0 0 34 0 0 34 0 0 34 0 0 34 0 0 34 0 0 34 0 0 34 0 0 26 0 0 26 0 0 26 0 0 26 0 0 26 0 0 26 0 0 26 0 0 26 0 0 26 0 0 26 0 0 50 0 0 50 0 0 50 0 0 50 0 0 50 0 0 50 0 0 50 0 0 50 0 0 50 0 0 50 0 0 80 0 0 80 0 0 80 0 0 80 0 0 80 0 0 80 0 0 80 0 0 80 0 0 80 0 0 80 0 0 97 0 0 97 0 0 97 0 0 97 0 0 97 0 0 97 0 0 97 0 0 97 0 0 97 0 0 97 0 0 117 0 0 117 0 0 117 0 0 117 0 0 117 0 0 117 0 0 117 0 0 117 0 0 117 0 0 117 0 0 80 0 0 80 0 0 80 0 0 80 0 0 80 0 0 80 0 0 80 0 0 80 0 0 80 0 0 80 0 0 52 0 0 52 0 0 52 0 0 52 0 0 52 0 0 52 0 0 52 0 0 52 0 0 52 0 0 52 0 0 20 0 0 20 0 0 20 0 0 20 0 0 20 0 0 20 0 0 20 0 0 20 0 0 20 0 0 20 0 0 29 0 0 29 0 0 29 0 0 29 0 0 29 0 0 29 0 0 29 0 0 29 0 0 29 0 0 29 0 0 93 0 0 93 0 0 93 0 0 93 0 0 93 0 0 93 0 0 93 0 0 93 0 0 93 0 0 93 0 0 101 0 0 101 0 0 101 0 0 101 0 0 101 0 0 101 0 0 101 0 0 101 0 0 101 0 0 101 0 0 187 0 0 187 0 0 187 0 0 187 0 0 187 0 0 187 0 0 187 0 0 187 0 0 187 0 0 187 0 0 185 0 0 185 0 0 185 0 0 185 0 0 185 0 0 185 0 0 185 0 0 185 0 0 185 0 0 185 0 0 158 0 0 158 0 0 158 0 0 158 0 0 158 0 0 158 0 0 158 0 0 158 0 0 158 0 0 158 0 0 163 0 0 163 0 0 163 0 0 163 0 0 163 0 0 163 0 0 163 0 0 163 0 0 163 0 0 163 0 0 114 0 0 114 0 0 114 0 0 114 0 0 114 0 0 114 0 0 114 0 0 114 0 0 114 0 0 114 0 0 106 0 0 106 0 0 106 0 0 106 0 0 106 0 0 106 0 0 106 0 0 106 0 0 106 0 0 106 0 0 128 0 0 128 0 0 128 0 0 128 0 0 128 0 0 128 0 0 128 0 0 128 0 0 128 0 0 128 0 0 111 0 0 111 0 0 111 0 0 111 0 0 111 0 0 111 0 0 111 0 0 111 0 0 111 0 0 111 0 0 0 0 0 0 0 0 0 0 0 0 0 0 0 0 0 0 0 0 0 0 0 0 0 0 0 0 0 0 0 0 255 17 0 255 17 0 255 17 0 255 17 0 255 17 0 255 17 0 255 17 0 255 17 0 255 17 0 255 17 0 255 17 0 255 17 0 255 17 0 255 17 0 255 17 0 255 17 0 255 17 0 255 17 0 255 17 0 255 17 0 255 17 0 255 17 0 255 17 0 255 17 0 255 17 0 255 17 0 255 17 0 255 17 0 255 17 0 255 17 0 
127 0 0 127 0 0 127 0 0 127 0 0 127 0 0 127 0 0 127 0 0 127 0 0 127 0 0 127 0 0 134 0 0 134 0 0 134 0 0 134 0 0 134 0 0 134 0 0 134 0 0 134 0 0 134 0 0 134 0 0 123 0 0 123 0 0 123 0 0 123 0 0 123 0 0 123 0 0 123 0 0 123 0 0 123 0 0 123 0 0 111 0 0 111 0 0 111 0 0 111 0 0 111 0 0 111 0 0 111 0 0 111 0 0 111 0 0 111 0 0 138 0 0 138 0 0 138 0 0 138 0 0 138 0 0 138 0 0 138 0 0 138 0 0 138 0 0 138 0 0 108 0 0 108 0 0 108 0 0 108 0 0 108 0 0 108 0 0 108 0 0 108 0 0 108 0 0 108 0 0 100 0 0 100 0 0 100 0 0 100 0 0 100 0 0 100 0 0 100 0 0 100 0 0 100 0 0 100 0 0 93 0 0 93 0 0 93 0 0 93 0 0 93 0 0 93 0 0 93 0 0 93 0 0 93 0 0 93 0 0 34 0 0 34 0 0 34 0 0 34 0 0 34 0 0 34 0 0 34 0 0 34 0 0 34 0 0 34 0 0 26 0 0 26 0 0 26 0 0 26 0 0 26 0 0 26 0 0 26 0 0 26 0 0 26 0 0 26 0 0 50 0 0 50 0 0 50 0 0 50 0 0 50 0 0 50 0 0 50 0 0 50 0 0 50 0 0 50 0 0 80 0 0 80 0 0 80 0 0 80 0 0 80 0 0 80 0 0 80 0 0 80 0 0 80 0 0 80 0 0 97 0 0 97 0 0 97 0 0 97 0 0 97 0 0 97 0 0 97 0 0 97 0 0 97 0 0 97 0 0 117 0 0 117 0 0 117 0 0 117 0 0 117 0 0 117 0 0 117 0 0 117 0 0 117 0 0 117 0 0 80 0 0 80 0 0 80 0 0 80 0 0 80 0 0 80 0 0 80 0 0 80 0 0 80 0 0 80 0 0 52 0 0 52 0 0 52 0 0 52 0 0 52 0 0 52 0 0 52 0 0 52 0 0 52 0 0 52 0 0 20 0 0 20 0 0 20 0 0 20 0 0 20 0 0 20 0 0 20 0 0 20 0 0 20 0 0 20 0 0 29 0 0 29 0 0 29 0 0 29 0 0 29 0 0 29 0 0 29 0 0 29 0 0 29 0 0 29 0 0 93 0 0 93 0 0 93 0 0 93 0 0 93 0 0 93 0 0 93 0 0 93 0 0 93 0 0 93 0 0 101 0 0 101 0 0 101 0 0 101 0 0 101 0 0 101 0 0 101 0 0 101 0 0 101 0 0 101 0 0 187 0 0 187 0 0 187 0 0 187 0 0 187 0 0 187 0 0 187 0 0 187 0 0 187 0 0 187 0 0 185 0 0 185 0 0 185 0 0 185 0 0 185 0 0 185 0 0 185 0 0 185 0 0 185 0 0 185 0 0 158 0 0 158 0 0 158 0 0 158 0 0 158 0 0 158 0 0 158 0 0 158 0 0 158 0 0 158 0 0 163 0 0 163 0 0 163 0 0 163 0 0 163 0 0 163 0 0 163 0 0 163 0 0 163 0 0 163 0 0 114 0 0 114 0 0 114 0 0 114 0 0 114 0 0 114 0 0 114 0 0 114 0 0 114 0 0 114 0 0 106 0 0 106 0 0 106 0 0 106 0 0 106 0 0 106 0 0 106 0 0 106 0 0 106 0 0 106 0 0 128 0 0 128 0 0 128 0 0 128 0 0 128 0 0 128 0 0 128 0 0 128 0 0 128 0 0 128 0 0 111 0 0 111 0 0 111 0 0 111 0 0 111 0 0 111 0 0 111 0 0 111 0 0 111 0 0 111 0 0 0 0 0 0 0 0 0 0 0 0 0 0 0 0 0 0 0 0 0 0 0 0 0 0 0 0 0 0 0 0 255 13 0 255 13 0 255 13 0 255 13 0 255 13 0 255 13 0 255 13 0 255 13 0 255 13 0 255 13 0 255 13 0 255 13 0 255 13 0 255 13 0 255 13 0 255 13 0 255 13 0 255 13 0 255 13 0 255 13 0 255 13 0 255 13 0 255 13 0 255 13 0 255 13 0 255 13 0 255 13 0 255 13 0 255 13 0 255 13 0 
127 0 0 127 0 0 127 0 0 127 0 0 127 0 0 127 0 0 127 0 0 127 0 0 127 0 0 127 0 0 134 0 0 134 0 0 134 0 0 134 0 0 134 0 0 134 0 0 134 0 0 134 0 0 134 0 0 134 0 0 123 0 0 123 0 0 123 0 0 123 0 0 123 0 0 123 0 0 123 0 0 123 0 0 123 0 0 123 0 0 111 0 0 111 0 0 111 0 0 111 0 0 111 0 0 111 0 0 111 0 0 111 0 0 111 0 0 111 0 0 138 0 0 138 0 0 138 0 0 138 0 0 138 0 0 138 0 0 138 0 0 138 0 0 138 0 0 138 0 0 108 0 0 108 0 0 108 0 0 108 0 0 108 0 0 108 0 0 108 0 0 108 0 0 108 0 0 108 0 0 100 0 0 100 0 0 100 0 0 100 0 0 100 0 0 100 0 0 100 0 0 100 0 0 100 0 0 100 0 0 93 0 0 93 0 0 93 0 0 93 0 0 93 0 0 93 0 0 93 0 0 93 0 0 93 0 0 93 0 0 34 0 0 34 0 0 34 0 0 34 0 0 34 0 0 34 0 0 34 0 0 34 0 0 34 0 0 34 0 0 26 0 0 26 0 0 26 0 0 26 0 0 26 0 0 26 0 0 26 0 0 26 0 0 26 0 0 26 0 0 50 0 0 50 0 0 50 0 0 50 0 0 50 0 0 50 0 0 50 0 0 50 0 0 50 0 0 50 0 0 80 0 0 80 0 0 80 0 0 80 0 0 80 0 0 80 0 0 80 0 0 80 0 0 80 0 0 80 0 0 97 0 0 97 0 0 97 0 0 97 0 0 97 0 0 97 0 0 97 0 0 97 0 0 97 0 0 97 0 0 117 0 0 117 0 0 117 0 0 117 0 0 117 0 0 117 0 0 117 0 0 117 0 0 117 0 0 117 0 0 80 0 0 80 0 0 80 0 0 80 0 0 80 0 0 80 0 0 80 0 0 80 0 0 80 0 0 80 0 0 52 0 0 52 0 0 52 0 0 52 0 0 52 0 0 52 0 0 52 0 0 52 0 0 52 0 0 52 0 0 20 0 0 20 0 0 20 0 0 20 0 0 20 0 0 20 0 0 20 0 0 20 0 0 20 0 0 20 0 0 29 0 0 29 0 0 29 0 0 29 0 0 29 0 0 29 0 0 29 0 0 29 0 0 29 0 0 29 0 0 93 0 0 93 0 0 93 0 0 93 0 0 93 0 0 93 0 0 93 0 0 93 0 0 93 0 0 93 0 0 101 0 0 101 0 0 101 0 0 101 0 0 101 0 0 101 0 0 101 0 0 101 0 0 101 0 0 101 0 0 187 0 0 187 0 0 187 0 0 187 0 0 187 0 0 187 0 0 187 0 0 187 0 0 187 0 0 187 0 0 185 0 0 185 0 0 185 0 0 185 0 0 185 0 0 185 0 0 185 0 0 185 0 0 185 0 0 185 0 0 158 0 0 158 0 0 158 0 0 158 0 0 158 0 0 158 0 0 158 0 0 158 0 0 158 0 0 158 0 0 163 0 0 163 0 0 163 0 0 163 0 0 163 0 0 163 0 0 163 0 0 163 0 0 163 0 0 163 0 0 114 0 0 114 0 0 114 0 0 114 0 0 114 0 0 114 0 0 114 0 0 114 0 0 114 0 0 114 0 0 106 0 0 106 0 0 106 0 0 106 0 0 106 0 0 106 0 0 106 0 0 106 0 0 106 0 0 106 0 0 128 0 0 128 0 0 128 0 0 128 0 0 128 0 0 128 0 0 128 0 0 128 0 0 128 0 0 128 0 0 111 0 0 111 0 0 111 0 0 111 0 0 111 0 0 111 0 0 111 0 0 111 0 0 111 0 0 111 0 0 0 0 0 0 0 0 0 0 0 0 0 0 0 0 0 0 0 0 0 0 0 0 0 0 0 0 0 0 0 0 255 10 0 255 10 0 255 10 0 255 10 0 255 10 0 255 10 0 255 10 0 255 10 0 255 10 0 255 10 0 255 10 0 255 10 0 255 10 0 255 10 0 255 10 0 255 10 0 255 10 0 255 10 0 255 10 0 255 10 0 255 10 0 255 10 0 255 10 0 255 10 0 255 10 0 255 10 0 255 10 0 255 10 0 255 10 0 255 10 0 
127 0 0 127 0 0 127 0 0 127 0 0 127 0 0 127 0 0 127 0 0 127 0 0 127 0 0 127 0 0 134 0 0 134 0 0 134 0 0 134 0 0 134 0 0 134 0 0 134 0 0 134 0 0 134 0 0 134 0 0 123 0 0 123 0 0 123 0 0 123 0 0 123 0 0 123 0 0 123 0 0 123 0 0 123 0 0 123 0 0 111 0 0 111 0 0 111 0 0 111 0 0 111 0 0 111 0 0 111 0 0 111 0 0 111 0 0 111 0 0 138 0 0 138 0 0 138 0 0 138 0 0 138 0 0 138 0 0 138 0 0 138 0 0 138 0 0 138 0 0 108 0 0 108 0 0 108 0 0 108 0 0 108 0 0 108 0 0 108 0 0 108 0 0 108 0 0 108 0 0 100 0 0 100 0 0 100 0 0 100 0 0 100 0 0 100 0 0 100 0 0 100 0 0 100 0 0 100 0 0 93 0 0 93 0 0 93 0 0 93 0 0 93 0 0 93 0 0 93 0 0 93 0 0 93 0 0 93 0 0 34 0 0 34 0 0 34 0 0 34 0 0 34 0 0 34 0 0 34 0 0 34 0 0 34 0 0 34 0 0 26 0 0 26 0 0 26 0 0 26 0 0 26 0 0 26 0 0 26 0 0 26 0 0 26 0 0 26 0 0 50 0 0 50 0 0 50 0 0 50 0 0 50 0 0 50 0 0 50 0 0 50 0 0 50 0 0 50 0 0 80 0 0 80 0 0 80 0 0 80 0 0 80 0 0 80 0 0 80 0 0 80 0 0 80 0 0 80 0 0 97 0 0 97 0 0 97 0 0 97 0 0 97 0 0 97 0 0 97 0 0 97 0 0 97 0 0 97 0 0 117 0 0 117 0 0 117 0 0 117 0 0 117 0 0 117 0 0 117 0 0 117 0 0 117 0 0 117 0 0 80 0 0 80 0 0 80 0 0 80 0 0 80 0 0 80 0 0 80 0 0 80 0 0 80 0 0 80 0 0 52 0 0 52 0 0 52 0 0 52 0 0 52 0 0 52 0 0 52 0 0 52 0 0 52 0 0 52 0 0 20 0 0 20 0 0 20 0 0 20 0 0 20 0 0 20 0 0 20 0 0 20 0 0 20 0 0 20 0 0 29 0 0 29 0 0 29 0 0 29 0 0 29 0 0 29 0 0 29 0 0 29 0 0 29 0 0 29 0 0 93 0 0 93 0 0 93 0 0 93 0 0 93 0 0 93 0 0 93 0 0 93 0 0 93 0 0 93 0 0 101 0 0 101 0 0 101 0 0 101 0 0 101 0 0 101 0 0 101 0 0 101 0 0 101 0 0 101 0 0 187 0 0 187 0 0 187 0 0 187 0 0 187 0 0 187 0 0 187 0 0 187 0 0 187 0 0 187 0 0 185 0 0 185 0 0 185 0 0 185 0 0 185 0 0 185 0 0 185 0 0 185 0 0 185 0 0 185 0 0 158 0 0 158 0 0 158 0 0 158 0 0 158 0 0 158 0 0 158 0 0 158 0 0 158 0 0 158 0 0 163 0 0 163 0 0 163 0 0 163 0 0 163 0 0 163 0 0 163 0 0 163 0 0 163 0 0 163 0 0 114 0 0 114 0 0 114 0 0 114 0 0 114 0 0 114 0 0 114 0 0 114 0 0 114 0 0 114 0 0 106 0 0 106 0 0 106 0 0 106 0 0 106 0 0 106 0 0 106 0 0 106 0 0 106 0 0 106 0 0 128 0 0 128 0 0 128 0 0 128 0 0 128 0 0 128 0 0 128 0 0 128 0 0 128 0 0 128 0 0 111 0 0 111 0 0 111 0 0 111 0 0 111 0 0 111 0 0 111 0 0 111 0 0 111 0 0 111 0 0 0 0 0 0 0 0 0 0 0 0 0 0 0 0 0 0 0 0 0 0 0 0 0 0 0 0 0 0 0 0 255 6 0 255 6 0 255 6 0 255 6 0 255 6 0 255 6 0 255 6 0 255 6 0 255 6 0 255 6 0 255 6 0 255 6 0 255 6 0 255 6 0 255 6 0 255 6 0 255 6 0 255 6 0 255 6 0 255 6 0 255 6 0 255 6 0 255 6 0 255 6 0 255 6 0 255 6 0 255 6 0 255 6 0 255 6 0 255 6 0 
127 0 0 127 0 0 127 0 0 127 0 0 127 0 0 127 0 0 127 0 0 127 0 0 127 0 0 127 0 0 134 0 0 134 0 0 134 0 0 134 0 0 134 0 0 134 0 0 134 0 0 134 0 0 134 0 0 134 0 0 123 0 0 123 0 0 123 0 0 123 0 0 123 0 0 123 0 0 123 0 0 123 0 0 123 0 0 123 0 0 111 0 0 111 0 0 111 0 0 111 0 0 111 0 0 111 0 0 111 0 0 111 0 0 111 0 0 111 0 0 138 0 0 138 0 0 138 0 0 138 0 0 138 0 0 138 0 0 138 0 0 138 0 0 138 0 0 138 0 0 108 0 0 108 0 0 108 0 0 108 0 0 108 0 0 108 0 0 108 0 0 108 0 0 108 0 0 108 0 0 100 0 0 100 0 0 100 0 0 100 0 0 100 0 0 100 0 0 100 0 0 100 0 0 100 0 0 100 0 0 93 0 0 93 0 0 93 0 0 93 0 0 93 0 0 93 0 0 93 0 0 93 0 0 93 0 0 93 0 0 34 0 0 34 0 0 34 0 0 34 0 0 34 0 0 34 0 0 34 0 0 34 0 0 34 0 0 34 0 0 26 0 0 26 0 0 26 0 0 26 0 0 26 0 0 26 0 0 26 0 0 26 0 0 26 0 0 26 0 0 50 0 0 50 0 0 50 0 0 50 0 0 50 0 0 50 0 0 50 0 0 50 0 0 50 0 0 50 0 0 80 0 0 80 0 0 80 0 0 80 0 0 80 0 0 80 0 0 80 0 0 80 0 0 80 0 0 80 0 0 97 0 0 97 0 0 97 0 0 97 0 0 97 0 0 97 0 0 97 0 0 97 0 0 97 0 0 97 0 0 117 0 0 117 0 0 117 0 0 117 0 0 117 0 0 117 0 0 117 0 0 117 0 0 117 0 0 117 0 0 80 0 0 80 0 0 80 0 0 80 0 0 80 0 0 80 0 0 80 0 0 80 0 0 80 0 0 80 0 0 52 0 0 52 0 0 52 0 0 52 0 0 52 0 0 52 0 0 52 0 0 52 0 0 52 0 0 52 0 0 20 0 0 20 0 0 20 0 0 20 0 0 20 0 0 20 0 0 20 0 0 20 0 0 20 0 0 20 0 0 29 0 0 29 0 0 29 0 0 29 0 0 29 0 0 29 0 0 29 0 0 29 0 0 29 0 0 29 0 0 93 0 0 93 0 0 93 0 0 93 0 0 93 0 0 93 0 0 93 0 0 93 0 0 93 0 0 93 0 0 101 0 0 101 0 0 101 0 0 101 0 0 101 0 0 101 0 0 101 0 0 101 0 0 101 0 0 101 0 0 187 0 0 187 0 0 187 0 0 187 0 0 187 0 0 187 0 0 187 0 0 187 0 0 187 0 0 187 0 0 185 0 0 185 0 0 185 0 0 185 0 0 185 0 0 185 0 0 185 0 0 185 0 0 185 0 0 185 0 0 158 0 0 158 0 0 158 0 0 158 0 0 158 0 0 158 0 0 158 0 0 158 0 0 158 0 0 158 0 0 163 0 0 163 0 0 163 0 0 163 0 0 163 0 0 163 0 0 163 0 0 163 0 0 163 0 0 163 0 0 114 0 0 114 0 0 114 0 0 114 0 0 114 0 0 114 0 0 114 0 0 114 0 0 114 0 0 114 0 0 106 0 0 106 0 0 106 0 0 106 0 0 106 0 0 106 0 0 106 0 0 106 0 0 106 0 0 106 0 0 128 0 0 128 0 0 128 0 0 128 0 0 128 0 0 128 0 0 128 0 0 128 0 0 128 0 0 128 0 0 111 0 0 111 0 0 111 0 0 111 0 0 111 0 0 111 0 0 111 0 0 111 0 0 111 0 0 111 0 0 0 0 0 0 0 0 0 0 0 0 0 0 0 0 0 0 0 0 0 0 0 0 0 0 0 0 0 0 0 0 255 2 0 255 2 0 255 2 0 255 2 0 255 2 0 255 2 0 255 2 0 255 2 0 255 2 0 255 2 0 255 2 0 255 2 0 255 2 0 255 2 0 255 2 0 255 2 0 255 2 0 255 2 0 255 2 0 255 2 0 255 2 0 255 2 0 255 2 0 255 2 0 255 2 0 255 2 0 255 2 0 255 2 0 255 2 0 255 2 0 
150 0 0 150 0 0 150 0 0 150 0 0 150 0 0 150 0 0 150 0 0 150 0 0 150 0 0 150 0 0 129 0 0 129 0 0 129 0 0 129 0 0 129 0 0 129 0 0 129 0 0 129 0 0 129 0 0 129 0 0 114 0 0 114 0 0 114 0 0 114 0 0 114 0 0 114 0 0 114 0 0 114 0 0 114 0 0 114 0 0 117 0 0 117 0 0 117 0 0 117 0 0 117 0 0 117 0 0 117 0 0 117 0 0 117 0 0 117 0 0 117 0 0 117 0 0 117 0 0 117 0 0 117 0 0 117 0 0 117 0 0 117 0 0 117 0 0 117 0 0 97 0 0 97 0 0 97 0 0 97 0 0 97 0 0 97 0 0 97 0 0 97 0 0 97 0 0 97 0 0 79 0 0 79 0 0 79 0 0 79 0 0 79 0 0 79 0 0 79 0 0 79 0 0 79 0 0 79 0 0 52 0 0 52 0 0 52 0 0 52 0 0 52 0 0 52 0 0 52 0 0 52 0 0 52 0 0 52 0 0 25 0 0 25 0 0 25 0 0 25 0 0 25 0 0 25 0 0 25 0 0 25 0 0 25 0 0 25 0 0 31 0 0 31 0 0 31 0 0 31 0 0 31 0 0 31 0 0 31 0 0 31 0 0 31 0 0 31 0 0 26 0 0 26 0 0 26 0 0 26 0 0 26 0 0 26 0 0 26 0 0 26 0 0 26 0 0 26 0 0 47 0 0 47 0 0 47 0 0 47 0 0 47 0 0 47 0 0 47 0 0 47 0 0 47 0 0 47 0 0 92 0 0 92 0 0 92 0 0 92 0 0 92 0 0 92 0 0 92 0 0 92 0 0 92 0 0 92 0 0 67 0 0 67 0 0 67 0 0 67 0 0 67 0 0 67 0 0 67 0 0 67 0 0 67 0 0 67 0 0 45 0 0 45 0 0 45 0 0 45 0 0 45 0 0 45 0 0 45 0 0 45 0 0 45 0 0 45 0 0 3 0 0 3 0 0 3 0 0 3 0 0 3 0 0 3 0 0 3 0 0 3 0 0 3 0 0 3 0 0 17 0 0 17 0 0 17 0 0 17 0 0 17 0 0 17 0 0 17 0 0 17 0 0 17 0 0 17 0 0 14 0 0 14 0 0 14 0 0 14 0 0 14 0 0 14 0 0 14 0 0 14 0 0 14 0 0 14 0 0 56 0 0 56 0 0 56 0 0 56 0 0 56 0 0 56 0 0 56 0 0 56 0 0 56 0 0 56 0 0 105 0 0 105 0 0 105 0 0 105 0 0 105 0 0 105 0 0 105 0 0 105 0 0 105 0 0 105 0 0 151 0 0 151 0 0 151 0 0 151 0 0 151 0 0 151 0 0 151 0 0 151 0 0 151 0 0 151 0 0 132 0 0 132 0 0 132 0 0 132 0 0 132 0 0 132 0 0 132 0 0 132 0 0 132 0 0 132 0 0 148 0 0 148 0 0 148 0 0 148 0 0 148 0 0 148 0 0 148 0 0 148 0 0 148 0 0 148 0 0 95 0 0 95 0 0 95 0 0 95 0 0 95 0 0 95 0 0 95 0 0 95 0 0 95 0 0 95 0 0 83 0 0 83 0 0 83 0 0 83 0 0 83 0 0 83 0 0 83 0 0 83 0 0 83 0 0 83 0 0 103 0 0 103 0 0 103 0 0 103 0 0 103 0 0 103 0 0 103 0 0 103 0 0 103 0 0 103 0 0 137 0 0 137 0 0 137 0 0 137 0 0 137 0 0 137 0 0 137 0 0 137 0 0 137 0 0 137 0 0 121 0 0 121 0 0 121 0 0 121 0 0 121 0 0 121 0 0 121 0 0 121 0 0 121 0 0 121 0 0 0 0 0 0 0 0 0 0 0 0 0 0 0 0 0 0 0 0 0 0 0 0 0 0 0 0 0 0 0 0 254 0 0 254 0 0 254 0 0 254 0 0 254 0 0 254 0 0 254 0 0 254 0 0 254 0 0 254 0 0 254 0 0 254 0 0 254 0 0 254 0 0 254 0 0 254 0 0 254 0 0 254 0 0 254 0 0 254 0 0 254 0 0 254 0 0 254 0 0 254 0 0 254 0 0 254 0 0 254 0 0 254 0 0 254 0 0 254 0 0 
150 0 0 150 0 0 150 0 0 150 0 0 150 0 0 150 0 0 150 0 0 150 0 0 150 0 0 150 0 0 129 0 0 129 0 0 129 0 0 129 0 0 129 0 0 129 0 0 129 0 0 129 0 0 129 0 0 129 0 0 114 0 0 114 0 0 114 0 0 114 0 0 114 0 0 114 0 0 114 0 0 114 0 0 114 0 0 114 0 0 117 0 0 117 0 0 117 0 0 117 0 0 117 0 0 117 0 0 117 0 0 117 0 0 117 0 0 117 0 0 117 0 0 117 0 0 117 0 0 117 0 0 117 0 0 117 0 0 117 0 0 117 0 0 117 0 0 117 0 0 97 0 0 97 0 0 97 0 0 97 0 0 97 0 0 97 0 0 97 0 0 97 0 0 97 0 0 97 0 0 79 0 0 79 0 0 79 0 0 79 0 0 79 0 0 79 0 0 79 0 0 79 0 0 79 0 0 79 0 0 52 0 0 52 0 0 52 0 0 52 0 0 52 0 0 52 0 0 52 0 0 52 0 0 52 0 0 52 0 0 25 0 0 25 0 0 25 0 0 25 0 0 25 0 0 25 0 0 25 0 0 25 0 0 25 0 0 25 0 0 31 0 0 31 0 0 31 0 0 31 0 0 31 0 0 31 0 0 31 0 0 31 0 0 31 0 0 31 0 0 26 0 0 26 0 0 26 0 0 26 0 0 26 0 0 26 0 0 26 0 0 26 0 0 26 0 0 26 0 0 47 0 0 47 0 0 47 0 0 47 0 0 47 0 0 47 0 0 47 0 0 47 0 0 47 0 0 47 0 0 92 0 0 92 0 0 92 0 0 92 0 0 92 0 0 92 0 0 92 0 0 92 0 0 92 0 0 92 0 0 67 0 0 67 0 0 67 0 0 67 0 0 67 0 0 67 0 0 67 0 0 67 0 0 67 0 0 67 0 0 45 0 0 45 0 0 45 0 0 45 0 0 45 0 0 45 0 0 45 0 0 45 0 0 45 0 0 45 0 0 3 0 0 3 0 0 3 0 0 3 0 0 3 0 0 3 0 0 3 0 0 3 0 0 3 0 0 3 0 0 17 0 0 17 0 0 17 0 0 17 0 0 17 0 0 17 0 0 17 0 0 17 0 0 17 0 0 17 0 0 14 0 0 14 0 0 14 0 0 14 0 0 14 0 0 14 0 0 14 0 0 14 0 0 14 0 0 14 0 0 56 0 0 56 0 0 56 0 0 56 0 0 56 0 0 56 0 0 56 0 0 56 0 0 56 0 0 56 0 0 105 0 0 105 0 0 105 0 0 105 0 0 105 0 0 105 0 0 105 0 0 105 0 0 105 0 0 105 0 0 151 0 0 151 0 0 151 0 0 151 0 0 151 0 0 151 0 0 151 0 0 151 0 0 151 0 0 151 0 0 132 0 0 132 0 0 132 0 0 132 0 0 132 0 0 132 0 0 132 0 0 132 0 0 132 0 0 132 0 0 148 0 0 148 0 0 148 0 0 148 0 0 148 0 0 148 0 0 148 0 0 148 0 0 148 0 0 148 0 0 95 0 0 95 0 0 95 0 0 95 0 0 95 0 0 95 0 0 95 0 0 95 0 0 95 0 0 95 0 0 83 0 0 83 0 0 83 0 0 83 0 0 83 0 0 83 0 0 83 0 0 83 0 0 83 0 0 83 0 0 103 0 0 103 0 0 103 0 0 103 0 0 103 0 0 103 0 0 103 0 0 103 0 0 103 0 0 103 0 0 137 0 0 137 0 0 137 0 0 137 0 0 137 0 0 137 0 0 137 0 0 137 0 0 137 0 0 137 0 0 121 0 0 121 0 0 121 0 0 121 0 0 121 0 0 121 0 0 121 0 0 121 0 0 121 0 0 121 0 0 0 0 0 0 0 0 0 0 0 0 0 0 0 0 0 0 0 0 0 0 0 0 0 0 0 0 0 0 0 0 250 0 0 250 0 0 250 0 0 250 0 0 250 0 0 250 0 0 250 0 0 250 0 0 250 0 0 250 0 0 250 0 0 250 0 0 250 0 0 250 0 0 250 0 0 250 0 0 250 0 0 250 0 0 250 0 0 250 0 0 250 0 0 250 0 0 250 0 0 250 0 0 250 0 0 250 0 0 250 0 0 250 0 0 250 0 0 250 0 0 
150 0 0 150 0 0 150 0 0 150 0 0 150 0 0 150 0 0 150 0 0 150 0 0 150 0 0 150 0 0 129 0 0 129 0 0 129 0 0 129 0 0 129 0 0 129 0 0 129 0 0 129 0 0 129 0 0 129 0 0 114 0 0 114 0 0 114 0 0 114 0 0 114 0 0 114 0 0 114 0 0 114 0 0 114 0 0 114 0 0 117 0 0 117 0 0 117 0 0 117 0 0 117 0 0 117 0 0 117 0 0 117 0 0 117 0 0 117 0 0 117 0 0 117 0 0 117 0 0 117 0 0 117 0 0 117 0 0 117 0 0 117 0 0 117 0 0 117 0 0 97 0 0 97 0 0 97 0 0 97 0 0 97 0 0 97 0 0 97 0 0 97 0 0 97 0 0 97 0 0 79 0 0 79 0 0 79 0 0 79 0 0 79 0 0 79 0 0 79 0 0 79 0 0 79 0 0 79 0 0 52 0 0 52 0 0 52 0 0 52 0 0 52 0 0 52 0 0 52 0 0 52 0 0 52 0 0 52 0 0 25 0 0 25 0 0 25 0 0 25 0 0 25 0 0 25 0 0 25 0 0 25 0 0 25 0 0 25 0 0 31 0 0 31 0 0 31 0 0 31 0 0 31 0 0 31 0 0 31 0 0 31 0 0 31 0 0 31 0 0 26 0 0 26 0 0 26 0 0 26 0 0 26 0 0 26 0 0 26 0 0 26 0 0 26 0 0 26 0 0 47 0 0 47 0 0 47 0 0 47 0 0 47 0 0 47 0 0 47 0 0 47 0 0 47 0 0 47 0 0 92 0 0 92 0 0 92 0 0 92 0 0 92 0 0 92 0 0 92 0 0 92 0 0 92 0 0 92 0 0 67 0 0 67 0 0 67 0 0 67 0 0 67 0 0 67 0 0 67 0 0 67 0 0 67 0 0 67 0 0 45 0 0 45 0 0 45 0 0 45 0 0 45 0 0 45 0 0 45 0 0 45 0 0 45 0 0 45 0 0 3 0 0 3 0 0 3 0 0 3 0 0 3 0 0 3 0 0 3 0 0 3 0 0 3 0 0 3 0 0 17 0 0 17 0 0 17 0 0 17 0 0 17 0 0 17 0 0 17 0 0 17 0 0 17 0 0 17 0 0 14 0 0 14 0 0 14 0 0 14 0 0 14 0 0 14 0 0 14 0 0 14 0 0 14 0 0 14 0 0 56 0 0 56 0 0 56 0 0 56 0 0 56 0 0 56 0 0 56 0 0 56 0 0 56 0 0 56 0 0 105 0 0 105 0 0 105 0 0 105 0 0 105 0 0 105 0 0 105 0 0 105 0 0 105 0 0 105 0 0 151 0 0 151 0 0 151 0 0 151 0 0 151 0 0 151 0 0 151 0 0 151 0 0 151 0 0 151 0 0 132 0 0 132 0 0 132 0 0 132 0 0 132 0 0 132 0 0 132 0 0 132 0 0 132 0 0 132 0 0 148 0 0 148 0 0 148 0 0 148 0 0 148 0 0 148 0 0 148 0 0 148 0 0 148 0 0 148 0 0 95 0 0 95 0 0 95 0 0 95 0 0 95 0 0 95 0 0 95 0 0 95 0 0 95 0 0 95 0 0 83 0 0 83 0 0 83 0 0 83 0 0 83 0 0 83 0 0 83 0 0 83 0 0 83 0 0 83 0 0 103 0 0 103 0 0 103 0 0 103 0 0 103 0 0 103 0 0 103 0 0 103 0 0 103 0 0 103 0 0 137 0 0 137 0 0 137 0 0 137 0 0 137 0 0 137 0 0 137 0 0 137 0 0 137 0 0 137 0 0 121 0 0 121 0 0 121 0 0 121 0 0 121 0 0 121 0 0 121 0 0 121 0 0 121 0 0 121 0 0 0 0 0 0 0 0 0 0 0 0 0 0 0 0 0 0 0 0 0 0 0 0 0 0 0 0 0 0 0 0 246 0 0 246 0 0 246 0 0 246 0 0 246 0 0 246 0 0 246 0 0 246 0 0 246 0 0 246 0 0 246 0 0 246 0 0 246 0 0 246 0 0 246 0 0 246 0 0 246 0 0 246 0 0 246 0 0 246 0 0 246 0 0 246 0 0 246 0 0 246 0 0 246 0 0 246 0 0 246 0 0 246 0 0 246 0 0 246 0 0 
150 0 0 150 0 0 150 0 0 150 0 0 150 0 0 150 0 0 150 0 0 150 0 0 150 0 0 150 0 0 129 0 0 129 0 0 129 0 0 129 0 0 129 0 0 129 0 0 129 0 0 129 0 0 129 0 0 129 0 0 114 0 0 114 0 0 114 0 0 114 0 0 114 0 0 114 0 0 114 0 0 114 0 0 114 0 0 114 0 0 117 0 0 117 0 0 117 0 0 117 0 0 117 0 0 117 0 0 117 0 0 117 0 0 117 0 0 117 0 0 117 0 0 117 0 0 117 0 0 117 0 0 117 0 0 117 0 0 117 0 0 117 0 0 117 0 0 117 0 0 97 0 0 97 0 0 97 0 0 97 0 0 97 0 0 97 0 0 97 0 0 97 0 0 97 0 0 97 0 0 79 0 0 79 0 0 79 0 0 79 0 0 79 0 0 79 0 0 79 0 0 79 0 0 79 0 0 79 0 0 52 0 0 52 0 0 52 0 0 52 0 0 52 0 0 52 0 0 52 0 0 52 0 0 52 0 0 52 0 0 25 0 0 25 0 0 25 0 0 25 0 0 25 0 0 25 0 0 25 0 0 25 0 0 25 0 0 25 0 0 31 0 0 31 0 0 31 0 0 31 0 0 31 0 0 31 0 0 31 0 0 31 0 0 31 0 0 31 0 0 26 0 0 26 0 0 26 0 0 26 0 0 26 0 0 26 0 0 26 0 0 26 0 0 26 0 0 26 0 0 47 0 0 47 0 0 47 0 0 47 0 0 47 0 0 47 0 0 47 0 0 47 0 0 47 0 0 47 0 0 92 0 0 92 0 0 92 0 0 92 0 0 92 0 0 92 0 0 92 0 0 92 0 0 92 0 0 92 0 0 67 0 0 67 0 0 67 0 0 67 0 0 67 0 0 67 0 0 67 0 0 67 0 0 67 0 0 67 0 0 45 0 0 45 0 0 45 0 0 45 0 0 45 0 0 45 0 0 45 0 0 45 0 0 45 0 0 45 0 0 3 0 0 3 0 0 3 0 0 3 0 0 3 0 0 3 0 0 3 0 0 3 0 0 3 0 0 3 0 0 17 0 0 17 0 0 17 0 0 17 0 0 17 0 0 17 0 0 17 0 0 17 0 0 17 0 0 17 0 0 14 0 0 14 0 0 14 0 0 14 0 0 14 0 0 14 0 0 14 0 0 14 0 0 14 0 0 14 0 0 56 0 0 56 0 0 56 0 0 56 0 0 56 0 0 56 0 0 56 0 0 56 0 0 56 0 0 56 0 0 105 0 0 105 0 0 105 0 0 105 0 0 105 0 0 105 0 0 105 0 0 105 0 0 105 0 0 105 0 0 151 0 0 151 0 0 151 0 0 151 0 0 151 0 0 151 0 0 151 0 0 151 0 0 151 0 0 151 0 0 132 0 0 132 0 0 132 0 0 132 0 0 132 0 0 132 0 0 132 0 0 132 0 0 132 0 0 132 0 0 148 0 0 148 0 0 148 0 0 148 0 0 148 0 0 148 0 0 148 0 0 148 0 0 148 0 0 148 0 0 95 0 0 95 0 0 95 0 0 95 0 0 95 0 0 95 0 0 95 0 0 95 0 0 95 0 0 95 0 0 83 0 0 83 0 0 83 0 0 83 0 0 83 0 0 83 0 0 83 0 0 83 0 0 83 0 0 83 0 0 103 0 0 103 0 0 103 0 0 103 0 0 103 0 0 103 0 0 103 0 0 103 0 0 103 0 0 103 0 0 137 0 0 137 0 0 137 0 0 137 0 0 137 0 0 137 0 0 137 0 0 137 0 0 137 0 0 137 0 0 121 0 0 121 0 0 121 0 0 121 0 0 121 0 0 121 0 0 121 0 0 121 0 0 121 0 0 121 0 0 0 0 0 0 0 0 0 0 0 0 0 0 0 0 0 0 0 0 0 0 0 0 0 0 0 0 0 0 0 0 243 0 0 243 0 0 243 0 0 243 0 0 243 0 0 243 0 0 243 0 0 243 0 0 243 0 0 243 0 0 243 0 0 243 0 0 243 0 0 243 0 0 243 0 0 243 0 0 243 0 0 243 0 0 243 0 0 243 0 0 243 0 0 243 0 0 243 0 0 243 0 0 243 0 0 243 0 0 243 0 0 243 0 0 243 0 0 243 0 0 
150 0 0 150 0 0 150 0 0 150 0 0 150 0 0 150 0 0 150 0 0 150 0 0 150 0 0 150 0 0 129 0 0 129 0 0 129 0 0 129 0 0 129 0 0 129 0 0 129 0 0 129 0 0 129 0 0 129 0 0 114 0 0 114 0 0 114 0 0 114 0 0 114 0 0 114 0 0 114 0 0 114 0 0 114 0 0 114 0 0 117 0 0 117 0 0 117 0 0 117 0 0 117 0 0 117 0 0 117 0 0 117 0 0 117 0 0 117 0 0 117 0 0 117 0 0 117 0 0 117 0 0 117 0 0 117 0 0 117 0 0 117 0 0 117 0 0 117 0 0 97 0 0 97 0 0 97 0 0 97 0 0 97 0 0 97 0 0 97 0 0 97 0 0 97 0 0 97 0 0 79 0 0 79 0 0 79 0 0 79 0 0 79 0 0 79 0 0 79 0 0 79 0 0 79 0 0 79 0 0 52 0 0 52 0 0 52 0 0 52 0 0 52 0 0 52 0 0 52 0 0 52 0 0 52 0 0 52 0 0 25 0 0 25 0 0 25 0 0 25 0 0 25 0 0 25 0 0 25 0 0 25 0 0 25 0 0 25 0 0 31 0 0 31 0 0 31 0 0 31 0 0 31 0 0 31 0 0 31 0 0 31 0 0 31 0 0 31 0 0 26 0 0 26 0 0 26 0 0 26 0 0 26 0 0 26 0 0 26 0 0 26 0 0 26 0 0 26 0 0 47 0 0 47 0 0 47 0 0 47 0 0 47 0 0 47 0 0 47 0 0 47 0 0 47 0 0 47 0 0 92 0 0 92 0 0 92 0 0 92 0 0 92 0 0 92 0 0 92 0 0 92 0 0 92 0 0 92 0 0 67 0 0 67 0 0 67 0 0 67 0 0 67 0 0 67 0 0 67 0 0 67 0 0 67 0 0 67 0 0 45 0 0 45 0 0 45 0 0 45 0 0 45 0 0 45 0 0 45 0 0 45 0 0 45 0 0 45 0 0 3 0 0 3 0 0 3 0 0 3 0 0 3 0 0 3 0 0 3 0 0 3 0 0 3 0 0 3 0 0 17 0 0 17 0 0 17 0 0 17 0 0 17 0 0 17 0 0 17 0 0 17 0 0 17 0 0 17 0 0 14 0 0 14 0 0 14 0 0 14 0 0 14 0 0 14 0 0 14 0 0 14 0 0 14 0 0 14 0 0 56 0 0 56 0 0 56 0 0 56 0 0 56 0 0 56 0 0 56 0 0 56 0 0 56 0 0 56 0 0 105 0 0 105 0 0 105 0 0 105 0 0 105 0 0 105 0 0 105 0 0 105 0 0 105 0 0 105 0 0 151 0 0 151 0 0 151 0 0 151 0 0 151 0 0 151 0 0 151 0 0 151 0 0 151 0 0 151 0 0 132 0 0 132 0 0 132 0 0 132 0 0 132 0 0 132 0 0 132 0 0 132 0 0 132 0 0 132 0 0 148 0 0 148 0 0 148 0 0 148 0 0 148 0 0 148 0 0 148 0 0 148 0 0 148 0 0 148 0 0 95 0 0 95 0 0 95 0 0 95 0 0 95 0 0 95 0 0 95 0 0 95 0 0 95 0 0 95 0 0 83 0 0 83 0 0 83 0 0 83 0 0 83 0 0 83 0 0 83 0 0 83 0 0 83 0 0 83 0 0 103 0 0 103 0 0 103 0 0 103 0 0 103 0 0 103 0 0 103 0 0 103 0 0 103 0 0 103 0 0 137 0 0 137 0 0 137 0 0 137 0 0 137 0 0 137 0 0 137 0 0 137 0 0 137 0 0 137 0 0 121 0 0 121 0 0 121 0 0 121 0 0 121 0 0 121 0 0 121 0 0 121 0 0 121 0 0 121 0 0 0 0 0 0 0 0 0 0 0 0 0 0 0 0 0 0 0 0 0 0 0 0 0 0 0 0 0 0 0 0 239 0 0 239 0 0 239 0 0 239 0 0 239 0 0 239 0 0 239 0 0 239 0 0 239 0 0 239 0 0 239 0 0 239 0 0 239 0 0 239 0 0 239 0 0 239 0 0 239 0 0 239 0 0 239 0 0 239 0 0 239 0 0 239 0 0 239 0 0 239 0 0 239 0 0 239 0 0 239 0 0 239 0 0 239 0 0 239 0 0 
150 0 0 150 0 0 150 0 0 150 0 0 150 0 0 150 0 0 150 0 0 150 0 0 150 0 0 150 0 0 129 0 0 129 0 0 129 0 0 129 0 0 129 0 0 129 0 0 129 0 0 129 0 0 129 0 0 129 0 0 114 0 0 114 0 0 114 0 0 114 0 0 114 0 0 114 0 0 114 0 0 114 0 0 114 0 0 114 0 0 117 0 0 117 0 0 117 0 0 117 0 0 117 0 0 117 0 0 117 0 0 117 0 0 117 0 0 117 0 0 117 0 0 117 0 0 117 0 0 117 0 0 117 0 0 117 0 0 117 0 0 117 0 0 117 0 0 117 0 0 97 0 0 97 0 0 97 0 0 97 0 0 97 0 0 97 0 0 97 0 0 97 0 0 97 0 0 97 0 0 79 0 0 79 0 0 79 0 0 79 0 0 79 0 0 79 0 0 79 0 0 79 0 0 79 0 0 79 0 0 52 0 0 52 0 0 52 0 0 52 0 0 52 0 0 52 0 0 52 0 0 52 0 0 52 0 0 52 0 0 25 0 0 25 0 0 25 0 0 25 0 0 25 0 0 25 0 0 25 0 0 25 0 0 25 0 0 25 0 0 31 0 0 31 0 0 31 0 0 31 0 0 31 0 0 31 0 0 31 0 0 31 0 0 31 0 0 31 0 0 26 0 0 26 0 0 26 0 0 26 0 0 26 0 0 26 0 0 26 0 0 26 0 0 26 0 0 26 0 0 47 0 0 47 0 0 47 0 0 47 0 0 47 0 0 47 0 0 47 0 0 47 0 0 47 0 0 47 0 0 92 0 0 92 0 0 92 0 0 92 0 0 92 0 0 92 0 0 92 0 0 92 0 0 92 0 0 92 0 0 67 0 0 67 0 0 67 0 0 67 0 0 67 0 0 67 0 0 67 0 0 67 0 0 67 0 0 67 0 0 45 0 0 45 0 0 45 0 0 45 0 0 45 0 0 45 0 0 45 0 0 45 0 0 45 0 0 45 0 0 3 0 0 3 0 0 3 0 0 3 0 0 3 0 0 3 0 0 3 0 0 3 0 0 3 0 0 3 0 0 17 0 0 17 0 0 17 0 0 17 0 0 17 0 0 17 0 0 17 0 0 17 0 0 17 0 0 17 0 0 14 0 0 14 0 0 14 0 0 14 0 0 14 0 0 14 0 0 14 0 0 14 0 0 14 0 0 14 0 0 56 0 0 56 0 0 56 0 0 56 0 0 56 0 0 56 0 0 56 0 0 56 0 0 56 0 0 56 0 0 105 0 0 105 0 0 105 0 0 105 0 0 105 0 0 105 0 0 105 0 0 105 0 0 105 0 0 105 0 0 151 0 0 151 0 0 151 0 0 151 0 0 151 0 0 151 0 0 151 0 0 151 0 0 151 0 0 151 0 0 132 0 0 132 0 0 132 0 0 132 0 0 132 0 0 132 0 0 132 0 0 132 0 0 132 0 0 132 0 0 148 0 0 148 0 0 148 0 0 148 0 0 148 0 0 148 0 0 148 0 0 148 0 0 148 0 0 148 0 0 95 0 0 95 0 0 95 0 0 95 0 0 95 0 0 95 0 0 95 0 0 95 0 0 95 0 0 95 0 0 83 0 0 83 0 0 83 0 0 83 0 0 83 0 0 83 0 0 83 0 0 83 0 0 83 0 0 83 0 0 103 0 0 103 0 0 103 0 0 103 0 0 103 0 0 103 0 0 103 0 0 103 0 0 103 0 0 103 0 0 137 0 0 137 0 0 137 0 0 137 0 0 137 0 0 137 0 0 137 0 0 137 0 0 137 0 0 137 0 0 121 0 0 121 0 0 121 0 0 121 0 0 121 0 0 121 0 0 121 0 0 121 0 0 121 0 0 121 0 0 0 0 0 0 0 0 0 0 0 0 0 0 0 0 0 0 0 0 0 0 0 0 0 0 0 0 0 0 0 0 235 0 0 235 0 0 235 0 0 235 0 0 235 0 0 235 0 0 235 0 0 235 0 0 235 0 0 235 0 0 235 0 0 235 0 0 235 0 0 235 0 0 235 0 0 235 0 0 235 0 0 235 0 0 235 0 0 235 0 0 235 0 0 235 0 0 235 0 0 235 0 0 235 0 0 235 0 0 235 0 0 235 0 0 235 0 0 235 0 0 
150 0 0 150 0 0 150 0 0 150 0 0 150 0 0 150 0 0 150 0 0 150 0 0 150 0 0 150 0 0 129 0 0 129 0 0 129 0 0 129 0 0 129 0 0 129 0 0 129 0 0 129 0 0 129 0 0 129 0 0 114 0 0 114 0 0 114 0 0 114 0 0 114 0 0 114 0 0 114 0 0 114 0 0 114 0 0 114 0 0 117 0 0 117 0 0 117 0 0 117 0 0 117 0 0 117 0 0 117 0 0 117 0 0 117 0 0 117 0 0 117 0 0 117 0 0 117 0 0 117 0 0 117 0 0 117 0 0 117 0 0 117 0 0 117 0 0 117 0 0 97 0 0 97 0 0 97 0 0 97 0 0 97 0 0 97 0 0 97 0 0 97 0 0 97 0 0 97 0 0 79 0 0 79 0 0 79 0 0 79 0 0 79 0 0 79 0 0 79 0 0 79 0 0 79 0 0 79 0 0 52 0 0 52 0 0 52 0 0 52 0 0 52 0 0 52 0 0 52 0 0 52 0 0 52 0 0 52 0 0 25 0 0 25 0 0 25 0 0 25 0 0 25 0 0 25 0 0 25 0 0 25 0 0 25 0 0 25 0 0 31 0 0 31 0 0 31 0 0 31 0 0 31 0 0 31 0 0 31 0 0 31 0 0 31 0 0 31 0 0 26 0 0 26 0 0 26 0 0 26 0 0 26 0 0 26 0 0 26 0 0 26 0 0 26 0 0 26 0 0 47 0 0 47 0 0 47 0 0 47 0 0 47 0 0 47 0 0 47 0 0 47 0 0 47 0 0 47 0 0 92 0 0 92 0 0 92 0 0 92 0 0 92 0 0 92 0 0 92 0 0 92 0 0 92 0 0 92 0 0 67 0 0 67 0 0 67 0 0 67 0 0 67 0 0 67 0 0 67 0 0 67 0 0 67 0 0 67 0 0 45 0 0 45 0 0 45 0 0 45 0 0 45 0 0 45 0 0 45 0 0 45 0 0 45 0 0 45 0 0 3 0 0 3 0 0 3 0 0 3 0 0 3 0 0 3 0 0 3 0 0 3 0 0 3 0 0 3 0 0 17 0 0 17 0 0 17 0 0 17 0 0 17 0 0 17 0 0 17 0 0 17 0 0 17 0 0 17 0 0 14 0 0 14 0 0 14 0 0 14 0 0 14 0 0 14 0 0 14 0 0 14 0 0 14 0 0 14 0 0 56 0 0 56 0 0 56 0 0 56 0 0 56 0 0 56 0 0 56 0 0 56 0 0 56 0 0 56 0 0 105 0 0 105 0 0 105 0 0 105 0 0 105 0 0 105 0 0 105 0 0 105 0 0 105 0 0 105 0 0 151 0 0 151 0 0 151 0 0 151 0 0 151 0 0 151 0 0 151 0 0 151 0 0 151 0 0 151 0 0 132 0 0 132 0 0 132 0 0 132 0 0 132 0 0 132 0 0 132 0 0 132 0 0 132 0 0 132 0 0 148 0 0 148 0 0 148 0 0 148 0 0 148 0 0 148 0 0 148 0 0 148 0 0 148 0 0 148 0 0 95 0 0 95 0 0 95 0 0 95 0 0 95 0 0 95 0 0 95 0 0 95 0 0 95 0 0 95 0 0 83 0 0 83 0 0 83 0 0 83 0 0 83 0 0 83 0 0 83 0 0 83 0 0 83 0 0 83 0 0 103 0 0 103 0 0 103 0 0 103 0 0 103 0 0 103 0 0 103 0 0 103 0 0 103 0 0 103 0 0 137 0 0 137 0 0 137 0 0 137 0 0 137 0 0 137 0 0 137 0 0 137 0 0 137 0 0 137 0 0 121 0 0 121 0 0 121 0 0 121 0 0 121 0 0 121 0 0 121 0 0 121 0 0 121 0 0 121 0 0 0 0 0 0 0 0 0 0 0 0 0 0 0 0 0 0 0 0 0 0 0 0 0 0 0 0 0 0 0 0 232 0 0 232 0 0 232 0 0 232 0 0 232 0 0 232 0 0 232 0 0 232 0 0 232 0 0 232 0 0 232 0 0 232 0 0 232 0 0 232 0 0 232 0 0 232 0 0 232 0 0 232 0 0 232 0 0 232 0 0 232 0 0 232 0 0 232 0 0 232 0 0 232 0 0 232 0 0 232 0 0 232 0 0 232 0 0 232 0 0 
150 0 0 150 0 0 150 0 0 150 0 0 150 0 0 150 0 0 150 0 0 150 0 0 150 0 0 150 0 0 129 0 0 129 0 0 129 0 0 129 0 0 129 0 0 129 0 0 129 0 0 129 0 0 129 0 0 129 0 0 114 0 0 114 0 0 114 0 0 114 0 0 114 0 0 114 0 0 114 0 0 114 0 0 114 0 0 114 0 0 117 0 0 117 0 0 117 0 0 117 0 0 117 0 0 117 0 0 117 0 0 117 0 0 117 0 0 117 0 0 117 0 0 117 0 0 117 0 0 117 0 0 117 0 0 117 0 0 117 0 0 117 0 0 117 0 0 117 0 0 97 0 0 97 0 0 97 0 0 97 0 0 97 0 0 97 0 0 97 0 0 97 0 0 97 0 0 97 0 0 79 0 0 79 0 0 79 0 0 79 0 0 79 0 0 79 0 0 79 0 0 79 0 0 79 0 0 79 0 0 52 0 0 52 0 0 52 0 0 52 0 0 52 0 0 52 0 0 52 0 0 52 0 0 52 0 0 52 0 0 25 0 0 25 0 0 25 0 0 25 0 0 25 0 0 25 0 0 25 0 0 25 0 0 25 0 0 25 0 0 31 0 0 31 0 0 31 0 0 31 0 0 31 0 0 31 0 0 31 0 0 31 0 0 31 0 0 31 0 0 26 0 0 26 0 0 26 0 0 26 0 0 26 0 0 26 0 0 26 0 0 26 0 0 26 0 0 26 0 0 47 0 0 47 0 0 47 0 0 47 0 0 47 0 0 47 0 0 47 0 0 47 0 0 47 0 0 47 0 0 92 0 0 92 0 0 92 0 0 92 0 0 92 0 0 92 0 0 92 0 0 92 0 0 92 0 0 92 0 0 67 0 0 67 0 0 67 0 0 67 0 0 67 0 0 67 0 0 67 0 0 67 0 0 67 0 0 67 0 0 45 0 0 45 0 0 45 0 0 45 0 0 45 0 0 45 0 0 45 0 0 45 0 0 45 0 0 45 0 0 3 0 0 3 0 0 3 0 0 3 0 0 3 0 0 3 0 0 3 0 0 3 0 0 3 0 0 3 0 0 17 0 0 17 0 0 17 0 0 17 0 0 17 0 0 17 0 0 17 0 0 17 0 0 17 0 0 17 0 0 14 0 0 14 0 0 14 0 0 14 0 0 14 0 0 14 0 0 14 0 0 14 0 0 14 0 0 14 0 0 56 0 0 56 0 0 56 0 0 56 0 0 56 0 0 56 0 0 56 0 0 56 0 0 56 0 0 56 0 0 105 0 0 105 0 0 105 0 0 105 0 0 105 0 0 105 0 0 105 0 0 105 0 0 105 0 0 105 0 0 151 0 0 151 0 0 151 0 0 151 0 0 151 0 0 151 0 0 151 0 0 151 0 0 151 0 0 151 0 0 132 0 0 132 0 0 132 0 0 132 0 0 132 0 0 132 0 0 132 0 0 132 0 0 132 0 0 132 0 0 148 0 0 148 0 0 148 0 0 148 0 0 148 0 0 148 0 0 148 0 0 148 0 0 148 0 0 148 0 0 95 0 0 95 0 0 95 0 0 95 0 0 95 0 0 95 0 0 95 0 0 95 0 0 95 0 0 95 0 0 83 0 0 83 0 0 83 0 0 83 0 0 83 0 0 83 0 0 83 0 0 83 0 0 83 0 0 83 0 0 103 0 0 103 0 0 103 0 0 103 0 0 103 0 0 103 0 0 103 0 0 103 0 0 103 0 0 103 0 0 137 0 0 137 0 0 137 0 0 137 0 0 137 0 0 137 0 0 137 0 0 137 0 0 137 0 0 137 0 0 121 0 0 121 0 0 121 0 0 121 0 0 121 0 0 121 0 0 121 0 0 121 0 0 121 0 0 121 0 0 0 0 0 0 0 0 0 0 0 0 0 0 0 0 0 0 0 0 0 0 0 0 0 0 0 0 0 0 0 0 228 0 0 228 0 0 228 0 0 228 0 0 228 0 0 228 0 0 228 0 0 228 0 0 228 0 0 228 0 0 228 0 0 228 0 0 228 0 0 228 0 0 228 0 0 228 0 0 228 0 0 228 0 0 228 0 0 228 0 0 228 0 0 228 0 0 228 0 0 228 0 0 228 0 0 228 0 0 228 0 0 228 0 0 228 0 0 228 0 0 
150 0 0 150 0 0 150 0 0 150 0 0 150 0 0 150 0 0 150 0 0 150 0 0 150 0 0 150 0 0 129 0 0 129 0 0 129 0 0 129 0 0 129 0 0 129 0 0 129 0 0 129 0 0 129 0 0 129 0 0 114 0 0 114 0 0 114 0 0 114 0 0 114 0 0 114 0 0 114 0 0 114 0 0 114 0 0 114 0 0 117 0 0 117 0 0 117 0 0 117 0 0 117 0 0 117 0 0 117 0 0 117 0 0 117 0 0 117 0 0 117 0 0 117 0 0 117 0 0 117 0 0 117 0 0 117 0 0 117 0 0 117 0 0 117 0 0 117 0 0 97 0 0 97 0 0 97 0 0 97 0 0 97 0 0 97 0 0 97 0 0 97 0 0 97 0 0 97 0 0 79 0 0 79 0 0 79 0 0 79 0 0 79 0 0 79 0 0 79 0 0 79 0 0 79 0 0 79 0 0 52 0 0 52 0 0 52 0 0 52 0 0 52 0 0 52 0 0 52 0 0 52 0 0 52 0 0 52 0 0 25 0 0 25 0 0 25 0 0 25 0 0 25 0 0 25 0 0 25 0 0 25 0 0 25 0 0 25 0 0 31 0 0 31 0 0 31 0 0 31 0 0 31 0 0 31 0 0 31 0 0 31 0 0 31 0 0 31 0 0 26 0 0 26 0 0 26 0 0 26 0 0 26 0 0 26 0 0 26 0 0 26 0 0 26 0 0 26 0 0 47 0 0 47 0 0 47 0 0 47 0 0 47 0 0 47 0 0 47 0 0 47 0 0 47 0 0 47 0 0 92 0 0 92 0 0 92 0 0 92 0 0 92 0 0 92 0 0 92 0 0 92 0 0 92 0 0 92 0 0 67 0 0 67 0 0 67 0 0 67 0 0 67 0 0 67 0 0 67 0 0 67 0 0 67 0 0 67 0 0 45 0 0 45 0 0 45 0 0 45 0 0 45 0 0 45 0 0 45 0 0 45 0 0 45 0 0 45 0 0 3 0 0 3 0 0 3 0 0 3 0 0 3 0 0 3 0 0 3 0 0 3 0 0 3 0 0 3 0 0 17 0 0 17 0 0 17 0 0 17 0 0 17 0 0 17 0 0 17 0 0 17 0 0 17 0 0 17 0 0 14 0 0 14 0 0 14 0 0 14 0 0 14 0 0 14 0 0 14 0 0 14 0 0 14 0 0 14 0 0 56 0 0 56 0 0 56 0 0 56 0 0 56 0 0 56 0 0 56 0 0 56 0 0 56 0 0 56 0 0 105 0 0 105 0 0 105 0 0 105 0 0 105 0 0 105 0 0 105 0 0 105 0 0 105 0 0 105 0 0 151 0 0 151 0 0 151 0 0 151 0 0 151 0 0 151 0 0 151 0 0 151 0 0 151 0 0 151 0 0 132 0 0 132 0 0 132 0 0 132 0 0 132 0 0 132 0 0 132 0 0 132 0 0 132 0 0 132 0 0 148 0 0 148 0 0 148 0 0 148 0 0 148 0 0 148 0 0 148 0 0 148 0 0 148 0 0 148 0 0 95 0 0 95 0 0 95 0 0 95 0 0 95 0 0 95 0 0 95 0 0 95 0 0 95 0 0 95 0 0 83 0 0 83 0 0 83 0 0 83 0 0 83 0 0 83 0 0 83 0 0 83 0 0 83 0 0 83 0 0 103 0 0 103 0 0 103 0 0 103 0 0 103 0 0 103 0 0 103 0 0 103 0 0 103 0 0 103 0 0 137 0 0 137 0 0 137 0 0 137 0 0 137 0 0 137 0 0 137 0 0 137 0 0 137 0 0 137 0 0 121 0 0 121 0 0 121 0 0 121 0 0 121 0 0 121 0 0 121 0 0 121 0 0 121 0 0 121 0 0 0 0 0 0 0 0 0 0 0 0 0 0 0 0 0 0 0 0 0 0 0 0 0 0 0 0 0 0 0 0 224 0 0 224 0 0 224 0 0 224 0 0 224 0 0 224 0 0 224 0 0 224 0 0 224 0 0 224 0 0 224 0 0 224 0 0 224 0 0 224 0 0 224 0 0 224 0 0 224 0 0 224 0 0 224 0 0 224 0 0 224 0 0 224 0 0 224 0 0 224 0 0 224 0 0 224 0 0 224 0 0 224 0 0 224 0 0 224 0 0 
150 0 0 150 0 0 150 0 0 150 0 0 150 0 0 150 0 0 150 0 0 150 0 0 150 0 0 150 0 0 129 0 0 129 0 0 129 0 0 129 0 0 129 0 0 129 0 0 129 0 0 129 0 0 129 0 0 129 0 0 114 0 0 114 0 0 114 0 0 114 0 0 114 0 0 114 0 0 114 0 0 114 0 0 114 0 0 114 0 0 117 0 0 117 0 0 117 0 0 117 0 0 117 0 0 117 0 0 117 0 0 117 0 0 117 0 0 117 0 0 117 0 0 117 0 0 117 0 0 117 0 0 117 0 0 117 0 0 117 0 0 117 0 0 117 0 0 117 0 0 97 0 0 97 0 0 97 0 0 97 0 0 97 0 0 97 0 0 97 0 0 97 0 0 97 0 0 97 0 0 79 0 0 79 0 0 79 0 0 79 0 0 79 0 0 79 0 0 79 0 0 79 0 0 79 0 0 79 0 0 52 0 0 52 0 0 52 0 0 52 0 0 52 0 0 52 0 0 52 0 0 52 0 0 52 0 0 52 0 0 25 0 0 25 0 0 25 0 0 25 0 0 25 0 0 25 0 0 25 0 0 25 0 0 25 0 0 25 0 0 31 0 0 31 0 0 31 0 0 31 0 0 31 0 0 31 0 0 31 0 0 31 0 0 31 0 0 31 0 0 26 0 0 26 0 0 26 0 0 26 0 0 26 0 0 26 0 0 26 0 0 26 0 0 26 0 0 26 0 0 47 0 0 47 0 0 47 0 0 47 0 0 47 0 0 47 0 0 47 0 0 47 0 0 47 0 0 47 0 0 92 0 0 92 0 0 92 0 0 92 0 0 92 0 0 92 0 0 92 0 0 92 0 0 92 0 0 92 0 0 67 0 0 67 0 0 67 0 0 67 0 0 67 0 0 67 0 0 67 0 0 67 0 0 67 0 0 67 0 0 45 0 0 45 0 0 45 0 0 45 0 0 45 0 0 45 0 0 45 0 0 45 0 0 45 0 0 45 0 0 3 0 0 3 0 0 3 0 0 3 0 0 3 0 0 3 0 0 3 0 0 3 0 0 3 0 0 3 0 0 17 0 0 17 0 0 17 0 0 17 0 0 17 0 0 17 0 0 17 0 0 17 0 0 17 0 0 17 0 0 14 0 0 14 0 0 14 0 0 14 0 0 14 0 0 14 0 0 14 0 0 14 0 0 14 0 0 14 0 0 56 0 0 56 0 0 56 0 0 56 0 0 56 0 0 56 0 0 56 0 0 56 0 0 56 0 0 56 0 0 105 0 0 105 0 0 105 0 0 105 0 0 105 0 0 105 0 0 105 0 0 105 0 0 105 0 0 105 0 0 151 0 0 151 0 0 151 0 0 151 0 0 151 0 0 151 0 0 151 0 0 151 0 0 151 0 0 151 0 0 132 0 0 132 0 0 132 0 0 132 0 0 132 0 0 132 0 0 132 0 0 132 0 0 132 0 0 132 0 0 148 0 0 148 0 0 148 0 0 148 0 0 148 0 0 148 0 0 148 0 0 148 0 0 148 0 0 148 0 0 95 0 0 95 0 0 95 0 0 95 0 0 95 0 0 95 0 0 95 0 0 95 0 0 95 0 0 95 0 0 83 0 0 83 0 0 83 0 0 83 0 0 83 0 0 83 0 0 83 0 0 83 0 0 83 0 0 83 0 0 103 0 0 103 0 0 103 0 0 103 0 0 103 0 0 103 0 0 103 0 0 103 0 0 103 0 0 103 0 0 137 0 0 137 0 0 137 0 0 137 0 0 137 0 0 137 0 0 137 0 0 137 0 0 137 0 0 137 0 0 121 0 0 121 0 0 121 0 0 121 0 0 121 0 0 121 0 0 121 0 0 121 0 0 121 0 0 121 0 0 0 0 0 0 0 0 0 0 0 0 0 0 0 0 0 0 0 0 0 0 0 0 0 0 0 0 0 0 0 0 221 0 0 221 0 0 221 0 0 221 0 0 221 0 0 221 0 0 221 0 0 221 0 0 221 0 0 221 0 0 221 0 0 221 0 0 221 0 0 221 0 0 221 0 0 221 0 0 221 0 0 221 0 0 221 0 0 221 0 0 221 0 0 221 0 0 221 0 0 221 0 0 221 0 0 221 0 0 221 0 0 221 0 0 221 0 0 221 0 0 
139 0 0 139 0 0 139 0 0 139 0 0 139 0 0 139 0 0 139 0 0 139 0 0 139 0 0 139 0 0 123 0 0 123 0 0 123 0 0 123 0 0 123 0 0 123 0 0 123 0 0 123 0 0 123 0 0 123 0 0 118 0 0 118 0 0 118 0 0 118 0 0 118 0 0 118 0 0 118 0 0 118 0 0 118 0 0 118 0 0 127 0 0 127 0 0 127 0 0 127 0 0 127 0 0 127 0 0 127 0 0 127 0 0 127 0 0 127 0 0 133 0 0 133 0 0 133 0 0 133 0 0 133 0 0 133 0 0 133 0 0 133 0 0 133 0 0 133 0 0 113 0 0 113 0 0 113 0 0 113 0 0 113 0 0 113 0 0 113 0 0 113 0 0 113 0 0 113 0 0 65 0 0 65 0 0 65 0 0 65 0 0 65 0 0 65 0 0 65 0 0 65 0 0 65 0 0 65 0 0 52 0 0 52 0 0 52 0 0 52 0 0 52 0 0 52 0 0 52 0 0 52 0 0 52 0 0 52 0 0 6 0 0 6 0 0 6 0 0 6 0 0 6 0 0 6 0 0 6 0 0 6 0 0 6 0 0 6 0 0 0 0 18 0 0 18 0 0 18 0 0 18 0 0 18 0 0 18 0 0 18 0 0 18 0 0 18 0 0 18 11 0 0 11 0 0 11 0 0 11 0 0 11 0 0 11 0 0 11 0 0 11 0 0 11 0 0 11 0 0 27 0 0 27 0 0 27 0 0 27 0 0 27 0 0 27 0 0 27 0 0 27 0 0 27 0 0 27 0 0 93 0 0 93 0 0 93 0 0 93 0 0 93 0 0 93 0 0 93 0 0 93 0 0 93 0 0 93 0 0 87 0 0 87 0 0 87 0 0 87 0 0 87 0 0 87 0 0 87 0 0 87 0 0 87 0 0 87 0 0 111 0 0 111 0 0 111 0 0 111 0 0 111 0 0 111 0 0 111 0 0 111 0 0 111 0 0 111 0 0 117 0 0 117 0 0 117 0 0 117 0 0 117 0 0 117 0 0 117 0 0 117 0 0 117 0 0 117 0 0 74 0 0 74 0 0 74 0 0 74 0 0 74 0 0 74 0 0 74 0 0 74 0 0 74 0 0 74 0 0 110 0 0 110 0 0 110 0 0 110 0 0 110 0 0 110 0 0 110 0 0 110 0 0 110 0 0 110 0 0 52 0 0 52 0 0 52 0 0 52 0 0 52 0 0 52 0 0 52 0 0 52 0 0 52 0 0 52 0 0 64 0 0 64 0 0 64 0 0 64 0 0 64 0 0 64 0 0 64 0 0 64 0 0 64 0 0 64 0 0 65 0 0 65 0 0 65 0 0 65 0 0 65 0 0 65 0 0 65 0 0 65 0 0 65 0 0 65 0 0 84 0 0 84 0 0 84 0 0 84 0 0 84 0 0 84 0 0 84 0 0 84 0 0 84 0 0 84 0 0 69 0 0 69 0 0 69 0 0 69 0 0 69 0 0 69 0 0 69 0 0 69 0 0 69 0 0 69 0 0 39 0 0 39 0 0 39 0 0 39 0 0 39 0 0 39 0 0 39 0 0 39 0 0 39 0 0 39 0 0 84 0 0 84 0 0 84 0 0 84 0 0 84 0 0 84 0 0 84 0 0 84 0 0 84 0 0 84 0 0 92 0 0 92 0 0 92 0 0 92 0 0 92 0 0 92 0 0 92 0 0 92 0 0 92 0 0 92 0 0 150 0 0 150 0 0 150 0 0 150 0 0 150 0 0 150 0 0 150 0 0 150 0 0 150 0 0 150 0 0 141 0 0 141 0 0 141 0 0 141 0 0 141 0 0 141 0 0 141 0 0 141 0 0 141 0 0 141 0 0 0 0 0 0 0 0 0 0 0 0 0 0 0 0 0 0 0 0 0 0 0 0 0 0 0 0 0 0 0 0 217 0 0 217 0 0 217 0 0 217 0 0 217 0 0 217 0 0 217 0 0 217 0 0 217 0 0 217 0 0 217 0 0 217 0 0 217 0 0 217 0 0 217 0 0 217 0 0 217 0 0 217 0 0 217 0 0 217 0 0 217 0 0 217 0 0 217 0 0 217 0 0 217 0 0 217 0 0 217 0 0 217 0 0 217 0 0 217 0 0 
139 0 0 139 0 0 139 0 0 139 0 0 139 0 0 139 0 0 139 0 0 139 0 0 139 0 0 139 0 0 123 0 0 123 0 0 123 0 0 123 0 0 123 0 0 123 0 0 123 0 0 123 0 0 123 0 0 123 0 0 118 0 0 118 0 0 118 0 0 118 0 0 118 0 0 118 0 0 118 0 0 118 0 0 118 0 0 118 0 0 127 0 0 127 0 0 127 0 0 127 0 0 127 0 0 127 0 0 127 0 0 127 0 0 127 0 0 127 0 0 133 0 0 133 0 0 133 0 0 133 0 0 133 0 0 133 0 0 133 0 0 133 0 0 133 0 0 133 0 0 113 0 0 113 0 0 113 0 0 113 0 0 113 0 0 113 0 0 113 0 0 113 0 0 113 0 0 113 0 0 65 0 0 65 0 0 65 0 0 65 0 0 65 0 0 65 0 0 65 0 0 65 0 0 65 0 0 65 0 0 52 0 0 52 0 0 52 0 0 52 0 0 52 0 0 52 0 0 52 0 0 52 0 0 52 0 0 52 0 0 6 0 0 6 0 0 6 0 0 6 0 0 6 0 0 6 0 0 6 0 0 6 0 0 6 0 0 6 0 0 0 0 18 0 0 18 0 0 18 0 0 18 0 0 18 0 0 18 0 0 18 0 0 18 0 0 18 0 0 18 11 0 0 11 0 0 11 0 0 11 0 0 11 0 0 11 0 0 11 0 0 11 0 0 11 0 0 11 0 0 27 0 0 27 0 0 27 0 0 27 0 0 27 0 0 27 0 0 27 0 0 27 0 0 27 0 0 27 0 0 93 0 0 93 0 0 93 0 0 93 0 0 93 0 0 93 0 0 93 0 0 93 0 0 93 0 0 93 0 0 87 0 0 87 0 0 87 0 0 87 0 0 87 0 0 87 0 0 87 0 0 87 0 0 87 0 0 87 0 0 111 0 0 111 0 0 111 0 0 111 0 0 111 0 0 111 0 0 111 0 0 111 0 0 111 0 0 111 0 0 117 0 0 117 0 0 117 0 0 117 0 0 117 0 0 117 0 0 117 0 0 117 0 0 117 0 0 117 0 0 74 0 0 74 0 0 74 0 0 74 0 0 74 0 0 74 0 0 74 0 0 74 0 0 74 0 0 74 0 0 110 0 0 110 0 0 110 0 0 110 0 0 110 0 0 110 0 0 110 0 0 110 0 0 110 0 0 110 0 0 52 0 0 52 0 0 52 0 0 52 0 0 52 0 0 52 0 0 52 0 0 52 0 0 52 0 0 52 0 0 64 0 0 64 0 0 64 0 0 64 0 0 64 0 0 64 0 0 64 0 0 64 0 0 64 0 0 64 0 0 65 0 0 65 0 0 65 0 0 65 0 0 65 0 0 65 0 0 65 0 0 65 0 0 65 0 0 65 0 0 84 0 0 84 0 0 84 0 0 84 0 0 84 0 0 84 0 0 84 0 0 84 0 0 84 0 0 84 0 0 69 0 0 69 0 0 69 0 0 69 0 0 69 0 0 69 0 0 69 0 0 69 0 0 69 0 0 69 0 0 39 0 0 39 0 0 39 0 0 39 0 0 39 0 0 39 0 0 39 0 0 39 0 0 39 0 0 39 0 0 84 0 0 84 0 0 84 0 0 84 0 0 84 0 0 84 0 0 84 0 0 84 0 0 84 0 0 84 0 0 92 0 0 92 0 0 92 0 0 92 0 0 92 0 0 92 0 0 92 0 0 92 0 0 92 0 0 92 0 0 150 0 0 150 0 0 150 0 0 150 0 0 150 0 0 150 0 0 150 0 0 150 0 0 150 0 0 150 0 0 141 0 0 141 0 0 141 0 0 141 0 0 141 0 0 141 0 0 141 0 0 141 0 0 141 0 0 141 0 0 0 0 0 0 0 0 0 0 0 0 0 0 0 0 0 0 0 0 0 0 0 0 0 0 0 0 0 0 0 0 213 0 0 213 0 0 213 0 0 213 0 0 213 0 0 213 0 0 213 0 0 213 0 0 213 0 0 213 0 0 213 0 0 213 0 0 213 0 0 213 0 0 213 0 0 213 0 0 213 0 0 213 0 0 213 0 0 213 0 0 213 0 0 213 0 0 213 0 0 213 0 0 213 0 0 213 0 0 213 0 0 213 0 0 213 0 0 213 0 0 
139 0 0 139 0 0 139 0 0 139 0 0 139 0 0 139 0 0 139 0 0 139 0 0 139 0 0 139 0 0 123 0 0 123 0 0 123 0 0 123 0 0 123 0 0 123 0 0 123 0 0 123 0 0 123 0 0 123 0 0 118 0 0 118 0 0 118 0 0 118 0 0 118 0 0 118 0 0 118 0 0 118 0 0 118 0 0 118 0 0 127 0 0 127 0 0 127 0 0 127 0 0 127 0 0 127 0 0 127 0 0 127 0 0 127 0 0 127 0 0 133 0 0 133 0 0 133 0 0 133 0 0 133 0 0 133 0 0 133 0 0 133 0 0 133 0 0 133 0 0 113 0 0 113 0 0 113 0 0 113 0 0 113 0 0 113 0 0 113 0 0 113 0 0 113 0 0 113 0 0 65 0 0 65 0 0 65 0 0 65 0 0 65 0 0 65 0 0 65 0 0 65 0 0 65 0 0 65 0 0 52 0 0 52 0 0 52 0 0 52 0 0 52 0 0 52 0 0 52 0 0 52 0 0 52 0 0 52 0 0 6 0 0 6 0 0 6 0 0 6 0 0 6 0 0 6 0 0 6 0 0 6 0 0 6 0 0 6 0 0 0 0 18 0 0 18 0 0 18 0 0 18 0 0 18 0 0 18 0 0 18 0 0 18 0 0 18 0 0 18 11 0 0 11 0 0 11 0 0 11 0 0 11 0 0 11 0 0 11 0 0 11 0 0 11 0 0 11 0 0 27 0 0 27 0 0 27 0 0 27 0 0 27 0 0 27 0 0 27 0 0 27 0 0 27 0 0 27 0 0 93 0 0 93 0 0 93 0 0 93 0 0 93 0 0 93 0 0 93 0 0 93 0 0 93 0 0 93 0 0 87 0 0 87 0 0 87 0 0 87 0 0 87 0 0 87 0 0 87 0 0 87 0 0 87 0 0 87 0 0 111 0 0 111 0 0 111 0 0 111 0 0 111 0 0 111 0 0 111 0 0 111 0 0 111 0 0 111 0 0 117 0 0 117 0 0 117 0 0 117 0 0 117 0 0 117 0 0 117 0 0 117 0 0 117 0 0 117 0 0 74 0 0 74 0 0 74 0 0 74 0 0 74 0 0 74 0 0 74 0 0 74 0 0 74 0 0 74 0 0 110 0 0 110 0 0 110 0 0 110 0 0 110 0 0 110 0 0 110 0 0 110 0 0 110 0 0 110 0 0 52 0 0 52 0 0 52 0 0 52 0 0 52 0 0 52 0 0 52 0 0 52 0 0 52 0 0 52 0 0 64 0 0 64 0 0 64 0 0 64 0 0 64 0 0 64 0 0 64 0 0 64 0 0 64 0 0 64 0 0 65 0 0 65 0 0 65 0 0 65 0 0 65 0 0 65 0 0 65 0 0 65 0 0 65 0 0 65 0 0 84 0 0 84 0 0 84 0 0 84 0 0 84 0 0 84 0 0 84 0 0 84 0 0 84 0 0 84 0 0 69 0 0 69 0 0 69 0 0 69 0 0 69 0 0 69 0 0 69 0 0 69 0 0 69 0 0 69 0 0 39 0 0 39 0 0 39 0 0 39 0 0 39 0 0 39 0 0 39 0 0 39 0 0 39 0 0 39 0 0 84 0 0 84 0 0 84 0 0 84 0 0 84 0 0 84 0 0 84 0 0 84 0 0 84 0 0 84 0 0 92 0 0 92 0 0 92 0 0 92 0 0 92 0 0 92 0 0 92 0 0 92 0 0 92 0 0 92 0 0 150 0 0 150 0 0 150 0 0 150 0 0 150 0 0 150 0 0 150 0 0 150 0 0 150 0 0 150 0 0 141 0 0 141 0 0 141 0 0 141 0 0 141 0 0 141 0 0 141 0 0 141 0 0 141 0 0 141 0 0 0 0 0 0 0 0 0 0 0 0 0 0 0 0 0 0 0 0 0 0 0 0 0 0 0 0 0 0 0 0 210 0 0 210 0 0 210 0 0 210 0 0 210 0 0 210 0 0 210 0 0 210 0 0 210 0 0 210 0 0 210 0 0 210 0 0 210 0 0 210 0 0 210 0 0 210 0 0 210 0 0 210 0 0 210 0 0 210 0 0 210 0 0 210 0 0 210 0 0 210 0 0 210 0 0 210 0 0 210 0 0 210 0 0 210 0 0 210 0 0 
139 0 0 139 0 0 139 0 0 139 0 0 139 0 0 139 0 0 139 0 0 139 0 0 139 0 0 139 0 0 123 0 0 123 0 0 123 0 0 123 0 0 123 0 0 123 0 0 123 0 0 123 0 0 123 0 0 123 0 0 118 0 0 118 0 0 118 0 0 118 0 0 118 0 0 118 0 0 118 0 0 118 0 0 118 0 0 118 0 0 127 0 0 127 0 0 127 0 0 127 0 0 127 0 0 127 0 0 127 0 0 127 0 0 127 0 0 127 0 0 133 0 0 133 0 0 133 0 0 133 0 0 133 0 0 133 0 0 133 0 0 133 0 0 133 0 0 133 0 0 113 0 0 113 0 0 113 0 0 113 0 0 113 0 0 113 0 0 113 0 0 113 0 0 113 0 0 113 0 0 65 0 0 65 0 0 65 0 0 65 0 0 65 0 0 65 0 0 65 0 0 65 0 0 65 0 0 65 0 0 52 0 0 52 0 0 52 0 0 52 0 0 52 0 0 52 0 0 52 0 0 52 0 0 52 0 0 52 0 0 6 0 0 6 0 0 6 0 0 6 0 0 6 0 0 6 0 0 6 0 0 6 0 0 6 0 0 6 0 0 0 0 18 0 0 18 0 0 18 0 0 18 0 0 18 0 0 18 0 0 18 0 0 18 0 0 18 0 0 18 11 0 0 11 0 0 11 0 0 11 0 0 11 0 0 11 0 0 11 0 0 11 0 0 11 0 0 11 0 0 27 0 0 27 0 0 27 0 0 27 0 0 27 0 0 27 0 0 27 0 0 27 0 0 27 0 0 27 0 0 93 0 0 93 0 0 93 0 0 93 0 0 93 0 0 93 0 0 93 0 0 93 0 0 93 0 0 93 0 0 87 0 0 87 0 0 87 0 0 87 0 0 87 0 0 87 0 0 87 0 0 87 0 0 87 0 0 87 0 0 111 0 0 111 0 0 111 0 0 111 0 0 111 0 0 111 0 0 111 0 0 111 0 0 111 0 0 111 0 0 117 0 0 117 0 0 117 0 0 117 0 0 117 0 0 117 0 0 117 0 0 117 0 0 117 0 0 117 0 0 74 0 0 74 0 0 74 0 0 74 0 0 74 0 0 74 0 0 74 0 0 74 0 0 74 0 0 74 0 0 110 0 0 110 0 0 110 0 0 110 0 0 110 0 0 110 0 0 110 0 0 110 0 0 110 0 0 110 0 0 52 0 0 52 0 0 52 0 0 52 0 0 52 0 0 52 0 0 52 0 0 52 0 0 52 0 0 52 0 0 64 0 0 64 0 0 64 0 0 64 0 0 64 0 0 64 0 0 64 0 0 64 0 0 64 0 0 64 0 0 65 0 0 65 0 0 65 0 0 65 0 0 65 0 0 65 0 0 65 0 0 65 0 0 65 0 0 65 0 0 84 0 0 84 0 0 84 0 0 84 0 0 84 0 0 84 0 0 84 0 0 84 0 0 84 0 0 84 0 0 69 0 0 69 0 0 69 0 0 69 0 0 69 0 0 69 0 0 69 0 0 69 0 0 69 0 0 69 0 0 39 0 0 39 0 0 39 0 0 39 0 0 39 0 0 39 0 0 39 0 0 39 0 0 39 0 0 39 0 0 84 0 0 84 0 0 84 0 0 84 0 0 84 0 0 84 0 0 84 0 0 84 0 0 84 0 0 84 0 0 92 0 0 92 0 0 92 0 0 92 0 0 92 0 0 92 0 0 92 0 0 92 0 0 92 0 0 92 0 0 150 0 0 150 0 0 150 0 0 150 0 0 150 0 0 150 0 0 150 0 0 150 0 0 150 0 0 150 0 0 141 0 0 141 0 0 141 0 0 141 0 0 141 0 0 141 0 0 141 0 0 141 0 0 141 0 0 141 0 0 0 0 0 0 0 0 0 0 0 0 0 0 0 0 0 0 0 0 0 0 0 0 0 0 0 0 0 0 0 0 206 0 0 206 0 0 206 0 0 206 0 0 206 0 0 206 0 0 206 0 0 206 0 0 206 0 0 206 0 0 206 0 0 206 0 0 206 0 0 206 0 0 206 0 0 206 0 0 206 0 0 206 0 0 206 0 0 206 0 0 206 0 0 206 0 0 206 0 0 206 0 0 206 0 0 206 0 0 206 0 0 206 0 0 206 0 0 206 0 0 
139 0 0 139 0 0 139 0 0 139 0 0 139 0 0 139 0 0 139 0 0 139 0 0 139 0 0 139 0 0 123 0 0 123 0 0 123 0 0 123 0 0 123 0 0 123 0 0 123 0 0 123 0 0 123 0 0 123 0 0 118 0 0 118 0 0 118 0 0 118 0 0 118 0 0 118 0 0 118 0 0 118 0 0 118 0 0 118 0 0 127 0 0 127 0 0 127 0 0 127 0 0 127 0 0 127 0 0 127 0 0 127 0 0 127 0 0 127 0 0 133 0 0 133 0 0 133 0 0 133 0 0 133 0 0 133 0 0 133 0 0 133 0 0 133 0 0 133 0 0 113 0 0 113 0 0 113 0 0 113 0 0 113 0 0 113 0 0 113 0 0 113 0 0 113 0 0 113 0 0 65 0 0 65 0 0 65 0 0 65 0 0 65 0 0 65 0 0 65 0 0 65 0 0 65 0 0 65 0 0 52 0 0 52 0 0 52 0 0 52 0 0 52 0 0 52 0 0 52 0 0 52 0 0 52 0 0 52 0 0 6 0 0 6 0 0 6 0 0 6 0 0 6 0 0 6 0 0 6 0 0 6 0 0 6 0 0 6 0 0 0 0 18 0 0 18 0 0 18 0 0 18 0 0 18 0 0 18 0 0 18 0 0 18 0 0 18 0 0 18 11 0 0 11 0 0 11 0 0 11 0 0 11 0 0 11 0 0 11 0 0 11 0 0 11 0 0 11 0 0 27 0 0 27 0 0 27 0 0 27 0 0 27 0 0 27 0 0 27 0 0 27 0 0 27 0 0 27 0 0 93 0 0 93 0 0 93 0 0 93 0 0 93 0 0 93 0 0 93 0 0 93 0 0 93 0 0 93 0 0 87 0 0 87 0 0 87 0 0 87 0 0 87 0 0 87 0 0 87 0 0 87 0 0 87 0 0 87 0 0 111 0 0 111 0 0 111 0 0 111 0 0 111 0 0 111 0 0 111 0 0 111 0 0 111 0 0 111 0 0 117 0 0 117 0 0 117 0 0 117 0 0 117 0 0 117 0 0 117 0 0 117 0 0 117 0 0 117 0 0 74 0 0 74 0 0 74 0 0 74 0 0 74 0 0 74 0 0 74 0 0 74 0 0 74 0 0 74 0 0 110 0 0 110 0 0 110 0 0 110 0 0 110 0 0 110 0 0 110 0 0 110 0 0 110 0 0 110 0 0 52 0 0 52 0 0 52 0 0 52 0 0 52 0 0 52 0 0 52 0 0 52 0 0 52 0 0 52 0 0 64 0 0 64 0 0 64 0 0 64 0 0 64 0 0 64 0 0 64 0 0 64 0 0 64 0 0 64 0 0 65 0 0 65 0 0 65 0 0 65 0 0 65 0 0 65 0 0 65 0 0 65 0 0 65 0 0 65 0 0 84 0 0 84 0 0 84 0 0 84 0 0 84 0 0 84 0 0 84 0 0 84 0 0 84 0 0 84 0 0 69 0 0 69 0 0 69 0 0 69 0 0 69 0 0 69 0 0 69 0 0 69 0 0 69 0 0 69 0 0 39 0 0 39 0 0 39 0 0 39 0 0 39 0 0 39 0 0 39 0 0 39 0 0 39 0 0 39 0 0 84 0 0 84 0 0 84 0 0 84 0 0 84 0 0 84 0 0 84 0 0 84 0 0 84 0 0 84 0 0 92 0 0 92 0 0 92 0 0 92 0 0 92 0 0 92 0 0 92 0 0 92 0 0 92 0 0 92 0 0 150 0 0 150 0 0 150 0 0 150 0 0 150 0 0 150 0 0 150 0 0 150 0 0 150 0 0 150 0 0 141 0 0 141 0 0 141 0 0 141 0 0 141 0 0 141 0 0 141 0 0 141 0 0 141 0 0 141 0 0 0 0 0 0 0 0 0 0 0 0 0 0 0 0 0 0 0 0 0 0 0 0 0 0 0 0 0 0 0 0 202 0 0 202 0 0 202 0 0 202 0 0 202 0 0 202 0 0 202 0 0 202 0 0 202 0 0 202 0 0 202 0 0 202 0 0 202 0 0 202 0 0 202 0 0 202 0 0 202 0 0 202 0 0 202 0 0 202 0 0 202 0 0 202 0 0 202 0 0 202 0 0 202 0 0 202 0 0 202 0 0 202 0 0 202 0 0 202 0 0 
139 0 0 139 0 0 139 0 0 139 0 0 139 0 0 139 0 0 139 0 0 139 0 0 139 0 0 139 0 0 123 0 0 123 0 0 123 0 0 123 0 0 123 0 0 123 0 0 123 0 0 123 0 0 123 0 0 123 0 0 118 0 0 118 0 0 118 0 0 118 0 0 118 0 0 118 0 0 118 0 0 118 0 0 118 0 0 118 0 0 127 0 0 127 0 0 127 0 0 127 0 0 127 0 0 127 0 0 127 0 0 127 0 0 127 0 0 127 0 0 133 0 0 133 0 0 133 0 0 133 0 0 133 0 0 133 0 0 133 0 0 133 0 0 133 0 0 133 0 0 113 0 0 113 0 0 113 0 0 113 0 0 113 0 0 113 0 0 113 0 0 113 0 0 113 0 0 113 0 0 65 0 0 65 0 0 65 0 0 65 0 0 65 0 0 65 0 0 65 0 0 65 0 0 65 0 0 65 0 0 52 0 0 52 0 0 52 0 0 52 0 0 52 0 0 52 0 0 52 0 0 52 0 0 52 0 0 52 0 0 6 0 0 6 0 0 6 0 0 6 0 0 6 0 0 6 0 0 6 0 0 6 0 0 6 0 0 6 0 0 0 0 18 0 0 18 0 0 18 0 0 18 0 0 18 0 0 18 0 0 18 0 0 18 0 0 18 0 0 18 11 0 0 11 0 0 11 0 0 11 0 0 11 0 0 11 0 0 11 0 0 11 0 0 11 0 0 11 0 0 27 0 0 27 0 0 27 0 0 27 0 0 27 0 0 27 0 0 27 0 0 27 0 0 27 0 0 27 0 0 93 0 0 93 0 0 93 0 0 93 0 0 93 0 0 93 0 0 93 0 0 93 0 0 93 0 0 93 0 0 87 0 0 87 0 0 87 0 0 87 0 0 87 0 0 87 0 0 87 0 0 87 0 0 87 0 0 87 0 0 111 0 0 111 0 0 111 0 0 111 0 0 111 0 0 111 0 0 111 0 0 111 0 0 111 0 0 111 0 0 117 0 0 117 0 0 117 0 0 117 0 0 117 0 0 117 0 0 117 0 0 117 0 0 117 0 0 117 0 0 74 0 0 74 0 0 74 0 0 74 0 0 74 0 0 74 0 0 74 0 0 74 0 0 74 0 0 74 0 0 110 0 0 110 0 0 110 0 0 110 0 0 110 0 0 110 0 0 110 0 0 110 0 0 110 0 0 110 0 0 52 0 0 52 0 0 52 0 0 52 0 0 52 0 0 52 0 0 52 0 0 52 0 0 52 0 0 52 0 0 64 0 0 64 0 0 64 0 0 64 0 0 64 0 0 64 0 0 64 0 0 64 0 0 64 0 0 64 0 0 65 0 0 65 0 0 65 0 0 65 0 0 65 0 0 65 0 0 65 0 0 65 0 0 65 0 0 65 0 0 84 0 0 84 0 0 84 0 0 84 0 0 84 0 0 84 0 0 84 0 0 84 0 0 84 0 0 84 0 0 69 0 0 69 0 0 69 0 0 69 0 0 69 0 0 69 0 0 69 0 0 69 0 0 69 0 0 69 0 0 39 0 0 39 0 0 39 0 0 39 0 0 39 0 0 39 0 0 39 0 0 39 0 0 39 0 0 39 0 0 84 0 0 84 0 0 84 0 0 84 0 0 84 0 0 84 0 0 84 0 0 84 0 0 84 0 0 84 0 0 92 0 0 92 0 0 92 0 0 92 0 0 92 0 0 92 0 0 92 0 0 92 0 0 92 0 0 92 0 0 150 0 0 150 0 0 150 0 0 150 0 0 150 0 0 150 0 0 150 0 0 150 0 0 150 0 0 150 0 0 141 0 0 141 0 0 141 0 0 141 0 0 141 0 0 141 0 0 141 0 0 141 0 0 141 0 0 141 0 0 0 0 0 0 0 0 0 0 0 0 0 0 0 0 0 0 0 0 0 0 0 0 0 0 0 0 0 0 0 0 199 0 0 199 0 0 199 0 0 199 0 0 199 0 0 199 0 0 199 0 0 199 0 0 199 0 0 199 0 0 199 0 0 199 0 0 199 0 0 199 0 0 199 0 0 199 0 0 199 0 0 199 0 0 199 0 0 199 0 0 199 0 0 199 0 0 199 0 0 199 0 0 199 0 0 199 0 0 199 0 0 199 0 0 199 0 0 199 0 0 
139 0 0 139 0 0 139 0 0 139 0 0 139 0 0 139 0 0 139 0 0 139 0 0 139 0 0 139 0 0 123 0 0 123 0 0 123 0 0 123 0 0 123 0 0 123 0 0 123 0 0 123 0 0 123 0 0 123 0 0 118 0 0 118 0 0 118 0 0 118 0 0 118 0 0 118 0 0 118 0 0 118 0 0 118 0 0 118 0 0 127 0 0 127 0 0 127 0 0 127 0 0 127 0 0 127 0 0 127 0 0 127 0 0 127 0 0 127 0 0 133 0 0 133 0 0 133 0 0 133 0 0 133 0 0 133 0 0 133 0 0 133 0 0 133 0 0 133 0 0 113 0 0 113 0 0 113 0 0 113 0 0 113 0 0 113 0 0 113 0 0 113 0 0 113 0 0 113 0 0 65 0 0 65 0 0 65 0 0 65 0 0 65 0 0 65 0 0 65 0 0 65 0 0 65 0 0 65 0 0 52 0 0 52 0 0 52 0 0 52 0 0 52 0 0 52 0 0 52 0 0 52 0 0 52 0 0 52 0 0 6 0 0 6 0 0 6 0 0 6 0 0 6 0 0 6 0 0 6 0 0 6 0 0 6 0 0 6 0 0 0 0 18 0 0 18 0 0 18 0 0 18 0 0 18 0 0 18 0 0 18 0 0 18 0 0 18 0 0 18 11 0 0 11 0 0 11 0 0 11 0 0 11 0 0 11 0 0 11 0 0 11 0 0 11 0 0 11 0 0 27 0 0 27 0 0 27 0 0 27 0 0 27 0 0 27 0 0 27 0 0 27 0 0 27 0 0 27 0 0 93 0 0 93 0 0 93 0 0 93 0 0 93 0 0 93 0 0 93 0 0 93 0 0 93 0 0 93 0 0 87 0 0 87 0 0 87 0 0 87 0 0 87 0 0 87 0 0 87 0 0 87 0 0 87 0 0 87 0 0 111 0 0 111 0 0 111 0 0 111 0 0 111 0 0 111 0 0 111 0 0 111 0 0 111 0 0 111 0 0 117 0 0 117 0 0 117 0 0 117 0 0 117 0 0 117 0 0 117 0 0 117 0 0 117 0 0 117 0 0 74 0 0 74 0 0 74 0 0 74 0 0 74 0 0 74 0 0 74 0 0 74 0 0 74 0 0 74 0 0 110 0 0 110 0 0 110 0 0 110 0 0 110 0 0 110 0 0 110 0 0 110 0 0 110 0 0 110 0 0 52 0 0 52 0 0 52 0 0 52 0 0 52 0 0 52 0 0 52 0 0 52 0 0 52 0 0 52 0 0 64 0 0 64 0 0 64 0 0 64 0 0 64 0 0 64 0 0 64 0 0 64 0 0 64 0 0 64 0 0 65 0 0 65 0 0 65 0 0 65 0 0 65 0 0 65 0 0 65 0 0 65 0 0 65 0 0 65 0 0 84 0 0 84 0 0 84 0 0 84 0 0 84 0 0 84 0 0 84 0 0 84 0 0 84 0 0 84 0 0 69 0 0 69 0 0 69 0 0 69 0 0 69 0 0 69 0 0 69 0 0 69 0 0 69 0 0 69 0 0 39 0 0 39 0 0 39 0 0 39 0 0 39 0 0 39 0 0 39 0 0 39 0 0 39 0 0 39 0 0 84 0 0 84 0 0 84 0 0 84 0 0 84 0 0 84 0 0 84 0 0 84 0 0 84 0 0 84 0 0 92 0 0 92 0 0 92 0 0 92 0 0 92 0 0 92 0 0 92 0 0 92 0 0 92 0 0 92 0 0 150 0 0 150 0 0 150 0 0 150 0 0 150 0 0 150 0 0 150 0 0 150 0 0 150 0 0 150 0 0 141 0 0 141 0 0 141 0 0 141 0 0 141 0 0 141 0 0 141 0 0 141 0 0 141 0 0 141 0 0 0 0 0 0 0 0 0 0 0 0 0 0 0 0 0 0 0 0 0 0 0 0 0 0 0 0 0 0 0 0 195 0 0 195 0 0 195 0 0 195 0 0 195 0 0 195 0 0 195 0 0 195 0 0 195 0 0 195 0 0 195 0 0 195 0 0 195 0 0 195 0 0 195 0 0 195 0 0 195 0 0 195 0 0 195 0 0 195 0 0 195 0 0 195 0 0 195 0 0 195 0 0 195 0 0 195 0 0 195 0 0 195 0 0 195 0 0 195 0 0 
139 0 0 139 0 0 139 0 0 139 0 0 139 0 0 139 0 0 139 0 0 139 0 0 139 0 0 139 0 0 123 0 0 123 0 0 123 0 0 123 0 0 123 0 0 123 0 0 123 0 0 123 0 0 123 0 0 123 0 0 118 0 0 118 0 0 118 0 0 118 0 0 118 0 0 118 0 0 118 0 0 118 0 0 118 0 0 118 0 0 127 0 0 127 0 0 127 0 0 127 0 0 127 0 0 127 0 0 127 0 0 127 0 0 127 0 0 127 0 0 133 0 0 133 0 0 133 0 0 133 0 0 133 0 0 133 0 0 133 0 0 133 0 0 133 0 0 133 0 0 113 0 0 113 0 0 113 0 0 113 0 0 113 0 0 113 0 0 113 0 0 113 0 0 113 0 0 113 0 0 65 0 0 65 0 0 65 0 0 65 0 0 65 0 0 65 0 0 65 0 0 65 0 0 65 0 0 65 0 0 52 0 0 52 0 0 52 0 0 52 0 0 52 0 0 52 0 0 52 0 0 52 0 0 52 0 0 52 0 0 6 0 0 6 0 0 6 0 0 6 0 0 6 0 0 6 0 0 6 0 0 6 0 0 6 0 0 6 0 0 0 0 18 0 0 18 0 0 18 0 0 18 0 0 18 0 0 18 0 0 18 0 0 18 0 0 18 0 0 18 11 0 0 11 0 0 11 0 0 11 0 0 11 0 0 11 0 0 11 0 0 11 0 0 11 0 0 11 0 0 27 0 0 27 0 0 27 0 0 27 0 0 27 0 0 27 0 0 27 0 0 27 0 0 27 0 0 27 0 0 93 0 0 93 0 0 93 0 0 93 0 0 93 0 0 93 0 0 93 0 0 93 0 0 93 0 0 93 0 0 87 0 0 87 0 0 87 0 0 87 0 0 87 0 0 87 0 0 87 0 0 87 0 0 87 0 0 87 0 0 111 0 0 111 0 0 111 0 0 111 0 0 111 0 0 111 0 0 111 0 0 111 0 0 111 0 0 111 0 0 117 0 0 117 0 0 117 0 0 117 0 0 117 0 0 117 0 0 117 0 0 117 0 0 117 0 0 117 0 0 74 0 0 74 0 0 74 0 0 74 0 0 74 0 0 74 0 0 74 0 0 74 0 0 74 0 0 74 0 0 110 0 0 110 0 0 110 0 0 110 0 0 110 0 0 110 0 0 110 0 0 110 0 0 110 0 0 110 0 0 52 0 0 52 0 0 52 0 0 52 0 0 52 0 0 52 0 0 52 0 0 52 0 0 52 0 0 52 0 0 64 0 0 64 0 0 64 0 0 64 0 0 64 0 0 64 0 0 64 0 0 64 0 0 64 0 0 64 0 0 65 0 0 65 0 0 65 0 0 65 0 0 65 0 0 65 0 0 65 0 0 65 0 0 65 0 0 65 0 0 84 0 0 84 0 0 84 0 0 84 0 0 84 0 0 84 0 0 84 0 0 84 0 0 84 0 0 84 0 0 69 0 0 69 0 0 69 0 0 69 0 0 69 0 0 69 0 0 69 0 0 69 0 0 69 0 0 69 0 0 39 0 0 39 0 0 39 0 0 39 0 0 39 0 0 39 0 0 39 0 0 39 0 0 39 0 0 39 0 0 84 0 0 84 0 0 84 0 0 84 0 0 84 0 0 84 0 0 84 0 0 84 0 0 84 0 0 84 0 0 92 0 0 92 0 0 92 0 0 92 0 0 92 0 0 92 0 0 92 0 0 92 0 0 92 0 0 92 0 0 150 0 0 150 0 0 150 0 0 150 0 0 150 0 0 150 0 0 150 0 0 150 0 0 150 0 0 150 0 0 141 0 0 141 0 0 141 0 0 141 0 0 141 0 0 141 0 0 141 0 0 141 0 0 141 0 0 141 0 0 0 0 0 0 0 0 0 0 0 0 0 0 0 0 0 0 0 0 0 0 0 0 0 0 0 0 0 0 0 0 191 0 0 191 0 0 191 0 0 191 0 0 191 0 0 191 0 0 191 0 0 191 0 0 191 0 0 191 0 0 191 0 0 191 0 0 191 0 0 191 0 0 191 0 0 191 0 0 191 0 0 191 0 0 191 0 0 191 0 0 191 0 0 191 0 0 191 0 0 191 0 0 191 0 0 191 0 0 191 0 0 191 0 0 191 0 0 191 0 0 
139 0 0 139 0 0 139 0 0 139 0 0 139 0 0 139 0 0 139 0 0 139 0 0 139 0 0 139 0 0 123 0 0 123 0 0 123 0 0 123 0 0 123 0 0 123 0 0 123 0 0 123 0 0 123 0 0 123 0 0 118 0 0 118 0 0 118 0 0 118 0 0 118 0 0 118 0 0 118 0 0 118 0 0 118 0 0 118 0 0 127 0 0 127 0 0 127 0 0 127 0 0 127 0 0 127 0 0 127 0 0 127 0 0 127 0 0 127 0 0 133 0 0 133 0 0 133 0 0 133 0 0 133 0 0 133 0 0 133 0 0 133 0 0 133 0 0 133 0 0 113 0 0 113 0 0 113 0 0 113 0 0 113 0 0 113 0 0 113 0 0 113 0 0 113 0 0 113 0 0 65 0 0 65 0 0 65 0 0 65 0 0 65 0 0 65 0 0 65 0 0 65 0 0 65 0 0 65 0 0 52 0 0 52 0 0 52 0 0 52 0 0 52 0 0 52 0 0 52 0 0 52 0 0 52 0 0 52 0 0 6 0 0 6 0 0 6 0 0 6 0 0 6 0 0 6 0 0 6 0 0 6 0 0 6 0 0 6 0 0 0 0 18 0 0 18 0 0 18 0 0 18 0 0 18 0 0 18 0 0 18 0 0 18 0 0 18 0 0 18 11 0 0 11 0 0 11 0 0 11 0 0 11 0 0 11 0 0 11 0 0 11 0 0 11 0 0 11 0 0 27 0 0 27 0 0 27 0 0 27 0 0 27 0 0 27 0 0 27 0 0 27 0 0 27 0 0 27 0 0 93 0 0 93 0 0 93 0 0 93 0 0 93 0 0 93 0 0 93 0 0 93 0 0 93 0 0 93 0 0 87 0 0 87 0 0 87 0 0 87 0 0 87 0 0 87 0 0 87 0 0 87 0 0 87 0 0 87 0 0 111 0 0 111 0 0 111 0 0 111 0 0 111 0 0 111 0 0 111 0 0 111 0 0 111 0 0 111 0 0 117 0 0 117 0 0 117 0 0 117 0 0 117 0 0 117 0 0 117 0 0 117 0 0 117 0 0 117 0 0 74 0 0 74 0 0 74 0 0 74 0 0 74 0 0 74 0 0 74 0 0 74 0 0 74 0 0 74 0 0 110 0 0 110 0 0 110 0 0 110 0 0 110 0 0 110 0 0 110 0 0 110 0 0 110 0 0 110 0 0 52 0 0 52 0 0 52 0 0 52 0 0 52 0 0 52 0 0 52 0 0 52 0 0 52 0 0 52 0 0 64 0 0 64 0 0 64 0 0 64 0 0 64 0 0 64 0 0 64 0 0 64 0 0 64 0 0 64 0 0 65 0 0 65 0 0 65 0 0 65 0 0 65 0 0 65 0 0 65 0 0 65 0 0 65 0 0 65 0 0 84 0 0 84 0 0 84 0 0 84 0 0 84 0 0 84 0 0 84 0 0 84 0 0 84 0 0 84 0 0 69 0 0 69 0 0 69 0 0 69 0 0 69 0 0 69 0 0 69 0 0 69 0 0 69 0 0 69 0 0 39 0 0 39 0 0 39 0 0 39 0 0 39 0 0 39 0 0 39 0 0 39 0 0 39 0 0 39 0 0 84 0 0 84 0 0 84 0 0 84 0 0 84 0 0 84 0 0 84 0 0 84 0 0 84 0 0 84 0 0 92 0 0 92 0 0 92 0 0 92 0 0 92 0 0 92 0 0 92 0 0 92 0 0 92 0 0 92 0 0 150 0 0 150 0 0 150 0 0 150 0 0 150 0 0 150 0 0 150 0 0 150 0 0 150 0 0 150 0 0 141 0 0 141 0 0 141 0 0 141 0 0 141 0 0 141 0 0 141 0 0 141 0 0 141 0 0 141 0 0 0 0 0 0 0 0 0 0 0 0 0 0 0 0 0 0 0 0 0 0 0 0 0 0 0 0 0 0 0 0 188 0 0 188 0 0 188 0 0 188 0 0 188 0 0 188 0 0 188 0 0 188 0 0 188 0 0 188 0 0 188 0 0 188 0 0 188 0 0 188 0 0 188 0 0 188 0 0 188 0 0 188 0 0 188 0 0 188 0 0 188 0 0 188 0 0 188 0 0 188 0 0 188 0 0 188 0 0 188 0 0 188 0 0 188 0 0 188 0 0 
139 0 0 139 0 0 139 0 0 139 0 0 139 0 0 139 0 0 139 0 0 139 0 0 139 0 0 139 0 0 123 0 0 123 0 0 123 0 0 123 0 0 123 0 0 123 0 0 123 0 0 123 0 0 123 0 0 123 0 0 118 0 0 118 0 0 118 0 0 118 0 0 118 0 0 118 0 0 118 0 0 118 0 0 118 0 0 118 0 0 127 0 0 127 0 0 127 0 0 127 0 0 127 0 0 127 0 0 127 0 0 127 0 0 127 0 0 127 0 0 133 0 0 133 0 0 133 0 0 133 0 0 133 0 0 133 0 0 133 0 0 133 0 0 133 0 0 133 0 0 113 0 0 113 0 0 113 0 0 113 0 0 113 0 0 113 0 0 113 0 0 113 0 0 113 0 0 113 0 0 65 0 0 65 0 0 65 0 0 65 0 0 65 0 0 65 0 0 65 0 0 65 0 0 65 0 0 65 0 0 52 0 0 52 0 0 52 0 0 52 0 0 52 0 0 52 0 0 52 0 0 52 0 0 52 0 0 52 0 0 6 0 0 6 0 0 6 0 0 6 0 0 6 0 0 6 0 0 6 0 0 6 0 0 6 0 0 6 0 0 0 0 18 0 0 18 0 0 18 0 0 18 0 0 18 0 0 18 0 0 18 0 0 18 0 0 18 0 0 18 11 0 0 11 0 0 11 0 0 11 0 0 11 0 0 11 0 0 11 0 0 11 0 0 11 0 0 11 0 0 27 0 0 27 0 0 27 0 0 27 0 0 27 0 0 27 0 0 27 0 0 27 0 0 27 0 0 27 0 0 93 0 0 93 0 0 93 0 0 93 0 0 93 0 0 93 0 0 93 0 0 93 0 0 93 0 0 93 0 0 87 0 0 87 0 0 87 0 0 87 0 0 87 0 0 87 0 0 87 0 0 87 0 0 87 0 0 87 0 0 111 0 0 111 0 0 111 0 0 111 0 0 111 0 0 111 0 0 111 0 0 111 0 0 111 0 0 111 0 0 117 0 0 117 0 0 117 0 0 117 0 0 117 0 0 117 0 0 117 0 0 117 0 0 117 0 0 117 0 0 74 0 0 74 0 0 74 0 0 74 0 0 74 0 0 74 0 0 74 0 0 74 0 0 74 0 0 74 0 0 110 0 0 110 0 0 110 0 0 110 0 0 110 0 0 110 0 0 110 0 0 110 0 0 110 0 0 110 0 0 52 0 0 52 0 0 52 0 0 52 0 0 52 0 0 52 0 0 52 0 0 52 0 0 52 0 0 52 0 0 64 0 0 64 0 0 64 0 0 64 0 0 64 0 0 64 0 0 64 0 0 64 0 0 64 0 0 64 0 0 65 0 0 65 0 0 65 0 0 65 0 0 65 0 0 65 0 0 65 0 0 65 0 0 65 0 0 65 0 0 84 0 0 84 0 0 84 0 0 84 0 0 84 0 0 84 0 0 84 0 0 84 0 0 84 0 0 84 0 0 69 0 0 69 0 0 69 0 0 69 0 0 69 0 0 69 0 0 69 0 0 69 0 0 69 0 0 69 0 0 39 0 0 39 0 0 39 0 0 39 0 0 39 0 0 39 0 0 39 0 0 39 0 0 39 0 0 39 0 0 84 0 0 84 0 0 84 0 0 84 0 0 84 0 0 84 0 0 84 0 0 84 0 0 84 0 0 84 0 0 92 0 0 92 0 0 92 0 0 92 0 0 92 0 0 92 0 0 92 0 0 92 0 0 92 0 0 92 0 0 150 0 0 150 0 0 150 0 0 150 0 0 150 0 0 150 0 0 150 0 0 150 0 0 150 0 0 150 0 0 141 0 0 141 0 0 141 0 0 141 0 0 141 0 0 141 0 0 141 0 0 141 0 0 141 0 0 141 0 0 0 0 0 0 0 0 0 0 0 0 0 0 0 0 0 0 0 0 0 0 0 0 0 0 0 0 0 0 0 0 184 0 0 184 0 0 184 0 0 184 0 0 184 0 0 184 0 0 184 0 0 184 0 0 184 0 0 184 0 0 184 0 0 184 0 0 184 0 0 184 0 0 184 0 0 184 0 0 184 0 0 184 0 0 184 0 0 184 0 0 184 0 0 184 0 0 184 0 0 184 0 0 184 0 0 184 0 0 184 0 0 184 0 0 184 0 0 184 0 0 
138 0 0 138 0 0 138 0 0 138 0 0 138 0 0 138 0 0 138 0 0 138 0 0 138 0 0 138 0 0 154 0 0 154 0 0 154 0 0 154 0 0 154 0 0 154 0 0 154 0 0 154 0 0 154 0 0 154 0 0 138 0 0 138 0 0 138 0 0 138 0 0 138 0 0 138 0 0 138 0 0 138 0 0 138 0 0 138 0 0 120 0 0 120 0 0 120 0 0 120 0 0 120 0 0 120 0 0 120 0 0 120 0 0 120 0 0 120 0 0 127 0 0 127 0 0 127 0 0 127 0 0 127 0 0 127 0 0 127 0 0 127 0 0 127 0 0 127 0 0 114 0 0 114 0 0 114 0 0 114 0 0 114 0 0 114 0 0 114 0 0 114 0 0 114 0 0 114 0 0 90 0 0 90 0 0 90 0 0 90 0 0 90 0 0 90 0 0 90 0 0 90 0 0 90 0 0 90 0 0 71 0 0 71 0 0 71 0 0 71 0 0 71 0 0 71 0 0 71 0 0 71 0 0 71 0 0 71 0 0 26 0 0 26 0 0 26 0 0 26 0 0 26 0 0 26 0 0 26 0 0 26 0 0 26 0 0 26 0 0 22 0 0 22 0 0 22 0 0 22 0 0 22 0 0 22 0 0 22 0 0 22 0 0 22 0 0 22 0 0 41 0 0 41 0 0 41 0 0 41 0 0 41 0 0 41 0 0 41 0 0 41 0 0 41 0 0 41 0 0 93 0 0 93 0 0 93 0 0 93 0 0 93 0 0 93 0 0 93 0 0 93 0 0 93 0 0 93 0 0 80 0 0 80 0 0 80 0 0 80 0 0 80 0 0 80 0 0 80 0 0 80 0 0 80 0 0 80 0 0 147 0 0 147 0 0 147 0 0 147 0 0 147 0 0 147 0 0 147 0 0 147 0 0 147 0 0 147 0 0 240 0 0 240 0 0 240 0 0 240 0 0 240 0 0 240 0 0 240 0 0 240 0 0 240 0 0 240 0 0 255 18 0 255 18 0 255 18 0 255 18 0 255 18 0 255 18 0 255 18 0 255 18 0 255 18 0 255 18 0 200 0 0 200 0 0 200 0 0 200 0 0 200 0 0 200 0 0 200 0 0 200 0 0 200 0 0 200 0 0 136 0 0 136 0 0 136 0 0 136 0 0 136 0 0 136 0 0 136 0 0 136 0 0 136 0 0 136 0 0 82 0 0 82 0 0 82 0 0 82 0 0 82 0 0 82 0 0 82 0 0 82 0 0 82 0 0 82 0 0 34 0 0 34 0 0 34 0 0 34 0 0 34 0 0 34 0 0 34 0 0 34 0 0 34 0 0 34 0 0 13 0 0 13 0 0 13 0 0 13 0 0 13 0 0 13 0 0 13 0 0 13 0 0 13 0 0 13 0 0 3 0 0 3 0 0 3 0 0 3 0 0 3 0 0 3 0 0 3 0 0 3 0 0 3 0 0 3 0 0 11 0 0 11 0 0 11 0 0 11 0 0 11 0 0 11 0 0 11 0 0 11 0 0 11 0 0 11 0 0 45 0 0 45 0 0 45 0 0 45 0 0 45 0 0 45 0 0 45 0 0 45 0 0 45 0 0 45 0 0 88 0 0 88 0 0 88 0 0 88 0 0 88 0 0 88 0 0 88 0 0 88 0 0 88 0 0 88 0 0 111 0 0 111 0 0 111 0 0 111 0 0 111 0 0 111 0 0 111 0 0 111 0 0 111 0 0 111 0 0 133 0 0 133 0 0 133 0 0 133 0 0 133 0 0 133 0 0 133 0 0 133 0 0 133 0 0 133 0 0 142 0 0 142 0 0 142 0 0 142 0 0 142 0 0 142 0 0 142 0 0 142 0 0 142 0 0 142 0 0 0 0 0 0 0 0 0 0 0 0 0 0 0 0 0 0 0 0 0 0 0 0 0 0 0 0 0 0 0 0 180 0 0 180 0 0 180 0 0 180 0 0 180 0 0 180 0 0 180 0 0 180 0 0 180 0 0 180 0 0 180 0 0 180 0 0 180 0 0 180 0 0 180 0 0 180 0 0 180 0 0 180 0 0 180 0 0 180 0 0 180 0 0 180 0 0 180 0 0 180 0 0 180 0 0 180 0 0 180 0 0 180 0 0 180 0 0 180 0 0 
138 0 0 138 0 0 138 0 0 138 0 0 138 0 0 138 0 0 138 0 0 138 0 0 138 0 0 138 0 0 154 0 0 154 0 0 154 0 0 154 0 0 154 0 0 154 0 0 154 0 0 154 0 0 154 0 0 154 0 0 138 0 0 138 0 0 138 0 0 138 0 0 138 0 0 138 0 0 138 0 0 138 0 0 138 0 0 138 0 0 120 0 0 120 0 0 120 0 0 120 0 0 120 0 0 120 0 0 120 0 0 120 0 0 120 0 0 120 0 0 127 0 0 127 0 0 127 0 0 127 0 0 127 0 0 127 0 0 127 0 0 127 0 0 127 0 0 127 0 0 114 0 0 114 0 0 114 0 0 114 0 0 114 0 0 114 0 0 114 0 0 114 0 0 114 0 0 114 0 0 90 0 0 90 0 0 90 0 0 90 0 0 90 0 0 90 0 0 90 0 0 90 0 0 90 0 0 90 0 0 71 0 0 71 0 0 71 0 0 71 0 0 71 0 0 71 0 0 71 0 0 71 0 0 71 0 0 71 0 0 26 0 0 26 0 0 26 0 0 26 0 0 26 0 0 26 0 0 26 0 0 26 0 0 26 0 0 26 0 0 22 0 0 22 0 0 22 0 0 22 0 0 22 0 0 22 0 0 22 0 0 22 0 0 22 0 0 22 0 0 41 0 0 41 0 0 41 0 0 41 0 0 41 0 0 41 0 0 41 0 0 41 0 0 41 0 0 41 0 0 93 0 0 93 0 0 93 0 0 93 0 0 93 0 0 93 0 0 93 0 0 93 0 0 93 0 0 93 0 0 80 0 0 80 0 0 80 0 0 80 0 0 80 0 0 80 0 0 80 0 0 80 0 0 80 0 0 80 0 0 147 0 0 147 0 0 147 0 0 147 0 0 147 0 0 147 0 0 147 0 0 147 0 0 147 0 0 147 0 0 240 0 0 240 0 0 240 0 0 240 0 0 240 0 0 240 0 0 240 0 0 240 0 0 240 0 0 240 0 0 255 18 0 255 18 0 255 18 0 255 18 0 255 18 0 255 18 0 255 18 0 255 18 0 255 18 0 255 18 0 200 0 0 200 0 0 200 0 0 200 0 0 200 0 0 200 0 0 200 0 0 200 0 0 200 0 0 200 0 0 136 0 0 136 0 0 136 0 0 136 0 0 136 0 0 136 0 0 136 0 0 136 0 0 136 0 0 136 0 0 82 0 0 82 0 0 82 0 0 82 0 0 82 0 0 82 0 0 82 0 0 82 0 0 82 0 0 82 0 0 34 0 0 34 0 0 34 0 0 34 0 0 34 0 0 34 0 0 34 0 0 34 0 0 34 0 0 34 0 0 13 0 0 13 0 0 13 0 0 13 0 0 13 0 0 13 0 0 13 0 0 13 0 0 13 0 0 13 0 0 3 0 0 3 0 0 3 0 0 3 0 0 3 0 0 3 0 0 3 0 0 3 0 0 3 0 0 3 0 0 11 0 0 11 0 0 11 0 0 11 0 0 11 0 0 11 0 0 11 0 0 11 0 0 11 0 0 11 0 0 45 0 0 45 0 0 45 0 0 45 0 0 45 0 0 45 0 0 45 0 0 45 0 0 45 0 0 45 0 0 88 0 0 88 0 0 88 0 0 88 0 0 88 0 0 88 0 0 88 0 0 88 0 0 88 0 0 88 0 0 111 0 0 111 0 0 111 0 0 111 0 0 111 0 0 111 0 0 111 0 0 111 0 0 111 0 0 111 0 0 133 0 0 133 0 0 133 0 0 133 0 0 133 0 0 133 0 0 133 0 0 133 0 0 133 0 0 133 0 0 142 0 0 142 0 0 142 0 0 142 0 0 142 0 0 142 0 0 142 0 0 142 0 0 142 0 0 142 0 0 0 0 0 0 0 0 0 0 0 0 0 0 0 0 0 0 0 0 0 0 0 0 0 0 0 0 0 0 0 0 177 0 0 177 0 0 177 0 0 177 0 0 177 0 0 177 0 0 177 0 0 177 0 0 177 0 0 177 0 0 177 0 0 177 0 0 177 0 0 177 0 0 177 0 0 177 0 0 177 0 0 177 0 0 177 0 0 177 0 0 177 0 0 177 0 0 177 0 0 177 0 0 177 0 0 177 0 0 177 0 0 177 0 0 177 0 0 177 0 0 
138 0 0 138 0 0 138 0 0 138 0 0 138 0 0 138 0 0 138 0 0 138 0 0 138 0 0 138 0 0 154 0 0 154 0 0 154 0 0 154 0 0 154 0 0 154 0 0 154 0 0 154 0 0 154 0 0 154 0 0 138 0 0 138 0 0 138 0 0 138 0 0 138 0 0 138 0 0 138 0 0 138 0 0 138 0 0 138 0 0 120 0 0 120 0 0 120 0 0 120 0 0 120 0 0 120 0 0 120 0 0 120 0 0 120 0 0 120 0 0 127 0 0 127 0 0 127 0 0 127 0 0 127 0 0 127 0 0 127 0 0 127 0 0 127 0 0 127 0 0 114 0 0 114 0 0 114 0 0 114 0 0 114 0 0 114 0 0 114 0 0 114 0 0 114 0 0 114 0 0 90 0 0 90 0 0 90 0 0 90 0 0 90 0 0 90 0 0 90 0 0 90 0 0 90 0 0 90 0 0 71 0 0 71 0 0 71 0 0 71 0 0 71 0 0 71 0 0 71 0 0 71 0 0 71 0 0 71 0 0 26 0 0 26 0 0 26 0 0 26 0 0 26 0 0 26 0 0 26 0 0 26 0 0 26 0 0 26 0 0 22 0 0 22 0 0 22 0 0 22 0 0 22 0 0 22 0 0 22 0 0 22 0 0 22 0 0 22 0 0 41 0 0 41 0 0 41 0 0 41 0 0 41 0 0 41 0 0 41 0 0 41 0 0 41 0 0 41 0 0 93 0 0 93 0 0 93 0 0 93 0 0 93 0 0 93 0 0 93 0 0 93 0 0 93 0 0 93 0 0 80 0 0 80 0 0 80 0 0 80 0 0 80 0 0 80 0 0 80 0 0 80 0 0 80 0 0 80 0 0 147 0 0 147 0 0 147 0 0 147 0 0 147 0 0 147 0 0 147 0 0 147 0 0 147 0 0 147 0 0 240 0 0 240 0 0 240 0 0 240 0 0 240 0 0 240 0 0 240 0 0 240 0 0 240 0 0 240 0 0 255 18 0 255 18 0 255 18 0 255 18 0 255 18 0 255 18 0 255 18 0 255 18 0 255 18 0 255 18 0 200 0 0 200 0 0 200 0 0 200 0 0 200 0 0 200 0 0 200 0 0 200 0 0 200 0 0 200 0 0 136 0 0 136 0 0 136 0 0 136 0 0 136 0 0 136 0 0 136 0 0 136 0 0 136 0 0 136 0 0 82 0 0 82 0 0 82 0 0 82 0 0 82 0 0 82 0 0 82 0 0 82 0 0 82 0 0 82 0 0 34 0 0 34 0 0 34 0 0 34 0 0 34 0 0 34 0 0 34 0 0 34 0 0 34 0 0 34 0 0 13 0 0 13 0 0 13 0 0 13 0 0 13 0 0 13 0 0 13 0 0 13 0 0 13 0 0 13 0 0 3 0 0 3 0 0 3 0 0 3 0 0 3 0 0 3 0 0 3 0 0 3 0 0 3 0 0 3 0 0 11 0 0 11 0 0 11 0 0 11 0 0 11 0 0 11 0 0 11 0 0 11 0 0 11 0 0 11 0 0 45 0 0 45 0 0 45 0 0 45 0 0 45 0 0 45 0 0 45 0 0 45 0 0 45 0 0 45 0 0 88 0 0 88 0 0 88 0 0 88 0 0 88 0 0 88 0 0 88 0 0 88 0 0 88 0 0 88 0 0 111 0 0 111 0 0 111 0 0 111 0 0 111 0 0 111 0 0 111 0 0 111 0 0 111 0 0 111 0 0 133 0 0 133 0 0 133 0 0 133 0 0 133 0 0 133 0 0 133 0 0 133 0 0 133 0 0 133 0 0 142 0 0 142 0 0 142 0 0 142 0 0 142 0 0 142 0 0 142 0 0 142 0 0 142 0 0 142 0 0 0 0 0 0 0 0 0 0 0 0 0 0 0 0 0 0 0 0 0 0 0 0 0 0 0 0 0 0 0 0 173 0 0 173 0 0 173 0 0 173 0 0 173 0 0 173 0 0 173 0 0 173 0 0 173 0 0 173 0 0 173 0 0 173 0 0 173 0 0 173 0 0 173 0 0 173 0 0 173 0 0 173 0 0 173 0 0 173 0 0 173 0 0 173 0 0 173 0 0 173 0 0 173 0 0 173 0 0 173 0 0 173 0 0 173 0 0 173 0 0 
138 0 0 138 0 0 138 0 0 138 0 0 138 0 0 138 0 0 138 0 0 138 0 0 138 0 0 138 0 0 154 0 0 154 0 0 154 0 0 154 0 0 154 0 0 154 0 0 154 0 0 154 0 0 154 0 0 154 0 0 138 0 0 138 0 0 138 0 0 138 0 0 138 0 0 138 0 0 138 0 0 138 0 0 138 0 0 138 0 0 120 0 0 120 0 0 120 0 0 120 0 0 120 0 0 120 0 0 120 0 0 120 0 0 120 0 0 120 0 0 127 0 0 127 0 0 127 0 0 127 0 0 127 0 0 127 0 0 127 0 0 127 0 0 127 0 0 127 0 0 114 0 0 114 0 0 114 0 0 114 0 0 114 0 0 114 0 0 114 0 0 114 0 0 114 0 0 114 0 0 90 0 0 90 0 0 90 0 0 90 0 0 90 0 0 90 0 0 90 0 0 90 0 0 90 0 0 90 0 0 71 0 0 71 0 0 71 0 0 71 0 0 71 0 0 71 0 0 71 0 0 71 0 0 71 0 0 71 0 0 26 0 0 26 0 0 26 0 0 26 0 0 26 0 0 26 0 0 26 0 0 26 0 0 26 0 0 26 0 0 22 0 0 22 0 0 22 0 0 22 0 0 22 0 0 22 0 0 22 0 0 22 0 0 22 0 0 22 0 0 41 0 0 41 0 0 41 0 0 41 0 0 41 0 0 41 0 0 41 0 0 41 0 0 41 0 0 41 0 0 93 0 0 93 0 0 93 0 0 93 0 0 93 0 0 93 0 0 93 0 0 93 0 0 93 0 0 93 0 0 80 0 0 80 0 0 80 0 0 80 0 0 80 0 0 80 0 0 80 0 0 80 0 0 80 0 0 80 0 0 147 0 0 147 0 0 147 0 0 147 0 0 147 0 0 147 0 0 147 0 0 147 0 0 147 0 0 147 0 0 240 0 0 240 0 0 240 0 0 240 0 0 240 0 0 240 0 0 240 0 0 240 0 0 240 0 0 240 0 0 255 18 0 255 18 0 255 18 0 255 18 0 255 18 0 255 18 0 255 18 0 255 18 0 255 18 0 255 18 0 200 0 0 200 0 0 200 0 0 200 0 0 200 0 0 200 0 0 200 0 0 200 0 0 200 0 0 200 0 0 136 0 0 136 0 0 136 0 0 136 0 0 136 0 0 136 0 0 136 0 0 136 0 0 136 0 0 136 0 0 82 0 0 82 0 0 82 0 0 82 0 0 82 0 0 82 0 0 82 0 0 82 0 0 82 0 0 82 0 0 34 0 0 34 0 0 34 0 0 34 0 0 34 0 0 34 0 0 34 0 0 34 0 0 34 0 0 34 0 0 13 0 0 13 0 0 13 0 0 13 0 0 13 0 0 13 0 0 13 0 0 13 0 0 13 0 0 13 0 0 3 0 0 3 0 0 3 0 0 3 0 0 3 0 0 3 0 0 3 0 0 3 0 0 3 0 0 3 0 0 11 0 0 11 0 0 11 0 0 11 0 0 11 0 0 11 0 0 11 0 0 11 0 0 11 0 0 11 0 0 45 0 0 45 0 0 45 0 0 45 0 0 45 0 0 45 0 0 45 0 0 45 0 0 45 0 0 45 0 0 88 0 0 88 0 0 88 0 0 88 0 0 88 0 0 88 0 0 88 0 0 88 0 0 88 0 0 88 0 0 111 0 0 111 0 0 111 0 0 111 0 0 111 0 0 111 0 0 111 0 0 111 0 0 111 0 0 111 0 0 133 0 0 133 0 0 133 0 0 133 0 0 133 0 0 133 0 0 133 0 0 133 0 0 133 0 0 133 0 0 142 0 0 142 0 0 142 0 0 142 0 0 142 0 0 142 0 0 142 0 0 142 0 0 142 0 0 142 0 0 0 0 0 0 0 0 0 0 0 0 0 0 0 0 0 0 0 0 0 0 0 0 0 0 0 0 0 0 0 0 170 0 0 170 0 0 170 0 0 170 0 0 170 0 0 170 0 0 170 0 0 170 0 0 170 0 0 170 0 0 170 0 0 170 0 0 170 0 0 170 0 0 170 0 0 170 0 0 170 0 0 170 0 0 170 0 0 170 0 0 170 0 0 170 0 0 170 0 0 170 0 0 170 0 0 170 0 0 170 0 0 170 0 0 170 0 0 170 0 0 
138 0 0 138 0 0 138 0 0 138 0 0 138 0 0 138 0 0 138 0 0 138 0 0 138 0 0 138 0 0 154 0 0 154 0 0 154 0 0 154 0 0 154 0 0 154 0 0 154 0 0 154 0 0 154 0 0 154 0 0 138 0 0 138 0 0 138 0 0 138 0 0 138 0 0 138 0 0 138 0 0 138 0 0 138 0 0 138 0 0 120 0 0 120 0 0 120 0 0 120 0 0 120 0 0 120 0 0 120 0 0 120 0 0 120 0 0 120 0 0 127 0 0 127 0 0 127 0 0 127 0 0 127 0 0 127 0 0 127 0 0 127 0 0 127 0 0 127 0 0 114 0 0 114 0 0 114 0 0 114 0 0 114 0 0 114 0 0 114 0 0 114 0 0 114 0 0 114 0 0 90 0 0 90 0 0 90 0 0 90 0 0 90 0 0 90 0 0 90 0 0 90 0 0 90 0 0 90 0 0 71 0 0 71 0 0 71 0 0 71 0 0 71 0 0 71 0 0 71 0 0 71 0 0 71 0 0 71 0 0 26 0 0 26 0 0 26 0 0 26 0 0 26 0 0 26 0 0 26 0 0 26 0 0 26 0 0 26 0 0 22 0 0 22 0 0 22 0 0 22 0 0 22 0 0 22 0 0 22 0 0 22 0 0 22 0 0 22 0 0 41 0 0 41 0 0 41 0 0 41 0 0 41 0 0 41 0 0 41 0 0 41 0 0 41 0 0 41 0 0 93 0 0 93 0 0 93 0 0 93 0 0 93 0 0 93 0 0 93 0 0 93 0 0 93 0 0 93 0 0 80 0 0 80 0 0 80 0 0 80 0 0 80 0 0 80 0 0 80 0 0 80 0 0 80 0 0 80 0 0 147 0 0 147 0 0 147 0 0 147 0 0 147 0 0 147 0 0 147 0 0 147 0 0 147 0 0 147 0 0 240 0 0 240 0 0 240 0 0 240 0 0 240 0 0 240 0 0 240 0 0 240 0 0 240 0 0 240 0 0 255 18 0 255 18 0 255 18 0 255 18 0 255 18 0 255 18 0 255 18 0 255 18 0 255 18 0 255 18 0 200 0 0 200 0 0 200 0 0 200 0 0 200 0 0 200 0 0 200 0 0 200 0 0 200 0 0 200 0 0 136 0 0 136 0 0 136 0 0 136 0 0 136 0 0 136 0 0 136 0 0 136 0 0 136 0 0 136 0 0 82 0 0 82 0 0 82 0 0 82 0 0 82 0 0 82 0 0 82 0 0 82 0 0 82 0 0 82 0 0 34 0 0 34 0 0 34 0 0 34 0 0 34 0 0 34 0 0 34 0 0 34 0 0 34 0 0 34 0 0 13 0 0 13 0 0 13 0 0 13 0 0 13 0 0 13 0 0 13 0 0 13 0 0 13 0 0 13 0 0 3 0 0 3 0 0 3 0 0 3 0 0 3 0 0 3 0 0 3 0 0 3 0 0 3 0 0 3 0 0 11 0 0 11 0 0 11 0 0 11 0 0 11 0 0 11 0 0 11 0 0 11 0 0 11 0 0 11 0 0 45 0 0 45 0 0 45 0 0 45 0 0 45 0 0 45 0 0 45 0 0 45 0 0 45 0 0 45 0 0 88 0 0 88 0 0 88 0 0 88 0 0 88 0 0 88 0 0 88 0 0 88 0 0 88 0 0 88 0 0 111 0 0 111 0 0 111 0 0 111 0 0 111 0 0 111 0 0 111 0 0 111 0 0 111 0 0 111 0 0 133 0 0 133 0 0 133 0 0 133 0 0 133 0 0 133 0 0 133 0 0 133 0 0 133 0 0 133 0 0 142 0 0 142 0 0 142 0 0 142 0 0 142 0 0 142 0 0 142 0 0 142 0 0 142 0 0 142 0 0 0 0 0 0 0 0 0 0 0 0 0 0 0 0 0 0 0 0 0 0 0 0 0 0 0 0 0 0 0 0 166 0 0 166 0 0 166 0 0 166 0 0 166 0 0 166 0 0 166 0 0 166 0 0 166 0 0 166 0 0 166 0 0 166 0 0 166 0 0 166 0 0 166 0 0 166 0 0 166 0 0 166 0 0 166 0 0 166 0 0 166 0 0 166 0 0 166 0 0 166 0 0 166 0 0 166 0 0 166 0 0 166 0 0 166 0 0 166 0 0 
138 0 0 138 0 0 138 0 0 138 0 0 138 0 0 138 0 0 138 0 0 138 0 0 138 0 0 138 0 0 154 0 0 154 0 0 154 0 0 154 0 0 154 0 0 154 0 0 154 0 0 154 0 0 154 0 0 154 0 0 138 0 0 138 0 0 138 0 0 138 0 0 138 0 0 138 0 0 138 0 0 138 0 0 138 0 0 138 0 0 120 0 0 120 0 0 120 0 0 120 0 0 120 0 0 120 0 0 120 0 0 120 0 0 120 0 0 120 0 0 127 0 0 127 0 0 127 0 0 127 0 0 127 0 0 127 0 0 127 0 0 127 0 0 127 0 0 127 0 0 114 0 0 114 0 0 114 0 0 114 0 0 114 0 0 114 0 0 114 0 0 114 0 0 114 0 0 114 0 0 90 0 0 90 0 0 90 0 0 90 0 0 90 0 0 90 0 0 90 0 0 90 0 0 90 0 0 90 0 0 71 0 0 71 0 0 71 0 0 71 0 0 71 0 0 71 0 0 71 0 0 71 0 0 71 0 0 71 0 0 26 0 0 26 0 0 26 0 0 26 0 0 26 0 0 26 0 0 26 0 0 26 0 0 26 0 0 26 0 0 22 0 0 22 0 0 22 0 0 22 0 0 22 0 0 22 0 0 22 0 0 22 0 0 22 0 0 22 0 0 41 0 0 41 0 0 41 0 0 41 0 0 41 0 0 41 0 0 41 0 0 41 0 0 41 0 0 41 0 0 93 0 0 93 0 0 93 0 0 93 0 0 93 0 0 93 0 0 93 0 0 93 0 0 93 0 0 93 0 0 80 0 0 80 0 0 80 0 0 80 0 0 80 0 0 80 0 0 80 0 0 80 0 0 80 0 0 80 0 0 147 0 0 147 0 0 147 0 0 147 0 0 147 0 0 147 0 0 147 0 0 147 0 0 147 0 0 147 0 0 240 0 0 240 0 0 240 0 0 240 0 0 240 0 0 240 0 0 240 0 0 240 0 0 240 0 0 240 0 0 255 18 0 255 18 0 255 18 0 255 18 0 255 18 0 255 18 0 255 18 0 255 18 0 255 18 0 255 18 0 200 0 0 200 0 0 200 0 0 200 0 0 200 0 0 200 0 0 200 0 0 200 0 0 200 0 0 200 0 0 136 0 0 136 0 0 136 0 0 136 0 0 136 0 0 136 0 0 136 0 0 136 0 0 136 0 0 136 0 0 82 0 0 82 0 0 82 0 0 82 0 0 82 0 0 82 0 0 82 0 0 82 0 0 82 0 0 82 0 0 34 0 0 34 0 0 34 0 0 34 0 0 34 0 0 34 0 0 34 0 0 34 0 0 34 0 0 34 0 0 13 0 0 13 0 0 13 0 0 13 0 0 13 0 0 13 0 0 13 0 0 13 0 0 13 0 0 13 0 0 3 0 0 3 0 0 3 0 0 3 0 0 3 0 0 3 0 0 3 0 0 3 0 0 3 0 0 3 0 0 11 0 0 11 0 0 11 0 0 11 0 0 11 0 0 11 0 0 11 0 0 11 0 0 11 0 0 11 0 0 45 0 0 45 0 0 45 0 0 45 0 0 45 0 0 45 0 0 45 0 0 45 0 0 45 0 0 45 0 0 88 0 0 88 0 0 88 0 0 88 0 0 88 0 0 88 0 0 88 0 0 88 0 0 88 0 0 88 0 0 111 0 0 111 0 0 111 0 0 111 0 0 111 0 0 111 0 0 111 0 0 111 0 0 111 0 0 111 0 0 133 0 0 133 0 0 133 0 0 133 0 0 133 0 0 133 0 0 133 0 0 133 0 0 133 0 0 133 0 0 142 0 0 142 0 0 142 0 0 142 0 0 142 0 0 142 0 0 142 0 0 142 0 0 142 0 0 142 0 0 0 0 0 0 0 0 0 0 0 0 0 0 0 0 0 0 0 0 0 0 0 0 0 0 0 0 0 0 0 0 162 0 0 162 0 0 162 0 0 162 0 0 162 0 0 162 0 0 162 0 0 162 0 0 162 0 0 162 0 0 162 0 0 162 0 0 162 0 0 162 0 0 162 0 0 162 0 0 162 0 0 162 0 0 162 0 0 162 0 0 162 0 0 162 0 0 162 0 0 162 0 0 162 0 0 162 0 0 162 0 0 162 0 0 162 0 0 162 0 0 
138 0 0 138 0 0 138 0 0 138 0 0 138 0 0 138 0 0 138 0 0 138 0 0 138 0 0 138 0 0 154 0 0 154 0 0 154 0 0 154 0 0 154 0 0 154 0 0 154 0 0 154 0 0 154 0 0 154 0 0 138 0 0 138 0 0 138 0 0 138 0 0 138 0 0 138 0 0 138 0 0 138 0 0 138 0 0 138 0 0 120 0 0 120 0 0 120 0 0 120 0 0 120 0 0 120 0 0 120 0 0 120 0 0 120 0 0 120 0 0 127 0 0 127 0 0 127 0 0 127 0 0 127 0 0 127 0 0 127 0 0 127 0 0 127 0 0 127 0 0 114 0 0 114 0 0 114 0 0 114 0 0 114 0 0 114 0 0 114 0 0 114 0 0 114 0 0 114 0 0 90 0 0 90 0 0 90 0 0 90 0 0 90 0 0 90 0 0 90 0 0 90 0 0 90 0 0 90 0 0 71 0 0 71 0 0 71 0 0 71 0 0 71 0 0 71 0 0 71 0 0 71 0 0 71 0 0 71 0 0 26 0 0 26 0 0 26 0 0 26 0 0 26 0 0 26 0 0 26 0 0 26 0 0 26 0 0 26 0 0 22 0 0 22 0 0 22 0 0 22 0 0 22 0 0 22 0 0 22 0 0 22 0 0 22 0 0 22 0 0 41 0 0 41 0 0 41 0 0 41 0 0 41 0 0 41 0 0 41 0 0 41 0 0 41 0 0 41 0 0 93 0 0 93 0 0 93 0 0 93 0 0 93 0 0 93 0 0 93 0 0 93 0 0 93 0 0 93 0 0 80 0 0 80 0 0 80 0 0 80 0 0 80 0 0 80 0 0 80 0 0 80 0 0 80 0 0 80 0 0 147 0 0 147 0 0 147 0 0 147 0 0 147 0 0 147 0 0 147 0 0 147 0 0 147 0 0 147 0 0 240 0 0 240 0 0 240 0 0 240 0 0 240 0 0 240 0 0 240 0 0 240 0 0 240 0 0 240 0 0 255 18 0 255 18 0 255 18 0 255 18 0 255 18 0 255 18 0 255 18 0 255 18 0 255 18 0 255 18 0 200 0 0 200 0 0 200 0 0 200 0 0 200 0 0 200 0 0 200 0 0 200 0 0 200 0 0 200 0 0 136 0 0 136 0 0 136 0 0 136 0 0 136 0 0 136 0 0 136 0 0 136 0 0 136 0 0 136 0 0 82 0 0 82 0 0 82 0 0 82 0 0 82 0 0 82 0 0 82 0 0 82 0 0 82 0 0 82 0 0 34 0 0 34 0 0 34 0 0 34 0 0 34 0 0 34 0 0 34 0 0 34 0 0 34 0 0 34 0 0 13 0 0 13 0 0 13 0 0 13 0 0 13 0 0 13 0 0 13 0 0 13 0 0 13 0 0 13 0 0 3 0 0 3 0 0 3 0 0 3 0 0 3 0 0 3 0 0 3 0 0 3 0 0 3 0 0 3 0 0 11 0 0 11 0 0 11 0 0 11 0 0 11 0 0 11 0 0 11 0 0 11 0 0 11 0 0 11 0 0 45 0 0 45 0 0 45 0 0 45 0 0 45 0 0 45 0 0 45 0 0 45 0 0 45 0 0 45 0 0 88 0 0 88 0 0 88 0 0 88 0 0 88 0 0 88 0 0 88 0 0 88 0 0 88 0 0 88 0 0 111 0 0 111 0 0 111 0 0 111 0 0 111 0 0 111 0 0 111 0 0 111 0 0 111 0 0 111 0 0 133 0 0 133 0 0 133 0 0 133 0 0 133 0 0 133 0 0 133 0 0 133 0 0 133 0 0 133 0 0 142 0 0 142 0 0 142 0 0 142 0 0 142 0 0 142 0 0 142 0 0 142 0 0 142 0 0 142 0 0 0 0 0 0 0 0 0 0 0 0 0 0 0 0 0 0 0 0 0 0 0 0 0 0 0 0 0 0 0 0 159 0 0 159 0 0 159 0 0 159 0 0 159 0 0 159 0 0 159 0 0 159 0 0 159 0 0 159 0 0 159 0 0 159 0 0 159 0 0 159 0 0 159 0 0 159 0 0 159 0 0 159 0 0 159 0 0 159 0 0 159 0 0 159 0 0 159 0 0 159 0 0 159 0 0 159 0 0 159 0 0 159 0 0 159 0 0 159 0 0 
138 0 0 138 0 0 138 0 0 138 0 0 138 0 0 138 0 0 138 0 0 138 0 0 138 0 0 138 0 0 154 0 0 154 0 0 154 0 0 154 0 0 154 0 0 154 0 0 154 0 0 154 0 0 154 0 0 154 0 0 138 0 0 138 0 0 138 0 0 138 0 0 138 0 0 138 0 0 138 0 0 138 0 0 138 0 0 138 0 0 120 0 0 120 0 0 120 0 0 120 0 0 120 0 0 120 0 0 120 0 0 120 0 0 120 0 0 120 0 0 127 0 0 127 0 0 127 0 0 127 0 0 127 0 0 127 0 0 127 0 0 127 0 0 127 0 0 127 0 0 114 0 0 114 0 0 114 0 0 114 0 0 114 0 0 114 0 0 114 0 0 114 0 0 114 0 0 114 0 0 90 0 0 90 0 0 90 0 0 90 0 0 90 0 0 90 0 0 90 0 0 90 0 0 90 0 0 90 0 0 71 0 0 71 0 0 71 0 0 71 0 0 71 0 0 71 0 0 71 0 0 71 0 0 71 0 0 71 0 0 26 0 0 26 0 0 26 0 0 26 0 0 26 0 0 26 0 0 26 0 0 26 0 0 26 0 0 26 0 0 22 0 0 22 0 0 22 0 0 22 0 0 22 0 0 22 0 0 22 0 0 22 0 0 22 0 0 22 0 0 41 0 0 41 0 0 41 0 0 41 0 0 41 0 0 41 0 0 41 0 0 41 0 0 41 0 0 41 0 0 93 0 0 93 0 0 93 0 0 93 0 0 93 0 0 93 0 0 93 0 0 93 0 0 93 0 0 93 0 0 80 0 0 80 0 0 80 0 0 80 0 0 80 0 0 80 0 0 80 0 0 80 0 0 80 0 0 80 0 0 147 0 0 147 0 0 147 0 0 147 0 0 147 0 0 147 0 0 147 0 0 147 0 0 147 0 0 147 0 0 240 0 0 240 0 0 240 0 0 240 0 0 240 0 0 240 0 0 240 0 0 240 0 0 240 0 0 240 0 0 255 18 0 255 18 0 255 18 0 255 18 0 255 18 0 255 18 0 255 18 0 255 18 0 255 18 0 255 18 0 200 0 0 200 0 0 200 0 0 200 0 0 200 0 0 200 0 0 200 0 0 200 0 0 200 0 0 200 0 0 136 0 0 136 0 0 136 0 0 136 0 0 136 0 0 136 0 0 136 0 0 136 0 0 136 0 0 136 0 0 82 0 0 82 0 0 82 0 0 82 0 0 82 0 0 82 0 0 82 0 0 82 0 0 82 0 0 82 0 0 34 0 0 34 0 0 34 0 0 34 0 0 34 0 0 34 0 0 34 0 0 34 0 0 34 0 0 34 0 0 13 0 0 13 0 0 13 0 0 13 0 0 13 0 0 13 0 0 13 0 0 13 0 0 13 0 0 13 0 0 3 0 0 3 0 0 3 0 0 3 0 0 3 0 0 3 0 0 3 0 0 3 0 0 3 0 0 3 0 0 11 0 0 11 0 0 11 0 0 11 0 0 11 0 0 11 0 0 11 0 0 11 0 0 11 0 0 11 0 0 45 0 0 45 0 0 45 0 0 45 0 0 45 0 0 45 0 0 45 0 0 45 0 0 45 0 0 45 0 0 88 0 0 88 0 0 88 0 0 88 0 0 88 0 0 88 0 0 88 0 0 88 0 0 88 0 0 88 0 0 111 0 0 111 0 0 111 0 0 111 0 0 111 0 0 111 0 0 111 0 0 111 0 0 111 0 0 111 0 0 133 0 0 133 0 0 133 0 0 133 0 0 133 0 0 133 0 0 133 0 0 133 0 0 133 0 0 133 0 0 142 0 0 142 0 0 142 0 0 142 0 0 142 0 0 142 0 0 142 0 0 142 0 0 142 0 0 142 0 0 0 0 0 0 0 0 0 0 0 0 0 0 0 0 0 0 0 0 0 0 0 0 0 0 0 0 0 0 0 0 155 0 0 155 0 0 155 0 0 155 0 0 155 0 0 155 0 0 155 0 0 155 0 0 155 0 0 155 0 0 155 0 0 155 0 0 155 0 0 155 0 0 155 0 0 155 0 0 155 0 0 155 0 0 155 0 0 155 0 0 155 0 0 155 0 0 155 0 0 155 0 0 155 0 0 155 0 0 155 0 0 155 0 0 155 0 0 155 0 0 
138 0 0 138 0 0 138 0 0 138 0 0 138 0 0 138 0 0 138 0 0 138 0 0 138 0 0 138 0 0 154 0 0 154 0 0 154 0 0 154 0 0 154 0 0 154 0 0 154 0 0 154 0 0 154 0 0 154 0 0 138 0 0 138 0 0 138 0 0 138 0 0 138 0 0 138 0 0 138 0 0 138 0 0 138 0 0 138 0 0 120 0 0 120 0 0 120 0 0 120 0 0 120 0 0 120 0 0 120 0 0 120 0 0 120 0 0 120 0 0 127 0 0 127 0 0 127 0 0 127 0 0 127 0 0 127 0 0 127 0 0 127 0 0 127 0 0 127 0 0 114 0 0 114 0 0 114 0 0 114 0 0 114 0 0 114 0 0 114 0 0 114 0 0 114 0 0 114 0 0 90 0 0 90 0 0 90 0 0 90 0 0 90 0 0 90 0 0 90 0 0 90 0 0 90 0 0 90 0 0 71 0 0 71 0 0 71 0 0 71 0 0 71 0 0 71 0 0 71 0 0 71 0 0 71 0 0 71 0 0 26 0 0 26 0 0 26 0 0 26 0 0 26 0 0 26 0 0 26 0 0 26 0 0 26 0 0 26 0 0 22 0 0 22 0 0 22 0 0 22 0 0 22 0 0 22 0 0 22 0 0 22 0 0 22 0 0 22 0 0 41 0 0 41 0 0 41 0 0 41 0 0 41 0 0 41 0 0 41 0 0 41 0 0 41 0 0 41 0 0 93 0 0 93 0 0 93 0 0 93 0 0 93 0 0 93 0 0 93 0 0 93 0 0 93 0 0 93 0 0 80 0 0 80 0 0 80 0 0 80 0 0 80 0 0 80 0 0 80 0 0 80 0 0 80 0 0 80 0 0 147 0 0 147 0 0 147 0 0 147 0 0 147 0 0 147 0 0 147 0 0 147 0 0 147 0 0 147 0 0 240 0 0 240 0 0 240 0 0 240 0 0 240 0 0 240 0 0 240 0 0 240 0 0 240 0 0 240 0 0 255 18 0 255 18 0 255 18 0 255 18 0 255 18 0 255 18 0 255 18 0 255 18 0 255 18 0 255 18 0 200 0 0 200 0 0 200 0 0 200 0 0 200 0 0 200 0 0 200 0 0 200 0 0 200 0 0 200 0 0 136 0 0 136 0 0 136 0 0 136 0 0 136 0 0 136 0 0 136 0 0 136 0 0 136 0 0 136 0 0 82 0 0 82 0 0 82 0 0 82 0 0 82 0 0 82 0 0 82 0 0 82 0 0 82 0 0 82 0 0 34 0 0 34 0 0 34 0 0 34 0 0 34 0 0 34 0 0 34 0 0 34 0 0 34 0 0 34 0 0 13 0 0 13 0 0 13 0 0 13 0 0 13 0 0 13 0 0 13 0 0 13 0 0 13 0 0 13 0 0 3 0 0 3 0 0 3 0 0 3 0 0 3 0 0 3 0 0 3 0 0 3 0 0 3 0 0 3 0 0 11 0 0 11 0 0 11 0 0 11 0 0 11 0 0 11 0 0 11 0 0 11 0 0 11 0 0 11 0 0 45 0 0 45 0 0 45 0 0 45 0 0 45 0 0 45 0 0 45 0 0 45 0 0 45 0 0 45 0 0 88 0 0 88 0 0 88 0 0 88 0 0 88 0 0 88 0 0 88 0 0 88 0 0 88 0 0 88 0 0 111 0 0 111 0 0 111 0 0 111 0 0 111 0 0 111 0 0 111 0 0 111 0 0 111 0 0 111 0 0 133 0 0 133 0 0 133 0 0 133 0 0 133 0 0 133 0 0 133 0 0 133 0 0 133 0 0 133 0 0 142 0 0 142 0 0 142 0 0 142 0 0 142 0 0 142 0 0 142 0 0 142 0 0 142 0 0 142 0 0 0 0 0 0 0 0 0 0 0 0 0 0 0 0 0 0 0 0 0 0 0 0 0 0 0 0 0 0 0 0 151 0 0 151 0 0 151 0 0 151 0 0 151 0 0 151 0 0 151 0 0 151 0 0 151 0 0 151 0 0 151 0 0 151 0 0 151 0 0 151 0 0 151 0 0 151 0 0 151 0 0 151 0 0 151 0 0 151 0 0 151 0 0 151 0 0 151 0 0 151 0 0 151 0 0 151 0 0 151 0 0 151 0 0 151 0 0 151 0 0 
138 0 0 138 0 0 138 0 0 138 0 0 138 0 0 138 0 0 138 0 0 138 0 0 138 0 0 138 0 0 154 0 0 154 0 0 154 0 0 154 0 0 154 0 0 154 0 0 154 0 0 154 0 0 154 0 0 154 0 0 138 0 0 138 0 0 138 0 0 138 0 0 138 0 0 138 0 0 138 0 0 138 0 0 138 0 0 138 0 0 120 0 0 120 0 0 120 0 0 120 0 0 120 0 0 120 0 0 120 0 0 120 0 0 120 0 0 120 0 0 127 0 0 127 0 0 127 0 0 127 0 0 127 0 0 127 0 0 127 0 0 127 0 0 127 0 0 127 0 0 114 0 0 114 0 0 114 0 0 114 0 0 114 0 0 114 0 0 114 0 0 114 0 0 114 0 0 114 0 0 90 0 0 90 0 0 90 0 0 90 0 0 90 0 0 90 0 0 90 0 0 90 0 0 90 0 0 90 0 0 71 0 0 71 0 0 71 0 0 71 0 0 71 0 0 71 0 0 71 0 0 71 0 0 71 0 0 71 0 0 26 0 0 26 0 0 26 0 0 26 0 0 26 0 0 26 0 0 26 0 0 26 0 0 26 0 0 26 0 0 22 0 0 22 0 0 22 0 0 22 0 0 22 0 0 22 0 0 22 0 0 22 0 0 22 0 0 22 0 0 41 0 0 41 0 0 41 0 0 41 0 0 41 0 0 41 0 0 41 0 0 41 0 0 41 0 0 41 0 0 93 0 0 93 0 0 93 0 0 93 0 0 93 0 0 93 0 0 93 0 0 93 0 0 93 0 0 93 0 0 80 0 0 80 0 0 80 0 0 80 0 0 80 0 0 80 0 0 80 0 0 80 0 0 80 0 0 80 0 0 147 0 0 147 0 0 147 0 0 147 0 0 147 0 0 147 0 0 147 0 0 147 0 0 147 0 0 147 0 0 240 0 0 240 0 0 240 0 0 240 0 0 240 0 0 240 0 0 240 0 0 240 0 0 240 0 0 240 0 0 255 18 0 255 18 0 255 18 0 255 18 0 255 18 0 255 18 0 255 18 0 255 18 0 255 18 0 255 18 0 200 0 0 200 0 0 200 0 0 200 0 0 200 0 0 200 0 0 200 0 0 200 0 0 200 0 0 200 0 0 136 0 0 136 0 0 136 0 0 136 0 0 136 0 0 136 0 0 136 0 0 136 0 0 136 0 0 136 0 0 82 0 0 82 0 0 82 0 0 82 0 0 82 0 0 82 0 0 82 0 0 82 0 0 82 0 0 82 0 0 34 0 0 34 0 0 34 0 0 34 0 0 34 0 0 34 0 0 34 0 0 34 0 0 34 0 0 34 0 0 13 0 0 13 0 0 13 0 0 13 0 0 13 0 0 13 0 0 13 0 0 13 0 0 13 0 0 13 0 0 3 0 0 3 0 0 3 0 0 3 0 0 3 0 0 3 0 0 3 0 0 3 0 0 3 0 0 3 0 0 11 0 0 11 0 0 11 0 0 11 0 0 11 0 0 11 0 0 11 0 0 11 0 0 11 0 0 11 0 0 45 0 0 45 0 0 45 0 0 45 0 0 45 0 0 45 0 0 45 0 0 45 0 0 45 0 0 45 0 0 88 0 0 88 0 0 88 0 0 88 0 0 88 0 0 88 0 0 88 0 0 88 0 0 88 0 0 88 0 0 111 0 0 111 0 0 111 0 0 111 0 0 111 0 0 111 0 0 111 0 0 111 0 0 111 0 0 111 0 0 133 0 0 133 0 0 133 0 0 133 0 0 133 0 0 133 0 0 133 0 0 133 0 0 133 0 0 133 0 0 142 0 0 142 0 0 142 0 0 142 0 0 142 0 0 142 0 0 142 0 0 142 0 0 142 0 0 142 0 0 0 0 0 0 0 0 0 0 0 0 0 0 0 0 0 0 0 0 0 0 0 0 0 0 0 0 0 0 0 0 148 0 0 148 0 0 148 0 0 148 0 0 148 0 0 148 0 0 148 0 0 148 0 0 148 0 0 148 0 0 148 0 0 148 0 0 148 0 0 148 0 0 148 0 0 148 0 0 148 0 0 148 0 0 148 0 0 148 0 0 148 0 0 148 0 0 148 0 0 148 0 0 148 0 0 148 0 0 148 0 0 148 0 0 148 0 0 148 0 0 
146 0 0 146 0 0 146 0 0 146 0 0 146 0 0 146 0 0 146 0 0 146 0 0 146 0 0 146 0 0 119 0 0 119 0 0 119 0 0 119 0 0 119 0 0 119 0 0 119 0 0 119 0 0 119 0 0 119 0 0 130 0 0 130 0 0 130 0 0 130 0 0 130 0 0 130 0 0 130 0 0 130 0 0 130 0 0 130 0 0 147 0 0 147 0 0 147 0 0 147 0 0 147 0 0 147 0 0 147 0 0 147 0 0 147 0 0 147 0 0 98 0 0 98 0 0 98 0 0 98 0 0 98 0 0 98 0 0 98 0 0 98 0 0 98 0 0 98 0 0 74 0 0 74 0 0 74 0 0 74 0 0 74 0 0 74 0 0 74 0 0 74 0 0 74 0 0 74 0 0 92 0 0 92 0 0 92 0 0 92 0 0 92 0 0 92 0 0 92 0 0 92 0 0 92 0 0 92 0 0 41 0 0 41 0 0 41 0 0 41 0 0 41 0 0 41 0 0 41 0 0 41 0 0 41 0 0 41 0 0 44 0 0 44 0 0 44 0 0 44 0 0 44 0 0 44 0 0 44 0 0 44 0 0 44 0 0 44 0 0 17 0 0 17 0 0 17 0 0 17 0 0 17 0 0 17 0 0 17 0 0 17 0 0 17 0 0 17 0 0 64 0 0 64 0 0 64 0 0 64 0 0 64 0 0 64 0 0 64 0 0 64 0 0 64 0 0 64 0 0 77 0 0 77 0 0 77 0 0 77 0 0 77 0 0 77 0 0 77 0 0 77 0 0 77 0 0 77 0 0 149 0 0 149 0 0 149 0 0 149 0 0 149 0 0 149 0 0 149 0 0 149 0 0 149 0 0 149 0 0 190 0 0 190 0 0 190 0 0 190 0 0 190 0 0 190 0 0 190 0 0 190 0 0 190 0 0 190 0 0 255 101 0 255 101 0 255 101 0 255 101 0 255 101 0 255 101 0 255 101 0 255 101 0 255 101 0 255 101 0 255 143 0 255 143 0 255 143 0 255 143 0 255 143 0 255 143 0 255 143 0 255 143 0 255 143 0 255 143 0 255 0 0 255 0 0 255 0 0 255 0 0 255 0 0 255 0 0 255 0 0 255 0 0 255 0 0 255 0 0 125 0 0 125 0 0 125 0 0 125 0 0 125 0 0 125 0 0 125 0 0 125 0 0 125 0 0 125 0 0 61 0 0 61 0 0 61 0 0 61 0 0 61 0 0 61 0 0 61 0 0 61 0 0 61 0 0 61 0 0 24 0 0 24 0 0 24 0 0 24 0 0 24 0 0 24 0 0 24 0 0 24 0 0 24 0 0 24 0 0 4 0 0 4 0 0 4 0 0 4 0 0 4 0 0 4 0 0 4 0 0 4 0 0 4 0 0 4 0 0 29 0 0 29 0 0 29 0 0 29 0 0 29 0 0 29 0 0 29 0 0 29 0 0 29 0 0 29 0 0 11 0 0 11 0 0 11 0 0 11 0 0 11 0 0 11 0 0 11 0 0 11 0 0 11 0 0 11 0 0 68 0 0 68 0 0 68 0 0 68 0 0 68 0 0 68 0 0 68 0 0 68 0 0 68 0 0 68 0 0 81 0 0 81 0 0 81 0 0 81 0 0 81 0 0 81 0 0 81 0 0 81 0 0 81 0 0 81 0 0 118 0 0 118 0 0 118 0 0 118 0 0 118 0 0 118 0 0 118 0 0 118 0 0 118 0 0 118 0 0 111 0 0 111 0 0 111 0 0 111 0 0 111 0 0 111 0 0 111 0 0 111 0 0 111 0 0 111 0 0 142 0 0 142 0 0 142 0 0 142 0 0 142 0 0 142 0 0 142 0 0 142 0 0 142 0 0 142 0 0 0 0 0 0 0 0 0 0 0 0 0 0 0 0 0 0 0 0 0 0 0 0 0 0 0 0 0 0 0 0 144 0 0 144 0 0 144 0 0 144 0 0 144 0 0 144 0 0 144 0 0 144 0 0 144 0 0 144 0 0 144 0 0 144 0 0 144 0 0 144 0 0 144 0 0 144 0 0 144 0 0 144 0 0 144 0 0 144 0 0 144 0 0 144 0 0 144 0 0 144 0 0 144 0 0 144 0 0 144 0 0 144 0 0 144 0 0 144 0 0 
146 0 0 146 0 0 146 0 0 146 0 0 146 0 0 146 0 0 146 0 0 146 0 0 146 0 0 146 0 0 119 0 0 119 0 0 119 0 0 119 0 0 119 0 0 119 0 0 119 0 0 119 0 0 119 0 0 119 0 0 130 0 0 130 0 0 130 0 0 130 0 0 130 0 0 130 0 0 130 0 0 130 0 0 130 0 0 130 0 0 147 0 0 147 0 0 147 0 0 147 0 0 147 0 0 147 0 0 147 0 0 147 0 0 147 0 0 147 0 0 98 0 0 98 0 0 98 0 0 98 0 0 98 0 0 98 0 0 98 0 0 98 0 0 98 0 0 98 0 0 74 0 0 74 0 0 74 0 0 74 0 0 74 0 0 74 0 0 74 0 0 74 0 0 74 0 0 74 0 0 92 0 0 92 0 0 92 0 0 92 0 0 92 0 0 92 0 0 92 0 0 92 0 0 92 0 0 92 0 0 41 0 0 41 0 0 41 0 0 41 0 0 41 0 0 41 0 0 41 0 0 41 0 0 41 0 0 41 0 0 44 0 0 44 0 0 44 0 0 44 0 0 44 0 0 44 0 0 44 0 0 44 0 0 44 0 0 44 0 0 17 0 0 17 0 0 17 0 0 17 0 0 17 0 0 17 0 0 17 0 0 17 0 0 17 0 0 17 0 0 64 0 0 64 0 0 64 0 0 64 0 0 64 0 0 64 0 0 64 0 0 64 0 0 64 0 0 64 0 0 77 0 0 77 0 0 77 0 0 77 0 0 77 0 0 77 0 0 77 0 0 77 0 0 77 0 0 77 0 0 149 0 0 149 0 0 149 0 0 149 0 0 149 0 0 149 0 0 149 0 0 149 0 0 149 0 0 149 0 0 190 0 0 190 0 0 190 0 0 190 0 0 190 0 0 190 0 0 190 0 0 190 0 0 190 0 0 190 0 0 255 101 0 255 101 0 255 101 0 255 101 0 255 101 0 255 101 0 255 101 0 255 101 0 255 101 0 255 101 0 255 143 0 255 143 0 255 143 0 255 143 0 255 143 0 255 143 0 255 143 0 255 143 0 255 143 0 255 143 0 255 0 0 255 0 0 255 0 0 255 0 0 255 0 0 255 0 0 255 0 0 255 0 0 255 0 0 255 0 0 125 0 0 125 0 0 125 0 0 125 0 0 125 0 0 125 0 0 125 0 0 125 0 0 125 0 0 125 0 0 61 0 0 61 0 0 61 0 0 61 0 0 61 0 0 61 0 0 61 0 0 61 0 0 61 0 0 61 0 0 24 0 0 24 0 0 24 0 0 24 0 0 24 0 0 24 0 0 24 0 0 24 0 0 24 0 0 24 0 0 4 0 0 4 0 0 4 0 0 4 0 0 4 0 0 4 0 0 4 0 0 4 0 0 4 0 0 4 0 0 29 0 0 29 0 0 29 0 0 29 0 0 29 0 0 29 0 0 29 0 0 29 0 0 29 0 0 29 0 0 11 0 0 11 0 0 11 0 0 11 0 0 11 0 0 11 0 0 11 0 0 11 0 0 11 0 0 11 0 0 68 0 0 68 0 0 68 0 0 68 0 0 68 0 0 68 0 0 68 0 0 68 0 0 68 0 0 68 0 0 81 0 0 81 0 0 81 0 0 81 0 0 81 0 0 81 0 0 81 0 0 81 0 0 81 0 0 81 0 0 118 0 0 118 0 0 118 0 0 118 0 0 118 0 0 118 0 0 118 0 0 118 0 0 118 0 0 118 0 0 111 0 0 111 0 0 111 0 0 111 0 0 111 0 0 111 0 0 111 0 0 111 0 0 111 0 0 111 0 0 142 0 0 142 0 0 142 0 0 142 0 0 142 0 0 142 0 0 142 0 0 142 0 0 142 0 0 142 0 0 0 0 0 0 0 0 0 0 0 0 0 0 0 0 0 0 0 0 0 0 0 0 0 0 0 0 0 0 0 0 140 0 0 140 0 0 140 0 0 140 0 0 140 0 0 140 0 0 140 0 0 140 0 0 140 0 0 140 0 0 140 0 0 140 0 0 140 0 0 140 0 0 140 0 0 140 0 0 140 0 0 140 0 0 140 0 0 140 0 0 140 0 0 140 0 0 140 0 0 140 0 0 140 0 0 140 0 0 140 0 0 140 0 0 140 0 0 140 0 0 
146 0 0 146 0 0 146 0 0 146 0 0 146 0 0 146 0 0 146 0 0 146 0 0 146 0 0 146 0 0 119 0 0 119 0 0 119 0 0 119 0 0 119 0 0 119 0 0 119 0 0 119 0 0 119 0 0 119 0 0 130 0 0 130 0 0 130 0 0 130 0 0 130 0 0 130 0 0 130 0 0 130 0 0 130 0 0 130 0 0 147 0 0 147 0 0 147 0 0 147 0 0 147 0 0 147 0 0 147 0 0 147 0 0 147 0 0 147 0 0 98 0 0 98 0 0 98 0 0 98 0 0 98 0 0 98 0 0 98 0 0 98 0 0 98 0 0 98 0 0 74 0 0 74 0 0 74 0 0 74 0 0 74 0 0 74 0 0 74 0 0 74 0 0 74 0 0 74 0 0 92 0 0 92 0 0 92 0 0 92 0 0 92 0 0 92 0 0 92 0 0 92 0 0 92 0 0 92 0 0 41 0 0 41 0 0 41 0 0 41 0 0 41 0 0 41 0 0 41 0 0 41 0 0 41 0 0 41 0 0 44 0 0 44 0 0 44 0 0 44 0 0 44 0 0 44 0 0 44 0 0 44 0 0 44 0 0 44 0 0 17 0 0 17 0 0 17 0 0 17 0 0 17 0 0 17 0 0 17 0 0 17 0 0 17 0 0 17 0 0 64 0 0 64 0 0 64 0 0 64 0 0 64 0 0 64 0 0 64 0 0 64 0 0 64 0 0 64 0 0 77 0 0 77 0 0 77 0 0 77 0 0 77 0 0 77 0 0 77 0 0 77 0 0 77 0 0 77 0 0 149 0 0 149 0 0 149 0 0 149 0 0 149 0 0 149 0 0 149 0 0 149 0 0 149 0 0 149 0 0 190 0 0 190 0 0 190 0 0 190 0 0 190 0 0 190 0 0 190 0 0 190 0 0 190 0 0 190 0 0 255 101 0 255 101 0 255 101 0 255 101 0 255 101 0 255 101 0 255 101 0 255 101 0 255 101 0 255 101 0 255 143 0 255 143 0 255 143 0 255 143 0 255 143 0 255 143 0 255 143 0 255 143 0 255 143 0 255 143 0 255 0 0 255 0 0 255 0 0 255 0 0 255 0 0 255 0 0 255 0 0 255 0 0 255 0 0 255 0 0 125 0 0 125 0 0 125 0 0 125 0 0 125 0 0 125 0 0 125 0 0 125 0 0 125 0 0 125 0 0 61 0 0 61 0 0 61 0 0 61 0 0 61 0 0 61 0 0 61 0 0 61 0 0 61 0 0 61 0 0 24 0 0 24 0 0 24 0 0 24 0 0 24 0 0 24 0 0 24 0 0 24 0 0 24 0 0 24 0 0 4 0 0 4 0 0 4 0 0 4 0 0 4 0 0 4 0 0 4 0 0 4 0 0 4 0 0 4 0 0 29 0 0 29 0 0 29 0 0 29 0 0 29 0 0 29 0 0 29 0 0 29 0 0 29 0 0 29 0 0 11 0 0 11 0 0 11 0 0 11 0 0 11 0 0 11 0 0 11 0 0 11 0 0 11 0 0 11 0 0 68 0 0 68 0 0 68 0 0 68 0 0 68 0 0 68 0 0 68 0 0 68 0 0 68 0 0 68 0 0 81 0 0 81 0 0 81 0 0 81 0 0 81 0 0 81 0 0 81 0 0 81 0 0 81 0 0 81 0 0 118 0 0 118 0 0 118 0 0 118 0 0 118 0 0 118 0 0 118 0 0 118 0 0 118 0 0 118 0 0 111 0 0 111 0 0 111 0 0 111 0 0 111 0 0 111 0 0 111 0 0 111 0 0 111 0 0 111 0 0 142 0 0 142 0 0 142 0 0 142 0 0 142 0 0 142 0 0 142 0 0 142 0 0 142 0 0 142 0 0 0 0 0 0 0 0 0 0 0 0 0 0 0 0 0 0 0 0 0 0 0 0 0 0 0 0 0 0 0 0 137 0 0 137 0 0 137 0 0 137 0 0 137 0 0 137 0 0 137 0 0 137 0 0 137 0 0 137 0 0 137 0 0 137 0 0 137 0 0 137 0 0 137 0 0 137 0 0 137 0 0 137 0 0 137 0 0 137 0 0 137 0 0 137 0 0 137 0 0 137 0 0 137 0 0 137 0 0 137 0 0 137 0 0 137 0 0 137 0 0 
146 0 0 146 0 0 146 0 0 146 0 0 146 0 0 146 0 0 146 0 0 146 0 0 146 0 0 146 0 0 119 0 0 119 0 0 119 0 0 119 0 0 119 0 0 119 0 0 119 0 0 119 0 0 119 0 0 119 0 0 130 0 0 130 0 0 130 0 0 130 0 0 130 0 0 130 0 0 130 0 0 130 0 0 130 0 0 130 0 0 147 0 0 147 0 0 147 0 0 147 0 0 147 0 0 147 0 0 147 0 0 147 0 0 147 0 0 147 0 0 98 0 0 98 0 0 98 0 0 98 0 0 98 0 0 98 0 0 98 0 0 98 0 0 98 0 0 98 0 0 74 0 0 74 0 0 74 0 0 74 0 0 74 0 0 74 0 0 74 0 0 74 0 0 74 0 0 74 0 0 92 0 0 92 0 0 92 0 0 92 0 0 92 0 0 92 0 0 92 0 0 92 0 0 92 0 0 92 0 0 41 0 0 41 0 0 41 0 0 41 0 0 41 0 0 41 0 0 41 0 0 41 0 0 41 0 0 41 0 0 44 0 0 44 0 0 44 0 0 44 0 0 44 0 0 44 0 0 44 0 0 44 0 0 44 0 0 44 0 0 17 0 0 17 0 0 17 0 0 17 0 0 17 0 0 17 0 0 17 0 0 17 0 0 17 0 0 17 0 0 64 0 0 64 0 0 64 0 0 64 0 0 64 0 0 64 0 0 64 0 0 64 0 0 64 0 0 64 0 0 77 0 0 77 0 0 77 0 0 77 0 0 77 0 0 77 0 0 77 0 0 77 0 0 77 0 0 77 0 0 149 0 0 149 0 0 149 0 0 149 0 0 149 0 0 149 0 0 149 0 0 149 0 0 149 0 0 149 0 0 190 0 0 190 0 0 190 0 0 190 0 0 190 0 0 190 0 0 190 0 0 190 0 0 190 0 0 190 0 0 255 101 0 255 101 0 255 101 0 255 101 0 255 101 0 255 101 0 255 101 0 255 101 0 255 101 0 255 101 0 255 143 0 255 143 0 255 143 0 255 143 0 255 143 0 255 143 0 255 143 0 255 143 0 255 143 0 255 143 0 255 0 0 255 0 0 255 0 0 255 0 0 255 0 0 255 0 0 255 0 0 255 0 0 255 0 0 255 0 0 125 0 0 125 0 0 125 0 0 125 0 0 125 0 0 125 0 0 125 0 0 125 0 0 125 0 0 125 0 0 61 0 0 61 0 0 61 0 0 61 0 0 61 0 0 61 0 0 61 0 0 61 0 0 61 0 0 61 0 0 24 0 0 24 0 0 24 0 0 24 0 0 24 0 0 24 0 0 24 0 0 24 0 0 24 0 0 24 0 0 4 0 0 4 0 0 4 0 0 4 0 0 4 0 0 4 0 0 4 0 0 4 0 0 4 0 0 4 0 0 29 0 0 29 0 0 29 0 0 29 0 0 29 0 0 29 0 0 29 0 0 29 0 0 29 0 0 29 0 0 11 0 0 11 0 0 11 0 0 11 0 0 11 0 0 11 0 0 11 0 0 11 0 0 11 0 0 11 0 0 68 0 0 68 0 0 68 0 0 68 0 0 68 0 0 68 0 0 68 0 0 68 0 0 68 0 0 68 0 0 81 0 0 81 0 0 81 0 0 81 0 0 81 0 0 81 0 0 81 0 0 81 0 0 81 0 0 81 0 0 118 0 0 118 0 0 118 0 0 118 0 0 118 0 0 118 0 0 118 0 0 118 0 0 118 0 0 118 0 0 111 0 0 111 0 0 111 0 0 111 0 0 111 0 0 111 0 0 111 0 0 111 0 0 111 0 0 111 0 0 142 0 0 142 0 0 142 0 0 142 0 0 142 0 0 142 0 0 142 0 0 142 0 0 142 0 0 142 0 0 0 0 0 0 0 0 0 0 0 0 0 0 0 0 0 0 0 0 0 0 0 0 0 0 0 0 0 0 0 0 133 0 0 133 0 0 133 0 0 133 0 0 133 0 0 133 0 0 133 0 0 133 0 0 133 0 0 133 0 0 133 0 0 133 0 0 133 0 0 133 0 0 133 0 0 133 0 0 133 0 0 133 0 0 133 0 0 133 0 0 133 0 0 133 0 0 133 0 0 133 0 0 133 0 0 133 0 0 133 0 0 133 0 0 133 0 0 133 0 0 
146 0 0 146 0 0 146 0 0 146 0 0 146 0 0 146 0 0 146 0 0 146 0 0 146 0 0 146 0 0 119 0 0 119 0 0 119 0 0 119 0 0 119 0 0 119 0 0 119 0 0 119 0 0 119 0 0 119 0 0 130 0 0 130 0 0 130 0 0 130 0 0 130 0 0 130 0 0 130 0 0 130 0 0 130 0 0 130 0 0 147 0 0 147 0 0 147 0 0 147 0 0 147 0 0 147 0 0 147 0 0 147 0 0 147 0 0 147 0 0 98 0 0 98 0 0 98 0 0 98 0 0 98 0 0 98 0 0 98 0 0 98 0 0 98 0 0 98 0 0 74 0 0 74 0 0 74 0 0 74 0 0 74 0 0 74 0 0 74 0 0 74 0 0 74 0 0 74 0 0 92 0 0 92 0 0 92 0 0 92 0 0 92 0 0 92 0 0 92 0 0 92 0 0 92 0 0 92 0 0 41 0 0 41 0 0 41 0 0 41 0 0 41 0 0 41 0 0 41 0 0 41 0 0 41 0 0 41 0 0 44 0 0 44 0 0 44 0 0 44 0 0 44 0 0 44 0 0 44 0 0 44 0 0 44 0 0 44 0 0 17 0 0 17 0 0 17 0 0 17 0 0 17 0 0 17 0 0 17 0 0 17 0 0 17 0 0 17 0 0 64 0 0 64 0 0 64 0 0 64 0 0 64 0 0 64 0 0 64 0 0 64 0 0 64 0 0 64 0 0 77 0 0 77 0 0 77 0 0 77 0 0 77 0 0 77 0 0 77 0 0 77 0 0 77 0 0 77 0 0 149 0 0 149 0 0 149 0 0 149 0 0 149 0 0 149 0 0 149 0 0 149 0 0 149 0 0 149 0 0 190 0 0 190 0 0 190 0 0 190 0 0 190 0 0 190 0 0 190 0 0 190 0 0 190 0 0 190 0 0 255 101 0 255 101 0 255 101 0 255 101 0 255 101 0 255 101 0 255 101 0 255 101 0 255 101 0 255 101 0 255 143 0 255 143 0 255 143 0 255 143 0 255 143 0 255 143 0 255 143 0 255 143 0 255 143 0 255 143 0 255 0 0 255 0 0 255 0 0 255 0 0 255 0 0 255 0 0 255 0 0 255 0 0 255 0 0 255 0 0 125 0 0 125 0 0 125 0 0 125 0 0 125 0 0 125 0 0 125 0 0 125 0 0 125 0 0 125 0 0 61 0 0 61 0 0 61 0 0 61 0 0 61 0 0 61 0 0 61 0 0 61 0 0 61 0 0 61 0 0 24 0 0 24 0 0 24 0 0 24 0 0 24 0 0 24 0 0 24 0 0 24 0 0 24 0 0 24 0 0 4 0 0 4 0 0 4 0 0 4 0 0 4 0 0 4 0 0 4 0 0 4 0 0 4 0 0 4 0 0 29 0 0 29 0 0 29 0 0 29 0 0 29 0 0 29 0 0 29 0 0 29 0 0 29 0 0 29 0 0 11 0 0 11 0 0 11 0 0 11 0 0 11 0 0 11 0 0 11 0 0 11 0 0 11 0 0 11 0 0 68 0 0 68 0 0 68 0 0 68 0 0 68 0 0 68 0 0 68 0 0 68 0 0 68 0 0 68 0 0 81 0 0 81 0 0 81 0 0 81 0 0 81 0 0 81 0 0 81 0 0 81 0 0 81 0 0 81 0 0 118 0 0 118 0 0 118 0 0 118 0 0 118 0 0 118 0 0 118 0 0 118 0 0 118 0 0 118 0 0 111 0 0 111 0 0 111 0 0 111 0 0 111 0 0 111 0 0 111 0 0 111 0 0 111 0 0 111 0 0 142 0 0 142 0 0 142 0 0 142 0 0 142 0 0 142 0 0 142 0 0 142 0 0 142 0 0 142 0 0 0 0 0 0 0 0 0 0 0 0 0 0 0 0 0 0 0 0 0 0 0 0 0 0 0 0 0 0 0 0 129 0 0 129 0 0 129 0 0 129 0 0 129 0 0 129 0 0 129 0 0 129 0 0 129 0 0 129 0 0 129 0 0 129 0 0 129 0 0 129 0 0 129 0 0 129 0 0 129 0 0 129 0 0 129 0 0 129 0 0 129 0 0 129 0 0 129 0 0 129 0 0 129 0 0 129 0 0 129 0 0 129 0 0 129 0 0 129 0 0 
146 0 0 146 0 0 146 0 0 146 0 0 146 0 0 146 0 0 146 0 0 146 0 0 146 0 0 146 0 0 119 0 0 119 0 0 119 0 0 119 0 0 119 0 0 119 0 0 119 0 0 119 0 0 119 0 0 119 0 0 130 0 0 130 0 0 130 0 0 130 0 0 130 0 0 130 0 0 130 0 0 130 0 0 130 0 0 130 0 0 147 0 0 147 0 0 147 0 0 147 0 0 147 0 0 147 0 0 147 0 0 147 0 0 147 0 0 147 0 0 98 0 0 98 0 0 98 0 0 98 0 0 98 0 0 98 0 0 98 0 0 98 0 0 98 0 0 98 0 0 74 0 0 74 0 0 74 0 0 74 0 0 74 0 0 74 0 0 74 0 0 74 0 0 74 0 0 74 0 0 92 0 0 92 0 0 92 0 0 92 0 0 92 0 0 92 0 0 92 0 0 92 0 0 92 0 0 92 0 0 41 0 0 41 0 0 41 0 0 41 0 0 41 0 0 41 0 0 41 0 0 41 0 0 41 0 0 41 0 0 44 0 0 44 0 0 44 0 0 44 0 0 44 0 0 44 0 0 44 0 0 44 0 0 44 0 0 44 0 0 17 0 0 17 0 0 17 0 0 17 0 0 17 0 0 17 0 0 17 0 0 17 0 0 17 0 0 17 0 0 64 0 0 64 0 0 64 0 0 64 0 0 64 0 0 64 0 0 64 0 0 64 0 0 64 0 0 64 0 0 77 0 0 77 0 0 77 0 0 77 0 0 77 0 0 77 0 0 77 0 0 77 0 0 77 0 0 77 0 0 149 0 0 149 0 0 149 0 0 149 0 0 149 0 0 149 0 0 149 0 0 149 0 0 149 0 0 149 0 0 190 0 0 190 0 0 190 0 0 190 0 0 190 0 0 190 0 0 190 0 0 190 0 0 190 0 0 190 0 0 255 101 0 255 101 0 255 101 0 255 101 0 255 101 0 255 101 0 255 101 0 255 101 0 255 101 0 255 101 0 255 143 0 255 143 0 255 143 0 255 143 0 255 143 0 255 143 0 255 143 0 255 143 0 255 143 0 255 143 0 255 0 0 255 0 0 255 0 0 255 0 0 255 0 0 255 0 0 255 0 0 255 0 0 255 0 0 255 0 0 125 0 0 125 0 0 125 0 0 125 0 0 125 0 0 125 0 0 125 0 0 125 0 0 125 0 0 125 0 0 61 0 0 61 0 0 61 0 0 61 0 0 61 0 0 61 0 0 61 0 0 61 0 0 61 0 0 61 0 0 24 0 0 24 0 0 24 0 0 24 0 0 24 0 0 24 0 0 24 0 0 24 0 0 24 0 0 24 0 0 4 0 0 4 0 0 4 0 0 4 0 0 4 0 0 4 0 0 4 0 0 4 0 0 4 0 0 4 0 0 29 0 0 29 0 0 29 0 0 29 0 0 29 0 0 29 0 0 29 0 0 29 0 0 29 0 0 29 0 0 11 0 0 11 0 0 11 0 0 11 0 0 11 0 0 11 0 0 11 0 0 11 0 0 11 0 0 11 0 0 68 0 0 68 0 0 68 0 0 68 0 0 68 0 0 68 0 0 68 0 0 68 0 0 68 0 0 68 0 0 81 0 0 81 0 0 81 0 0 81 0 0 81 0 0 81 0 0 81 0 0 81 0 0 81 0 0 81 0 0 118 0 0 118 0 0 118 0 0 118 0 0 118 0 0 118 0 0 118 0 0 118 0 0 118 0 0 118 0 0 111 0 0 111 0 0 111 0 0 111 0 0 111 0 0 111 0 0 111 0 0 111 0 0 111 0 0 111 0 0 142 0 0 142 0 0 142 0 0 142 0 0 142 0 0 142 0 0 142 0 0 142 0 0 142 0 0 142 0 0 0 0 0 0 0 0 0 0 0 0 0 0 0 0 0 0 0 0 0 0 0 0 0 0 0 0 0 0 0 0 126 0 0 126 0 0 126 0 0 126 0 0 126 0 0 126 0 0 126 0 0 126 0 0 126 0 0 126 0 0 126 0 0 126 0 0 126 0 0 126 0 0 126 0 0 126 0 0 126 0 0 126 0 0 126 0 0 126 0 0 126 0 0 126 0 0 126 0 0 126 0 0 126 0 0 126 0 0 126 0 0 126 0 0 126 0 0 126 0 0 
146 0 0 146 0 0 146 0 0 146 0 0 146 0 0 146 0 0 146 0 0 146 0 0 146 0 0 146 0 0 119 0 0 119 0 0 119 0 0 119 0 0 119 0 0 119 0 0 119 0 0 119 0 0 119 0 0 119 0 0 130 0 0 130 0 0 130 0 0 130 0 0 130 0 0 130 0 0 130 0 0 130 0 0 130 0 0 130 0 0 147 0 0 147 0 0 147 0 0 147 0 0 147 0 0 147 0 0 147 0 0 147 0 0 147 0 0 147 0 0 98 0 0 98 0 0 98 0 0 98 0 0 98 0 0 98 0 0 98 0 0 98 0 0 98 0 0 98 0 0 74 0 0 74 0 0 74 0 0 74 0 0 74 0 0 74 0 0 74 0 0 74 0 0 74 0 0 74 0 0 92 0 0 92 0 0 92 0 0 92 0 0 92 0 0 92 0 0 92 0 0 92 0 0 92 0 0 92 0 0 41 0 0 41 0 0 41 0 0 41 0 0 41 0 0 41 0 0 41 0 0 41 0 0 41 0 0 41 0 0 44 0 0 44 0 0 44 0 0 44 0 0 44 0 0 44 0 0 44 0 0 44 0 0 44 0 0 44 0 0 17 0 0 17 0 0 17 0 0 17 0 0 17 0 0 17 0 0 17 0 0 17 0 0 17 0 0 17 0 0 64 0 0 64 0 0 64 0 0 64 0 0 64 0 0 64 0 0 64 0 0 64 0 0 64 0 0 64 0 0 77 0 0 77 0 0 77 0 0 77 0 0 77 0 0 77 0 0 77 0 0 77 0 0 77 0 0 77 0 0 149 0 0 149 0 0 149 0 0 149 0 0 149 0 0 149 0 0 149 0 0 149 0 0 149 0 0 149 0 0 190 0 0 190 0 0 190 0 0 190 0 0 190 0 0 190 0 0 190 0 0 190 0 0 190 0 0 190 0 0 255 101 0 255 101 0 255 101 0 255 101 0 255 101 0 255 101 0 255 101 0 255 101 0 255 101 0 255 101 0 255 143 0 255 143 0 255 143 0 255 143 0 255 143 0 255 143 0 255 143 0 255 143 0 255 143 0 255 143 0 255 0 0 255 0 0 255 0 0 255 0 0 255 0 0 255 0 0 255 0 0 255 0 0 255 0 0 255 0 0 125 0 0 125 0 0 125 0 0 125 0 0 125 0 0 125 0 0 125 0 0 125 0 0 125 0 0 125 0 0 61 0 0 61 0 0 61 0 0 61 0 0 61 0 0 61 0 0 61 0 0 61 0 0 61 0 0 61 0 0 24 0 0 24 0 0 24 0 0 24 0 0 24 0 0 24 0 0 24 0 0 24 0 0 24 0 0 24 0 0 4 0 0 4 0 0 4 0 0 4 0 0 4 0 0 4 0 0 4 0 0 4 0 0 4 0 0 4 0 0 29 0 0 29 0 0 29 0 0 29 0 0 29 0 0 29 0 0 29 0 0 29 0 0 29 0 0 29 0 0 11 0 0 11 0 0 11 0 0 11 0 0 11 0 0 11 0 0 11 0 0 11 0 0 11 0 0 11 0 0 68 0 0 68 0 0 68 0 0 68 0 0 68 0 0 68 0 0 68 0 0 68 0 0 68 0 0 68 0 0 81 0 0 81 0 0 81 0 0 81 0 0 81 0 0 81 0 0 81 0 0 81 0 0 81 0 0 81 0 0 118 0 0 118 0 0 118 0 0 118 0 0 118 0 0 118 0 0 118 0 0 118 0 0 118 0 0 118 0 0 111 0 0 111 0 0 111 0 0 111 0 0 111 0 0 111 0 0 111 0 0 111 0 0 111 0 0 111 0 0 142 0 0 142 0 0 142 0 0 142 0 0 142 0 0 142 0 0 142 0 0 142 0 0 142 0 0 142 0 0 0 0 0 0 0 0 0 0 0 0 0 0 0 0 0 0 0 0 0 0 0 0 0 0 0 0 0 0 0 0 122 0 0 122 0 0 122 0 0 122 0 0 122 0 0 122 0 0 122 0 0 122 0 0 122 0 0 122 0 0 122 0 0 122 0 0 122 0 0 122 0 0 122 0 0 122 0 0 122 0 0 122 0 0 122 0 0 122 0 0 122 0 0 122 0 0 122 0 0 122 0 0 122 0 0 122 0 0 122 0 0 122 0 0 122 0 0 122 0 0 
146 0 0 146 0 0 146 0 0 146 0 0 146 0 0 146 0 0 146 0 0 146 0 0 146 0 0 146 0 0 119 0 0 119 0 0 119 0 0 119 0 0 119 0 0 119 0 0 119 0 0 119 0 0 119 0 0 119 0 0 130 0 0 130 0 0 130 0 0 130 0 0 130 0 0 130 0 0 130 0 0 130 0 0 130 0 0 130 0 0 147 0 0 147 0 0 147 0 0 147 0 0 147 0 0 147 0 0 147 0 0 147 0 0 147 0 0 147 0 0 98 0 0 98 0 0 98 0 0 98 0 0 98 0 0 98 0 0 98 0 0 98 0 0 98 0 0 98 0 0 74 0 0 74 0 0 74 0 0 74 0 0 74 0 0 74 0 0 74 0 0 74 0 0 74 0 0 74 0 0 92 0 0 92 0 0 92 0 0 92 0 0 92 0 0 92 0 0 92 0 0 92 0 0 92 0 0 92 0 0 41 0 0 41 0 0 41 0 0 41 0 0 41 0 0 41 0 0 41 0 0 41 0 0 41 0 0 41 0 0 44 0 0 44 0 0 44 0 0 44 0 0 44 0 0 44 0 0 44 0 0 44 0 0 44 0 0 44 0 0 17 0 0 17 0 0 17 0 0 17 0 0 17 0 0 17 0 0 17 0 0 17 0 0 17 0 0 17 0 0 64 0 0 64 0 0 64 0 0 64 0 0 64 0 0 64 0 0 64 0 0 64 0 0 64 0 0 64 0 0 77 0 0 77 0 0 77 0 0 77 0 0 77 0 0 77 0 0 77 0 0 77 0 0 77 0 0 77 0 0 149 0 0 149 0 0 149 0 0 149 0 0 149 0 0 149 0 0 149 0 0 149 0 0 149 0 0 149 0 0 190 0 0 190 0 0 190 0 0 190 0 0 190 0 0 190 0 0 190 0 0 190 0 0 190 0 0 190 0 0 255 101 0 255 101 0 255 101 0 255 101 0 255 101 0 255 101 0 255 101 0 255 101 0 255 101 0 255 101 0 255 143 0 255 143 0 255 143 0 255 143 0 255 143 0 255 143 0 255 143 0 255 143 0 255 143 0 255 143 0 255 0 0 255 0 0 255 0 0 255 0 0 255 0 0 255 0 0 255 0 0 255 0 0 255 0 0 255 0 0 125 0 0 125 0 0 125 0 0 125 0 0 125 0 0 125 0 0 125 0 0 125 0 0 125 0 0 125 0 0 61 0 0 61 0 0 61 0 0 61 0 0 61 0 0 61 0 0 61 0 0 61 0 0 61 0 0 61 0 0 24 0 0 24 0 0 24 0 0 24 0 0 24 0 0 24 0 0 24 0 0 24 0 0 24 0 0 24 0 0 4 0 0 4 0 0 4 0 0 4 0 0 4 0 0 4 0 0 4 0 0 4 0 0 4 0 0 4 0 0 29 0 0 29 0 0 29 0 0 29 0 0 29 0 0 29 0 0 29 0 0 29 0 0 29 0 0 29 0 0 11 0 0 11 0 0 11 0 0 11 0 0 11 0 0 11 0 0 11 0 0 11 0 0 11 0 0 11 0 0 68 0 0 68 0 0 68 0 0 68 0 0 68 0 0 68 0 0 68 0 0 68 0 0 68 0 0 68 0 0 81 0 0 81 0 0 81 0 0 81 0 0 81 0 0 81 0 0 81 0 0 81 0 0 81 0 0 81 0 0 118 0 0 118 0 0 118 0 0 118 0 0 118 0 0 118 0 0 118 0 0 118 0 0 118 0 0 118 0 0 111 0 0 111 0 0 111 0 0 111 0 0 111 0 0 111 0 0 111 0 0 111 0 0 111 0 0 111 0 0 142 0 0 142 0 0 142 0 0 142 0 0 142 0 0 142 0 0 142 0 0 142 0 0 142 0 0 142 0 0 0 0 0 0 0 0 0 0 0 0 0 0 0 0 0 0 0 0 0 0 0 0 0 0 0 0 0 0 0 0 118 0 0 118 0 0 118 0 0 118 0 0 118 0 0 118 0 0 118 0 0 118 0 0 118 0 0 118 0 0 118 0 0 118 0 0 118 0 0 118 0 0 118 0 0 118 0 0 118 0 0 118 0 0 118 0 0 118 0 0 118 0 0 118 0 0 118 0 0 118 0 0 118 0 0 118 0 0 118 0 0 118 0 0 118 0 0 118 0 0 
146 0 0 146 0 0 146 0 0 146 0 0 146 0 0 146 0 0 146 0 0 146 0 0 146 0 0 146 0 0 119 0 0 119 0 0 119 0 0 119 0 0 119 0 0 119 0 0 119 0 0 119 0 0 119 0 0 119 0 0 130 0 0 130 0 0 130 0 0 130 0 0 130 0 0 130 0 0 130 0 0 130 0 0 130 0 0 130 0 0 147 0 0 147 0 0 147 0 0 147 0 0 147 0 0 147 0 0 147 0 0 147 0 0 147 0 0 147 0 0 98 0 0 98 0 0 98 0 0 98 0 0 98 0 0 98 0 0 98 0 0 98 0 0 98 0 0 98 0 0 74 0 0 74 0 0 74 0 0 74 0 0 74 0 0 74 0 0 74 0 0 74 0 0 74 0 0 74 0 0 92 0 0 92 0 0 92 0 0 92 0 0 92 0 0 92 0 0 92 0 0 92 0 0 92 0 0 92 0 0 41 0 0 41 0 0 41 0 0 41 0 0 41 0 0 41 0 0 41 0 0 41 0 0 41 0 0 41 0 0 44 0 0 44 0 0 44 0 0 44 0 0 44 0 0 44 0 0 44 0 0 44 0 0 44 0 0 44 0 0 17 0 0 17 0 0 17 0 0 17 0 0 17 0 0 17 0 0 17 0 0 17 0 0 17 0 0 17 0 0 64 0 0 64 0 0 64 0 0 64 0 0 64 0 0 64 0 0 64 0 0 64 0 0 64 0 0 64 0 0 77 0 0 77 0 0 77 0 0 77 0 0 77 0 0 77 0 0 77 0 0 77 0 0 77 0 0 77 0 0 149 0 0 149 0 0 149 0 0 149 0 0 149 0 0 149 0 0 149 0 0 149 0 0 149 0 0 149 0 0 190 0 0 190 0 0 190 0 0 190 0 0 190 0 0 190 0 0 190 0 0 190 0 0 190 0 0 190 0 0 255 101 0 255 101 0 255 101 0 255 101 0 255 101 0 255 101 0 255 101 0 255 101 0 255 101 0 255 101 0 255 143 0 255 143 0 255 143 0 255 143 0 255 143 0 255 143 0 255 143 0 255 143 0 255 143 0 255 143 0 255 0 0 255 0 0 255 0 0 255 0 0 255 0 0 255 0 0 255 0 0 255 0 0 255 0 0 255 0 0 125 0 0 125 0 0 125 0 0 125 0 0 125 0 0 125 0 0 125 0 0 125 0 0 125 0 0 125 0 0 61 0 0 61 0 0 61 0 0 61 0 0 61 0 0 61 0 0 61 0 0 61 0 0 61 0 0 61 0 0 24 0 0 24 0 0 24 0 0 24 0 0 24 0 0 24 0 0 24 0 0 24 0 0 24 0 0 24 0 0 4 0 0 4 0 0 4 0 0 4 0 0 4 0 0 4 0 0 4 0 0 4 0 0 4 0 0 4 0 0 29 0 0 29 0 0 29 0 0 29 0 0 29 0 0 29 0 0 29 0 0 29 0 0 29 0 0 29 0 0 11 0 0 11 0 0 11 0 0 11 0 0 11 0 0 11 0 0 11 0 0 11 0 0 11 0 0 11 0 0 68 0 0 68 0 0 68 0 0 68 0 0 68 0 0 68 0 0 68 0 0 68 0 0 68 0 0 68 0 0 81 0 0 81 0 0 81 0 0 81 0 0 81 0 0 81 0 0 81 0 0 81 0 0 81 0 0 81 0 0 118 0 0 118 0 0 118 0 0 118 0 0 118 0 0 118 0 0 118 0 0 118 0 0 118 0 0 118 0 0 111 0 0 111 0 0 111 0 0 111 0 0 111 0 0 111 0 0 111 0 0 111 0 0 111 0 0 111 0 0 142 0 0 142 0 0 142 0 0 142 0 0 142 0 0 142 0 0 142 0 0 142 0 0 142 0 0 142 0 0 0 0 0 0 0 0 0 0 0 0 0 0 0 0 0 0 0 0 0 0 0 0 0 0 0 0 0 0 0 0 115 0 0 115 0 0 115 0 0 115 0 0 115 0 0 115 0 0 115 0 0 115 0 0 115 0 0 115 0 0 115 0 0 115 0 0 115 0 0 115 0 0 115 0 0 115 0 0 115 0 0 115 0 0 115 0 0 115 0 0 115 0 0 115 0 0 115 0 0 115 0 0 115 0 0 115 0 0 115 0 0 115 0 0 115 0 0 115 0 0 
146 0 0 146 0 0 146 0 0 146 0 0 146 0 0 146 0 0 146 0 0 146 0 0 146 0 0 146 0 0 119 0 0 119 0 0 119 0 0 119 0 0 119 0 0 119 0 0 119 0 0 119 0 0 119 0 0 119 0 0 130 0 0 130 0 0 130 0 0 130 0 0 130 0 0 130 0 0 130 0 0 130 0 0 130 0 0 130 0 0 147 0 0 147 0 0 147 0 0 147 0 0 147 0 0 147 0 0 147 0 0 147 0 0 147 0 0 147 0 0 98 0 0 98 0 0 98 0 0 98 0 0 98 0 0 98 0 0 98 0 0 98 0 0 98 0 0 98 0 0 74 0 0 74 0 0 74 0 0 74 0 0 74 0 0 74 0 0 74 0 0 74 0 0 74 0 0 74 0 0 92 0 0 92 0 0 92 0 0 92 0 0 92 0 0 92 0 0 92 0 0 92 0 0 92 0 0 92 0 0 41 0 0 41 0 0 41 0 0 41 0 0 41 0 0 41 0 0 41 0 0 41 0 0 41 0 0 41 0 0 44 0 0 44 0 0 44 0 0 44 0 0 44 0 0 44 0 0 44 0 0 44 0 0 44 0 0 44 0 0 17 0 0 17 0 0 17 0 0 17 0 0 17 0 0 17 0 0 17 0 0 17 0 0 17 0 0 17 0 0 64 0 0 64 0 0 64 0 0 64 0 0 64 0 0 64 0 0 64 0 0 64 0 0 64 0 0 64 0 0 77 0 0 77 0 0 77 0 0 77 0 0 77 0 0 77 0 0 77 0 0 77 0 0 77 0 0 77 0 0 149 0 0 149 0 0 149 0 0 149 0 0 149 0 0 149 0 0 149 0 0 149 0 0 149 0 0 149 0 0 190 0 0 190 0 0 190 0 0 190 0 0 190 0 0 190 0 0 190 0 0 190 0 0 190 0 0 190 0 0 255 101 0 255 101 0 255 101 0 255 101 0 255 101 0 255 101 0 255 101 0 255 101 0 255 101 0 255 101 0 255 143 0 255 143 0 255 143 0 255 143 0 255 143 0 255 143 0 255 143 0 255 143 0 255 143 0 255 143 0 255 0 0 255 0 0 255 0 0 255 0 0 255 0 0 255 0 0 255 0 0 255 0 0 255 0 0 255 0 0 125 0 0 125 0 0 125 0 0 125 0 0 125 0 0 125 0 0 125 0 0 125 0 0 125 0 0 125 0 0 61 0 0 61 0 0 61 0 0 61 0 0 61 0 0 61 0 0 61 0 0 61 0 0 61 0 0 61 0 0 24 0 0 24 0 0 24 0 0 24 0 0 24 0 0 24 0 0 24 0 0 24 0 0 24 0 0 24 0 0 4 0 0 4 0 0 4 0 0 4 0 0 4 0 0 4 0 0 4 0 0 4 0 0 4 0 0 4 0 0 29 0 0 29 0 0 29 0 0 29 0 0 29 0 0 29 0 0 29 0 0 29 0 0 29 0 0 29 0 0 11 0 0 11 0 0 11 0 0 11 0 0 11 0 0 11 0 0 11 0 0 11 0 0 11 0 0 11 0 0 68 0 0 68 0 0 68 0 0 68 0 0 68 0 0 68 0 0 68 0 0 68 0 0 68 0 0 68 0 0 81 0 0 81 0 0 81 0 0 81 0 0 81 0 0 81 0 0 81 0 0 81 0 0 81 0 0 81 0 0 118 0 0 118 0 0 118 0 0 118 0 0 118 0 0 118 0 0 118 0 0 118 0 0 118 0 0 118 0 0 111 0 0 111 0 0 111 0 0 111 0 0 111 0 0 111 0 0 111 0 0 111 0 0 111 0 0 111 0 0 142 0 0 142 0 0 142 0 0 142 0 0 142 0 0 142 0 0 142 0 0 142 0 0 142 0 0 142 0 0 0 0 0 0 0 0 0 0 0 0 0 0 0 0 0 0 0 0 0 0 0 0 0 0 0 0 0 0 0 0 111 0 0 111 0 0 111 0 0 111 0 0 111 0 0 111 0 0 111 0 0 111 0 0 111 0 0 111 0 0 111 0 0 111 0 0 111 0 0 111 0 0 111 0 0 111 0 0 111 0 0 111 0 0 111 0 0 111 0 0 111 0 0 111 0 0 111 0 0 111 0 0 111 0 0 111 0 0 111 0 0 111 0 0 111 0 0 111 0 0 
119 0 0 119 0 0 119 0 0 119 0 0 119 0 0 119 0 0 119 0 0 119 0 0 119 0 0 119 0 0 153 0 0 153 0 0 153 0 0 153 0 0 153 0 0 153 0 0 153 0 0 153 0 0 153 0 0 153 0 0 153 0 0 153 0 0 153 0 0 153 0 0 153 0 0 153 0 0 153 0 0 153 0 0 153 0 0 153 0 0 148 0 0 148 0 0 148 0 0 148 0 0 148 0 0 148 0 0 148 0 0 148 0 0 148 0 0 148 0 0 131 0 0 131 0 0 131 0 0 131 0 0 131 0 0 131 0 0 131 0 0 131 0 0 131 0 0 131 0 0 112 0 0 112 0 0 112 0 0 112 0 0 112 0 0 112 0 0 112 0 0 112 0 0 112 0 0 112 0 0 94 0 0 94 0 0 94 0 0 94 0 0 94 0 0 94 0 0 94 0 0 94 0 0 94 0 0 94 0 0 44 0 0 44 0 0 44 0 0 44 0 0 44 0 0 44 0 0 44 0 0 44 0 0 44 0 0 44 0 0 22 0 0 22 0 0 22 0 0 22 0 0 22 0 0 22 0 0 22 0 0 22 0 0 22 0 0 22 0 0 28 0 0 28 0 0 28 0 0 28 0 0 28 0 0 28 0 0 28 0 0 28 0 0 28 0 0 28 0 0 4 0 0 4 0 0 4 0 0 4 0 0 4 0 0 4 0 0 4 0 0 4 0 0 4 0 0 4 0 0 21 0 0 21 0 0 21 0 0 21 0 0 21 0 0 21 0 0 21 0 0 21 0 0 21 0 0 21 0 0 115 0 0 115 0 0 115 0 0 115 0 0 115 0 0 115 0 0 115 0 0 115 0 0 115 0 0 115 0 0 230 0 0 230 0 0 230 0 0 230 0 0 230 0 0 230 0 0 230 0 0 230 0 0 230 0 0 230 0 0 255 175 0 255 175 0 255 175 0 255 175 0 255 175 0 255 175 0 255 175 0 255 175 0 255 175 0 255 175 0 255 210 0 255 210 0 255 210 0 255 210 0 255 210 0 255 210 0 255 210 0 255 210 0 255 210 0 255 210 0 255 18 0 255 18 0 255 18 0 255 18 0 255 18 0 255 18 0 255 18 0 255 18 0 255 18 0 255 18 0 126 0 0 126 0 0 126 0 0 126 0 0 126 0 0 126 0 0 126 0 0 126 0 0 126 0 0 126 0 0 65 0 0 65 0 0 65 0 0 65 0 0 65 0 0 65 0 0 65 0 0 65 0 0 65 0 0 65 0 0 44 0 0 44 0 0 44 0 0 44 0 0 44 0 0 44 0 0 44 0 0 44 0 0 44 0 0 44 0 0 21 0 0 21 0 0 21 0 0 21 0 0 21 0 0 21 0 0 21 0 0 21 0 0 21 0 0 21 0 0 32 0 0 32 0 0 32 0 0 32 0 0 32 0 0 32 0 0 32 0 0 32 0 0 32 0 0 32 0 0 89 0 0 89 0 0 89 0 0 89 0 0 89 0 0 89 0 0 89 0 0 89 0 0 89 0 0 89 0 0 109 0 0 109 0 0 109 0 0 109 0 0 109 0 0 109 0 0 109 0 0 109 0 0 109 0 0 109 0 0 93 0 0 93 0 0 93 0 0 93 0 0 93 0 0 93 0 0 93 0 0 93 0 0 93 0 0 93 0 0 118 0 0 118 0 0 118 0 0 118 0 0 118 0 0 118 0 0 118 0 0 118 0 0 118 0 0 118 0 0 141 0 0 141 0 0 141 0 0 141 0 0 141 0 0 141 0 0 141 0 0 141 0 0 141 0 0 141 0 0 133 0 0 133 0 0 133 0 0 133 0 0 133 0 0 133 0 0 133 0 0 133 0 0 133 0 0 133 0 0 0 0 0 0 0 0 0 0 0 0 0 0 0 0 0 0 0 0 0 0 0 0 0 0 0 0 0 0 0 0 107 0 0 107 0 0 107 0 0 107 0 0 107 0 0 107 0 0 107 0 0 107 0 0 107 0 0 107 0 0 107 0 0 107 0 0 107 0 0 107 0 0 107 0 0 107 0 0 107 0 0 107 0 0 107 0 0 107 0 0 107 0 0 107 0 0 107 0 0 107 0 0 107 0 0 107 0 0 107 0 0 107 0 0 107 0 0 107 0 0 
119 0 0 119 0 0 119 0 0 119 0 0 119 0 0 119 0 0 119 0 0 119 0 0 119 0 0 119 0 0 153 0 0 153 0 0 153 0 0 153 0 0 153 0 0 153 0 0 153 0 0 153 0 0 153 0 0 153 0 0 153 0 0 153 0 0 153 0 0 153 0 0 153 0 0 153 0 0 153 0 0 153 0 0 153 0 0 153 0 0 148 0 0 148 0 0 148 0 0 148 0 0 148 0 0 148 0 0 148 0 0 148 0 0 148 0 0 148 0 0 131 0 0 131 0 0 131 0 0 131 0 0 131 0 0 131 0 0 131 0 0 131 0 0 131 0 0 131 0 0 112 0 0 112 0 0 112 0 0 112 0 0 112 0 0 112 0 0 112 0 0 112 0 0 112 0 0 112 0 0 94 0 0 94 0 0 94 0 0 94 0 0 94 0 0 94 0 0 94 0 0 94 0 0 94 0 0 94 0 0 44 0 0 44 0 0 44 0 0 44 0 0 44 0 0 44 0 0 44 0 0 44 0 0 44 0 0 44 0 0 22 0 0 22 0 0 22 0 0 22 0 0 22 0 0 22 0 0 22 0 0 22 0 0 22 0 0 22 0 0 28 0 0 28 0 0 28 0 0 28 0 0 28 0 0 28 0 0 28 0 0 28 0 0 28 0 0 28 0 0 4 0 0 4 0 0 4 0 0 4 0 0 4 0 0 4 0 0 4 0 0 4 0 0 4 0 0 4 0 0 21 0 0 21 0 0 21 0 0 21 0 0 21 0 0 21 0 0 21 0 0 21 0 0 21 0 0 21 0 0 115 0 0 115 0 0 115 0 0 115 0 0 115 0 0 115 0 0 115 0 0 115 0 0 115 0 0 115 0 0 230 0 0 230 0 0 230 0 0 230 0 0 230 0 0 230 0 0 230 0 0 230 0 0 230 0 0 230 0 0 255 175 0 255 175 0 255 175 0 255 175 0 255 175 0 255 175 0 255 175 0 255 175 0 255 175 0 255 175 0 255 210 0 255 210 0 255 210 0 255 210 0 255 210 0 255 210 0 255 210 0 255 210 0 255 210 0 255 210 0 255 18 0 255 18 0 255 18 0 255 18 0 255 18 0 255 18 0 255 18 0 255 18 0 255 18 0 255 18 0 126 0 0 126 0 0 126 0 0 126 0 0 126 0 0 126 0 0 126 0 0 126 0 0 126 0 0 126 0 0 65 0 0 65 0 0 65 0 0 65 0 0 65 0 0 65 0 0 65 0 0 65 0 0 65 0 0 65 0 0 44 0 0 44 0 0 44 0 0 44 0 0 44 0 0 44 0 0 44 0 0 44 0 0 44 0 0 44 0 0 21 0 0 21 0 0 21 0 0 21 0 0 21 0 0 21 0 0 21 0 0 21 0 0 21 0 0 21 0 0 32 0 0 32 0 0 32 0 0 32 0 0 32 0 0 32 0 0 32 0 0 32 0 0 32 0 0 32 0 0 89 0 0 89 0 0 89 0 0 89 0 0 89 0 0 89 0 0 89 0 0 89 0 0 89 0 0 89 0 0 109 0 0 109 0 0 109 0 0 109 0 0 109 0 0 109 0 0 109 0 0 109 0 0 109 0 0 109 0 0 93 0 0 93 0 0 93 0 0 93 0 0 93 0 0 93 0 0 93 0 0 93 0 0 93 0 0 93 0 0 118 0 0 118 0 0 118 0 0 118 0 0 118 0 0 118 0 0 118 0 0 118 0 0 118 0 0 118 0 0 141 0 0 141 0 0 141 0 0 141 0 0 141 0 0 141 0 0 141 0 0 141 0 0 141 0 0 141 0 0 133 0 0 133 0 0 133 0 0 133 0 0 133 0 0 133 0 0 133 0 0 133 0 0 133 0 0 133 0 0 0 0 0 0 0 0 0 0 0 0 0 0 0 0 0 0 0 0 0 0 0 0 0 0 0 0 0 0 0 0 104 0 0 104 0 0 104 0 0 104 0 0 104 0 0 104 0 0 104 0 0 104 0 0 104 0 0 104 0 0 104 0 0 104 0 0 104 0 0 104 0 0 104 0 0 104 0 0 104 0 0 104 0 0 104 0 0 104 0 0 104 0 0 104 0 0 104 0 0 104 0 0 104 0 0 104 0 0 104 0 0 104 0 0 104 0 0 104 0 0 
119 0 0 119 0 0 119 0 0 119 0 0 119 0 0 119 0 0 119 0 0 119 0 0 119 0 0 119 0 0 153 0 0 153 0 0 153 0 0 153 0 0 153 0 0 153 0 0 153 0 0 153 0 0 153 0 0 153 0 0 153 0 0 153 0 0 153 0 0 153 0 0 153 0 0 153 0 0 153 0 0 153 0 0 153 0 0 153 0 0 148 0 0 148 0 0 148 0 0 148 0 0 148 0 0 148 0 0 148 0 0 148 0 0 148 0 0 148 0 0 131 0 0 131 0 0 131 0 0 131 0 0 131 0 0 131 0 0 131 0 0 131 0 0 131 0 0 131 0 0 112 0 0 112 0 0 112 0 0 112 0 0 112 0 0 112 0 0 112 0 0 112 0 0 112 0 0 112 0 0 94 0 0 94 0 0 94 0 0 94 0 0 94 0 0 94 0 0 94 0 0 94 0 0 94 0 0 94 0 0 44 0 0 44 0 0 44 0 0 44 0 0 44 0 0 44 0 0 44 0 0 44 0 0 44 0 0 44 0 0 22 0 0 22 0 0 22 0 0 22 0 0 22 0 0 22 0 0 22 0 0 22 0 0 22 0 0 22 0 0 28 0 0 28 0 0 28 0 0 28 0 0 28 0 0 28 0 0 28 0 0 28 0 0 28 0 0 28 0 0 4 0 0 4 0 0 4 0 0 4 0 0 4 0 0 4 0 0 4 0 0 4 0 0 4 0 0 4 0 0 21 0 0 21 0 0 21 0 0 21 0 0 21 0 0 21 0 0 21 0 0 21 0 0 21 0 0 21 0 0 115 0 0 115 0 0 115 0 0 115 0 0 115 0 0 115 0 0 115 0 0 115 0 0 115 0 0 115 0 0 230 0 0 230 0 0 230 0 0 230 0 0 230 0 0 230 0 0 230 0 0 230 0 0 230 0 0 230 0 0 255 175 0 255 175 0 255 175 0 255 175 0 255 175 0 255 175 0 255 175 0 255 175 0 255 175 0 255 175 0 255 210 0 255 210 0 255 210 0 255 210 0 255 210 0 255 210 0 255 210 0 255 210 0 255 210 0 255 210 0 255 18 0 255 18 0 255 18 0 255 18 0 255 18 0 255 18 0 255 18 0 255 18 0 255 18 0 255 18 0 126 0 0 126 0 0 126 0 0 126 0 0 126 0 0 126 0 0 126 0 0 126 0 0 126 0 0 126 0 0 65 0 0 65 0 0 65 0 0 65 0 0 65 0 0 65 0 0 65 0 0 65 0 0 65 0 0 65 0 0 44 0 0 44 0 0 44 0 0 44 0 0 44 0 0 44 0 0 44 0 0 44 0 0 44 0 0 44 0 0 21 0 0 21 0 0 21 0 0 21 0 0 21 0 0 21 0 0 21 0 0 21 0 0 21 0 0 21 0 0 32 0 0 32 0 0 32 0 0 32 0 0 32 0 0 32 0 0 32 0 0 32 0 0 32 0 0 32 0 0 89 0 0 89 0 0 89 0 0 89 0 0 89 0 0 89 0 0 89 0 0 89 0 0 89 0 0 89 0 0 109 0 0 109 0 0 109 0 0 109 0 0 109 0 0 109 0 0 109 0 0 109 0 0 109 0 0 109 0 0 93 0 0 93 0 0 93 0 0 93 0 0 93 0 0 93 0 0 93 0 0 93 0 0 93 0 0 93 0 0 118 0 0 118 0 0 118 0 0 118 0 0 118 0 0 118 0 0 118 0 0 118 0 0 118 0 0 118 0 0 141 0 0 141 0 0 141 0 0 141 0 0 141 0 0 141 0 0 141 0 0 141 0 0 141 0 0 141 0 0 133 0 0 133 0 0 133 0 0 133 0 0 133 0 0 133 0 0 133 0 0 133 0 0 133 0 0 133 0 0 0 0 0 0 0 0 0 0 0 0 0 0 0 0 0 0 0 0 0 0 0 0 0 0 0 0 0 0 0 0 100 0 0 100 0 0 100 0 0 100 0 0 100 0 0 100 0 0 100 0 0 100 0 0 100 0 0 100 0 0 100 0 0 100 0 0 100 0 0 100 0 0 100 0 0 100 0 0 100 0 0 100 0 0 100 0 0 100 0 0 100 0 0 100 0 0 100 0 0 100 0 0 100 0 0 100 0 0 100 0 0 100 0 0 100 0 0 100 0 0 
119 0 0 119 0 0 119 0 0 119 0 0 119 0 0 119 0 0 119 0 0 119 0 0 119 0 0 119 0 0 153 0 0 153 0 0 153 0 0 153 0 0 153 0 0 153 0 0 153 0 0 153 0 0 153 0 0 153 0 0 153 0 0 153 0 0 153 0 0 153 0 0 153 0 0 153 0 0 153 0 0 153 0 0 153 0 0 153 0 0 148 0 0 148 0 0 148 0 0 148 0 0 148 0 0 148 0 0 148 0 0 148 0 0 148 0 0 148 0 0 131 0 0 131 0 0 131 0 0 131 0 0 131 0 0 131 0 0 131 0 0 131 0 0 131 0 0 131 0 0 112 0 0 112 0 0 112 0 0 112 0 0 112 0 0 112 0 0 112 0 0 112 0 0 112 0 0 112 0 0 94 0 0 94 0 0 94 0 0 94 0 0 94 0 0 94 0 0 94 0 0 94 0 0 94 0 0 94 0 0 44 0 0 44 0 0 44 0 0 44 0 0 44 0 0 44 0 0 44 0 0 44 0 0 44 0 0 44 0 0 22 0 0 22 0 0 22 0 0 22 0 0 22 0 0 22 0 0 22 0 0 22 0 0 22 0 0 22 0 0 28 0 0 28 0 0 28 0 0 28 0 0 28 0 0 28 0 0 28 0 0 28 0 0 28 0 0 28 0 0 4 0 0 4 0 0 4 0 0 4 0 0 4 0 0 4 0 0 4 0 0 4 0 0 4 0 0 4 0 0 21 0 0 21 0 0 21 0 0 21 0 0 21 0 0 21 0 0 21 0 0 21 0 0 21 0 0 21 0 0 115 0 0 115 0 0 115 0 0 115 0 0 115 0 0 115 0 0 115 0 0 115 0 0 115 0 0 115 0 0 230 0 0 230 0 0 230 0 0 230 0 0 230 0 0 230 0 0 230 0 0 230 0 0 230 0 0 230 0 0 255 175 0 255 175 0 255 175 0 255 175 0 255 175 0 255 175 0 255 175 0 255 175 0 255 175 0 255 175 0 255 210 0 255 210 0 255 210 0 255 210 0 255 210 0 255 210 0 255 210 0 255 210 0 255 210 0 255 210 0 255 18 0 255 18 0 255 18 0 255 18 0 255 18 0 255 18 0 255 18 0 255 18 0 255 18 0 255 18 0 126 0 0 126 0 0 126 0 0 126 0 0 126 0 0 126 0 0 126 0 0 126 0 0 126 0 0 126 0 0 65 0 0 65 0 0 65 0 0 65 0 0 65 0 0 65 0 0 65 0 0 65 0 0 65 0 0 65 0 0 44 0 0 44 0 0 44 0 0 44 0 0 44 0 0 44 0 0 44 0 0 44 0 0 44 0 0 44 0 0 21 0 0 21 0 0 21 0 0 21 0 0 21 0 0 21 0 0 21 0 0 21 0 0 21 0 0 21 0 0 32 0 0 32 0 0 32 0 0 32 0 0 32 0 0 32 0 0 32 0 0 32 0 0 32 0 0 32 0 0 89 0 0 89 0 0 89 0 0 89 0 0 89 0 0 89 0 0 89 0 0 89 0 0 89 0 0 89 0 0 109 0 0 109 0 0 109 0 0 109 0 0 109 0 0 109 0 0 109 0 0 109 0 0 109 0 0 109 0 0 93 0 0 93 0 0 93 0 0 93 0 0 93 0 0 93 0 0 93 0 0 93 0 0 93 0 0 93 0 0 118 0 0 118 0 0 118 0 0 118 0 0 118 0 0 118 0 0 118 0 0 118 0 0 118 0 0 118 0 0 141 0 0 141 0 0 141 0 0 141 0 0 141 0 0 141 0 0 141 0 0 141 0 0 141 0 0 141 0 0 133 0 0 133 0 0 133 0 0 133 0 0 133 0 0 133 0 0 133 0 0 133 0 0 133 0 0 133 0 0 0 0 0 0 0 0 0 0 0 0 0 0 0 0 0 0 0 0 0 0 0 0 0 0 0 0 0 0 0 0 96 0 0 96 0 0 96 0 0 96 0 0 96 0 0 96 0 0 96 0 0 96 0 0 96 0 0 96 0 0 96 0 0 96 0 0 96 0 0 96 0 0 96 0 0 96 0 0 96 0 0 96 0 0 96 0 0 96 0 0 96 0 0 96 0 0 96 0 0 96 0 0 96 0 0 96 0 0 96 0 0 96 0 0 96 0 0 96 0 0 
119 0 0 119 0 0 119 0 0 119 0 0 119 0 0 119 0 0 119 0 0 119 0 0 119 0 0 119 0 0 153 0 0 153 0 0 153 0 0 153 0 0 153 0 0 153 0 0 153 0 0 153 0 0 153 0 0 153 0 0 153 0 0 153 0 0 153 0 0 153 0 0 153 0 0 153 0 0 153 0 0 153 0 0 153 0 0 153 0 0 148 0 0 148 0 0 148 0 0 148 0 0 148 0 0 148 0 0 148 0 0 148 0 0 148 0 0 148 0 0 131 0 0 131 0 0 131 0 0 131 0 0 131 0 0 131 0 0 131 0 0 131 0 0 131 0 0 131 0 0 112 0 0 112 0 0 112 0 0 112 0 0 112 0 0 112 0 0 112 0 0 112 0 0 112 0 0 112 0 0 94 0 0 94 0 0 94 0 0 94 0 0 94 0 0 94 0 0 94 0 0 94 0 0 94 0 0 94 0 0 44 0 0 44 0 0 44 0 0 44 0 0 44 0 0 44 0 0 44 0 0 44 0 0 44 0 0 44 0 0 22 0 0 22 0 0 22 0 0 22 0 0 22 0 0 22 0 0 22 0 0 22 0 0 22 0 0 22 0 0 28 0 0 28 0 0 28 0 0 28 0 0 28 0 0 28 0 0 28 0 0 28 0 0 28 0 0 28 0 0 4 0 0 4 0 0 4 0 0 4 0 0 4 0 0 4 0 0 4 0 0 4 0 0 4 0 0 4 0 0 21 0 0 21 0 0 21 0 0 21 0 0 21 0 0 21 0 0 21 0 0 21 0 0 21 0 0 21 0 0 115 0 0 115 0 0 115 0 0 115 0 0 115 0 0 115 0 0 115 0 0 115 0 0 115 0 0 115 0 0 230 0 0 230 0 0 230 0 0 230 0 0 230 0 0 230 0 0 230 0 0 230 0 0 230 0 0 230 0 0 255 175 0 255 175 0 255 175 0 255 175 0 255 175 0 255 175 0 255 175 0 255 175 0 255 175 0 255 175 0 255 210 0 255 210 0 255 210 0 255 210 0 255 210 0 255 210 0 255 210 0 255 210 0 255 210 0 255 210 0 255 18 0 255 18 0 255 18 0 255 18 0 255 18 0 255 18 0 255 18 0 255 18 0 255 18 0 255 18 0 126 0 0 126 0 0 126 0 0 126 0 0 126 0 0 126 0 0 126 0 0 126 0 0 126 0 0 126 0 0 65 0 0 65 0 0 65 0 0 65 0 0 65 0 0 65 0 0 65 0 0 65 0 0 65 0 0 65 0 0 44 0 0 44 0 0 44 0 0 44 0 0 44 0 0 44 0 0 44 0 0 44 0 0 44 0 0 44 0 0 21 0 0 21 0 0 21 0 0 21 0 0 21 0 0 21 0 0 21 0 0 21 0 0 21 0 0 21 0 0 32 0 0 32 0 0 32 0 0 32 0 0 32 0 0 32 0 0 32 0 0 32 0 0 32 0 0 32 0 0 89 0 0 89 0 0 89 0 0 89 0 0 89 0 0 89 0 0 89 0 0 89 0 0 89 0 0 89 0 0 109 0 0 109 0 0 109 0 0 109 0 0 109 0 0 109 0 0 109 0 0 109 0 0 109 0 0 109 0 0 93 0 0 93 0 0 93 0 0 93 0 0 93 0 0 93 0 0 93 0 0 93 0 0 93 0 0 93 0 0 118 0 0 118 0 0 118 0 0 118 0 0 118 0 0 118 0 0 118 0 0 118 0 0 118 0 0 118 0 0 141 0 0 141 0 0 141 0 0 141 0 0 141 0 0 141 0 0 141 0 0 141 0 0 141 0 0 141 0 0 133 0 0 133 0 0 133 0 0 133 0 0 133 0 0 133 0 0 133 0 0 133 0 0 133 0 0 133 0 0 0 0 0 0 0 0 0 0 0 0 0 0 0 0 0 0 0 0 0 0 0 0 0 0 0 0 0 0 0 0 93 0 0 93 0 0 93 0 0 93 0 0 93 0 0 93 0 0 93 0 0 93 0 0 93 0 0 93 0 0 93 0 0 93 0 0 93 0 0 93 0 0 93 0 0 93 0 0 93 0 0 93 0 0 93 0 0 93 0 0 93 0 0 93 0 0 93 0 0 93 0 0 93 0 0 93 0 0 93 0 0 93 0 0 93 0 0 93 0 0 
119 0 0 119 0 0 119 0 0 119 0 0 119 0 0 119 0 0 119 0 0 119 0 0 119 0 0 119 0 0 153 0 0 153 0 0 153 0 0 153 0 0 153 0 0 153 0 0 153 0 0 153 0 0 153 0 0 153 0 0 153 0 0 153 0 0 153 0 0 153 0 0 153 0 0 153 0 0 153 0 0 153 0 0 153 0 0 153 0 0 148 0 0 148 0 0 148 0 0 148 0 0 148 0 0 148 0 0 148 0 0 148 0 0 148 0 0 148 0 0 131 0 0 131 0 0 131 0 0 131 0 0 131 0 0 131 0 0 131 0 0 131 0 0 131 0 0 131 0 0 112 0 0 112 0 0 112 0 0 112 0 0 112 0 0 112 0 0 112 0 0 112 0 0 112 0 0 112 0 0 94 0 0 94 0 0 94 0 0 94 0 0 94 0 0 94 0 0 94 0 0 94 0 0 94 0 0 94 0 0 44 0 0 44 0 0 44 0 0 44 0 0 44 0 0 44 0 0 44 0 0 44 0 0 44 0 0 44 0 0 22 0 0 22 0 0 22 0 0 22 0 0 22 0 0 22 0 0 22 0 0 22 0 0 22 0 0 22 0 0 28 0 0 28 0 0 28 0 0 28 0 0 28 0 0 28 0 0 28 0 0 28 0 0 28 0 0 28 0 0 4 0 0 4 0 0 4 0 0 4 0 0 4 0 0 4 0 0 4 0 0 4 0 0 4 0 0 4 0 0 21 0 0 21 0 0 21 0 0 21 0 0 21 0 0 21 0 0 21 0 0 21 0 0 21 0 0 21 0 0 115 0 0 115 0 0 115 0 0 115 0 0 115 0 0 115 0 0 115 0 0 115 0 0 115 0 0 115 0 0 230 0 0 230 0 0 230 0 0 230 0 0 230 0 0 230 0 0 230 0 0 230 0 0 230 0 0 230 0 0 255 175 0 255 175 0 255 175 0 255 175 0 255 175 0 255 175 0 255 175 0 255 175 0 255 175 0 255 175 0 255 210 0 255 210 0 255 210 0 255 210 0 255 210 0 255 210 0 255 210 0 255 210 0 255 210 0 255 210 0 255 18 0 255 18 0 255 18 0 255 18 0 255 18 0 255 18 0 255 18 0 255 18 0 255 18 0 255 18 0 126 0 0 126 0 0 126 0 0 126 0 0 126 0 0 126 0 0 126 0 0 126 0 0 126 0 0 126 0 0 65 0 0 65 0 0 65 0 0 65 0 0 65 0 0 65 0 0 65 0 0 65 0 0 65 0 0 65 0 0 44 0 0 44 0 0 44 0 0 44 0 0 44 0 0 44 0 0 44 0 0 44 0 0 44 0 0 44 0 0 21 0 0 21 0 0 21 0 0 21 0 0 21 0 0 21 0 0 21 0 0 21 0 0 21 0 0 21 0 0 32 0 0 32 0 0 32 0 0 32 0 0 32 0 0 32 0 0 32 0 0 32 0 0 32 0 0 32 0 0 89 0 0 89 0 0 89 0 0 89 0 0 89 0 0 89 0 0 89 0 0 89 0 0 89 0 0 89 0 0 109 0 0 109 0 0 109 0 0 109 0 0 109 0 0 109 0 0 109 0 0 109 0 0 109 0 0 109 0 0 93 0 0 93 0 0 93 0 0 93 0 0 93 0 0 93 0 0 93 0 0 93 0 0 93 0 0 93 0 0 118 0 0 118 0 0 118 0 0 118 0 0 118 0 0 118 0 0 118 0 0 118 0 0 118 0 0 118 0 0 141 0 0 141 0 0 141 0 0 141 0 0 141 0 0 141 0 0 141 0 0 141 0 0 141 0 0 141 0 0 133 0 0 133 0 0 133 0 0 133 0 0 133 0 0 133 0 0 133 0 0 133 0 0 133 0 0 133 0 0 0 0 0 0 0 0 0 0 0 0 0 0 0 0 0 0 0 0 0 0 0 0 0 0 0 0 0 0 0 0 89 0 0 89 0 0 89 0 0 89 0 0 89 0 0 89 0 0 89 0 0 89 0 0 89 0 0 89 0 0 89 0 0 89 0 0 89 0 0 89 0 0 89 0 0 89 0 0 89 0 0 89 0 0 89 0 0 89 0 0 89 0 0 89 0 0 89 0 0 89 0 0 89 0 0 89 0 0 89 0 0 89 0 0 89 0 0 89 0 0 
119 0 0 119 0 0 119 0 0 119 0 0 119 0 0 119 0 0 119 0 0 119 0 0 119 0 0 119 0 0 153 0 0 153 0 0 153 0 0 153 0 0 153 0 0 153 0 0 153 0 0 153 0 0 153 0 0 153 0 0 153 0 0 153 0 0 153 0 0 153 0 0 153 0 0 153 0 0 153 0 0 153 0 0 153 0 0 153 0 0 148 0 0 148 0 0 148 0 0 148 0 0 148 0 0 148 0 0 148 0 0 148 0 0 148 0 0 148 0 0 131 0 0 131 0 0 131 0 0 131 0 0 131 0 0 131 0 0 131 0 0 131 0 0 131 0 0 131 0 0 112 0 0 112 0 0 112 0 0 112 0 0 112 0 0 112 0 0 112 0 0 112 0 0 112 0 0 112 0 0 94 0 0 94 0 0 94 0 0 94 0 0 94 0 0 94 0 0 94 0 0 94 0 0 94 0 0 94 0 0 44 0 0 44 0 0 44 0 0 44 0 0 44 0 0 44 0 0 44 0 0 44 0 0 44 0 0 44 0 0 22 0 0 22 0 0 22 0 0 22 0 0 22 0 0 22 0 0 22 0 0 22 0 0 22 0 0 22 0 0 28 0 0 28 0 0 28 0 0 28 0 0 28 0 0 28 0 0 28 0 0 28 0 0 28 0 0 28 0 0 4 0 0 4 0 0 4 0 0 4 0 0 4 0 0 4 0 0 4 0 0 4 0 0 4 0 0 4 0 0 21 0 0 21 0 0 21 0 0 21 0 0 21 0 0 21 0 0 21 0 0 21 0 0 21 0 0 21 0 0 115 0 0 115 0 0 115 0 0 115 0 0 115 0 0 115 0 0 115 0 0 115 0 0 115 0 0 115 0 0 230 0 0 230 0 0 230 0 0 230 0 0 230 0 0 230 0 0 230 0 0 230 0 0 230 0 0 230 0 0 255 175 0 255 175 0 255 175 0 255 175 0 255 175 0 255 175 0 255 175 0 255 175 0 255 175 0 255 175 0 255 210 0 255 210 0 255 210 0 255 210 0 255 210 0 255 210 0 255 210 0 255 210 0 255 210 0 255 210 0 255 18 0 255 18 0 255 18 0 255 18 0 255 18 0 255 18 0 255 18 0 255 18 0 255 18 0 255 18 0 126 0 0 126 0 0 126 0 0 126 0 0 126 0 0 126 0 0 126 0 0 126 0 0 126 0 0 126 0 0 65 0 0 65 0 0 65 0 0 65 0 0 65 0 0 65 0 0 65 0 0 65 0 0 65 0 0 65 0 0 44 0 0 44 0 0 44 0 0 44 0 0 44 0 0 44 0 0 44 0 0 44 0 0 44 0 0 44 0 0 21 0 0 21 0 0 21 0 0 21 0 0 21 0 0 21 0 0 21 0 0 21 0 0 21 0 0 21 0 0 32 0 0 32 0 0 32 0 0 32 0 0 32 0 0 32 0 0 32 0 0 32 0 0 32 0 0 32 0 0 89 0 0 89 0 0 89 0 0 89 0 0 89 0 0 89 0 0 89 0 0 89 0 0 89 0 0 89 0 0 109 0 0 109 0 0 109 0 0 109 0 0 109 0 0 109 0 0 109 0 0 109 0 0 109 0 0 109 0 0 93 0 0 93 0 0 93 0 0 93 0 0 93 0 0 93 0 0 93 0 0 93 0 0 93 0 0 93 0 0 118 0 0 118 0 0 118 0 0 118 0 0 118 0 0 118 0 0 118 0 0 118 0 0 118 0 0 118 0 0 141 0 0 141 0 0 141 0 0 141 0 0 141 0 0 141 0 0 141 0 0 141 0 0 141 0 0 141 0 0 133 0 0 133 0 0 133 0 0 133 0 0 133 0 0 133 0 0 133 0 0 133 0 0 133 0 0 133 0 0 0 0 0 0 0 0 0 0 0 0 0 0 0 0 0 0 0 0 0 0 0 0 0 0 0 0 0 0 0 0 85 0 0 85 0 0 85 0 0 85 0 0 85 0 0 85 0 0 85 0 0 85 0 0 85 0 0 85 0 0 85 0 0 85 0 0 85 0 0 85 0 0 85 0 0 85 0 0 85 0 0 85 0 0 85 0 0 85 0 0 85 0 0 85 0 0 85 0 0 85 0 0 85 0 0 85 0 0 85 0 0 85 0 0 85 0 0 85 0 0 
119 0 0 119 0 0 119 0 0 119 0 0 119 0 0 119 0 0 119 0 0 119 0 0 119 0 0 119 0 0 153 0 0 153 0 0 153 0 0 153 0 0 153 0 0 153 0 0 153 0 0 153 0 0 153 0 0 153 0 0 153 0 0 153 0 0 153 0 0 153 0 0 153 0 0 153 0 0 153 0 0 153 0 0 153 0 0 153 0 0 148 0 0 148 0 0 148 0 0 148 0 0 148 0 0 148 0 0 148 0 0 148 0 0 148 0 0 148 0 0 131 0 0 131 0 0 131 0 0 131 0 0 131 0 0 131 0 0 131 0 0 131 0 0 131 0 0 131 0 0 112 0 0 112 0 0 112 0 0 112 0 0 112 0 0 112 0 0 112 0 0 112 0 0 112 0 0 112 0 0 94 0 0 94 0 0 94 0 0 94 0 0 94 0 0 94 0 0 94 0 0 94 0 0 94 0 0 94 0 0 44 0 0 44 0 0 44 0 0 44 0 0 44 0 0 44 0 0 44 0 0 44 0 0 44 0 0 44 0 0 22 0 0 22 0 0 22 0 0 22 0 0 22 0 0 22 0 0 22 0 0 22 0 0 22 0 0 22 0 0 28 0 0 28 0 0 28 0 0 28 0 0 28 0 0 28 0 0 28 0 0 28 0 0 28 0 0 28 0 0 4 0 0 4 0 0 4 0 0 4 0 0 4 0 0 4 0 0 4 0 0 4 0 0 4 0 0 4 0 0 21 0 0 21 0 0 21 0 0 21 0 0 21 0 0 21 0 0 21 0 0 21 0 0 21 0 0 21 0 0 115 0 0 115 0 0 115 0 0 115 0 0 115 0 0 115 0 0 115 0 0 115 0 0 115 0 0 115 0 0 230 0 0 230 0 0 230 0 0 230 0 0 230 0 0 230 0 0 230 0 0 230 0 0 230 0 0 230 0 0 255 175 0 255 175 0 255 175 0 255 175 0 255 175 0 255 175 0 255 175 0 255 175 0 255 175 0 255 175 0 255 210 0 255 210 0 255 210 0 255 210 0 255 210 0 255 210 0 255 210 0 255 210 0 255 210 0 255 210 0 255 18 0 255 18 0 255 18 0 255 18 0 255 18 0 255 18 0 255 18 0 255 18 0 255 18 0 255 18 0 126 0 0 126 0 0 126 0 0 126 0 0 126 0 0 126 0 0 126 0 0 126 0 0 126 0 0 126 0 0 65 0 0 65 0 0 65 0 0 65 0 0 65 0 0 65 0 0 65 0 0 65 0 0 65 0 0 65 0 0 44 0 0 44 0 0 44 0 0 44 0 0 44 0 0 44 0 0 44 0 0 44 0 0 44 0 0 44 0 0 21 0 0 21 0 0 21 0 0 21 0 0 21 0 0 21 0 0 21 0 0 21 0 0 21 0 0 21 0 0 32 0 0 32 0 0 32 0 0 32 0 0 32 0 0 32 0 0 32 0 0 32 0 0 32 0 0 32 0 0 89 0 0 89 0 0 89 0 0 89 0 0 89 0 0 89 0 0 89 0 0 89 0 0 89 0 0 89 0 0 109 0 0 109 0 0 109 0 0 109 0 0 109 0 0 109 0 0 109 0 0 109 0 0 109 0 0 109 0 0 93 0 0 93 0 0 93 0 0 93 0 0 93 0 0 93 0 0 93 0 0 93 0 0 93 0 0 93 0 0 118 0 0 118 0 0 118 0 0 118 0 0 118 0 0 118 0 0 118 0 0 118 0 0 118 0 0 118 0 0 141 0 0 141 0 0 141 0 0 141 0 0 141 0 0 141 0 0 141 0 0 141 0 0 141 0 0 141 0 0 133 0 0 133 0 0 133 0 0 133 0 0 133 0 0 133 0 0 133 0 0 133 0 0 133 0 0 133 0 0 0 0 0 0 0 0 0 0 0 0 0 0 0 0 0 0 0 0 0 0 0 0 0 0 0 0 0 0 0 0 82 0 0 82 0 0 82 0 0 82 0 0 82 0 0 82 0 0 82 0 0 82 0 0 82 0 0 82 0 0 82 0 0 82 0 0 82 0 0 82 0 0 82 0 0 82 0 0 82 0 0 82 0 0 82 0 0 82 0 0 82 0 0 82 0 0 82 0 0 82 0 0 82 0 0 82 0 0 82 0 0 82 0 0 82 0 0 82 0 0 
119 0 0 119 0 0 119 0 0 119 0 0 119 0 0 119 0 0 119 0 0 119 0 0 119 0 0 119 0 0 153 0 0 153 0 0 153 0 0 153 0 0 153 0 0 153 0 0 153 0 0 153 0 0 153 0 0 153 0 0 153 0 0 153 0 0 153 0 0 153 0 0 153 0 0 153 0 0 153 0 0 153 0 0 153 0 0 153 0 0 148 0 0 148 0 0 148 0 0 148 0 0 148 0 0 148 0 0 148 0 0 148 0 0 148 0 0 148 0 0 131 0 0 131 0 0 131 0 0 131 0 0 131 0 0 131 0 0 131 0 0 131 0 0 131 0 0 131 0 0 112 0 0 112 0 0 112 0 0 112 0 0 112 0 0 112 0 0 112 0 0 112 0 0 112 0 0 112 0 0 94 0 0 94 0 0 94 0 0 94 0 0 94 0 0 94 0 0 94 0 0 94 0 0 94 0 0 94 0 0 44 0 0 44 0 0 44 0 0 44 0 0 44 0 0 44 0 0 44 0 0 44 0 0 44 0 0 44 0 0 22 0 0 22 0 0 22 0 0 22 0 0 22 0 0 22 0 0 22 0 0 22 0 0 22 0 0 22 0 0 28 0 0 28 0 0 28 0 0 28 0 0 28 0 0 28 0 0 28 0 0 28 0 0 28 0 0 28 0 0 4 0 0 4 0 0 4 0 0 4 0 0 4 0 0 4 0 0 4 0 0 4 0 0 4 0 0 4 0 0 21 0 0 21 0 0 21 0 0 21 0 0 21 0 0 21 0 0 21 0 0 21 0 0 21 0 0 21 0 0 115 0 0 115 0 0 115 0 0 115 0 0 115 0 0 115 0 0 115 0 0 115 0 0 115 0 0 115 0 0 230 0 0 230 0 0 230 0 0 230 0 0 230 0 0 230 0 0 230 0 0 230 0 0 230 0 0 230 0 0 255 175 0 255 175 0 255 175 0 255 175 0 255 175 0 255 175 0 255 175 0 255 175 0 255 175 0 255 175 0 255 210 0 255 210 0 255 210 0 255 210 0 255 210 0 255 210 0 255 210 0 255 210 0 255 210 0 255 210 0 255 18 0 255 18 0 255 18 0 255 18 0 255 18 0 255 18 0 255 18 0 255 18 0 255 18 0 255 18 0 126 0 0 126 0 0 126 0 0 126 0 0 126 0 0 126 0 0 126 0 0 126 0 0 126 0 0 126 0 0 65 0 0 65 0 0 65 0 0 65 0 0 65 0 0 65 0 0 65 0 0 65 0 0 65 0 0 65 0 0 44 0 0 44 0 0 44 0 0 44 0 0 44 0 0 44 0 0 44 0 0 44 0 0 44 0 0 44 0 0 21 0 0 21 0 0 21 0 0 21 0 0 21 0 0 21 0 0 21 0 0 21 0 0 21 0 0 21 0 0 32 0 0 32 0 0 32 0 0 32 0 0 32 0 0 32 0 0 32 0 0 32 0 0 32 0 0 32 0 0 89 0 0 89 0 0 89 0 0 89 0 0 89 0 0 89 0 0 89 0 0 89 0 0 89 0 0 89 0 0 109 0 0 109 0 0 109 0 0 109 0 0 109 0 0 109 0 0 109 0 0 109 0 0 109 0 0 109 0 0 93 0 0 93 0 0 93 0 0 93 0 0 93 0 0 93 0 0 93 0 0 93 0 0 93 0 0 93 0 0 118 0 0 118 0 0 118 0 0 118 0 0 118 0 0 118 0 0 118 0 0 118 0 0 118 0 0 118 0 0 141 0 0 141 0 0 141 0 0 141 0 0 141 0 0 141 0 0 141 0 0 141 0 0 141 0 0 141 0 0 133 0 0 133 0 0 133 0 0 133 0 0 133 0 0 133 0 0 133 0 0 133 0 0 133 0 0 133 0 0 0 0 0 0 0 0 0 0 0 0 0 0 0 0 0 0 0 0 0 0 0 0 0 0 0 0 0 0 0 0 78 0 0 78 0 0 78 0 0 78 0 0 78 0 0 78 0 0 78 0 0 78 0 0 78 0 0 78 0 0 78 0 0 78 0 0 78 0 0 78 0 0 78 0 0 78 0 0 78 0 0 78 0 0 78 0 0 78 0 0 78 0 0 78 0 0 78 0 0 78 0 0 78 0 0 78 0 0 78 0 0 78 0 0 78 0 0 78 0 0 
119 0 0 119 0 0 119 0 0 119 0 0 119 0 0 119 0 0 119 0 0 119 0 0 119 0 0 119 0 0 153 0 0 153 0 0 153 0 0 153 0 0 153 0 0 153 0 0 153 0 0 153 0 0 153 0 0 153 0 0 153 0 0 153 0 0 153 0 0 153 0 0 153 0 0 153 0 0 153 0 0 153 0 0 153 0 0 153 0 0 148 0 0 148 0 0 148 0 0 148 0 0 148 0 0 148 0 0 148 0 0 148 0 0 148 0 0 148 0 0 131 0 0 131 0 0 131 0 0 131 0 0 131 0 0 131 0 0 131 0 0 131 0 0 131 0 0 131 0 0 112 0 0 112 0 0 112 0 0 112 0 0 112 0 0 112 0 0 112 0 0 112 0 0 112 0 0 112 0 0 94 0 0 94 0 0 94 0 0 94 0 0 94 0 0 94 0 0 94 0 0 94 0 0 94 0 0 94 0 0 44 0 0 44 0 0 44 0 0 44 0 0 44 0 0 44 0 0 44 0 0 44 0 0 44 0 0 44 0 0 22 0 0 22 0 0 22 0 0 22 0 0 22 0 0 22 0 0 22 0 0 22 0 0 22 0 0 22 0 0 28 0 0 28 0 0 28 0 0 28 0 0 28 0 0 28 0 0 28 0 0 28 0 0 28 0 0 28 0 0 4 0 0 4 0 0 4 0 0 4 0 0 4 0 0 4 0 0 4 0 0 4 0 0 4 0 0 4 0 0 21 0 0 21 0 0 21 0 0 21 0 0 21 0 0 21 0 0 21 0 0 21 0 0 21 0 0 21 0 0 115 0 0 115 0 0 115 0 0 115 0 0 115 0 0 115 0 0 115 0 0 115 0 0 115 0 0 115 0 0 230 0 0 230 0 0 230 0 0 230 0 0 230 0 0 230 0 0 230 0 0 230 0 0 230 0 0 230 0 0 255 175 0 255 175 0 255 175 0 255 175 0 255 175 0 255 175 0 255 175 0 255 175 0 255 175 0 255 175 0 255 210 0 255 210 0 255 210 0 255 210 0 255 210 0 255 210 0 255 210 0 255 210 0 255 210 0 255 210 0 255 18 0 255 18 0 255 18 0 255 18 0 255 18 0 255 18 0 255 18 0 255 18 0 255 18 0 255 18 0 126 0 0 126 0 0 126 0 0 126 0 0 126 0 0 126 0 0 126 0 0 126 0 0 126 0 0 126 0 0 65 0 0 65 0 0 65 0 0 65 0 0 65 0 0 65 0 0 65 0 0 65 0 0 65 0 0 65 0 0 44 0 0 44 0 0 44 0 0 44 0 0 44 0 0 44 0 0 44 0 0 44 0 0 44 0 0 44 0 0 21 0 0 21 0 0 21 0 0 21 0 0 21 0 0 21 0 0 21 0 0 21 0 0 21 0 0 21 0 0 32 0 0 32 0 0 32 0 0 32 0 0 32 0 0 32 0 0 32 0 0 32 0 0 32 0 0 32 0 0 89 0 0 89 0 0 89 0 0 89 0 0 89 0 0 89 0 0 89 0 0 89 0 0 89 0 0 89 0 0 109 0 0 109 0 0 109 0 0 109 0 0 109 0 0 109 0 0 109 0 0 109 0 0 109 0 0 109 0 0 93 0 0 93 0 0 93 0 0 93 0 0 93 0 0 93 0 0 93 0 0 93 0 0 93 0 0 93 0 0 118 0 0 118 0 0 118 0 0 118 0 0 118 0 0 118 0 0 118 0 0 118 0 0 118 0 0 118 0 0 141 0 0 141 0 0 141 0 0 141 0 0 141 0 0 141 0 0 141 0 0 141 0 0 141 0 0 141 0 0 133 0 0 133 0 0 133 0 0 133 0 0 133 0 0 133 0 0 133 0 0 133 0 0 133 0 0 133 0 0 0 0 0 0 0 0 0 0 0 0 0 0 0 0 0 0 0 0 0 0 0 0 0 0 0 0 0 0 0 0 74 0 0 74 0 0 74 0 0 74 0 0 74 0 0 74 0 0 74 0 0 74 0 0 74 0 0 74 0 0 74 0 0 74 0 0 74 0 0 74 0 0 74 0 0 74 0 0 74 0 0 74 0 0 74 0 0 74 0 0 74 0 0 74 0 0 74 0 0 74 0 0 74 0 0 74 0 0 74 0 0 74 0 0 74 0 0 74 0 0 
117 0 0 117 0 0 117 0 0 117 0 0 117 0 0 117 0 0 117 0 0 117 0 0 117 0 0 117 0 0 123 0 0 123 0 0 123 0 0 123 0 0 123 0 0 123 0 0 123 0 0 123 0 0 123 0 0 123 0 0 127 0 0 127 0 0 127 0 0 127 0 0 127 0 0 127 0 0 127 0 0 127 0 0 127 0 0 127 0 0 114 0 0 114 0 0 114 0 0 114 0 0 114 0 0 114 0 0 114 0 0 114 0 0 114 0 0 114 0 0 108 0 0 108 0 0 108 0 0 108 0 0 108 0 0 108 0 0 108 0 0 108 0 0 108 0 0 108 0 0 126 0 0 126 0 0 126 0 0 126 0 0 126 0 0 126 0 0 126 0 0 126 0 0 126 0 0 126 0 0 79 0 0 79 0 0 79 0 0 79 0 0 79 0 0 79 0 0 79 0 0 79 0 0 79 0 0 79 0 0 63 0 0 63 0 0 63 0 0 63 0 0 63 0 0 63 0 0 63 0 0 63 0 0 63 0 0 63 0 0 44 0 0 44 0 0 44 0 0 44 0 0 44 0 0 44 0 0 44 0 0 44 0 0 44 0 0 44 0 0 32 0 0 32 0 0 32 0 0 32 0 0 32 0 0 32 0 0 32 0 0 32 0 0 32 0 0 32 0 0 0 0 31 0 0 31 0 0 31 0 0 31 0 0 31 0 0 31 0 0 31 0 0 31 0 0 31 0 0 31 0 0 51 0 0 51 0 0 51 0 0 51 0 0 51 0 0 51 0 0 51 0 0 51 0 0 51 0 0 51 77 0 0 77 0 0 77 0 0 77 0 0 77 0 0 77 0 0 77 0 0 77 0 0 77 0 0 77 0 0 255 3 0 255 3 0 255 3 0 255 3 0 255 3 0 255 3 0 255 3 0 255 3 0 255 3 0 255 3 0 255 230 0 255 230 0 255 230 0 255 230 0 255 230 0 255 230 0 255 230 0 255 230 0 255 230 0 255 230 0 255 167 0 255 167 0 255 167 0 255 167 0 255 167 0 255 167 0 255 167 0 255 167 0 255 167 0 255 167 0 206 0 0 206 0 0 206 0 0 206 0 0 206 0 0 206 0 0 206 0 0 206 0 0 206 0 0 206 0 0 144 0 0 144 0 0 144 0 0 144 0 0 144 0 0 144 0 0 144 0 0 144 0 0 144 0 0 144 0 0 37 0 0 37 0 0 37 0 0 37 0 0 37 0 0 37 0 0 37 0 0 37 0 0 37 0 0 37 0 0 18 0 0 18 0 0 18 0 0 18 0 0 18 0 0 18 0 0 18 0 0 18 0 0 18 0 0 18 0 0 14 0 0 14 0 0 14 0 0 14 0 0 14 0 0 14 0 0 14 0 0 14 0 0 14 0 0 14 0 0 87 0 0 87 0 0 87 0 0 87 0 0 87 0 0 87 0 0 87 0 0 87 0 0 87 0 0 87 0 0 94 0 0 94 0 0 94 0 0 94 0 0 94 0 0 94 0 0 94 0 0 94 0 0 94 0 0 94 0 0 113 0 0 113 0 0 113 0 0 113 0 0 113 0 0 113 0 0 113 0 0 113 0 0 113 0 0 113 0 0 139 0 0 139 0 0 139 0 0 139 0 0 139 0 0 139 0 0 139 0 0 139 0 0 139 0 0 139 0 0 107 0 0 107 0 0 107 0 0 107 0 0 107 0 0 107 0 0 107 0 0 107 0 0 107 0 0 107 0 0 134 0 0 134 0 0 134 0 0 134 0 0 134 0 0 134 0 0 134 0 0 134 0 0 134 0 0 134 0 0 132 0 0 132 0 0 132 0 0 132 0 0 132 0 0 132 0 0 132 0 0 132 0 0 132 0 0 132 0 0 0 0 0 0 0 0 0 0 0 0 0 0 0 0 0 0 0 0 0 0 0 0 0 0 0 0 0 0 0 0 71 0 0 71 0 0 71 0 0 71 0 0 71 0 0 71 0 0 71 0 0 71 0 0 71 0 0 71 0 0 71 0 0 71 0 0 71 0 0 71 0 0 71 0 0 71 0 0 71 0 0 71 0 0 71 0 0 71 0 0 71 0 0 71 0 0 71 0 0 71 0 0 71 0 0 71 0 0 71 0 0 71 0 0 71 0 0 71 0 0 
117 0 0 117 0 0 117 0 0 117 0 0 117 0 0 117 0 0 117 0 0 117 0 0 117 0 0 117 0 0 123 0 0 123 0 0 123 0 0 123 0 0 123 0 0 123 0 0 123 0 0 123 0 0 123 0 0 123 0 0 127 0 0 127 0 0 127 0 0 127 0 0 127 0 0 127 0 0 127 0 0 127 0 0 127 0 0 127 0 0 114 0 0 114 0 0 114 0 0 114 0 0 114 0 0 114 0 0 114 0 0 114 0 0 114 0 0 114 0 0 108 0 0 108 0 0 108 0 0 108 0 0 108 0 0 108 0 0 108 0 0 108 0 0 108 0 0 108 0 0 126 0 0 126 0 0 126 0 0 126 0 0 126 0 0 126 0 0 126 0 0 126 0 0 126 0 0 126 0 0 79 0 0 79 0 0 79 0 0 79 0 0 79 0 0 79 0 0 79 0 0 79 0 0 79 0 0 79 0 0 63 0 0 63 0 0 63 0 0 63 0 0 63 0 0 63 0 0 63 0 0 63 0 0 63 0 0 63 0 0 44 0 0 44 0 0 44 0 0 44 0 0 44 0 0 44 0 0 44 0 0 44 0 0 44 0 0 44 0 0 32 0 0 32 0 0 32 0 0 32 0 0 32 0 0 32 0 0 32 0 0 32 0 0 32 0 0 32 0 0 0 0 31 0 0 31 0 0 31 0 0 31 0 0 31 0 0 31 0 0 31 0 0 31 0 0 31 0 0 31 0 0 51 0 0 51 0 0 51 0 0 51 0 0 51 0 0 51 0 0 51 0 0 51 0 0 51 0 0 51 77 0 0 77 0 0 77 0 0 77 0 0 77 0 0 77 0 0 77 0 0 77 0 0 77 0 0 77 0 0 255 3 0 255 3 0 255 3 0 255 3 0 255 3 0 255 3 0 255 3 0 255 3 0 255 3 0 255 3 0 255 230 0 255 230 0 255 230 0 255 230 0 255 230 0 255 230 0 255 230 0 255 230 0 255 230 0 255 230 0 255 167 0 255 167 0 255 167 0 255 167 0 255 167 0 255 167 0 255 167 0 255 167 0 255 167 0 255 167 0 206 0 0 206 0 0 206 0 0 206 0 0 206 0 0 206 0 0 206 0 0 206 0 0 206 0 0 206 0 0 144 0 0 144 0 0 144 0 0 144 0 0 144 0 0 144 0 0 144 0 0 144 0 0 144 0 0 144 0 0 37 0 0 37 0 0 37 0 0 37 0 0 37 0 0 37 0 0 37 0 0 37 0 0 37 0 0 37 0 0 18 0 0 18 0 0 18 0 0 18 0 0 18 0 0 18 0 0 18 0 0 18 0 0 18 0 0 18 0 0 14 0 0 14 0 0 14 0 0 14 0 0 14 0 0 14 0 0 14 0 0 14 0 0 14 0 0 14 0 0 87 0 0 87 0 0 87 0 0 87 0 0 87 0 0 87 0 0 87 0 0 87 0 0 87 0 0 87 0 0 94 0 0 94 0 0 94 0 0 94 0 0 94 0 0 94 0 0 94 0 0 94 0 0 94 0 0 94 0 0 113 0 0 113 0 0 113 0 0 113 0 0 113 0 0 113 0 0 113 0 0 113 0 0 113 0 0 113 0 0 139 0 0 139 0 0 139 0 0 139 0 0 139 0 0 139 0 0 139 0 0 139 0 0 139 0 0 139 0 0 107 0 0 107 0 0 107 0 0 107 0 0 107 0 0 107 0 0 107 0 0 107 0 0 107 0 0 107 0 0 134 0 0 134 0 0 134 0 0 134 0 0 134 0 0 134 0 0 134 0 0 134 0 0 134 0 0 134 0 0 132 0 0 132 0 0 132 0 0 132 0 0 132 0 0 132 0 0 132 0 0 132 0 0 132 0 0 132 0 0 0 0 0 0 0 0 0 0 0 0 0 0 0 0 0 0 0 0 0 0 0 0 0 0 0 0 0 0 0 0 67 0 0 67 0 0 67 0 0 67 0 0 67 0 0 67 0 0 67 0 0 67 0 0 67 0 0 67 0 0 67 0 0 67 0 0 67 0 0 67 0 0 67 0 0 67 0 0 67 0 0 67 0 0 67 0 0 67 0 0 67 0 0 67 0 0 67 0 0 67 0 0 67 0 0 67 0 0 67 0 0 67 0 0 67 0 0 67 0 0 
117 0 0 117 0 0 117 0 0 117 0 0 117 0 0 117 0 0 117 0 0 117 0 0 117 0 0 117 0 0 123 0 0 123 0 0 123 0 0 123 0 0 123 0 0 123 0 0 123 0 0 123 0 0 123 0 0 123 0 0 127 0 0 127 0 0 127 0 0 127 0 0 127 0 0 127 0 0 127 0 0 127 0 0 127 0 0 127 0 0 114 0 0 114 0 0 114 0 0 114 0 0 114 0 0 114 0 0 114 0 0 114 0 0 114 0 0 114 0 0 108 0 0 108 0 0 108 0 0 108 0 0 108 0 0 108 0 0 108 0 0 108 0 0 108 0 0 108 0 0 126 0 0 126 0 0 126 0 0 126 0 0 126 0 0 126 0 0 126 0 0 126 0 0 126 0 0 126 0 0 79 0 0 79 0 0 79 0 0 79 0 0 79 0 0 79 0 0 79 0 0 79 0 0 79 0 0 79 0 0 63 0 0 63 0 0 63 0 0 63 0 0 63 0 0 63 0 0 63 0 0 63 0 0 63 0 0 63 0 0 44 0 0 44 0 0 44 0 0 44 0 0 44 0 0 44 0 0 44 0 0 44 0 0 44 0 0 44 0 0 32 0 0 32 0 0 32 0 0 32 0 0 32 0 0 32 0 0 32 0 0 32 0 0 32 0 0 32 0 0 0 0 31 0 0 31 0 0 31 0 0 31 0 0 31 0 0 31 0 0 31 0 0 31 0 0 31 0 0 31 0 0 51 0 0 51 0 0 51 0 0 51 0 0 51 0 0 51 0 0 51 0 0 51 0 0 51 0 0 51 77 0 0 77 0 0 77 0 0 77 0 0 77 0 0 77 0 0 77 0 0 77 0 0 77 0 0 77 0 0 255 3 0 255 3 0 255 3 0 255 3 0 255 3 0 255 3 0 255 3 0 255 3 0 255 3 0 255 3 0 255 230 0 255 230 0 255 230 0 255 230 0 255 230 0 255 230 0 255 230 0 255 230 0 255 230 0 255 230 0 255 167 0 255 167 0 255 167 0 255 167 0 255 167 0 255 167 0 255 167 0 255 167 0 255 167 0 255 167 0 206 0 0 206 0 0 206 0 0 206 0 0 206 0 0 206 0 0 206 0 0 206 0 0 206 0 0 206 0 0 144 0 0 144 0 0 144 0 0 144 0 0 144 0 0 144 0 0 144 0 0 144 0 0 144 0 0 144 0 0 37 0 0 37 0 0 37 0 0 37 0 0 37 0 0 37 0 0 37 0 0 37 0 0 37 0 0 37 0 0 18 0 0 18 0 0 18 0 0 18 0 0 18 0 0 18 0 0 18 0 0 18 0 0 18 0 0 18 0 0 14 0 0 14 0 0 14 0 0 14 0 0 14 0 0 14 0 0 14 0 0 14 0 0 14 0 0 14 0 0 87 0 0 87 0 0 87 0 0 87 0 0 87 0 0 87 0 0 87 0 0 87 0 0 87 0 0 87 0 0 94 0 0 94 0 0 94 0 0 94 0 0 94 0 0 94 0 0 94 0 0 94 0 0 94 0 0 94 0 0 113 0 0 113 0 0 113 0 0 113 0 0 113 0 0 113 0 0 113 0 0 113 0 0 113 0 0 113 0 0 139 0 0 139 0 0 139 0 0 139 0 0 139 0 0 139 0 0 139 0 0 139 0 0 139 0 0 139 0 0 107 0 0 107 0 0 107 0 0 107 0 0 107 0 0 107 0 0 107 0 0 107 0 0 107 0 0 107 0 0 134 0 0 134 0 0 134 0 0 134 0 0 134 0 0 134 0 0 134 0 0 134 0 0 134 0 0 134 0 0 132 0 0 132 0 0 132 0 0 132 0 0 132 0 0 132 0 0 132 0 0 132 0 0 132 0 0 132 0 0 0 0 0 0 0 0 0 0 0 0 0 0 0 0 0 0 0 0 0 0 0 0 0 0 0 0 0 0 0 0 63 0 0 63 0 0 63 0 0 63 0 0 63 0 0 63 0 0 63 0 0 63 0 0 63 0 0 63 0 0 63 0 0 63 0 0 63 0 0 63 0 0 63 0 0 63 0 0 63 0 0 63 0 0 63 0 0 63 0 0 63 0 0 63 0 0 63 0 0 63 0 0 63 0 0 63 0 0 63 0 0 63 0 0 63 0 0 63 0 0 
117 0 0 117 0 0 117 0 0 117 0 0 117 0 0 117 0 0 117 0 0 117 0 0 117 0 0 117 0 0 123 0 0 123 0 0 123 0 0 123 0 0 123 0 0 123 0 0 123 0 0 123 0 0 123 0 0 123 0 0 127 0 0 127 0 0 127 0 0 127 0 0 127 0 0 127 0 0 127 0 0 127 0 0 127 0 0 127 0 0 114 0 0 114 0 0 114 0 0 114 0 0 114 0 0 114 0 0 114 0 0 114 0 0 114 0 0 114 0 0 108 0 0 108 0 0 108 0 0 108 0 0 108 0 0 108 0 0 108 0 0 108 0 0 108 0 0 108 0 0 126 0 0 126 0 0 126 0 0 126 0 0 126 0 0 126 0 0 126 0 0 126 0 0 126 0 0 126 0 0 79 0 0 79 0 0 79 0 0 79 0 0 79 0 0 79 0 0 79 0 0 79 0 0 79 0 0 79 0 0 63 0 0 63 0 0 63 0 0 63 0 0 63 0 0 63 0 0 63 0 0 63 0 0 63 0 0 63 0 0 44 0 0 44 0 0 44 0 0 44 0 0 44 0 0 44 0 0 44 0 0 44 0 0 44 0 0 44 0 0 32 0 0 32 0 0 32 0 0 32 0 0 32 0 0 32 0 0 32 0 0 32 0 0 32 0 0 32 0 0 0 0 31 0 0 31 0 0 31 0 0 31 0 0 31 0 0 31 0 0 31 0 0 31 0 0 31 0 0 31 0 0 51 0 0 51 0 0 51 0 0 51 0 0 51 0 0 51 0 0 51 0 0 51 0 0 51 0 0 51 77 0 0 77 0 0 77 0 0 77 0 0 77 0 0 77 0 0 77 0 0 77 0 0 77 0 0 77 0 0 255 3 0 255 3 0 255 3 0 255 3 0 255 3 0 255 3 0 255 3 0 255 3 0 255 3 0 255 3 0 255 230 0 255 230 0 255 230 0 255 230 0 255 230 0 255 230 0 255 230 0 255 230 0 255 230 0 255 230 0 255 167 0 255 167 0 255 167 0 255 167 0 255 167 0 255 167 0 255 167 0 255 167 0 255 167 0 255 167 0 206 0 0 206 0 0 206 0 0 206 0 0 206 0 0 206 0 0 206 0 0 206 0 0 206 0 0 206 0 0 144 0 0 144 0 0 144 0 0 144 0 0 144 0 0 144 0 0 144 0 0 144 0 0 144 0 0 144 0 0 37 0 0 37 0 0 37 0 0 37 0 0 37 0 0 37 0 0 37 0 0 37 0 0 37 0 0 37 0 0 18 0 0 18 0 0 18 0 0 18 0 0 18 0 0 18 0 0 18 0 0 18 0 0 18 0 0 18 0 0 14 0 0 14 0 0 14 0 0 14 0 0 14 0 0 14 0 0 14 0 0 14 0 0 14 0 0 14 0 0 87 0 0 87 0 0 87 0 0 87 0 0 87 0 0 87 0 0 87 0 0 87 0 0 87 0 0 87 0 0 94 0 0 94 0 0 94 0 0 94 0 0 94 0 0 94 0 0 94 0 0 94 0 0 94 0 0 94 0 0 113 0 0 113 0 0 113 0 0 113 0 0 113 0 0 113 0 0 113 0 0 113 0 0 113 0 0 113 0 0 139 0 0 139 0 0 139 0 0 139 0 0 139 0 0 139 0 0 139 0 0 139 0 0 139 0 0 139 0 0 107 0 0 107 0 0 107 0 0 107 0 0 107 0 0 107 0 0 107 0 0 107 0 0 107 0 0 107 0 0 134 0 0 134 0 0 134 0 0 134 0 0 134 0 0 134 0 0 134 0 0 134 0 0 134 0 0 134 0 0 132 0 0 132 0 0 132 0 0 132 0 0 132 0 0 132 0 0 132 0 0 132 0 0 132 0 0 132 0 0 0 0 0 0 0 0 0 0 0 0 0 0 0 0 0 0 0 0 0 0 0 0 0 0 0 0 0 0 0 0 60 0 0 60 0 0 60 0 0 60 0 0 60 0 0 60 0 0 60 0 0 60 0 0 60 0 0 60 0 0 60 0 0 60 0 0 60 0 0 60 0 0 60 0 0 60 0 0 60 0 0 60 0 0 60 0 0 60 0 0 60 0 0 60 0 0 60 0 0 60 0 0 60 0 0 60 0 0 60 0 0 60 0 0 60 0 0 60 0 0 
117 0 0 117 0 0 117 0 0 117 0 0 117 0 0 117 0 0 117 0 0 117 0 0 117 0 0 117 0 0 123 0 0 123 0 0 123 0 0 123 0 0 123 0 0 123 0 0 123 0 0 123 0 0 123 0 0 123 0 0 127 0 0 127 0 0 127 0 0 127 0 0 127 0 0 127 0 0 127 0 0 127 0 0 127 0 0 127 0 0 114 0 0 114 0 0 114 0 0 114 0 0 114 0 0 114 0 0 114 0 0 114 0 0 114 0 0 114 0 0 108 0 0 108 0 0 108 0 0 108 0 0 108 0 0 108 0 0 108 0 0 108 0 0 108 0 0 108 0 0 126 0 0 126 0 0 126 0 0 126 0 0 126 0 0 126 0 0 126 0 0 126 0 0 126 0 0 126 0 0 79 0 0 79 0 0 79 0 0 79 0 0 79 0 0 79 0 0 79 0 0 79 0 0 79 0 0 79 0 0 63 0 0 63 0 0 63 0 0 63 0 0 63 0 0 63 0 0 63 0 0 63 0 0 63 0 0 63 0 0 44 0 0 44 0 0 44 0 0 44 0 0 44 0 0 44 0 0 44 0 0 44 0 0 44 0 0 44 0 0 32 0 0 32 0 0 32 0 0 32 0 0 32 0 0 32 0 0 32 0 0 32 0 0 32 0 0 32 0 0 0 0 31 0 0 31 0 0 31 0 0 31 0 0 31 0 0 31 0 0 31 0 0 31 0 0 31 0 0 31 0 0 51 0 0 51 0 0 51 0 0 51 0 0 51 0 0 51 0 0 51 0 0 51 0 0 51 0 0 51 77 0 0 77 0 0 77 0 0 77 0 0 77 0 0 77 0 0 77 0 0 77 0 0 77 0 0 77 0 0 255 3 0 255 3 0 255 3 0 255 3 0 255 3 0 255 3 0 255 3 0 255 3 0 255 3 0 255 3 0 255 230 0 255 230 0 255 230 0 255 230 0 255 230 0 255 230 0 255 230 0 255 230 0 255 230 0 255 230 0 255 167 0 255 167 0 255 167 0 255 167 0 255 167 0 255 167 0 255 167 0 255 167 0 255 167 0 255 167 0 206 0 0 206 0 0 206 0 0 206 0 0 206 0 0 206 0 0 206 0 0 206 0 0 206 0 0 206 0 0 144 0 0 144 0 0 144 0 0 144 0 0 144 0 0 144 0 0 144 0 0 144 0 0 144 0 0 144 0 0 37 0 0 37 0 0 37 0 0 37 0 0 37 0 0 37 0 0 37 0 0 37 0 0 37 0 0 37 0 0 18 0 0 18 0 0 18 0 0 18 0 0 18 0 0 18 0 0 18 0 0 18 0 0 18 0 0 18 0 0 14 0 0 14 0 0 14 0 0 14 0 0 14 0 0 14 0 0 14 0 0 14 0 0 14 0 0 14 0 0 87 0 0 87 0 0 87 0 0 87 0 0 87 0 0 87 0 0 87 0 0 87 0 0 87 0 0 87 0 0 94 0 0 94 0 0 94 0 0 94 0 0 94 0 0 94 0 0 94 0 0 94 0 0 94 0 0 94 0 0 113 0 0 113 0 0 113 0 0 113 0 0 113 0 0 113 0 0 113 0 0 113 0 0 113 0 0 113 0 0 139 0 0 139 0 0 139 0 0 139 0 0 139 0 0 139 0 0 139 0 0 139 0 0 139 0 0 139 0 0 107 0 0 107 0 0 107 0 0 107 0 0 107 0 0 107 0 0 107 0 0 107 0 0 107 0 0 107 0 0 134 0 0 134 0 0 134 0 0 134 0 0 134 0 0 134 0 0 134 0 0 134 0 0 134 0 0 134 0 0 132 0 0 132 0 0 132 0 0 132 0 0 132 0 0 132 0 0 132 0 0 132 0 0 132 0 0 132 0 0 0 0 0 0 0 0 0 0 0 0 0 0 0 0 0 0 0 0 0 0 0 0 0 0 0 0 0 0 0 0 56 0 0 56 0 0 56 0 0 56 0 0 56 0 0 56 0 0 56 0 0 56 0 0 56 0 0 56 0 0 56 0 0 56 0 0 56 0 0 56 0 0 56 0 0 56 0 0 56 0 0 56 0 0 56 0 0 56 0 0 56 0 0 56 0 0 56 0 0 56 0 0 56 0 0 56 0 0 56 0 0 56 0 0 56 0 0 56 0 0 
117 0 0 117 0 0 117 0 0 117 0 0 117 0 0 117 0 0 117 0 0 117 0 0 117 0 0 117 0 0 123 0 0 123 0 0 123 0 0 123 0 0 123 0 0 123 0 0 123 0 0 123 0 0 123 0 0 123 0 0 127 0 0 127 0 0 127 0 0 127 0 0 127 0 0 127 0 0 127 0 0 127 0 0 127 0 0 127 0 0 114 0 0 114 0 0 114 0 0 114 0 0 114 0 0 114 0 0 114 0 0 114 0 0 114 0 0 114 0 0 108 0 0 108 0 0 108 0 0 108 0 0 108 0 0 108 0 0 108 0 0 108 0 0 108 0 0 108 0 0 126 0 0 126 0 0 126 0 0 126 0 0 126 0 0 126 0 0 126 0 0 126 0 0 126 0 0 126 0 0 79 0 0 79 0 0 79 0 0 79 0 0 79 0 0 79 0 0 79 0 0 79 0 0 79 0 0 79 0 0 63 0 0 63 0 0 63 0 0 63 0 0 63 0 0 63 0 0 63 0 0 63 0 0 63 0 0 63 0 0 44 0 0 44 0 0 44 0 0 44 0 0 44 0 0 44 0 0 44 0 0 44 0 0 44 0 0 44 0 0 32 0 0 32 0 0 32 0 0 32 0 0 32 0 0 32 0 0 32 0 0 32 0 0 32 0 0 32 0 0 0 0 31 0 0 31 0 0 31 0 0 31 0 0 31 0 0 31 0 0 31 0 0 31 0 0 31 0 0 31 0 0 51 0 0 51 0 0 51 0 0 51 0 0 51 0 0 51 0 0 51 0 0 51 0 0 51 0 0 51 77 0 0 77 0 0 77 0 0 77 0 0 77 0 0 77 0 0 77 0 0 77 0 0 77 0 0 77 0 0 255 3 0 255 3 0 255 3 0 255 3 0 255 3 0 255 3 0 255 3 0 255 3 0 255 3 0 255 3 0 255 230 0 255 230 0 255 230 0 255 230 0 255 230 0 255 230 0 255 230 0 255 230 0 255 230 0 255 230 0 255 167 0 255 167 0 255 167 0 255 167 0 255 167 0 255 167 0 255 167 0 255 167 0 255 167 0 255 167 0 206 0 0 206 0 0 206 0 0 206 0 0 206 0 0 206 0 0 206 0 0 206 0 0 206 0 0 206 0 0 144 0 0 144 0 0 144 0 0 144 0 0 144 0 0 144 0 0 144 0 0 144 0 0 144 0 0 144 0 0 37 0 0 37 0 0 37 0 0 37 0 0 37 0 0 37 0 0 37 0 0 37 0 0 37 0 0 37 0 0 18 0 0 18 0 0 18 0 0 18 0 0 18 0 0 18 0 0 18 0 0 18 0 0 18 0 0 18 0 0 14 0 0 14 0 0 14 0 0 14 0 0 14 0 0 14 0 0 14 0 0 14 0 0 14 0 0 14 0 0 87 0 0 87 0 0 87 0 0 87 0 0 87 0 0 87 0 0 87 0 0 87 0 0 87 0 0 87 0 0 94 0 0 94 0 0 94 0 0 94 0 0 94 0 0 94 0 0 94 0 0 94 0 0 94 0 0 94 0 0 113 0 0 113 0 0 113 0 0 113 0 0 113 0 0 113 0 0 113 0 0 113 0 0 113 0 0 113 0 0 139 0 0 139 0 0 139 0 0 139 0 0 139 0 0 139 0 0 139 0 0 139 0 0 139 0 0 139 0 0 107 0 0 107 0 0 107 0 0 107 0 0 107 0 0 107 0 0 107 0 0 107 0 0 107 0 0 107 0 0 134 0 0 134 0 0 134 0 0 134 0 0 134 0 0 134 0 0 134 0 0 134 0 0 134 0 0 134 0 0 132 0 0 132 0 0 132 0 0 132 0 0 132 0 0 132 0 0 132 0 0 132 0 0 132 0 0 132 0 0 0 0 0 0 0 0 0 0 0 0 0 0 0 0 0 0 0 0 0 0 0 0 0 0 0 0 0 0 0 0 53 0 0 53 0 0 53 0 0 53 0 0 53 0 0 53 0 0 53 0 0 53 0 0 53 0 0 53 0 0 53 0 0 53 0 0 53 0 0 53 0 0 53 0 0 53 0 0 53 0 0 53 0 0 53 0 0 53 0 0 53 0 0 53 0 0 53 0 0 53 0 0 53 0 0 53 0 0 53 0 0 53 0 0 53 0 0 53 0 0 
117 0 0 117 0 0 117 0 0 117 0 0 117 0 0 117 0 0 117 0 0 117 0 0 117 0 0 117 0 0 123 0 0 123 0 0 123 0 0 123 0 0 123 0 0 123 0 0 123 0 0 123 0 0 123 0 0 123 0 0 127 0 0 127 0 0 127 0 0 127 0 0 127 0 0 127 0 0 127 0 0 127 0 0 127 0 0 127 0 0 114 0 0 114 0 0 114 0 0 114 0 0 114 0 0 114 0 0 114 0 0 114 0 0 114 0 0 114 0 0 108 0 0 108 0 0 108 0 0 108 0 0 108 0 0 108 0 0 108 0 0 108 0 0 108 0 0 108 0 0 126 0 0 126 0 0 126 0 0 126 0 0 126 0 0 126 0 0 126 0 0 126 0 0 126 0 0 126 0 0 79 0 0 79 0 0 79 0 0 79 0 0 79 0 0 79 0 0 79 0 0 79 0 0 79 0 0 79 0 0 63 0 0 63 0 0 63 0 0 63 0 0 63 0 0 63 0 0 63 0 0 63 0 0 63 0 0 63 0 0 44 0 0 44 0 0 44 0 0 44 0 0 44 0 0 44 0 0 44 0 0 44 0 0 44 0 0 44 0 0 32 0 0 32 0 0 32 0 0 32 0 0 32 0 0 32 0 0 32 0 0 32 0 0 32 0 0 32 0 0 0 0 31 0 0 31 0 0 31 0 0 31 0 0 31 0 0 31 0 0 31 0 0 31 0 0 31 0 0 31 0 0 51 0 0 51 0 0 51 0 0 51 0 0 51 0 0 51 0 0 51 0 0 51 0 0 51 0 0 51 77 0 0 77 0 0 77 0 0 77 0 0 77 0 0 77 0 0 77 0 0 77 0 0 77 0 0 77 0 0 255 3 0 255 3 0 255 3 0 255 3 0 255 3 0 255 3 0 255 3 0 255 3 0 255 3 0 255 3 0 255 230 0 255 230 0 255 230 0 255 230 0 255 230 0 255 230 0 255 230 0 255 230 0 255 230 0 255 230 0 255 167 0 255 167 0 255 167 0 255 167 0 255 167 0 255 167 0 255 167 0 255 167 0 255 167 0 255 167 0 206 0 0 206 0 0 206 0 0 206 0 0 206 0 0 206 0 0 206 0 0 206 0 0 206 0 0 206 0 0 144 0 0 144 0 0 144 0 0 144 0 0 144 0 0 144 0 0 144 0 0 144 0 0 144 0 0 144 0 0 37 0 0 37 0 0 37 0 0 37 0 0 37 0 0 37 0 0 37 0 0 37 0 0 37 0 0 37 0 0 18 0 0 18 0 0 18 0 0 18 0 0 18 0 0 18 0 0 18 0 0 18 0 0 18 0 0 18 0 0 14 0 0 14 0 0 14 0 0 14 0 0 14 0 0 14 0 0 14 0 0 14 0 0 14 0 0 14 0 0 87 0 0 87 0 0 87 0 0 87 0 0 87 0 0 87 0 0 87 0 0 87 0 0 87 0 0 87 0 0 94 0 0 94 0 0 94 0 0 94 0 0 94 0 0 94 0 0 94 0 0 94 0 0 94 0 0 94 0 0 113 0 0 113 0 0 113 0 0 113 0 0 113 0 0 113 0 0 113 0 0 113 0 0 113 0 0 113 0 0 139 0 0 139 0 0 139 0 0 139 0 0 139 0 0 139 0 0 139 0 0 139 0 0 139 0 0 139 0 0 107 0 0 107 0 0 107 0 0 107 0 0 107 0 0 107 0 0 107 0 0 107 0 0 107 0 0 107 0 0 134 0 0 134 0 0 134 0 0 134 0 0 134 0 0 134 0 0 134 0 0 134 0 0 134 0 0 134 0 0 132 0 0 132 0 0 132 0 0 132 0 0 132 0 0 132 0 0 132 0 0 132 0 0 132 0 0 132 0 0 0 0 0 0 0 0 0 0 0 0 0 0 0 0 0 0 0 0 0 0 0 0 0 0 0 0 0 0 0 0 49 0 0 49 0 0 49 0 0 49 0 0 49 0 0 49 0 0 49 0 0 49 0 0 49 0 0 49 0 0 49 0 0 49 0 0 49 0 0 49 0 0 49 0 0 49 0 0 49 0 0 49 0 0 49 0 0 49 0 0 49 0 0 49 0 0 49 0 0 49 0 0 49 0 0 49 0 0 49 0 0 49 0 0 49 0 0 49 0 0 
117 0 0 117 0 0 117 0 0 117 0 0 117 0 0 117 0 0 117 0 0 117 0 0 117 0 0 117 0 0 123 0 0 123 0 0 123 0 0 123 0 0 123 0 0 123 0 0 123 0 0 123 0 0 123 0 0 123 0 0 127 0 0 127 0 0 127 0 0 127 0 0 127 0 0 127 0 0 127 0 0 127 0 0 127 0 0 127 0 0 114 0 0 114 0 0 114 0 0 114 0 0 114 0 0 114 0 0 114 0 0 114 0 0 114 0 0 114 0 0 108 0 0 108 0 0 108 0 0 108 0 0 108 0 0 108 0 0 108 0 0 108 0 0 108 0 0 108 0 0 126 0 0 126 0 0 126 0 0 126 0 0 126 0 0 126 0 0 126 0 0 126 0 0 126 0 0 126 0 0 79 0 0 79 0 0 79 0 0 79 0 0 79 0 0 79 0 0 79 0 0 79 0 0 79 0 0 79 0 0 63 0 0 63 0 0 63 0 0 63 0 0 63 0 0 63 0 0 63 0 0 63 0 0 63 0 0 63 0 0 44 0 0 44 0 0 44 0 0 44 0 0 44 0 0 44 0 0 44 0 0 44 0 0 44 0 0 44 0 0 32 0 0 32 0 0 32 0 0 32 0 0 32 0 0 32 0 0 32 0 0 32 0 0 32 0 0 32 0 0 0 0 31 0 0 31 0 0 31 0 0 31 0 0 31 0 0 31 0 0 31 0 0 31 0 0 31 0 0 31 0 0 51 0 0 51 0 0 51 0 0 51 0 0 51 0 0 51 0 0 51 0 0 51 0 0 51 0 0 51 77 0 0 77 0 0 77 0 0 77 0 0 77 0 0 77 0 0 77 0 0 77 0 0 77 0 0 77 0 0 255 3 0 255 3 0 255 3 0 255 3 0 255 3 0 255 3 0 255 3 0 255 3 0 255 3 0 255 3 0 255 230 0 255 230 0 255 230 0 255 230 0 255 230 0 255 230 0 255 230 0 255 230 0 255 230 0 255 230 0 255 167 0 255 167 0 255 167 0 255 167 0 255 167 0 255 167 0 255 167 0 255 167 0 255 167 0 255 167 0 206 0 0 206 0 0 206 0 0 206 0 0 206 0 0 206 0 0 206 0 0 206 0 0 206 0 0 206 0 0 144 0 0 144 0 0 144 0 0 144 0 0 144 0 0 144 0 0 144 0 0 144 0 0 144 0 0 144 0 0 37 0 0 37 0 0 37 0 0 37 0 0 37 0 0 37 0 0 37 0 0 37 0 0 37 0 0 37 0 0 18 0 0 18 0 0 18 0 0 18 0 0 18 0 0 18 0 0 18 0 0 18 0 0 18 0 0 18 0 0 14 0 0 14 0 0 14 0 0 14 0 0 14 0 0 14 0 0 14 0 0 14 0 0 14 0 0 14 0 0 87 0 0 87 0 0 87 0 0 87 0 0 87 0 0 87 0 0 87 0 0 87 0 0 87 0 0 87 0 0 94 0 0 94 0 0 94 0 0 94 0 0 94 0 0 94 0 0 94 0 0 94 0 0 94 0 0 94 0 0 113 0 0 113 0 0 113 0 0 113 0 0 113 0 0 113 0 0 113 0 0 113 0 0 113 0 0 113 0 0 139 0 0 139 0 0 139 0 0 139 0 0 139 0 0 139 0 0 139 0 0 139 0 0 139 0 0 139 0 0 107 0 0 107 0 0 107 0 0 107 0 0 107 0 0 107 0 0 107 0 0 107 0 0 107 0 0 107 0 0 134 0 0 134 0 0 134 0 0 134 0 0 134 0 0 134 0 0 134 0 0 134 0 0 134 0 0 134 0 0 132 0 0 132 0 0 132 0 0 132 0 0 132 0 0 132 0 0 132 0 0 132 0 0 132 0 0 132 0 0 0 0 0 0 0 0 0 0 0 0 0 0 0 0 0 0 0 0 0 0 0 0 0 0 0 0 0 0 0 0 45 0 0 45 0 0 45 0 0 45 0 0 45 0 0 45 0 0 45 0 0 45 0 0 45 0 0 45 0 0 45 0 0 45 0 0 45 0 0 45 0 0 45 0 0 45 0 0 45 0 0 45 0 0 45 0 0 45 0 0 45 0 0 45 0 0 45 0 0 45 0 0 45 0 0 45 0 0 45 0 0 45 0 0 45 0 0 45 0 0 
117 0 0 117 0 0 117 0 0 117 0 0 117 0 0 117 0 0 117 0 0 117 0 0 117 0 0 117 0 0 123 0 0 123 0 0 123 0 0 123 0 0 123 0 0 123 0 0 123 0 0 123 0 0 123 0 0 123 0 0 127 0 0 127 0 0 127 0 0 127 0 0 127 0 0 127 0 0 127 0 0 127 0 0 127 0 0 127 0 0 114 0 0 114 0 0 114 0 0 114 0 0 114 0 0 114 0 0 114 0 0 114 0 0 114 0 0 114 0 0 108 0 0 108 0 0 108 0 0 108 0 0 108 0 0 108 0 0 108 0 0 108 0 0 108 0 0 108 0 0 126 0 0 126 0 0 126 0 0 126 0 0 126 0 0 126 0 0 126 0 0 126 0 0 126 0 0 126 0 0 79 0 0 79 0 0 79 0 0 79 0 0 79 0 0 79 0 0 79 0 0 79 0 0 79 0 0 79 0 0 63 0 0 63 0 0 63 0 0 63 0 0 63 0 0 63 0 0 63 0 0 63 0 0 63 0 0 63 0 0 44 0 0 44 0 0 44 0 0 44 0 0 44 0 0 44 0 0 44 0 0 44 0 0 44 0 0 44 0 0 32 0 0 32 0 0 32 0 0 32 0 0 32 0 0 32 0 0 32 0 0 32 0 0 32 0 0 32 0 0 0 0 31 0 0 31 0 0 31 0 0 31 0 0 31 0 0 31 0 0 31 0 0 31 0 0 31 0 0 31 0 0 51 0 0 51 0 0 51 0 0 51 0 0 51 0 0 51 0 0 51 0 0 51 0 0 51 0 0 51 77 0 0 77 0 0 77 0 0 77 0 0 77 0 0 77 0 0 77 0 0 77 0 0 77 0 0 77 0 0 255 3 0 255 3 0 255 3 0 255 3 0 255 3 0 255 3 0 255 3 0 255 3 0 255 3 0 255 3 0 255 230 0 255 230 0 255 230 0 255 230 0 255 230 0 255 230 0 255 230 0 255 230 0 255 230 0 255 230 0 255 167 0 255 167 0 255 167 0 255 167 0 255 167 0 255 167 0 255 167 0 255 167 0 255 167 0 255 167 0 206 0 0 206 0 0 206 0 0 206 0 0 206 0 0 206 0 0 206 0 0 206 0 0 206 0 0 206 0 0 144 0 0 144 0 0 144 0 0 144 0 0 144 0 0 144 0 0 144 0 0 144 0 0 144 0 0 144 0 0 37 0 0 37 0 0 37 0 0 37 0 0 37 0 0 37 0 0 37 0 0 37 0 0 37 0 0 37 0 0 18 0 0 18 0 0 18 0 0 18 0 0 18 0 0 18 0 0 18 0 0 18 0 0 18 0 0 18 0 0 14 0 0 14 0 0 14 0 0 14 0 0 14 0 0 14 0 0 14 0 0 14 0 0 14 0 0 14 0 0 87 0 0 87 0 0 87 0 0 87 0 0 87 0 0 87 0 0 87 0 0 87 0 0 87 0 0 87 0 0 94 0 0 94 0 0 94 0 0 94 0 0 94 0 0 94 0 0 94 0 0 94 0 0 94 0 0 94 0 0 113 0 0 113 0 0 113 0 0 113 0 0 113 0 0 113 0 0 113 0 0 113 0 0 113 0 0 113 0 0 139 0 0 139 0 0 139 0 0 139 0 0 139 0 0 139 0 0 139 0 0 139 0 0 139 0 0 139 0 0 107 0 0 107 0 0 107 0 0 107 0 0 107 0 0 107 0 0 107 0 0 107 0 0 107 0 0 107 0 0 134 0 0 134 0 0 134 0 0 134 0 0 134 0 0 134 0 0 134 0 0 134 0 0 134 0 0 134 0 0 132 0 0 132 0 0 132 0 0 132 0 0 132 0 0 132 0 0 132 0 0 132 0 0 132 0 0 132 0 0 0 0 0 0 0 0 0 0 0 0 0 0 0 0 0 0 0 0 0 0 0 0 0 0 0 0 0 0 0 0 42 0 0 42 0 0 42 0 0 42 0 0 42 0 0 42 0 0 42 0 0 42 0 0 42 0 0 42 0 0 42 0 0 42 0 0 42 0 0 42 0 0 42 0 0 42 0 0 42 0 0 42 0 0 42 0 0 42 0 0 42 0 0 42 0 0 42 0 0 42 0 0 42 0 0 42 0 0 42 0 0 42 0 0 42 0 0 42 0 0 
117 0 0 117 0 0 117 0 0 117 0 0 117 0 0 117 0 0 117 0 0 117 0 0 117 0 0 117 0 0 123 0 0 123 0 0 123 0 0 123 0 0 123 0 0 123 0 0 123 0 0 123 0 0 123 0 0 123 0 0 127 0 0 127 0 0 127 0 0 127 0 0 127 0 0 127 0 0 127 0 0 127 0 0 127 0 0 127 0 0 114 0 0 114 0 0 114 0 0 114 0 0 114 0 0 114 0 0 114 0 0 114 0 0 114 0 0 114 0 0 108 0 0 108 0 0 108 0 0 108 0 0 108 0 0 108 0 0 108 0 0 108 0 0 108 0 0 108 0 0 126 0 0 126 0 0 126 0 0 126 0 0 126 0 0 126 0 0 126 0 0 126 0 0 126 0 0 126 0 0 79 0 0 79 0 0 79 0 0 79 0 0 79 0 0 79 0 0 79 0 0 79 0 0 79 0 0 79 0 0 63 0 0 63 0 0 63 0 0 63 0 0 63 0 0 63 0 0 63 0 0 63 0 0 63 0 0 63 0 0 44 0 0 44 0 0 44 0 0 44 0 0 44 0 0 44 0 0 44 0 0 44 0 0 44 0 0 44 0 0 32 0 0 32 0 0 32 0 0 32 0 0 32 0 0 32 0 0 32 0 0 32 0 0 32 0 0 32 0 0 0 0 31 0 0 31 0 0 31 0 0 31 0 0 31 0 0 31 0 0 31 0 0 31 0 0 31 0 0 31 0 0 51 0 0 51 0 0 51 0 0 51 0 0 51 0 0 51 0 0 51 0 0 51 0 0 51 0 0 51 77 0 0 77 0 0 77 0 0 77 0 0 77 0 0 77 0 0 77 0 0 77 0 0 77 0 0 77 0 0 255 3 0 255 3 0 255 3 0 255 3 0 255 3 0 255 3 0 255 3 0 255 3 0 255 3 0 255 3 0 255 230 0 255 230 0 255 230 0 255 230 0 255 230 0 255 230 0 255 230 0 255 230 0 255 230 0 255 230 0 255 167 0 255 167 0 255 167 0 255 167 0 255 167 0 255 167 0 255 167 0 255 167 0 255 167 0 255 167 0 206 0 0 206 0 0 206 0 0 206 0 0 206 0 0 206 0 0 206 0 0 206 0 0 206 0 0 206 0 0 144 0 0 144 0 0 144 0 0 144 0 0 144 0 0 144 0 0 144 0 0 144 0 0 144 0 0 144 0 0 37 0 0 37 0 0 37 0 0 37 0 0 37 0 0 37 0 0 37 0 0 37 0 0 37 0 0 37 0 0 18 0 0 18 0 0 18 0 0 18 0 0 18 0 0 18 0 0 18 0 0 18 0 0 18 0 0 18 0 0 14 0 0 14 0 0 14 0 0 14 0 0 14 0 0 14 0 0 14 0 0 14 0 0 14 0 0 14 0 0 87 0 0 87 0 0 87 0 0 87 0 0 87 0 0 87 0 0 87 0 0 87 0 0 87 0 0 87 0 0 94 0 0 94 0 0 94 0 0 94 0 0 94 0 0 94 0 0 94 0 0 94 0 0 94 0 0 94 0 0 113 0 0 113 0 0 113 0 0 113 0 0 113 0 0 113 0 0 113 0 0 113 0 0 113 0 0 113 0 0 139 0 0 139 0 0 139 0 0 139 0 0 139 0 0 139 0 0 139 0 0 139 0 0 139 0 0 139 0 0 107 0 0 107 0 0 107 0 0 107 0 0 107 0 0 107 0 0 107 0 0 107 0 0 107 0 0 107 0 0 134 0 0 134 0 0 134 0 0 134 0 0 134 0 0 134 0 0 134 0 0 134 0 0 134 0 0 134 0 0 132 0 0 132 0 0 132 0 0 132 0 0 132 0 0 132 0 0 132 0 0 132 0 0 132 0 0 132 0 0 0 0 0 0 0 0 0 0 0 0 0 0 0 0 0 0 0 0 0 0 0 0 0 0 0 0 0 0 0 0 38 0 0 38 0 0 38 0 0 38 0 0 38 0 0 38 0 0 38 0 0 38 0 0 38 0 0 38 0 0 38 0 0 38 0 0 38 0 0 38 0 0 38 0 0 38 0 0 38 0 0 38 0 0 38 0 0 38 0 0 38 0 0 38 0 0 38 0 0 38 0 0 38 0 0 38 0 0 38 0 0 38 0 0 38 0 0 38 0 0 
154 0 0 154 0 0 154 0 0 154 0 0 154 0 0 154 0 0 154 0 0 154 0 0 154 0 0 154 0 0 138 0 0 138 0 0 138 0 0 138 0 0 138 0 0 138 0 0 138 0 0 138 0 0 138 0 0 138 0 0 143 0 0 143 0 0 143 0 0 143 0 0 143 0 0 143 0 0 143 0 0 143 0 0 143 0 0 143 0 0 119 0 0 119 0 0 119 0 0 119 0 0 119 0 0 119 0 0 119 0 0 119 0 0 119 0 0 119 0 0 131 0 0 131 0 0 131 0 0 131 0 0 131 0 0 131 0 0 131 0 0 131 0 0 131 0 0 131 0 0 99 0 0 99 0 0 99 0 0 99 0 0 99 0 0 99 0 0 99 0 0 99 0 0 99 0 0 99 0 0 99 0 0 99 0 0 99 0 0 99 0 0 99 0 0 99 0 0 99 0 0 99 0 0 99 0 0 99 0 0 62 0 0 62 0 0 62 0 0 62 0 0 62 0 0 62 0 0 62 0 0 62 0 0 62 0 0 62 0 0 39 0 0 39 0 0 39 0 0 39 0 0 39 0 0 39 0 0 39 0 0 39 0 0 39 0 0 39 0 0 7 0 0 7 0 0 7 0 0 7 0 0 7 0 0 7 0 0 7 0 0 7 0 0 7 0 0 7 0 0 0 0 95 0 0 95 0 0 95 0 0 95 0 0 95 0 0 95 0 0 95 0 0 95 0 0 95 0 0 95 0 0 95 0 0 95 0 0 95 0 0 95 0 0 95 0 0 95 0 0 95 0 0 95 0 0 95 0 0 95 37 0 0 37 0 0 37 0 0 37 0 0 37 0 0 37 0 0 37 0 0 37 0 0 37 0 0 37 0 0 255 63 0 255 63 0 255 63 0 255 63 0 255 63 0 255 63 0 255 63 0 255 63 0 255 63 0 255 63 0 255 255 0 255 255 0 255 255 0 255 255 0 255 255 0 255 255 0 255 255 0 255 255 0 255 255 0 255 255 0 255 150 0 255 150 0 255 150 0 255 150 0 255 150 0 255 150 0 255 150 0 255 150 0 255 150 0 255 150 0 224 0 0 224 0 0 224 0 0 224 0 0 224 0 0 224 0 0 224 0 0 224 0 0 224 0 0 224 0 0 84 0 0 84 0 0 84 0 0 84 0 0 84 0 0 84 0 0 84 0 0 84 0 0 84 0 0 84 0 0 0 0 45 0 0 45 0 0 45 0 0 45 0 0 45 0 0 45 0 0 45 0 0 45 0 0 45 0 0 45 0 0 11 0 0 11 0 0 11 0 0 11 0 0 11 0 0 11 0 0 11 0 0 11 0 0 11 0 0 11 48 0 0 48 0 0 48 0 0 48 0 0 48 0 0 48 0 0 48 0 0 48 0 0 48 0 0 48 0 0 69 0 0 69 0 0 69 0 0 69 0 0 69 0 0 69 0 0 69 0 0 69 0 0 69 0 0 69 0 0 99 0 0 99 0 0 99 0 0 99 0 0 99 0 0 99 0 0 99 0 0 99 0 0 99 0 0 99 0 0 118 0 0 118 0 0 118 0 0 118 0 0 118 0 0 118 0 0 118 0 0 118 0 0 118 0 0 118 0 0 136 0 0 136 0 0 136 0 0 136 0 0 136 0 0 136 0 0 136 0 0 136 0 0 136 0 0 136 0 0 138 0 0 138 0 0 138 0 0 138 0 0 138 0 0 138 0 0 138 0 0 138 0 0 138 0 0 138 0 0 131 0 0 131 0 0 131 0 0 131 0 0 131 0 0 131 0 0 131 0 0 131 0 0 131 0 0 131 0 0 111 0 0 111 0 0 111 0 0 111 0 0 111 0 0 111 0 0 111 0 0 111 0 0 111 0 0 111 0 0 0 0 0 0 0 0 0 0 0 0 0 0 0 0 0 0 0 0 0 0 0 0 0 0 0 0 0 0 0 0 34 0 0 34 0 0 34 0 0 34 0 0 34 0 0 34 0 0 34 0 0 34 0 0 34 0 0 34 0 0 34 0 0 34 0 0 34 0 0 34 0 0 34 0 0 34 0 0 34 0 0 34 0 0 34 0 0 34 0 0 34 0 0 34 0 0 34 0 0 34 0 0 34 0 0 34 0 0 34 0 0 34 0 0 34 0 0 34 0 0 
154 0 0 154 0 0 154 0 0 154 0 0 154 0 0 154 0 0 154 0 0 154 0 0 154 0 0 154 0 0 138 0 0 138 0 0 138 0 0 138 0 0 138 0 0 138 0 0 138 0 0 138 0 0 138 0 0 138 0 0 143 0 0 143 0 0 143 0 0 143 0 0 143 0 0 143 0 0 143 0 0 143 0 0 143 0 0 143 0 0 119 0 0 119 0 0 119 0 0 119 0 0 119 0 0 119 0 0 119 0 0 119 0 0 119 0 0 119 0 0 131 0 0 131 0 0 131 0 0 131 0 0 131 0 0 131 0 0 131 0 0 131 0 0 131 0 0 131 0 0 99 0 0 99 0 0 99 0 0 99 0 0 99 0 0 99 0 0 99 0 0 99 0 0 99 0 0 99 0 0 99 0 0 99 0 0 99 0 0 99 0 0 99 0 0 99 0 0 99 0 0 99 0 0 99 0 0 99 0 0 62 0 0 62 0 0 62 0 0 62 0 0 62 0 0 62 0 0 62 0 0 62 0 0 62 0 0 62 0 0 39 0 0 39 0 0 39 0 0 39 0 0 39 0 0 39 0 0 39 0 0 39 0 0 39 0 0 39 0 0 7 0 0 7 0 0 7 0 0 7 0 0 7 0 0 7 0 0 7 0 0 7 0 0 7 0 0 7 0 0 0 0 95 0 0 95 0 0 95 0 0 95 0 0 95 0 0 95 0 0 95 0 0 95 0 0 95 0 0 95 0 0 95 0 0 95 0 0 95 0 0 95 0 0 95 0 0 95 0 0 95 0 0 95 0 0 95 0 0 95 37 0 0 37 0 0 37 0 0 37 0 0 37 0 0 37 0 0 37 0 0 37 0 0 37 0 0 37 0 0 255 63 0 255 63 0 255 63 0 255 63 0 255 63 0 255 63 0 255 63 0 255 63 0 255 63 0 255 63 0 255 255 0 255 255 0 255 255 0 255 255 0 255 255 0 255 255 0 255 255 0 255 255 0 255 255 0 255 255 0 255 150 0 255 150 0 255 150 0 255 150 0 255 150 0 255 150 0 255 150 0 255 150 0 255 150 0 255 150 0 224 0 0 224 0 0 224 0 0 224 0 0 224 0 0 224 0 0 224 0 0 224 0 0 224 0 0 224 0 0 84 0 0 84 0 0 84 0 0 84 0 0 84 0 0 84 0 0 84 0 0 84 0 0 84 0 0 84 0 0 0 0 45 0 0 45 0 0 45 0 0 45 0 0 45 0 0 45 0 0 45 0 0 45 0 0 45 0 0 45 0 0 11 0 0 11 0 0 11 0 0 11 0 0 11 0 0 11 0 0 11 0 0 11 0 0 11 0 0 11 48 0 0 48 0 0 48 0 0 48 0 0 48 0 0 48 0 0 48 0 0 48 0 0 48 0 0 48 0 0 69 0 0 69 0 0 69 0 0 69 0 0 69 0 0 69 0 0 69 0 0 69 0 0 69 0 0 69 0 0 99 0 0 99 0 0 99 0 0 99 0 0 99 0 0 99 0 0 99 0 0 99 0 0 99 0 0 99 0 0 118 0 0 118 0 0 118 0 0 118 0 0 118 0 0 118 0 0 118 0 0 118 0 0 118 0 0 118 0 0 136 0 0 136 0 0 136 0 0 136 0 0 136 0 0 136 0 0 136 0 0 136 0 0 136 0 0 136 0 0 138 0 0 138 0 0 138 0 0 138 0 0 138 0 0 138 0 0 138 0 0 138 0 0 138 0 0 138 0 0 131 0 0 131 0 0 131 0 0 131 0 0 131 0 0 131 0 0 131 0 0 131 0 0 131 0 0 131 0 0 111 0 0 111 0 0 111 0 0 111 0 0 111 0 0 111 0 0 111 0 0 111 0 0 111 0 0 111 0 0 0 0 0 0 0 0 0 0 0 0 0 0 0 0 0 0 0 0 0 0 0 0 0 0 0 0 0 0 0 0 31 0 0 31 0 0 31 0 0 31 0 0 31 0 0 31 0 0 31 0 0 31 0 0 31 0 0 31 0 0 31 0 0 31 0 0 31 0 0 31 0 0 31 0 0 31 0 0 31 0 0 31 0 0 31 0 0 31 0 0 31 0 0 31 0 0 31 0 0 31 0 0 31 0 0 31 0 0 31 0 0 31 0 0 31 0 0 31 0 0 
154 0 0 154 0 0 154 0 0 154 0 0 154 0 0 154 0 0 154 0 0 154 0 0 154 0 0 154 0 0 138 0 0 138 0 0 138 0 0 138 0 0 138 0 0 138 0 0 138 0 0 138 0 0 138 0 0 138 0 0 143 0 0 143 0 0 143 0 0 143 0 0 143 0 0 143 0 0 143 0 0 143 0 0 143 0 0 143 0 0 119 0 0 119 0 0 119 0 0 119 0 0 119 0 0 119 0 0 119 0 0 119 0 0 119 0 0 119 0 0 131 0 0 131 0 0 131 0 0 131 0 0 131 0 0 131 0 0 131 0 0 131 0 0 131 0 0 131 0 0 99 0 0 99 0 0 99 0 0 99 0 0 99 0 0 99 0 0 99 0 0 99 0 0 99 0 0 99 0 0 99 0 0 99 0 0 99 0 0 99 0 0 99 0 0 99 0 0 99 0 0 99 0 0 99 0 0 99 0 0 62 0 0 62 0 0 62 0 0 62 0 0 62 0 0 62 0 0 62 0 0 62 0 0 62 0 0 62 0 0 39 0 0 39 0 0 39 0 0 39 0 0 39 0 0 39 0 0 39 0 0 39 0 0 39 0 0 39 0 0 7 0 0 7 0 0 7 0 0 7 0 0 7 0 0 7 0 0 7 0 0 7 0 0 7 0 0 7 0 0 0 0 95 0 0 95 0 0 95 0 0 95 0 0 95 0 0 95 0 0 95 0 0 95 0 0 95 0 0 95 0 0 95 0 0 95 0 0 95 0 0 95 0 0 95 0 0 95 0 0 95 0 0 95 0 0 95 0 0 95 37 0 0 37 0 0 37 0 0 37 0 0 37 0 0 37 0 0 37 0 0 37 0 0 37 0 0 37 0 0 255 63 0 255 63 0 255 63 0 255 63 0 255 63 0 255 63 0 255 63 0 255 63 0 255 63 0 255 63 0 255 255 0 255 255 0 255 255 0 255 255 0 255 255 0 255 255 0 255 255 0 255 255 0 255 255 0 255 255 0 255 150 0 255 150 0 255 150 0 255 150 0 255 150 0 255 150 0 255 150 0 255 150 0 255 150 0 255 150 0 224 0 0 224 0 0 224 0 0 224 0 0 224 0 0 224 0 0 224 0 0 224 0 0 224 0 0 224 0 0 84 0 0 84 0 0 84 0 0 84 0 0 84 0 0 84 0 0 84 0 0 84 0 0 84 0 0 84 0 0 0 0 45 0 0 45 0 0 45 0 0 45 0 0 45 0 0 45 0 0 45 0 0 45 0 0 45 0 0 45 0 0 11 0 0 11 0 0 11 0 0 11 0 0 11 0 0 11 0 0 11 0 0 11 0 0 11 0 0 11 48 0 0 48 0 0 48 0 0 48 0 0 48 0 0 48 0 0 48 0 0 48 0 0 48 0 0 48 0 0 69 0 0 69 0 0 69 0 0 69 0 0 69 0 0 69 0 0 69 0 0 69 0 0 69 0 0 69 0 0 99 0 0 99 0 0 99 0 0 99 0 0 99 0 0 99 0 0 99 0 0 99 0 0 99 0 0 99 0 0 118 0 0 118 0 0 118 0 0 118 0 0 118 0 0 118 0 0 118 0 0 118 0 0 118 0 0 118 0 0 136 0 0 136 0 0 136 0 0 136 0 0 136 0 0 136 0 0 136 0 0 136 0 0 136 0 0 136 0 0 138 0 0 138 0 0 138 0 0 138 0 0 138 0 0 138 0 0 138 0 0 138 0 0 138 0 0 138 0 0 131 0 0 131 0 0 131 0 0 131 0 0 131 0 0 131 0 0 131 0 0 131 0 0 131 0 0 131 0 0 111 0 0 111 0 0 111 0 0 111 0 0 111 0 0 111 0 0 111 0 0 111 0 0 111 0 0 111 0 0 0 0 0 0 0 0 0 0 0 0 0 0 0 0 0 0 0 0 0 0 0 0 0 0 0 0 0 0 0 0 27 0 0 27 0 0 27 0 0 27 0 0 27 0 0 27 0 0 27 0 0 27 0 0 27 0 0 27 0 0 27 0 0 27 0 0 27 0 0 27 0 0 27 0 0 27 0 0 27 0 0 27 0 0 27 0 0 27 0 0 27 0 0 27 0 0 27 0 0 27 0 0 27 0 0 27 0 0 27 0 0 27 0 0 27 0 0 27 0 0 
154 0 0 154 0 0 154 0 0 154 0 0 154 0 0 154 0 0 154 0 0 154 0 0 154 0 0 154 0 0 138 0 0 138 0 0 138 0 0 138 0 0 138 0 0 138 0 0 138 0 0 138 0 0 138 0 0 138 0 0 143 0 0 143 0 0 143 0 0 143 0 0 143 0 0 143 0 0 143 0 0 143 0 0 143 0 0 143 0 0 119 0 0 119 0 0 119 0 0 119 0 0 119 0 0 119 0 0 119 0 0 119 0 0 119 0 0 119 0 0 131 0 0 131 0 0 131 0 0 131 0 0 131 0 0 131 0 0 131 0 0 131 0 0 131 0 0 131 0 0 99 0 0 99 0 0 99 0 0 99 0 0 99 0 0 99 0 0 99 0 0 99 0 0 99 0 0 99 0 0 99 0 0 99 0 0 99 0 0 99 0 0 99 0 0 99 0 0 99 0 0 99 0 0 99 0 0 99 0 0 62 0 0 62 0 0 62 0 0 62 0 0 62 0 0 62 0 0 62 0 0 62 0 0 62 0 0 62 0 0 39 0 0 39 0 0 39 0 0 39 0 0 39 0 0 39 0 0 39 0 0 39 0 0 39 0 0 39 0 0 7 0 0 7 0 0 7 0 0 7 0 0 7 0 0 7 0 0 7 0 0 7 0 0 7 0 0 7 0 0 0 0 95 0 0 95 0 0 95 0 0 95 0 0 95 0 0 95 0 0 95 0 0 95 0 0 95 0 0 95 0 0 95 0 0 95 0 0 95 0 0 95 0 0 95 0 0 95 0 0 95 0 0 95 0 0 95 0 0 95 37 0 0 37 0 0 37 0 0 37 0 0 37 0 0 37 0 0 37 0 0 37 0 0 37 0 0 37 0 0 255 63 0 255 63 0 255 63 0 255 63 0 255 63 0 255 63 0 255 63 0 255 63 0 255 63 0 255 63 0 255 255 0 255 255 0 255 255 0 255 255 0 255 255 0 255 255 0 255 255 0 255 255 0 255 255 0 255 255 0 255 150 0 255 150 0 255 150 0 255 150 0 255 150 0 255 150 0 255 150 0 255 150 0 255 150 0 255 150 0 224 0 0 224 0 0 224 0 0 224 0 0 224 0 0 224 0 0 224 0 0 224 0 0 224 0 0 224 0 0 84 0 0 84 0 0 84 0 0 84 0 0 84 0 0 84 0 0 84 0 0 84 0 0 84 0 0 84 0 0 0 0 45 0 0 45 0 0 45 0 0 45 0 0 45 0 0 45 0 0 45 0 0 45 0 0 45 0 0 45 0 0 11 0 0 11 0 0 11 0 0 11 0 0 11 0 0 11 0 0 11 0 0 11 0 0 11 0 0 11 48 0 0 48 0 0 48 0 0 48 0 0 48 0 0 48 0 0 48 0 0 48 0 0 48 0 0 48 0 0 69 0 0 69 0 0 69 0 0 69 0 0 69 0 0 69 0 0 69 0 0 69 0 0 69 0 0 69 0 0 99 0 0 99 0 0 99 0 0 99 0 0 99 0 0 99 0 0 99 0 0 99 0 0 99 0 0 99 0 0 118 0 0 118 0 0 118 0 0 118 0 0 118 0 0 118 0 0 118 0 0 118 0 0 118 0 0 118 0 0 136 0 0 136 0 0 136 0 0 136 0 0 136 0 0 136 0 0 136 0 0 136 0 0 136 0 0 136 0 0 138 0 0 138 0 0 138 0 0 138 0 0 138 0 0 138 0 0 138 0 0 138 0 0 138 0 0 138 0 0 131 0 0 131 0 0 131 0 0 131 0 0 131 0 0 131 0 0 131 0 0 131 0 0 131 0 0 131 0 0 111 0 0 111 0 0 111 0 0 111 0 0 111 0 0 111 0 0 111 0 0 111 0 0 111 0 0 111 0 0 0 0 0 0 0 0 0 0 0 0 0 0 0 0 0 0 0 0 0 0 0 0 0 0 0 0 0 0 0 0 23 0 0 23 0 0 23 0 0 23 0 0 23 0 0 23 0 0 23 0 0 23 0 0 23 0 0 23 0 0 23 0 0 23 0 0 23 0 0 23 0 0 23 0 0 23 0 0 23 0 0 23 0 0 23 0 0 23 0 0 23 0 0 23 0 0 23 0 0 23 0 0 23 0 0 23 0 0 23 0 0 23 0 0 23 0 0 23 0 0 
154 0 0 154 0 0 154 0 0 154 0 0 154 0 0 154 0 0 154 0 0 154 0 0 154 0 0 154 0 0 138 0 0 138 0 0 138 0 0 138 0 0 138 0 0 138 0 0 138 0 0 138 0 0 138 0 0 138 0 0 143 0 0 143 0 0 143 0 0 143 0 0 143 0 0 143 0 0 143 0 0 143 0 0 143 0 0 143 0 0 119 0 0 119 0 0 119 0 0 119 0 0 119 0 0 119 0 0 119 0 0 119 0 0 119 0 0 119 0 0 131 0 0 131 0 0 131 0 0 131 0 0 131 0 0 131 0 0 131 0 0 131 0 0 131 0 0 131 0 0 99 0 0 99 0 0 99 0 0 99 0 0 99 0 0 99 0 0 99 0 0 99 0 0 99 0 0 99 0 0 99 0 0 99 0 0 99 0 0 99 0 0 99 0 0 99 0 0 99 0 0 99 0 0 99 0 0 99 0 0 62 0 0 62 0 0 62 0 0 62 0 0 62 0 0 62 0 0 62 0 0 62 0 0 62 0 0 62 0 0 39 0 0 39 0 0 39 0 0 39 0 0 39 0 0 39 0 0 39 0 0 39 0 0 39 0 0 39 0 0 7 0 0 7 0 0 7 0 0 7 0 0 7 0 0 7 0 0 7 0 0 7 0 0 7 0 0 7 0 0 0 0 95 0 0 95 0 0 95 0 0 95 0 0 95 0 0 95 0 0 95 0 0 95 0 0 95 0 0 95 0 0 95 0 0 95 0 0 95 0 0 95 0 0 95 0 0 95 0 0 95 0 0 95 0 0 95 0 0 95 37 0 0 37 0 0 37 0 0 37 0 0 37 0 0 37 0 0 37 0 0 37 0 0 37 0 0 37 0 0 255 63 0 255 63 0 255 63 0 255 63 0 255 63 0 255 63 0 255 63 0 255 63 0 255 63 0 255 63 0 255 255 0 255 255 0 255 255 0 255 255 0 255 255 0 255 255 0 255 255 0 255 255 0 255 255 0 255 255 0 255 150 0 255 150 0 255 150 0 255 150 0 255 150 0 255 150 0 255 150 0 255 150 0 255 150 0 255 150 0 224 0 0 224 0 0 224 0 0 224 0 0 224 0 0 224 0 0 224 0 0 224 0 0 224 0 0 224 0 0 84 0 0 84 0 0 84 0 0 84 0 0 84 0 0 84 0 0 84 0 0 84 0 0 84 0 0 84 0 0 0 0 45 0 0 45 0 0 45 0 0 45 0 0 45 0 0 45 0 0 45 0 0 45 0 0 45 0 0 45 0 0 11 0 0 11 0 0 11 0 0 11 0 0 11 0 0 11 0 0 11 0 0 11 0 0 11 0 0 11 48 0 0 48 0 0 48 0 0 48 0 0 48 0 0 48 0 0 48 0 0 48 0 0 48 0 0 48 0 0 69 0 0 69 0 0 69 0 0 69 0 0 69 0 0 69 0 0 69 0 0 69 0 0 69 0 0 69 0 0 99 0 0 99 0 0 99 0 0 99 0 0 99 0 0 99 0 0 99 0 0 99 0 0 99 0 0 99 0 0 118 0 0 118 0 0 118 0 0 118 0 0 118 0 0 118 0 0 118 0 0 118 0 0 118 0 0 118 0 0 136 0 0 136 0 0 136 0 0 136 0 0 136 0 0 136 0 0 136 0 0 136 0 0 136 0 0 136 0 0 138 0 0 138 0 0 138 0 0 138 0 0 138 0 0 138 0 0 138 0 0 138 0 0 138 0 0 138 0 0 131 0 0 131 0 0 131 0 0 131 0 0 131 0 0 131 0 0 131 0 0 131 0 0 131 0 0 131 0 0 111 0 0 111 0 0 111 0 0 111 0 0 111 0 0 111 0 0 111 0 0 111 0 0 111 0 0 111 0 0 0 0 0 0 0 0 0 0 0 0 0 0 0 0 0 0 0 0 0 0 0 0 0 0 0 0 0 0 0 0 20 0 0 20 0 0 20 0 0 20 0 0 20 0 0 20 0 0 20 0 0 20 0 0 20 0 0 20 0 0 20 0 0 20 0 0 20 0 0 20 0 0 20 0 0 20 0 0 20 0 0 20 0 0 20 0 0 20 0 0 20 0 0 20 0 0 20 0 0 20 0 0 20 0 0 20 0 0 20 0 0 20 0 0 20 0 0 20 0 0 
154 0 0 154 0 0 154 0 0 154 0 0 154 0 0 154 0 0 154 0 0 154 0 0 154 0 0 154 0 0 138 0 0 138 0 0 138 0 0 138 0 0 138 0 0 138 0 0 138 0 0 138 0 0 138 0 0 138 0 0 143 0 0 143 0 0 143 0 0 143 0 0 143 0 0 143 0 0 143 0 0 143 0 0 143 0 0 143 0 0 119 0 0 119 0 0 119 0 0 119 0 0 119 0 0 119 0 0 119 0 0 119 0 0 119 0 0 119 0 0 131 0 0 131 0 0 131 0 0 131 0 0 131 0 0 131 0 0 131 0 0 131 0 0 131 0 0 131 0 0 99 0 0 99 0 0 99 0 0 99 0 0 99 0 0 99 0 0 99 0 0 99 0 0 99 0 0 99 0 0 99 0 0 99 0 0 99 0 0 99 0 0 99 0 0 99 0 0 99 0 0 99 0 0 99 0 0 99 0 0 62 0 0 62 0 0 62 0 0 62 0 0 62 0 0 62 0 0 62 0 0 62 0 0 62 0 0 62 0 0 39 0 0 39 0 0 39 0 0 39 0 0 39 0 0 39 0 0 39 0 0 39 0 0 39 0 0 39 0 0 7 0 0 7 0 0 7 0 0 7 0 0 7 0 0 7 0 0 7 0 0 7 0 0 7 0 0 7 0 0 0 0 95 0 0 95 0 0 95 0 0 95 0 0 95 0 0 95 0 0 95 0 0 95 0 0 95 0 0 95 0 0 95 0 0 95 0 0 95 0 0 95 0 0 95 0 0 95 0 0 95 0 0 95 0 0 95 0 0 95 37 0 0 37 0 0 37 0 0 37 0 0 37 0 0 37 0 0 37 0 0 37 0 0 37 0 0 37 0 0 255 63 0 255 63 0 255 63 0 255 63 0 255 63 0 255 63 0 255 63 0 255 63 0 255 63 0 255 63 0 255 255 0 255 255 0 255 255 0 255 255 0 255 255 0 255 255 0 255 255 0 255 255 0 255 255 0 255 255 0 255 150 0 255 150 0 255 150 0 255 150 0 255 150 0 255 150 0 255 150 0 255 150 0 255 150 0 255 150 0 224 0 0 224 0 0 224 0 0 224 0 0 224 0 0 224 0 0 224 0 0 224 0 0 224 0 0 224 0 0 84 0 0 84 0 0 84 0 0 84 0 0 84 0 0 84 0 0 84 0 0 84 0 0 84 0 0 84 0 0 0 0 45 0 0 45 0 0 45 0 0 45 0 0 45 0 0 45 0 0 45 0 0 45 0 0 45 0 0 45 0 0 11 0 0 11 0 0 11 0 0 11 0 0 11 0 0 11 0 0 11 0 0 11 0 0 11 0 0 11 48 0 0 48 0 0 48 0 0 48 0 0 48 0 0 48 0 0 48 0 0 48 0 0 48 0 0 48 0 0 69 0 0 69 0 0 69 0 0 69 0 0 69 0 0 69 0 0 69 0 0 69 0 0 69 0 0 69 0 0 99 0 0 99 0 0 99 0 0 99 0 0 99 0 0 99 0 0 99 0 0 99 0 0 99 0 0 99 0 0 118 0 0 118 0 0 118 0 0 118 0 0 118 0 0 118 0 0 118 0 0 118 0 0 118 0 0 118 0 0 136 0 0 136 0 0 136 0 0 136 0 0 136 0 0 136 0 0 136 0 0 136 0 0 136 0 0 136 0 0 138 0 0 138 0 0 138 0 0 138 0 0 138 0 0 138 0 0 138 0 0 138 0 0 138 0 0 138 0 0 131 0 0 131 0 0 131 0 0 131 0 0 131 0 0 131 0 0 131 0 0 131 0 0 131 0 0 131 0 0 111 0 0 111 0 0 111 0 0 111 0 0 111 0 0 111 0 0 111 0 0 111 0 0 111 0 0 111 0 0 0 0 0 0 0 0 0 0 0 0 0 0 0 0 0 0 0 0 0 0 0 0 0 0 0 0 0 0 0 0 16 0 0 16 0 0 16 0 0 16 0 0 16 0 0 16 0 0 16 0 0 16 0 0 16 0 0 16 0 0 16 0 0 16 0 0 16 0 0 16 0 0 16 0 0 16 0 0 16 0 0 16 0 0 16 0 0 16 0 0 16 0 0 16 0 0 16 0 0 16 0 0 16 0 0 16 0 0 16 0 0 16 0 0 16 0 0 16 0 0 
154 0 0 154 0 0 154 0 0 154 0 0 154 0 0 154 0 0 154 0 0 154 0 0 154 0 0 154 0 0 138 0 0 138 0 0 138 0 0 138 0 0 138 0 0 138 0 0 138 0 0 138 0 0 138 0 0 138 0 0 143 0 0 143 0 0 143 0 0 143 0 0 143 0 0 143 0 0 143 0 0 143 0 0 143 0 0 143 0 0 119 0 0 119 0 0 119 0 0 119 0 0 119 0 0 119 0 0 119 0 0 119 0 0 119 0 0 119 0 0 131 0 0 131 0 0 131 0 0 131 0 0 131 0 0 131 0 0 131 0 0 131 0 0 131 0 0 131 0 0 99 0 0 99 0 0 99 0 0 99 0 0 99 0 0 99 0 0 99 0 0 99 0 0 99 0 0 99 0 0 99 0 0 99 0 0 99 0 0 99 0 0 99 0 0 99 0 0 99 0 0 99 0 0 99 0 0 99 0 0 62 0 0 62 0 0 62 0 0 62 0 0 62 0 0 62 0 0 62 0 0 62 0 0 62 0 0 62 0 0 39 0 0 39 0 0 39 0 0 39 0 0 39 0 0 39 0 0 39 0 0 39 0 0 39 0 0 39 0 0 7 0 0 7 0 0 7 0 0 7 0 0 7 0 0 7 0 0 7 0 0 7 0 0 7 0 0 7 0 0 0 0 95 0 0 95 0 0 95 0 0 95 0 0 95 0 0 95 0 0 95 0 0 95 0 0 95 0 0 95 0 0 95 0 0 95 0 0 95 0 0 95 0 0 95 0 0 95 0 0 95 0 0 95 0 0 95 0 0 95 37 0 0 37 0 0 37 0 0 37 0 0 37 0 0 37 0 0 37 0 0 37 0 0 37 0 0 37 0 0 255 63 0 255 63 0 255 63 0 255 63 0 255 63 0 255 63 0 255 63 0 255 63 0 255 63 0 255 63 0 255 255 0 255 255 0 255 255 0 255 255 0 255 255 0 255 255 0 255 255 0 255 255 0 255 255 0 255 255 0 255 150 0 255 150 0 255 150 0 255 150 0 255 150 0 255 150 0 255 150 0 255 150 0 255 150 0 255 150 0 224 0 0 224 0 0 224 0 0 224 0 0 224 0 0 224 0 0 224 0 0 224 0 0 224 0 0 224 0 0 84 0 0 84 0 0 84 0 0 84 0 0 84 0 0 84 0 0 84 0 0 84 0 0 84 0 0 84 0 0 0 0 45 0 0 45 0 0 45 0 0 45 0 0 45 0 0 45 0 0 45 0 0 45 0 0 45 0 0 45 0 0 11 0 0 11 0 0 11 0 0 11 0 0 11 0 0 11 0 0 11 0 0 11 0 0 11 0 0 11 48 0 0 48 0 0 48 0 0 48 0 0 48 0 0 48 0 0 48 0 0 48 0 0 48 0 0 48 0 0 69 0 0 69 0 0 69 0 0 69 0 0 69 0 0 69 0 0 69 0 0 69 0 0 69 0 0 69 0 0 99 0 0 99 0 0 99 0 0 99 0 0 99 0 0 99 0 0 99 0 0 99 0 0 99 0 0 99 0 0 118 0 0 118 0 0 118 0 0 118 0 0 118 0 0 118 0 0 118 0 0 118 0 0 118 0 0 118 0 0 136 0 0 136 0 0 136 0 0 136 0 0 136 0 0 136 0 0 136 0 0 136 0 0 136 0 0 136 0 0 138 0 0 138 0 0 138 0 0 138 0 0 138 0 0 138 0 0 138 0 0 138 0 0 138 0 0 138 0 0 131 0 0 131 0 0 131 0 0 131 0 0 131 0 0 131 0 0 131 0 0 131 0 0 131 0 0 131 0 0 111 0 0 111 0 0 111 0 0 111 0 0 111 0 0 111 0 0 111 0 0 111 0 0 111 0 0 111 0 0 0 0 0 0 0 0 0 0 0 0 0 0 0 0 0 0 0 0 0 0 0 0 0 0 0 0 0 0 0 0 12 0 0 12 0 0 12 0 0 12 0 0 12 0 0 12 0 0 12 0 0 12 0 0 12 0 0 12 0 0 12 0 0 12 0 0 12 0 0 12 0 0 12 0 0 12 0 0 12 0 0 12 0 0 12 0 0 12 0 0 12 0 0 12 0 0 12 0 0 12 0 0 12 0 0 12 0 0 12 0 0 12 0 0 12 0 0 12 0 0 
154 0 0 154 0 0 154 0 0 154 0 0 154 0 0 154 0 0 154 0 0 154 0 0 154 0 0 154 0 0 138 0 0 138 0 0 138 0 0 138 0 0 138 0 0 138 0 0 138 0 0 138 0 0 138 0 0 138 0 0 143 0 0 143 0 0 143 0 0 143 0 0 143 0 0 143 0 0 143 0 0 143 0 0 143 0 0 143 0 0 119 0 0 119 0 0 119 0 0 119 0 0 119 0 0 119 0 0 119 0 0 119 0 0 119 0 0 119 0 0 131 0 0 131 0 0 131 0 0 131 0 0 131 0 0 131 0 0 131 0 0 131 0 0 131 0 0 131 0 0 99 0 0 99 0 0 99 0 0 99 0 0 99 0 0 99 0 0 99 0 0 99 0 0 99 0 0 99 0 0 99 0 0 99 0 0 99 0 0 99 0 0 99 0 0 99 0 0 99 0 0 99 0 0 99 0 0 99 0 0 62 0 0 62 0 0 62 0 0 62 0 0 62 0 0 62 0 0 62 0 0 62 0 0 62 0 0 62 0 0 39 0 0 39 0 0 39 0 0 39 0 0 39 0 0 39 0 0 39 0 0 39 0 0 39 0 0 39 0 0 7 0 0 7 0 0 7 0 0 7 0 0 7 0 0 7 0 0 7 0 0 7 0 0 7 0 0 7 0 0 0 0 95 0 0 95 0 0 95 0 0 95 0 0 95 0 0 95 0 0 95 0 0 95 0 0 95 0 0 95 0 0 95 0 0 95 0 0 95 0 0 95 0 0 95 0 0 95 0 0 95 0 0 95 0 0 95 0 0 95 37 0 0 37 0 0 37 0 0 37 0 0 37 0 0 37 0 0 37 0 0 37 0 0 37 0 0 37 0 0 255 63 0 255 63 0 255 63 0 255 63 0 255 63 0 255 63 0 255 63 0 255 63 0 255 63 0 255 63 0 255 255 0 255 255 0 255 255 0 255 255 0 255 255 0 255 255 0 255 255 0 255 255 0 255 255 0 255 255 0 255 150 0 255 150 0 255 150 0 255 150 0 255 150 0 255 150 0 255 150 0 255 150 0 255 150 0 255 150 0 224 0 0 224 0 0 224 0 0 224 0 0 224 0 0 224 0 0 224 0 0 224 0 0 224 0 0 224 0 0 84 0 0 84 0 0 84 0 0 84 0 0 84 0 0 84 0 0 84 0 0 84 0 0 84 0 0 84 0 0 0 0 45 0 0 45 0 0 45 0 0 45 0 0 45 0 0 45 0 0 45 0 0 45 0 0 45 0 0 45 0 0 11 0 0 11 0 0 11 0 0 11 0 0 11 0 0 11 0 0 11 0 0 11 0 0 11 0 0 11 48 0 0 48 0 0 48 0 0 48 0 0 48 0 0 48 0 0 48 0 0 48 0 0 48 0 0 48 0 0 69 0 0 69 0 0 69 0 0 69 0 0 69 0 0 69 0 0 69 0 0 69 0 0 69 0 0 69 0 0 99 0 0 99 0 0 99 0 0 99 0 0 99 0 0 99 0 0 99 0 0 99 0 0 99 0 0 99 0 0 118 0 0 118 0 0 118 0 0 118 0 0 118 0 0 118 0 0 118 0 0 118 0 0 118 0 0 118 0 0 136 0 0 136 0 0 136 0 0 136 0 0 136 0 0 136 0 0 136 0 0 136 0 0 136 0 0 136 0 0 138 0 0 138 0 0 138 0 0 138 0 0 138 0 0 138 0 0 138 0 0 138 0 0 138 0 0 138 0 0 131 0 0 131 0 0 131 0 0 131 0 0 131 0 0 131 0 0 131 0 0 131 0 0 131 0 0 131 0 0 111 0 0 111 0 0 111 0 0 111 0 0 111 0 0 111 0 0 111 0 0 111 0 0 111 0 0 111 0 0 0 0 0 0 0 0 0 0 0 0 0 0 0 0 0 0 0 0 0 0 0 0 0 0 0 0 0 0 0 0 9 0 0 9 0 0 9 0 0 9 0 0 9 0 0 9 0 0 9 0 0 9 0 0 9 0 0 9 0 0 9 0 0 9 0 0 9 0 0 9 0 0 9 0 0 9 0 0 9 0 0 9 0 0 9 0 0 9 0 0 9 0 0 9 0 0 9 0 0 9 0 0 9 0 0 9 0 0 9 0 0 9 0 0 9 0 0 9 0 0 
154 0 0 154 0 0 154 0 0 154 0 0 154 0 0 154 0 0 154 0 0 154 0 0 154 0 0 154 0 0 138 0 0 138 0 0 138 0 0 138 0 0 138 0 0 138 0 0 138 0 0 138 0 0 138 0 0 138 0 0 143 0 0 143 0 0 143 0 0 143 0 0 143 0 0 143 0 0 143 0 0 143 0 0 143 0 0 143 0 0 119 0 0 119 0 0 119 0 0 119 0 0 119 0 0 119 0 0 119 0 0 119 0 0 119 0 0 119 0 0 131 0 0 131 0 0 131 0 0 131 0 0 131 0 0 131 0 0 131 0 0 131 0 0 131 0 0 131 0 0 99 0 0 99 0 0 99 0 0 99 0 0 99 0 0 99 0 0 99 0 0 99 0 0 99 0 0 99 0 0 99 0 0 99 0 0 99 0 0 99 0 0 99 0 0 99 0 0 99 0 0 99 0 0 99 0 0 99 0 0 62 0 0 62 0 0 62 0 0 62 0 0 62 0 0 62 0 0 62 0 0 62 0 0 62 0 0 62 0 0 39 0 0 39 0 0 39 0 0 39 0 0 39 0 0 39 0 0 39 0 0 39 0 0 39 0 0 39 0 0 7 0 0 7 0 0 7 0 0 7 0 0 7 0 0 7 0 0 7 0 0 7 0 0 7 0 0 7 0 0 0 0 95 0 0 95 0 0 95 0 0 95 0 0 95 0 0 95 0 0 95 0 0 95 0 0 95 0 0 95 0 0 95 0 0 95 0 0 95 0 0 95 0 0 95 0 0 95 0 0 95 0 0 95 0 0 95 0 0 95 37 0 0 37 0 0 37 0 0 37 0 0 37 0 0 37 0 0 37 0 0 37 0 0 37 0 0 37 0 0 255 63 0 255 63 0 255 63 0 255 63 0 255 63 0 255 63 0 255 63 0 255 63 0 255 63 0 255 63 0 255 255 0 255 255 0 255 255 0 255 255 0 255 255 0 255 255 0 255 255 0 255 255 0 255 255 0 255 255 0 255 150 0 255 150 0 255 150 0 255 150 0 255 150 0 255 150 0 255 150 0 255 150 0 255 150 0 255 150 0 224 0 0 224 0 0 224 0 0 224 0 0 224 0 0 224 0 0 224 0 0 224 0 0 224 0 0 224 0 0 84 0 0 84 0 0 84 0 0 84 0 0 84 0 0 84 0 0 84 0 0 84 0 0 84 0 0 84 0 0 0 0 45 0 0 45 0 0 45 0 0 45 0 0 45 0 0 45 0 0 45 0 0 45 0 0 45 0 0 45 0 0 11 0 0 11 0 0 11 0 0 11 0 0 11 0 0 11 0 0 11 0 0 11 0 0 11 0 0 11 48 0 0 48 0 0 48 0 0 48 0 0 48 0 0 48 0 0 48 0 0 48 0 0 48 0 0 48 0 0 69 0 0 69 0 0 69 0 0 69 0 0 69 0 0 69 0 0 69 0 0 69 0 0 69 0 0 69 0 0 99 0 0 99 0 0 99 0 0 99 0 0 99 0 0 99 0 0 99 0 0 99 0 0 99 0 0 99 0 0 118 0 0 118 0 0 118 0 0 118 0 0 118 0 0 118 0 0 118 0 0 118 0 0 118 0 0 118 0 0 136 0 0 136 0 0 136 0 0 136 0 0 136 0 0 136 0 0 136 0 0 136 0 0 136 0 0 136 0 0 138 0 0 138 0 0 138 0 0 138 0 0 138 0 0 138 0 0 138 0 0 138 0 0 138 0 0 138 0 0 131 0 0 131 0 0 131 0 0 131 0 0 131 0 0 131 0 0 131 0 0 131 0 0 131 0 0 131 0 0 111 0 0 111 0 0 111 0 0 111 0 0 111 0 0 111 0 0 111 0 0 111 0 0 111 0 0 111 0 0 0 0 0 0 0 0 0 0 0 0 0 0 0 0 0 0 0 0 0 0 0 0 0 0 0 0 0 0 0 0 5 0 0 5 0 0 5 0 0 5 0 0 5 0 0 5 0 0 5 0 0 5 0 0 5 0 0 5 0 0 5 0 0 5 0 0 5 0 0 5 0 0 5 0 0 5 0 0 5 0 0 5 0 0 5 0 0 5 0 0 5 0 0 5 0 0 5 0 0 5 0 0 5 0 0 5 0 0 5 0 0 5 0 0 5 0 0 5 0 0 
154 0 0 154 0 0 154 0 0 154 0 0 154 0 0 154 0 0 154 0 0 154 0 0 154 0 0 154 0 0 138 0 0 138 0 0 138 0 0 138 0 0 138 0 0 138 0 0 138 0 0 138 0 0 138 0 0 138 0 0 143 0 0 143 0 0 143 0 0 143 0 0 143 0 0 143 0 0 143 0 0 143 0 0 143 0 0 143 0 0 119 0 0 119 0 0 119 0 0 119 0 0 119 0 0 119 0 0 119 0 0 119 0 0 119 0 0 119 0 0 131 0 0 131 0 0 131 0 0 131 0 0 131 0 0 131 0 0 131 0 0 131 0 0 131 0 0 131 0 0 99 0 0 99 0 0 99 0 0 99 0 0 99 0 0 99 0 0 99 0 0 99 0 0 99 0 0 99 0 0 99 0 0 99 0 0 99 0 0 99 0 0 99 0 0 99 0 0 99 0 0 99 0 0 99 0 0 99 0 0 62 0 0 62 0 0 62 0 0 62 0 0 62 0 0 62 0 0 62 0 0 62 0 0 62 0 0 62 0 0 39 0 0 39 0 0 39 0 0 39 0 0 39 0 0 39 0 0 39 0 0 39 0 0 39 0 0 39 0 0 7 0 0 7 0 0 7 0 0 7 0 0 7 0 0 7 0 0 7 0 0 7 0 0 7 0 0 7 0 0 0 0 95 0 0 95 0 0 95 0 0 95 0 0 95 0 0 95 0 0 95 0 0 95 0 0 95 0 0 95 0 0 95 0 0 95 0 0 95 0 0 95 0 0 95 0 0 95 0 0 95 0 0 95 0 0 95 0 0 95 37 0 0 37 0 0 37 0 0 37 0 0 37 0 0 37 0 0 37 0 0 37 0 0 37 0 0 37 0 0 255 63 0 255 63 0 255 63 0 255 63 0 255 63 0 255 63 0 255 63 0 255 63 0 255 63 0 255 63 0 255 255 0 255 255 0 255 255 0 255 255 0 255 255 0 255 255 0 255 255 0 255 255 0 255 255 0 255 255 0 255 150 0 255 150 0 255 150 0 255 150 0 255 150 0 255 150 0 255 150 0 255 150 0 255 150 0 255 150 0 224 0 0 224 0 0 224 0 0 224 0 0 224 0 0 224 0 0 224 0 0 224 0 0 224 0 0 224 0 0 84 0 0 84 0 0 84 0 0 84 0 0 84 0 0 84 0 0 84 0 0 84 0 0 84 0 0 84 0 0 0 0 45 0 0 45 0 0 45 0 0 45 0 0 45 0 0 45 0 0 45 0 0 45 0 0 45 0 0 45 0 0 11 0 0 11 0 0 11 0 0 11 0 0 11 0 0 11 0 0 11 0 0 11 0 0 11 0 0 11 48 0 0 48 0 0 48 0 0 48 0 0 48 0 0 48 0 0 48 0 0 48 0 0 48 0 0 48 0 0 69 0 0 69 0 0 69 0 0 69 0 0 69 0 0 69 0 0 69 0 0 69 0 0 69 0 0 69 0 0 99 0 0 99 0 0 99 0 0 99 0 0 99 0 0 99 0 0 99 0 0 99 0 0 99 0 0 99 0 0 118 0 0 118 0 0 118 0 0 118 0 0 118 0 0 118 0 0 118 0 0 118 0 0 118 0 0 118 0 0 136 0 0 136 0 0 136 0 0 136 0 0 136 0 0 136 0 0 136 0 0 136 0 0 136 0 0 136 0 0 138 0 0 138 0 0 138 0 0 138 0 0 138 0 0 138 0 0 138 0 0 138 0 0 138 0 0 138 0 0 131 0 0 131 0 0 131 0 0 131 0 0 131 0 0 131 0 0 131 0 0 131 0 0 131 0 0 131 0 0 111 0 0 111 0 0 111 0 0 111 0 0 111 0 0 111 0 0 111 0 0 111 0 0 111 0 0 111 0 0 0 0 0 0 0 0 0 0 0 0 0 0 0 0 0 0 0 0 0 0 0 0 0 0 0 0 0 0 0 0 1 0 0 1 0 0 1 0 0 1 0 0 1 0 0 1 0 0 1 0 0 1 0 0 1 0 0 1 0 0 1 0 0 1 0 0 1 0 0 1 0 0 1 0 0 1 0 0 1 0 0 1 0 0 1 0 0 1 0 0 1 0 0 1 0 0 1 0 0 1 0 0 1 0 0 1 0 0 1 0 0 1 0 0 1 0 0 1 0 0 
125 0 0 125 0 0 125 0 0 125 0 0 125 0 0 125 0 0 125 0 0 125 0 0 125 0 0 125 0 0 122 0 0 122 0 0 122 0 0 122 0 0 122 0 0 122 0 0 122 0 0 122 0 0 122 0 0 122 0 0 115 0 0 115 0 0 115 0 0 115 0 0 115 0 0 115 0 0 115 0 0 115 0 0 115 0 0 115 0 0 125 0 0 125 0 0 125 0 0 125 0 0 125 0 0 125 0 0 125 0 0 125 0 0 125 0 0 125 0 0 114 0 0 114 0 0 114 0 0 114 0 0 114 0 0 114 0 0 114 0 0 114 0 0 114 0 0 114 0 0 95 0 0 95 0 0 95 0 0 95 0 0 95 0 0 95 0 0 95 0 0 95 0 0 95 0 0 95 0 0 82 0 0 82 0 0 82 0 0 82 0 0 82 0 0 82 0 0 82 0 0 82 0 0 82 0 0 82 0 0 73 0 0 73 0 0 73 0 0 73 0 0 73 0 0 73 0 0 73 0 0 73 0 0 73 0 0 73 0 0 48 0 0 48 0 0 48 0 0 48 0 0 48 0 0 48 0 0 48 0 0 48 0 0 48 0 0 48 0 0 0 0 7 0 0 7 0 0 7 0 0 7 0 0 7 0 0 7 0 0 7 0 0 7 0 0 7 0 0 7 0 0 118 0 0 118 0 0 118 0 0 118 0 0 118 0 0 118 0 0 118 0 0 118 0 0 118 0 0 118 0 0 78 0 0 78 0 0 78 0 0 78 0 0 78 0 0 78 0 0 78 0 0 78 0 0 78 0 0 78 103 0 0 103 0 0 103 0 0 103 0 0 103 0 0 103 0 0 103 0 0 103 0 0 103 0 0 103 0 0 255 70 0 255 70 0 255 70 0 255 70 0 255 70 0 255 70 0 255 70 0 255 70 0 255 70 0 255 70 0 255 200 0 255 200 0 255 200 0 255 200 0 255 200 0 255 200 0 255 200 0 255 200 0 255 200 0 255 200 0 255 83 0 255 83 0 255 83 0 255 83 0 255 83 0 255 83 0 255 83 0 255 83 0 255 83 0 255 83 0 186 0 0 186 0 0 186 0 0 186 0 0 186 0 0 186 0 0 186 0 0 186 0 0 186 0 0 186 0 0 0 0 22 0 0 22 0 0 22 0 0 22 0 0 22 0 0 22 0 0 22 0 0 22 0 0 22 0 0 22 0 0 64 0 0 64 0 0 64 0 0 64 0 0 64 0 0 64 0 0 64 0 0 64 0 0 64 0 0 64 0 0 36 0 0 36 0 0 36 0 0 36 0 0 36 0 0 36 0 0 36 0 0 36 0 0 36 0 0 36 29 0 0 29 0 0 29 0 0 29 0 0 29 0 0 29 0 0 29 0 0 29 0 0 29 0 0 29 0 0 78 0 0 78 0 0 78 0 0 78 0 0 78 0 0 78 0 0 78 0 0 78 0 0 78 0 0 78 0 0 99 0 0 99 0 0 99 0 0 99 0 0 99 0 0 99 0 0 99 0 0 99 0 0 99 0 0 99 0 0 96 0 0 96 0 0 96 0 0 96 0 0 96 0 0 96 0 0 96 0 0 96 0 0 96 0 0 96 0 0 114 0 0 114 0 0 114 0 0 114 0 0 114 0 0 114 0 0 114 0 0 114 0 0 114 0 0 114 0 0 133 0 0 133 0 0 133 0 0 133 0 0 133 0 0 133 0 0 133 0 0 133 0 0 133 0 0 133 0 0 112 0 0 112 0 0 112 0 0 112 0 0 112 0 0 112 0 0 112 0 0 112 0 0 112 0 0 112 0 0 150 0 0 150 0 0 150 0 0 150 0 0 150 0 0 150 0 0 150 0 0 150 0 0 150 0 0 150 0 0 0 0 0 0 0 0 0 0 0 0 0 0 0 0 0 0 0 0 0 0 0 0 0 0 0 0 0 0 0 0 0 0 1 0 0 1 0 0 1 0 0 1 0 0 1 0 0 1 0 0 1 0 0 1 0 0 1 0 0 1 0 0 1 0 0 1 0 0 1 0 0 1 0 0 1 0 0 1 0 0 1 0 0 1 0 0 1 0 0 1 0 0 1 0 0 1 0 0 1 0 0 1 0 0 1 0 0 1 0 0 1 0 0 1 0 0 1 0 0 1 
125 0 0 125 0 0 125 0 0 125 0 0 125 0 0 125 0 0 125 0 0 125 0 0 125 0 0 125 0 0 122 0 0 122 0 0 122 0 0 122 0 0 122 0 0 122 0 0 122 0 0 122 0 0 122 0 0 122 0 0 115 0 0 115 0 0 115 0 0 115 0 0 115 0 0 115 0 0 115 0 0 115 0 0 115 0 0 115 0 0 125 0 0 125 0 0 125 0 0 125 0 0 125 0 0 125 0 0 125 0 0 125 0 0 125 0 0 125 0 0 114 0 0 114 0 0 114 0 0 114 0 0 114 0 0 114 0 0 114 0 0 114 0 0 114 0 0 114 0 0 95 0 0 95 0 0 95 0 0 95 0 0 95 0 0 95 0 0 95 0 0 95 0 0 95 0 0 95 0 0 82 0 0 82 0 0 82 0 0 82 0 0 82 0 0 82 0 0 82 0 0 82 0 0 82 0 0 82 0 0 73 0 0 73 0 0 73 0 0 73 0 0 73 0 0 73 0 0 73 0 0 73 0 0 73 0 0 73 0 0 48 0 0 48 0 0 48 0 0 48 0 0 48 0 0 48 0 0 48 0 0 48 0 0 48 0 0 48 0 0 0 0 7 0 0 7 0 0 7 0 0 7 0 0 7 0 0 7 0 0 7 0 0 7 0 0 7 0 0 7 0 0 118 0 0 118 0 0 118 0 0 118 0 0 118 0 0 118 0 0 118 0 0 118 0 0 118 0 0 118 0 0 78 0 0 78 0 0 78 0 0 78 0 0 78 0 0 78 0 0 78 0 0 78 0 0 78 0 0 78 103 0 0 103 0 0 103 0 0 103 0 0 103 0 0 103 0 0 103 0 0 103 0 0 103 0 0 103 0 0 255 70 0 255 70 0 255 70 0 255 70 0 255 70 0 255 70 0 255 70 0 255 70 0 255 70 0 255 70 0 255 200 0 255 200 0 255 200 0 255 200 0 255 200 0 255 200 0 255 200 0 255 200 0 255 200 0 255 200 0 255 83 0 255 83 0 255 83 0 255 83 0 255 83 0 255 83 0 255 83 0 255 83 0 255 83 0 255 83 0 186 0 0 186 0 0 186 0 0 186 0 0 186 0 0 186 0 0 186 0 0 186 0 0 186 0 0 186 0 0 0 0 22 0 0 22 0 0 22 0 0 22 0 0 22 0 0 22 0 0 22 0 0 22 0 0 22 0 0 22 0 0 64 0 0 64 0 0 64 0 0 64 0 0 64 0 0 64 0 0 64 0 0 64 0 0 64 0 0 64 0 0 36 0 0 36 0 0 36 0 0 36 0 0 36 0 0 36 0 0 36 0 0 36 0 0 36 0 0 36 29 0 0 29 0 0 29 0 0 29 0 0 29 0 0 29 0 0 29 0 0 29 0 0 29 0 0 29 0 0 78 0 0 78 0 0 78 0 0 78 0 0 78 0 0 78 0 0 78 0 0 78 0 0 78 0 0 78 0 0 99 0 0 99 0 0 99 0 0 99 0 0 99 0 0 99 0 0 99 0 0 99 0 0 99 0 0 99 0 0 96 0 0 96 0 0 96 0 0 96 0 0 96 0 0 96 0 0 96 0 0 96 0 0 96 0 0 96 0 0 114 0 0 114 0 0 114 0 0 114 0 0 114 0 0 114 0 0 114 0 0 114 0 0 114 0 0 114 0 0 133 0 0 133 0 0 133 0 0 133 0 0 133 0 0 133 0 0 133 0 0 133 0 0 133 0 0 133 0 0 112 0 0 112 0 0 112 0 0 112 0 0 112 0 0 112 0 0 112 0 0 112 0 0 112 0 0 112 0 0 150 0 0 150 0 0 150 0 0 150 0 0 150 0 0 150 0 0 150 0 0 150 0 0 150 0 0 150 0 0 0 0 0 0 0 0 0 0 0 0 0 0 0 0 0 0 0 0 0 0 0 0 0 0 0 0 0 0 0 0 0 0 5 0 0 5 0 0 5 0 0 5 0 0 5 0 0 5 0 0 5 0 0 5 0 0 5 0 0 5 0 0 5 0 0 5 0 0 5 0 0 5 0 0 5 0 0 5 0 0 5 0 0 5 0 0 5 0 0 5 0 0 5 0 0 5 0 0 5 0 0 5 0 0 5 0 0 5 0 0 5 0 0 5 0 0 5 0 0 5 
125 0 0 125 0 0 125 0 0 125 0 0 125 0 0 125 0 0 125 0 0 125 0 0 125 0 0 125 0 0 122 0 0 122 0 0 122 0 0 122 0 0 122 0 0 122 0 0 122 0 0 122 0 0 122 0 0 122 0 0 115 0 0 115 0 0 115 0 0 115 0 0 115 0 0 115 0 0 115 0 0 115 0 0 115 0 0 115 0 0 125 0 0 125 0 0 125 0 0 125 0 0 125 0 0 125 0 0 125 0 0 125 0 0 125 0 0 125 0 0 114 0 0 114 0 0 114 0 0 114 0 0 114 0 0 114 0 0 114 0 0 114 0 0 114 0 0 114 0 0 95 0 0 95 0 0 95 0 0 95 0 0 95 0 0 95 0 0 95 0 0 95 0 0 95 0 0 95 0 0 82 0 0 82 0 0 82 0 0 82 0 0 82 0 0 82 0 0 82 0 0 82 0 0 82 0 0 82 0 0 73 0 0 73 0 0 73 0 0 73 0 0 73 0 0 73 0 0 73 0 0 73 0 0 73 0 0 73 0 0 48 0 0 48 0 0 48 0 0 48 0 0 48 0 0 48 0 0 48 0 0 48 0 0 48 0 0 48 0 0 0 0 7 0 0 7 0 0 7 0 0 7 0 0 7 0 0 7 0 0 7 0 0 7 0 0 7 0 0 7 0 0 118 0 0 118 0 0 118 0 0 118 0 0 118 0 0 118 0 0 118 0 0 118 0 0 118 0 0 118 0 0 78 0 0 78 0 0 78 0 0 78 0 0 78 0 0 78 0 0 78 0 0 78 0 0 78 0 0 78 103 0 0 103 0 0 103 0 0 103 0 0 103 0 0 103 0 0 103 0 0 103 0 0 103 0 0 103 0 0 255 70 0 255 70 0 255 70 0 255 70 0 255 70 0 255 70 0 255 70 0 255 70 0 255 70 0 255 70 0 255 200 0 255 200 0 255 200 0 255 200 0 255 200 0 255 200 0 255 200 0 255 200 0 255 200 0 255 200 0 255 83 0 255 83 0 255 83 0 255 83 0 255 83 0 255 83 0 255 83 0 255 83 0 255 83 0 255 83 0 186 0 0 186 0 0 186 0 0 186 0 0 186 0 0 186 0 0 186 0 0 186 0 0 186 0 0 186 0 0 0 0 22 0 0 22 0 0 22 0 0 22 0 0 22 0 0 22 0 0 22 0 0 22 0 0 22 0 0 22 0 0 64 0 0 64 0 0 64 0 0 64 0 0 64 0 0 64 0 0 64 0 0 64 0 0 64 0 0 64 0 0 36 0 0 36 0 0 36 0 0 36 0 0 36 0 0 36 0 0 36 0 0 36 0 0 36 0 0 36 29 0 0 29 0 0 29 0 0 29 0 0 29 0 0 29 0 0 29 0 0 29 0 0 29 0 0 29 0 0 78 0 0 78 0 0 78 0 0 78 0 0 78 0 0 78 0 0 78 0 0 78 0 0 78 0 0 78 0 0 99 0 0 99 0 0 99 0 0 99 0 0 99 0 0 99 0 0 99 0 0 99 0 0 99 0 0 99 0 0 96 0 0 96 0 0 96 0 0 96 0 0 96 0 0 96 0 0 96 0 0 96 0 0 96 0 0 96 0 0 114 0 0 114 0 0 114 0 0 114 0 0 114 0 0 114 0 0 114 0 0 114 0 0 114 0 0 114 0 0 133 0 0 133 0 0 133 0 0 133 0 0 133 0 0 133 0 0 133 0 0 133 0 0 133 0 0 133 0 0 112 0 0 112 0 0 112 0 0 112 0 0 112 0 0 112 0 0 112 0 0 112 0 0 112 0 0 112 0 0 150 0 0 150 0 0 150 0 0 150 0 0 150 0 0 150 0 0 150 0 0 150 0 0 150 0 0 150 0 0 0 0 0 0 0 0 0 0 0 0 0 0 0 0 0 0 0 0 0 0 0 0 0 0 0 0 0 0 0 0 0 0 9 0 0 9 0 0 9 0 0 9 0 0 9 0 0 9 0 0 9 0 0 9 0 0 9 0 0 9 0 0 9 0 0 9 0 0 9 0 0 9 0 0 9 0 0 9 0 0 9 0 0 9 0 0 9 0 0 9 0 0 9 0 0 9 0 0 9 0 0 9 0 0 9 0 0 9 0 0 9 0 0 9 0 0 9 0 0 9 
125 0 0 125 0 0 125 0 0 125 0 0 125 0 0 125 0 0 125 0 0 125 0 0 125 0 0 125 0 0 122 0 0 122 0 0 122 0 0 122 0 0 122 0 0 122 0 0 122 0 0 122 0 0 122 0 0 122 0 0 115 0 0 115 0 0 115 0 0 115 0 0 115 0 0 115 0 0 115 0 0 115 0 0 115 0 0 115 0 0 125 0 0 125 0 0 125 0 0 125 0 0 125 0 0 125 0 0 125 0 0 125 0 0 125 0 0 125 0 0 114 0 0 114 0 0 114 0 0 114 0 0 114 0 0 114 0 0 114 0 0 114 0 0 114 0 0 114 0 0 95 0 0 95 0 0 95 0 0 95 0 0 95 0 0 95 0 0 95 0 0 95 0 0 95 0 0 95 0 0 82 0 0 82 0 0 82 0 0 82 0 0 82 0 0 82 0 0 82 0 0 82 0 0 82 0 0 82 0 0 73 0 0 73 0 0 73 0 0 73 0 0 73 0 0 73 0 0 73 0 0 73 0 0 73 0 0 73 0 0 48 0 0 48 0 0 48 0 0 48 0 0 48 0 0 48 0 0 48 0 0 48 0 0 48 0 0 48 0 0 0 0 7 0 0 7 0 0 7 0 0 7 0 0 7 0 0 7 0 0 7 0 0 7 0 0 7 0 0 7 0 0 118 0 0 118 0 0 118 0 0 118 0 0 118 0 0 118 0 0 118 0 0 118 0 0 118 0 0 118 0 0 78 0 0 78 0 0 78 0 0 78 0 0 78 0 0 78 0 0 78 0 0 78 0 0 78 0 0 78 103 0 0 103 0 0 103 0 0 103 0 0 103 0 0 103 0 0 103 0 0 103 0 0 103 0 0 103 0 0 255 70 0 255 70 0 255 70 0 255 70 0 255 70 0 255 70 0 255 70 0 255 70 0 255 70 0 255 70 0 255 200 0 255 200 0 255 200 0 255 200 0 255 200 0 255 200 0 255 200 0 255 200 0 255 200 0 255 200 0 255 83 0 255 83 0 255 83 0 255 83 0 255 83 0 255 83 0 255 83 0 255 83 0 255 83 0 255 83 0 186 0 0 186 0 0 186 0 0 186 0 0 186 0 0 186 0 0 186 0 0 186 0 0 186 0 0 186 0 0 0 0 22 0 0 22 0 0 22 0 0 22 0 0 22 0 0 22 0 0 22 0 0 22 0 0 22 0 0 22 0 0 64 0 0 64 0 0 64 0 0 64 0 0 64 0 0 64 0 0 64 0 0 64 0 0 64 0 0 64 0 0 36 0 0 36 0 0 36 0 0 36 0 0 36 0 0 36 0 0 36 0 0 36 0 0 36 0 0 36 29 0 0 29 0 0 29 0 0 29 0 0 29 0 0 29 0 0 29 0 0 29 0 0 29 0 0 29 0 0 78 0 0 78 0 0 78 0 0 78 0 0 78 0 0 78 0 0 78 0 0 78 0 0 78 0 0 78 0 0 99 0 0 99 0 0 99 0 0 99 0 0 99 0 0 99 0 0 99 0 0 99 0 0 99 0 0 99 0 0 96 0 0 96 0 0 96 0 0 96 0 0 96 0 0 96 0 0 96 0 0 96 0 0 96 0 0 96 0 0 114 0 0 114 0 0 114 0 0 114 0 0 114 0 0 114 0 0 114 0 0 114 0 0 114 0 0 114 0 0 133 0 0 133 0 0 133 0 0 133 0 0 133 0 0 133 0 0 133 0 0 133 0 0 133 0 0 133 0 0 112 0 0 112 0 0 112 0 0 112 0 0 112 0 0 112 0 0 112 0 0 112 0 0 112 0 0 112 0 0 150 0 0 150 0 0 150 0 0 150 0 0 150 0 0 150 0 0 150 0 0 150 0 0 150 0 0 150 0 0 0 0 0 0 0 0 0 0 0 0 0 0 0 0 0 0 0 0 0 0 0 0 0 0 0 0 0 0 0 0 0 0 12 0 0 12 0 0 12 0 0 12 0 0 12 0 0 12 0 0 12 0 0 12 0 0 12 0 0 12 0 0 12 0 0 12 0 0 12 0 0 12 0 0 12 0 0 12 0 0 12 0 0 12 0 0 12 0 0 12 0 0 12 0 0 12 0 0 12 0 0 12 0 0 12 0 0 12 0 0 12 0 0 12 0 0 12 0 0 12 
125 0 0 125 0 0 125 0 0 125 0 0 125 0 0 125 0 0 125 0 0 125 0 0 125 0 0 125 0 0 122 0 0 122 0 0 122 0 0 122 0 0 122 0 0 122 0 0 122 0 0 122 0 0 122 0 0 122 0 0 115 0 0 115 0 0 115 0 0 115 0 0 115 0 0 115 0 0 115 0 0 115 0 0 115 0 0 115 0 0 125 0 0 125 0 0 125 0 0 125 0 0 125 0 0 125 0 0 125 0 0 125 0 0 125 0 0 125 0 0 114 0 0 114 0 0 114 0 0 114 0 0 114 0 0 114 0 0 114 0 0 114 0 0 114 0 0 114 0 0 95 0 0 95 0 0 95 0 0 95 0 0 95 0 0 95 0 0 95 0 0 95 0 0 95 0 0 95 0 0 82 0 0 82 0 0 82 0 0 82 0 0 82 0 0 82 0 0 82 0 0 82 0 0 82 0 0 82 0 0 73 0 0 73 0 0 73 0 0 73 0 0 73 0 0 73 0 0 73 0 0 73 0 0 73 0 0 73 0 0 48 0 0 48 0 0 48 0 0 48 0 0 48 0 0 48 0 0 48 0 0 48 0 0 48 0 0 48 0 0 0 0 7 0 0 7 0 0 7 0 0 7 0 0 7 0 0 7 0 0 7 0 0 7 0 0 7 0 0 7 0 0 118 0 0 118 0 0 118 0 0 118 0 0 118 0 0 118 0 0 118 0 0 118 0 0 118 0 0 118 0 0 78 0 0 78 0 0 78 0 0 78 0 0 78 0 0 78 0 0 78 0 0 78 0 0 78 0 0 78 103 0 0 103 0 0 103 0 0 103 0 0 103 0 0 103 0 0 103 0 0 103 0 0 103 0 0 103 0 0 255 70 0 255 70 0 255 70 0 255 70 0 255 70 0 255 70 0 255 70 0 255 70 0 255 70 0 255 70 0 255 200 0 255 200 0 255 200 0 255 200 0 255 200 0 255 200 0 255 200 0 255 200 0 255 200 0 255 200 0 255 83 0 255 83 0 255 83 0 255 83 0 255 83 0 255 83 0 255 83 0 255 83 0 255 83 0 255 83 0 186 0 0 186 0 0 186 0 0 186 0 0 186 0 0 186 0 0 186 0 0 186 0 0 186 0 0 186 0 0 0 0 22 0 0 22 0 0 22 0 0 22 0 0 22 0 0 22 0 0 22 0 0 22 0 0 22 0 0 22 0 0 64 0 0 64 0 0 64 0 0 64 0 0 64 0 0 64 0 0 64 0 0 64 0 0 64 0 0 64 0 0 36 0 0 36 0 0 36 0 0 36 0 0 36 0 0 36 0 0 36 0 0 36 0 0 36 0 0 36 29 0 0 29 0 0 29 0 0 29 0 0 29 0 0 29 0 0 29 0 0 29 0 0 29 0 0 29 0 0 78 0 0 78 0 0 78 0 0 78 0 0 78 0 0 78 0 0 78 0 0 78 0 0 78 0 0 78 0 0 99 0 0 99 0 0 99 0 0 99 0 0 99 0 0 99 0 0 99 0 0 99 0 0 99 0 0 99 0 0 96 0 0 96 0 0 96 0 0 96 0 0 96 0 0 96 0 0 96 0 0 96 0 0 96 0 0 96 0 0 114 0 0 114 0 0 114 0 0 114 0 0 114 0 0 114 0 0 114 0 0 114 0 0 114 0 0 114 0 0 133 0 0 133 0 0 133 0 0 133 0 0 133 0 0 133 0 0 133 0 0 133 0 0 133 0 0 133 0 0 112 0 0 112 0 0 112 0 0 112 0 0 112 0 0 112 0 0 112 0 0 112 0 0 112 0 0 112 0 0 150 0 0 150 0 0 150 0 0 150 0 0 150 0 0 150 0 0 150 0 0 150 0 0 150 0 0 150 0 0 0 0 0 0 0 0 0 0 0 0 0 0 0 0 0 0 0 0 0 0 0 0 0 0 0 0 0 0 0 0 0 0 16 0 0 16 0 0 16 0 0 16 0 0 16 0 0 16 0 0 16 0 0 16 0 0 16 0 0 16 0 0 16 0 0 16 0 0 16 0 0 16 0 0 16 0 0 16 0 0 16 0 0 16 0 0 16 0 0 16 0 0 16 0 0 16 0 0 16 0 0 16 0 0 16 0 0 16 0 0 16 0 0 16 0 0 16 0 0 16 
125 0 0 125 0 0 125 0 0 125 0 0 125 0 0 125 0 0 125 0 0 125 0 0 125 0 0 125 0 0 122 0 0 122 0 0 122 0 0 122 0 0 122 0 0 122 0 0 122 0 0 122 0 0 122 0 0 122 0 0 115 0 0 115 0 0 115 0 0 115 0 0 115 0 0 115 0 0 115 0 0 115 0 0 115 0 0 115 0 0 125 0 0 125 0 0 125 0 0 125 0 0 125 0 0 125 0 0 125 0 0 125 0 0 125 0 0 125 0 0 114 0 0 114 0 0 114 0 0 114 0 0 114 0 0 114 0 0 114 0 0 114 0 0 114 0 0 114 0 0 95 0 0 95 0 0 95 0 0 95 0 0 95 0 0 95 0 0 95 0 0 95 0 0 95 0 0 95 0 0 82 0 0 82 0 0 82 0 0 82 0 0 82 0 0 82 0 0 82 0 0 82 0 0 82 0 0 82 0 0 73 0 0 73 0 0 73 0 0 73 0 0 73 0 0 73 0 0 73 0 0 73 0 0 73 0 0 73 0 0 48 0 0 48 0 0 48 0 0 48 0 0 48 0 0 48 0 0 48 0 0 48 0 0 48 0 0 48 0 0 0 0 7 0 0 7 0 0 7 0 0 7 0 0 7 0 0 7 0 0 7 0 0 7 0 0 7 0 0 7 0 0 118 0 0 118 0 0 118 0 0 118 0 0 118 0 0 118 0 0 118 0 0 118 0 0 118 0 0 118 0 0 78 0 0 78 0 0 78 0 0 78 0 0 78 0 0 78 0 0 78 0 0 78 0 0 78 0 0 78 103 0 0 103 0 0 103 0 0 103 0 0 103 0 0 103 0 0 103 0 0 103 0 0 103 0 0 103 0 0 255 70 0 255 70 0 255 70 0 255 70 0 255 70 0 255 70 0 255 70 0 255 70 0 255 70 0 255 70 0 255 200 0 255 200 0 255 200 0 255 200 0 255 200 0 255 200 0 255 200 0 255 200 0 255 200 0 255 200 0 255 83 0 255 83 0 255 83 0 255 83 0 255 83 0 255 83 0 255 83 0 255 83 0 255 83 0 255 83 0 186 0 0 186 0 0 186 0 0 186 0 0 186 0 0 186 0 0 186 0 0 186 0 0 186 0 0 186 0 0 0 0 22 0 0 22 0 0 22 0 0 22 0 0 22 0 0 22 0 0 22 0 0 22 0 0 22 0 0 22 0 0 64 0 0 64 0 0 64 0 0 64 0 0 64 0 0 64 0 0 64 0 0 64 0 0 64 0 0 64 0 0 36 0 0 36 0 0 36 0 0 36 0 0 36 0 0 36 0 0 36 0 0 36 0 0 36 0 0 36 29 0 0 29 0 0 29 0 0 29 0 0 29 0 0 29 0 0 29 0 0 29 0 0 29 0 0 29 0 0 78 0 0 78 0 0 78 0 0 78 0 0 78 0 0 78 0 0 78 0 0 78 0 0 78 0 0 78 0 0 99 0 0 99 0 0 99 0 0 99 0 0 99 0 0 99 0 0 99 0 0 99 0 0 99 0 0 99 0 0 96 0 0 96 0 0 96 0 0 96 0 0 96 0 0 96 0 0 96 0 0 96 0 0 96 0 0 96 0 0 114 0 0 114 0 0 114 0 0 114 0 0 114 0 0 114 0 0 114 0 0 114 0 0 114 0 0 114 0 0 133 0 0 133 0 0 133 0 0 133 0 0 133 0 0 133 0 0 133 0 0 133 0 0 133 0 0 133 0 0 112 0 0 112 0 0 112 0 0 112 0 0 112 0 0 112 0 0 112 0 0 112 0 0 112 0 0 112 0 0 150 0 0 150 0 0 150 0 0 150 0 0 150 0 0 150 0 0 150 0 0 150 0 0 150 0 0 150 0 0 0 0 0 0 0 0 0 0 0 0 0 0 0 0 0 0 0 0 0 0 0 0 0 0 0 0 0 0 0 0 0 0 20 0 0 20 0 0 20 0 0 20 0 0 20 0 0 20 0 0 20 0 0 20 0 0 20 0 0 20 0 0 20 0 0 20 0 0 20 0 0 20 0 0 20 0 0 20 0 0 20 0 0 20 0 0 20 0 0 20 0 0 20 0 0 20 0 0 20 0 0 20 0 0 20 0 0 20 0 0 20 0 0 20 0 0 20 0 0 20 
125 0 0 125 0 0 125 0 0 125 0 0 125 0 0 125 0 0 125 0 0 125 0 0 125 0 0 125 0 0 122 0 0 122 0 0 122 0 0 122 0 0 122 0 0 122 0 0 122 0 0 122 0 0 122 0 0 122 0 0 115 0 0 115 0 0 115 0 0 115 0 0 115 0 0 115 0 0 115 0 0 115 0 0 115 0 0 115 0 0 125 0 0 125 0 0 125 0 0 125 0 0 125 0 0 125 0 0 125 0 0 125 0 0 125 0 0 125 0 0 114 0 0 114 0 0 114 0 0 114 0 0 114 0 0 114 0 0 114 0 0 114 0 0 114 0 0 114 0 0 95 0 0 95 0 0 95 0 0 95 0 0 95 0 0 95 0 0 95 0 0 95 0 0 95 0 0 95 0 0 82 0 0 82 0 0 82 0 0 82 0 0 82 0 0 82 0 0 82 0 0 82 0 0 82 0 0 82 0 0 73 0 0 73 0 0 73 0 0 73 0 0 73 0 0 73 0 0 73 0 0 73 0 0 73 0 0 73 0 0 48 0 0 48 0 0 48 0 0 48 0 0 48 0 0 48 0 0 48 0 0 48 0 0 48 0 0 48 0 0 0 0 7 0 0 7 0 0 7 0 0 7 0 0 7 0 0 7 0 0 7 0 0 7 0 0 7 0 0 7 0 0 118 0 0 118 0 0 118 0 0 118 0 0 118 0 0 118 0 0 118 0 0 118 0 0 118 0 0 118 0 0 78 0 0 78 0 0 78 0 0 78 0 0 78 0 0 78 0 0 78 0 0 78 0 0 78 0 0 78 103 0 0 103 0 0 103 0 0 103 0 0 103 0 0 103 0 0 103 0 0 103 0 0 103 0 0 103 0 0 255 70 0 255 70 0 255 70 0 255 70 0 255 70 0 255 70 0 255 70 0 255 70 0 255 70 0 255 70 0 255 200 0 255 200 0 255 200 0 255 200 0 255 200 0 255 200 0 255 200 0 255 200 0 255 200 0 255 200 0 255 83 0 255 83 0 255 83 0 255 83 0 255 83 0 255 83 0 255 83 0 255 83 0 255 83 0 255 83 0 186 0 0 186 0 0 186 0 0 186 0 0 186 0 0 186 0 0 186 0 0 186 0 0 186 0 0 186 0 0 0 0 22 0 0 22 0 0 22 0 0 22 0 0 22 0 0 22 0 0 22 0 0 22 0 0 22 0 0 22 0 0 64 0 0 64 0 0 64 0 0 64 0 0 64 0 0 64 0 0 64 0 0 64 0 0 64 0 0 64 0 0 36 0 0 36 0 0 36 0 0 36 0 0 36 0 0 36 0 0 36 0 0 36 0 0 36 0 0 36 29 0 0 29 0 0 29 0 0 29 0 0 29 0 0 29 0 0 29 0 0 29 0 0 29 0 0 29 0 0 78 0 0 78 0 0 78 0 0 78 0 0 78 0 0 78 0 0 78 0 0 78 0 0 78 0 0 78 0 0 99 0 0 99 0 0 99 0 0 99 0 0 99 0 0 99 0 0 99 0 0 99 0 0 99 0 0 99 0 0 96 0 0 96 0 0 96 0 0 96 0 0 96 0 0 96 0 0 96 0 0 96 0 0 96 0 0 96 0 0 114 0 0 114 0 0 114 0 0 114 0 0 114 0 0 114 0 0 114 0 0 114 0 0 114 0 0 114 0 0 133 0 0 133 0 0 133 0 0 133 0 0 133 0 0 133 0 0 133 0 0 133 0 0 133 0 0 133 0 0 112 0 0 112 0 0 112 0 0 112 0 0 112 0 0 112 0 0 112 0 0 112 0 0 112 0 0 112 0 0 150 0 0 150 0 0 150 0 0 150 0 0 150 0 0 150 0 0 150 0 0 150 0 0 150 0 0 150 0 0 0 0 0 0 0 0 0 0 0 0 0 0 0 0 0 0 0 0 0 0 0 0 0 0 0 0 0 0 0 0 0 0 23 0 0 23 0 0 23 0 0 23 0 0 23 0 0 23 0 0 23 0 0 23 0 0 23 0 0 23 0 0 23 0 0 23 0 0 23 0 0 23 0 0 23 0 0 23 0 0 23 0 0 23 0 0 23 0 0 23 0 0 23 0 0 23 0 0 23 0 0 23 0 0 23 0 0 23 0 0 23 0 0 23 0 0 23 0 0 23 
125 0 0 125 0 0 125 0 0 125 0 0 125 0 0 125 0 0 125 0 0 125 0 0 125 0 0 125 0 0 122 0 0 122 0 0 122 0 0 122 0 0 122 0 0 122 0 0 122 0 0 122 0 0 122 0 0 122 0 0 115 0 0 115 0 0 115 0 0 115 0 0 115 0 0 115 0 0 115 0 0 115 0 0 115 0 0 115 0 0 125 0 0 125 0 0 125 0 0 125 0 0 125 0 0 125 0 0 125 0 0 125 0 0 125 0 0 125 0 0 114 0 0 114 0 0 114 0 0 114 0 0 114 0 0 114 0 0 114 0 0 114 0 0 114 0 0 114 0 0 95 0 0 95 0 0 95 0 0 95 0 0 95 0 0 95 0 0 95 0 0 95 0 0 95 0 0 95 0 0 82 0 0 82 0 0 82 0 0 82 0 0 82 0 0 82 0 0 82 0 0 82 0 0 82 0 0 82 0 0 73 0 0 73 0 0 73 0 0 73 0 0 73 0 0 73 0 0 73 0 0 73 0 0 73 0 0 73 0 0 48 0 0 48 0 0 48 0 0 48 0 0 48 0 0 48 0 0 48 0 0 48 0 0 48 0 0 48 0 0 0 0 7 0 0 7 0 0 7 0 0 7 0 0 7 0 0 7 0 0 7 0 0 7 0 0 7 0 0 7 0 0 118 0 0 118 0 0 118 0 0 118 0 0 118 0 0 118 0 0 118 0 0 118 0 0 118 0 0 118 0 0 78 0 0 78 0 0 78 0 0 78 0 0 78 0 0 78 0 0 78 0 0 78 0 0 78 0 0 78 103 0 0 103 0 0 103 0 0 103 0 0 103 0 0 103 0 0 103 0 0 103 0 0 103 0 0 103 0 0 255 70 0 255 70 0 255 70 0 255 70 0 255 70 0 255 70 0 255 70 0 255 70 0 255 70 0 255 70 0 255 200 0 255 200 0 255 200 0 255 200 0 255 200 0 255 200 0 255 200 0 255 200 0 255 200 0 255 200 0 255 83 0 255 83 0 255 83 0 255 83 0 255 83 0 255 83 0 255 83 0 255 83 0 255 83 0 255 83 0 186 0 0 186 0 0 186 0 0 186 0 0 186 0 0 186 0 0 186 0 0 186 0 0 186 0 0 186 0 0 0 0 22 0 0 22 0 0 22 0 0 22 0 0 22 0 0 22 0 0 22 0 0 22 0 0 22 0 0 22 0 0 64 0 0 64 0 0 64 0 0 64 0 0 64 0 0 64 0 0 64 0 0 64 0 0 64 0 0 64 0 0 36 0 0 36 0 0 36 0 0 36 0 0 36 0 0 36 0 0 36 0 0 36 0 0 36 0 0 36 29 0 0 29 0 0 29 0 0 29 0 0 29 0 0 29 0 0 29 0 0 29 0 0 29 0 0 29 0 0 78 0 0 78 0 0 78 0 0 78 0 0 78 0 0 78 0 0 78 0 0 78 0 0 78 0 0 78 0 0 99 0 0 99 0 0 99 0 0 99 0 0 99 0 0 99 0 0 99 0 0 99 0 0 99 0 0 99 0 0 96 0 0 96 0 0 96 0 0 96 0 0 96 0 0 96 0 0 96 0 0 96 0 0 96 0 0 96 0 0 114 0 0 114 0 0 114 0 0 114 0 0 114 0 0 114 0 0 114 0 0 114 0 0 114 0 0 114 0 0 133 0 0 133 0 0 133 0 0 133 0 0 133 0 0 133 0 0 133 0 0 133 0 0 133 0 0 133 0 0 112 0 0 112 0 0 112 0 0 112 0 0 112 0 0 112 0 0 112 0 0 112 0 0 112 0 0 112 0 0 150 0 0 150 0 0 150 0 0 150 0 0 150 0 0 150 0 0 150 0 0 150 0 0 150 0 0 150 0 0 0 0 0 0 0 0 0 0 0 0 0 0 0 0 0 0 0 0 0 0 0 0 0 0 0 0 0 0 0 0 0 0 27 0 0 27 0 0 27 0 0 27 0 0 27 0 0 27 0 0 27 0 0 27 0 0 27 0 0 27 0 0 27 0 0 27 0 0 27 0 0 27 0 0 27 0 0 27 0 0 27 0 0 27 0 0 27 0 0 27 0 0 27 0 0 27 0 0 27 0 0 27 0 0 27 0 0 27 0 0 27 0 0 27 0 0 27 0 0 27 
125 0 0 125 0 0 125 0 0 125 0 0 125 0 0 125 0 0 125 0 0 125 0 0 125 0 0 125 0 0 122 0 0 122 0 0 122 0 0 122 0 0 122 0 0 122 0 0 122 0 0 122 0 0 122 0 0 122 0 0 115 0 0 115 0 0 115 0 0 115 0 0 115 0 0 115 0 0 115 0 0 115 0 0 115 0 0 115 0 0 125 0 0 125 0 0 125 0 0 125 0 0 125 0 0 125 0 0 125 0 0 125 0 0 125 0 0 125 0 0 114 0 0 114 0 0 114 0 0 114 0 0 114 0 0 114 0 0 114 0 0 114 0 0 114 0 0 114 0 0 95 0 0 95 0 0 95 0 0 95 0 0 95 0 0 95 0 0 95 0 0 95 0 0 95 0 0 95 0 0 82 0 0 82 0 0 82 0 0 82 0 0 82 0 0 82 0 0 82 0 0 82 0 0 82 0 0 82 0 0 73 0 0 73 0 0 73 0 0 73 0 0 73 0 0 73 0 0 73 0 0 73 0 0 73 0 0 73 0 0 48 0 0 48 0 0 48 0 0 48 0 0 48 0 0 48 0 0 48 0 0 48 0 0 48 0 0 48 0 0 0 0 7 0 0 7 0 0 7 0 0 7 0 0 7 0 0 7 0 0 7 0 0 7 0 0 7 0 0 7 0 0 118 0 0 118 0 0 118 0 0 118 0 0 118 0 0 118 0 0 118 0 0 118 0 0 118 0 0 118 0 0 78 0 0 78 0 0 78 0 0 78 0 0 78 0 0 78 0 0 78 0 0 78 0 0 78 0 0 78 103 0 0 103 0 0 103 0 0 103 0 0 103 0 0 103 0 0 103 0 0 103 0 0 103 0 0 103 0 0 255 70 0 255 70 0 255 70 0 255 70 0 255 70 0 255 70 0 255 70 0 255 70 0 255 70 0 255 70 0 255 200 0 255 200 0 255 200 0 255 200 0 255 200 0 255 200 0 255 200 0 255 200 0 255 200 0 255 200 0 255 83 0 255 83 0 255 83 0 255 83 0 255 83 0 255 83 0 255 83 0 255 83 0 255 83 0 255 83 0 186 0 0 186 0 0 186 0 0 186 0 0 186 0 0 186 0 0 186 0 0 186 0 0 186 0 0 186 0 0 0 0 22 0 0 22 0 0 22 0 0 22 0 0 22 0 0 22 0 0 22 0 0 22 0 0 22 0 0 22 0 0 64 0 0 64 0 0 64 0 0 64 0 0 64 0 0 64 0 0 64 0 0 64 0 0 64 0 0 64 0 0 36 0 0 36 0 0 36 0 0 36 0 0 36 0 0 36 0 0 36 0 0 36 0 0 36 0 0 36 29 0 0 29 0 0 29 0 0 29 0 0 29 0 0 29 0 0 29 0 0 29 0 0 29 0 0 29 0 0 78 0 0 78 0 0 78 0 0 78 0 0 78 0 0 78 0 0 78 0 0 78 0 0 78 0 0 78 0 0 99 0 0 99 0 0 99 0 0 99 0 0 99 0 0 99 0 0 99 0 0 99 0 0 99 0 0 99 0 0 96 0 0 96 0 0 96 0 0 96 0 0 96 0 0 96 0 0 96 0 0 96 0 0 96 0 0 96 0 0 114 0 0 114 0 0 114 0 0 114 0 0 114 0 0 114 0 0 114 0 0 114 0 0 114 0 0 114 0 0 133 0 0 133 0 0 133 0 0 133 0 0 133 0 0 133 0 0 133 0 0 133 0 0 133 0 0 133 0 0 112 0 0 112 0 0 112 0 0 112 0 0 112 0 0 112 0 0 112 0 0 112 0 0 112 0 0 112 0 0 150 0 0 150 0 0 150 0 0 150 0 0 150 0 0 150 0 0 150 0 0 150 0 0 150 0 0 150 0 0 0 0 0 0 0 0 0 0 0 0 0 0 0 0 0 0 0 0 0 0 0 0 0 0 0 0 0 0 0 0 0 0 31 0 0 31 0 0 31 0 0 31 0 0 31 0 0 31 0 0 31 0 0 31 0 0 31 0 0 31 0 0 31 0 0 31 0 0 31 0 0 31 0 0 31 0 0 31 0 0 31 0 0 31 0 0 31 0 0 31 0 0 31 0 0 31 0 0 31 0 0 31 0 0 31 0 0 31 0 0 31 0 0 31 0 0 31 0 0 31 
125 0 0 125 0 0 125 0 0 125 0 0 125 0 0 125 0 0 125 0 0 125 0 0 125 0 0 125 0 0 122 0 0 122 0 0 122 0 0 122 0 0 122 0 0 122 0 0 122 0 0 122 0 0 122 0 0 122 0 0 115 0 0 115 0 0 115 0 0 115 0 0 115 0 0 115 0 0 115 0 0 115 0 0 115 0 0 115 0 0 125 0 0 125 0 0 125 0 0 125 0 0 125 0 0 125 0 0 125 0 0 125 0 0 125 0 0 125 0 0 114 0 0 114 0 0 114 0 0 114 0 0 114 0 0 114 0 0 114 0 0 114 0 0 114 0 0 114 0 0 95 0 0 95 0 0 95 0 0 95 0 0 95 0 0 95 0 0 95 0 0 95 0 0 95 0 0 95 0 0 82 0 0 82 0 0 82 0 0 82 0 0 82 0 0 82 0 0 82 0 0 82 0 0 82 0 0 82 0 0 73 0 0 73 0 0 73 0 0 73 0 0 73 0 0 73 0 0 73 0 0 73 0 0 73 0 0 73 0 0 48 0 0 48 0 0 48 0 0 48 0 0 48 0 0 48 0 0 48 0 0 48 0 0 48 0 0 48 0 0 0 0 7 0 0 7 0 0 7 0 0 7 0 0 7 0 0 7 0 0 7 0 0 7 0 0 7 0 0 7 0 0 118 0 0 118 0 0 118 0 0 118 0 0 118 0 0 118 0 0 118 0 0 118 0 0 118 0 0 118 0 0 78 0 0 78 0 0 78 0 0 78 0 0 78 0 0 78 0 0 78 0 0 78 0 0 78 0 0 78 103 0 0 103 0 0 103 0 0 103 0 0 103 0 0 103 0 0 103 0 0 103 0 0 103 0 0 103 0 0 255 70 0 255 70 0 255 70 0 255 70 0 255 70 0 255 70 0 255 70 0 255 70 0 255 70 0 255 70 0 255 200 0 255 200 0 255 200 0 255 200 0 255 200 0 255 200 0 255 200 0 255 200 0 255 200 0 255 200 0 255 83 0 255 83 0 255 83 0 255 83 0 255 83 0 255 83 0 255 83 0 255 83 0 255 83 0 255 83 0 186 0 0 186 0 0 186 0 0 186 0 0 186 0 0 186 0 0 186 0 0 186 0 0 186 0 0 186 0 0 0 0 22 0 0 22 0 0 22 0 0 22 0 0 22 0 0 22 0 0 22 0 0 22 0 0 22 0 0 22 0 0 64 0 0 64 0 0 64 0 0 64 0 0 64 0 0 64 0 0 64 0 0 64 0 0 64 0 0 64 0 0 36 0 0 36 0 0 36 0 0 36 0 0 36 0 0 36 0 0 36 0 0 36 0 0 36 0 0 36 29 0 0 29 0 0 29 0 0 29 0 0 29 0 0 29 0 0 29 0 0 29 0 0 29 0 0 29 0 0 78 0 0 78 0 0 78 0 0 78 0 0 78 0 0 78 0 0 78 0 0 78 0 0 78 0 0 78 0 0 99 0 0 99 0 0 99 0 0 99 0 0 99 0 0 99 0 0 99 0 0 99 0 0 99 0 0 99 0 0 96 0 0 96 0 0 96 0 0 96 0 0 96 0 0 96 0 0 96 0 0 96 0 0 96 0 0 96 0 0 114 0 0 114 0 0 114 0 0 114 0 0 114 0 0 114 0 0 114 0 0 114 0 0 114 0 0 114 0 0 133 0 0 133 0 0 133 0 0 133 0 0 133 0 0 133 0 0 133 0 0 133 0 0 133 0 0 133 0 0 112 0 0 112 0 0 112 0 0 112 0 0 112 0 0 112 0 0 112 0 0 112 0 0 112 0 0 112 0 0 150 0 0 150 0 0 150 0 0 150 0 0 150 0 0 150 0 0 150 0 0 150 0 0 150 0 0 150 0 0 0 0 0 0 0 0 0 0 0 0 0 0 0 0 0 0 0 0 0 0 0 0 0 0 0 0 0 0 0 0 0 0 34 0 0 34 0 0 34 0 0 34 0 0 34 0 0 34 0 0 34 0 0 34 0 0 34 0 0 34 0 0 34 0 0 34 0 0 34 0 0 34 0 0 34 0 0 34 0 0 34 0 0 34 0 0 34 0 0 34 0 0 34 0 0 34 0 0 34 0 0 34 0 0 34 0 0 34 0 0 34 0 0 34 0 0 34 0 0 34 
133 0 0 133 0 0 133 0 0 133 0 0 133 0 0 133 0 0 133 0 0 133 0 0 133 0 0 133 0 0 131 0 0 131 0 0 131 0 0 131 0 0 131 0 0 131 0 0 131 0 0 131 0 0 131 0 0 131 0 0 132 0 0 132 0 0 132 0 0 132 0 0 132 0 0 132 0 0 132 0 0 132 0 0 132 0 0 132 0 0 149 0 0 149 0 0 149 0 0 149 0 0 149 0 0 149 0 0 149 0 0 149 0 0 149 0 0 149 0 0 139 0 0 139 0 0 139 0 0 139 0 0 139 0 0 139 0 0 139 0 0 139 0 0 139 0 0 139 0 0 93 0 0 93 0 0 93 0 0 93 0 0 93 0 0 93 0 0 93 0 0 93 0 0 93 0 0 93 0 0 72 0 0 72 0 0 72 0 0 72 0 0 72 0 0 72 0 0 72 0 0 72 0 0 72 0 0 72 0 0 46 0 0 46 0 0 46 0 0 46 0 0 46 0 0 46 0 0 46 0 0 46 0 0 46 0 0 46 0 0 28 0 0 28 0 0 28 0 0 28 0 0 28 0 0 28 0 0 28 0 0 28 0 0 28 0 0 28 0 0 0 0 18 0 0 18 0 0 18 0 0 18 0 0 18 0 0 18 0 0 18 0 0 18 0 0 18 0 0 18 0 0 63 0 0 63 0 0 63 0 0 63 0 0 63 0 0 63 0 0 63 0 0 63 0 0 63 0 0 63 0 0 12 0 0 12 0 0 12 0 0 12 0 0 12 0 0 12 0 0 12 0 0 12 0 0 12 0 0 12 150 0 0 150 0 0 150 0 0 150 0 0 150 0 0 150 0 0 150 0 0 150 0 0 150 0 0 150 0 0 255 105 0 255 105 0 255 105 0 255 105 0 255 105 0 255 105 0 255 105 0 255 105 0 255 105 0 255 105 0 255 214 0 255 214 0 255 214 0 255 214 0 255 214 0 255 214 0 255 214 0 255 214 0 255 214 0 255 214 0 255 13 0 255 13 0 255 13 0 255 13 0 255 13 0 255 13 0 255 13 0 255 13 0 255 13 0 255 13 0 109 0 0 109 0 0 109 0 0 109 0 0 109 0 0 109 0 0 109 0 0 109 0 0 109 0 0 109 0 0 0 0 72 0 0 72 0 0 72 0 0 72 0 0 72 0 0 72 0 0 72 0 0 72 0 0 72 0 0 72 0 0 91 0 0 91 0 0 91 0 0 91 0 0 91 0 0 91 0 0 91 0 0 91 0 0 91 0 0 91 0 0 45 0 0 45 0 0 45 0 0 45 0 0 45 0 0 45 0 0 45 0 0 45 0 0 45 0 0 45 15 0 0 15 0 0 15 0 0 15 0 0 15 0 0 15 0 0 15 0 0 15 0 0 15 0 0 15 0 0 84 0 0 84 0 0 84 0 0 84 0 0 84 0 0 84 0 0 84 0 0 84 0 0 84 0 0 84 0 0 85 0 0 85 0 0 85 0 0 85 0 0 85 0 0 85 0 0 85 0 0 85 0 0 85 0 0 85 0 0 90 0 0 90 0 0 90 0 0 90 0 0 90 0 0 90 0 0 90 0 0 90 0 0 90 0 0 90 0 0 109 0 0 109 0 0 109 0 0 109 0 0 109 0 0 109 0 0 109 0 0 109 0 0 109 0 0 109 0 0 135 0 0 135 0 0 135 0 0 135 0 0 135 0 0 135 0 0 135 0 0 135 0 0 135 0 0 135 0 0 150 0 0 150 0 0 150 0 0 150 0 0 150 0 0 150 0 0 150 0 0 150 0 0 150 0 0 150 0 0 119 0 0 119 0 0 119 0 0 119 0 0 119 0 0 119 0 0 119 0 0 119 0 0 119 0 0 119 0 0 0 0 0 0 0 0 0 0 0 0 0 0 0 0 0 0 0 0 0 0 0 0 0 0 0 0 0 0 0 0 0 0 38 0 0 38 0 0 38 0 0 38 0 0 38 0 0 38 0 0 38 0 0 38 0 0 38 0 0 38 0 0 38 0 0 38 0 0 38 0 0 38 0 0 38 0 0 38 0 0 38 0 0 38 0 0 38 0 0 38 0 0 38 0 0 38 0 0 38 0 0 38 0 0 38 0 0 38 0 0 38 0 0 38 0 0 38 0 0 38 
133 0 0 133 0 0 133 0 0 133 0 0 133 0 0 133 0 0 133 0 0 133 0 0 133 0 0 133 0 0 131 0 0 131 0 0 131 0 0 131 0 0 131 0 0 131 0 0 131 0 0 131 0 0 131 0 0 131 0 0 132 0 0 132 0 0 132 0 0 132 0 0 132 0 0 132 0 0 132 0 0 132 0 0 132 0 0 132 0 0 149 0 0 149 0 0 149 0 0 149 0 0 149 0 0 149 0 0 149 0 0 149 0 0 149 0 0 149 0 0 139 0 0 139 0 0 139 0 0 139 0 0 139 0 0 139 0 0 139 0 0 139 0 0 139 0 0 139 0 0 93 0 0 93 0 0 93 0 0 93 0 0 93 0 0 93 0 0 93 0 0 93 0 0 93 0 0 93 0 0 72 0 0 72 0 0 72 0 0 72 0 0 72 0 0 72 0 0 72 0 0 72 0 0 72 0 0 72 0 0 46 0 0 46 0 0 46 0 0 46 0 0 46 0 0 46 0 0 46 0 0 46 0 0 46 0 0 46 0 0 28 0 0 28 0 0 28 0 0 28 0 0 28 0 0 28 0 0 28 0 0 28 0 0 28 0 0 28 0 0 0 0 18 0 0 18 0 0 18 0 0 18 0 0 18 0 0 18 0 0 18 0 0 18 0 0 18 0 0 18 0 0 63 0 0 63 0 0 63 0 0 63 0 0 63 0 0 63 0 0 63 0 0 63 0 0 63 0 0 63 0 0 12 0 0 12 0 0 12 0 0 12 0 0 12 0 0 12 0 0 12 0 0 12 0 0 12 0 0 12 150 0 0 150 0 0 150 0 0 150 0 0 150 0 0 150 0 0 150 0 0 150 0 0 150 0 0 150 0 0 255 105 0 255 105 0 255 105 0 255 105 0 255 105 0 255 105 0 255 105 0 255 105 0 255 105 0 255 105 0 255 214 0 255 214 0 255 214 0 255 214 0 255 214 0 255 214 0 255 214 0 255 214 0 255 214 0 255 214 0 255 13 0 255 13 0 255 13 0 255 13 0 255 13 0 255 13 0 255 13 0 255 13 0 255 13 0 255 13 0 109 0 0 109 0 0 109 0 0 109 0 0 109 0 0 109 0 0 109 0 0 109 0 0 109 0 0 109 0 0 0 0 72 0 0 72 0 0 72 0 0 72 0 0 72 0 0 72 0 0 72 0 0 72 0 0 72 0 0 72 0 0 91 0 0 91 0 0 91 0 0 91 0 0 91 0 0 91 0 0 91 0 0 91 0 0 91 0 0 91 0 0 45 0 0 45 0 0 45 0 0 45 0 0 45 0 0 45 0 0 45 0 0 45 0 0 45 0 0 45 15 0 0 15 0 0 15 0 0 15 0 0 15 0 0 15 0 0 15 0 0 15 0 0 15 0 0 15 0 0 84 0 0 84 0 0 84 0 0 84 0 0 84 0 0 84 0 0 84 0 0 84 0 0 84 0 0 84 0 0 85 0 0 85 0 0 85 0 0 85 0 0 85 0 0 85 0 0 85 0 0 85 0 0 85 0 0 85 0 0 90 0 0 90 0 0 90 0 0 90 0 0 90 0 0 90 0 0 90 0 0 90 0 0 90 0 0 90 0 0 109 0 0 109 0 0 109 0 0 109 0 0 109 0 0 109 0 0 109 0 0 109 0 0 109 0 0 109 0 0 135 0 0 135 0 0 135 0 0 135 0 0 135 0 0 135 0 0 135 0 0 135 0 0 135 0 0 135 0 0 150 0 0 150 0 0 150 0 0 150 0 0 150 0 0 150 0 0 150 0 0 150 0 0 150 0 0 150 0 0 119 0 0 119 0 0 119 0 0 119 0 0 119 0 0 119 0 0 119 0 0 119 0 0 119 0 0 119 0 0 0 0 0 0 0 0 0 0 0 0 0 0 0 0 0 0 0 0 0 0 0 0 0 0 0 0 0 0 0 0 0 0 42 0 0 42 0 0 42 0 0 42 0 0 42 0 0 42 0 0 42 0 0 42 0 0 42 0 0 42 0 0 42 0 0 42 0 0 42 0 0 42 0 0 42 0 0 42 0 0 42 0 0 42 0 0 42 0 0 42 0 0 42 0 0 42 0 0 42 0 0 42 0 0 42 0 0 42 0 0 42 0 0 42 0 0 42 0 0 42 
133 0 0 133 0 0 133 0 0 133 0 0 133 0 0 133 0 0 133 0 0 133 0 0 133 0 0 133 0 0 131 0 0 131 0 0 131 0 0 131 0 0 131 0 0 131 0 0 131 0 0 131 0 0 131 0 0 131 0 0 132 0 0 132 0 0 132 0 0 132 0 0 132 0 0 132 0 0 132 0 0 132 0 0 132 0 0 132 0 0 149 0 0 149 0 0 149 0 0 149 0 0 149 0 0 149 0 0 149 0 0 149 0 0 149 0 0 149 0 0 139 0 0 139 0 0 139 0 0 139 0 0 139 0 0 139 0 0 139 0 0 139 0 0 139 0 0 139 0 0 93 0 0 93 0 0 93 0 0 93 0 0 93 0 0 93 0 0 93 0 0 93 0 0 93 0 0 93 0 0 72 0 0 72 0 0 72 0 0 72 0 0 72 0 0 72 0 0 72 0 0 72 0 0 72 0 0 72 0 0 46 0 0 46 0 0 46 0 0 46 0 0 46 0 0 46 0 0 46 0 0 46 0 0 46 0 0 46 0 0 28 0 0 28 0 0 28 0 0 28 0 0 28 0 0 28 0 0 28 0 0 28 0 0 28 0 0 28 0 0 0 0 18 0 0 18 0 0 18 0 0 18 0 0 18 0 0 18 0 0 18 0 0 18 0 0 18 0 0 18 0 0 63 0 0 63 0 0 63 0 0 63 0 0 63 0 0 63 0 0 63 0 0 63 0 0 63 0 0 63 0 0 12 0 0 12 0 0 12 0 0 12 0 0 12 0 0 12 0 0 12 0 0 12 0 0 12 0 0 12 150 0 0 150 0 0 150 0 0 150 0 0 150 0 0 150 0 0 150 0 0 150 0 0 150 0 0 150 0 0 255 105 0 255 105 0 255 105 0 255 105 0 255 105 0 255 105 0 255 105 0 255 105 0 255 105 0 255 105 0 255 214 0 255 214 0 255 214 0 255 214 0 255 214 0 255 214 0 255 214 0 255 214 0 255 214 0 255 214 0 255 13 0 255 13 0 255 13 0 255 13 0 255 13 0 255 13 0 255 13 0 255 13 0 255 13 0 255 13 0 109 0 0 109 0 0 109 0 0 109 0 0 109 0 0 109 0 0 109 0 0 109 0 0 109 0 0 109 0 0 0 0 72 0 0 72 0 0 72 0 0 72 0 0 72 0 0 72 0 0 72 0 0 72 0 0 72 0 0 72 0 0 91 0 0 91 0 0 91 0 0 91 0 0 91 0 0 91 0 0 91 0 0 91 0 0 91 0 0 91 0 0 45 0 0 45 0 0 45 0 0 45 0 0 45 0 0 45 0 0 45 0 0 45 0 0 45 0 0 45 15 0 0 15 0 0 15 0 0 15 0 0 15 0 0 15 0 0 15 0 0 15 0 0 15 0 0 15 0 0 84 0 0 84 0 0 84 0 0 84 0 0 84 0 0 84 0 0 84 0 0 84 0 0 84 0 0 84 0 0 85 0 0 85 0 0 85 0 0 85 0 0 85 0 0 85 0 0 85 0 0 85 0 0 85 0 0 85 0 0 90 0 0 90 0 0 90 0 0 90 0 0 90 0 0 90 0 0 90 0 0 90 0 0 90 0 0 90 0 0 109 0 0 109 0 0 109 0 0 109 0 0 109 0 0 109 0 0 109 0 0 109 0 0 109 0 0 109 0 0 135 0 0 135 0 0 135 0 0 135 0 0 135 0 0 135 0 0 135 0 0 135 0 0 135 0 0 135 0 0 150 0 0 150 0 0 150 0 0 150 0 0 150 0 0 150 0 0 150 0 0 150 0 0 150 0 0 150 0 0 119 0 0 119 0 0 119 0 0 119 0 0 119 0 0 119 0 0 119 0 0 119 0 0 119 0 0 119 0 0 0 0 0 0 0 0 0 0 0 0 0 0 0 0 0 0 0 0 0 0 0 0 0 0 0 0 0 0 0 0 0 0 45 0 0 45 0 0 45 0 0 45 0 0 45 0 0 45 0 0 45 0 0 45 0 0 45 0 0 45 0 0 45 0 0 45 0 0 45 0 0 45 0 0 45 0 0 45 0 0 45 0 0 45 0 0 45 0 0 45 0 0 45 0 0 45 0 0 45 0 0 45 0 0 45 0 0 45 0 0 45 0 0 45 0 0 45 0 0 45 
133 0 0 133 0 0 133 0 0 133 0 0 133 0 0 133 0 0 133 0 0 133 0 0 133 0 0 133 0 0 131 0 0 131 0 0 131 0 0 131 0 0 131 0 0 131 0 0 131 0 0 131 0 0 131 0 0 131 0 0 132 0 0 132 0 0 132 0 0 132 0 0 132 0 0 132 0 0 132 0 0 132 0 0 132 0 0 132 0 0 149 0 0 149 0 0 149 0 0 149 0 0 149 0 0 149 0 0 149 0 0 149 0 0 149 0 0 149 0 0 139 0 0 139 0 0 139 0 0 139 0 0 139 0 0 139 0 0 139 0 0 139 0 0 139 0 0 139 0 0 93 0 0 93 0 0 93 0 0 93 0 0 93 0 0 93 0 0 93 0 0 93 0 0 93 0 0 93 0 0 72 0 0 72 0 0 72 0 0 72 0 0 72 0 0 72 0 0 72 0 0 72 0 0 72 0 0 72 0 0 46 0 0 46 0 0 46 0 0 46 0 0 46 0 0 46 0 0 46 0 0 46 0 0 46 0 0 46 0 0 28 0 0 28 0 0 28 0 0 28 0 0 28 0 0 28 0 0 28 0 0 28 0 0 28 0 0 28 0 0 0 0 18 0 0 18 0 0 18 0 0 18 0 0 18 0 0 18 0 0 18 0 0 18 0 0 18 0 0 18 0 0 63 0 0 63 0 0 63 0 0 63 0 0 63 0 0 63 0 0 63 0 0 63 0 0 63 0 0 63 0 0 12 0 0 12 0 0 12 0 0 12 0 0 12 0 0 12 0 0 12 0 0 12 0 0 12 0 0 12 150 0 0 150 0 0 150 0 0 150 0 0 150 0 0 150 0 0 150 0 0 150 0 0 150 0 0 150 0 0 255 105 0 255 105 0 255 105 0 255 105 0 255 105 0 255 105 0 255 105 0 255 105 0 255 105 0 255 105 0 255 214 0 255 214 0 255 214 0 255 214 0 255 214 0 255 214 0 255 214 0 255 214 0 255 214 0 255 214 0 255 13 0 255 13 0 255 13 0 255 13 0 255 13 0 255 13 0 255 13 0 255 13 0 255 13 0 255 13 0 109 0 0 109 0 0 109 0 0 109 0 0 109 0 0 109 0 0 109 0 0 109 0 0 109 0 0 109 0 0 0 0 72 0 0 72 0 0 72 0 0 72 0 0 72 0 0 72 0 0 72 0 0 72 0 0 72 0 0 72 0 0 91 0 0 91 0 0 91 0 0 91 0 0 91 0 0 91 0 0 91 0 0 91 0 0 91 0 0 91 0 0 45 0 0 45 0 0 45 0 0 45 0 0 45 0 0 45 0 0 45 0 0 45 0 0 45 0 0 45 15 0 0 15 0 0 15 0 0 15 0 0 15 0 0 15 0 0 15 0 0 15 0 0 15 0 0 15 0 0 84 0 0 84 0 0 84 0 0 84 0 0 84 0 0 84 0 0 84 0 0 84 0 0 84 0 0 84 0 0 85 0 0 85 0 0 85 0 0 85 0 0 85 0 0 85 0 0 85 0 0 85 0 0 85 0 0 85 0 0 90 0 0 90 0 0 90 0 0 90 0 0 90 0 0 90 0 0 90 0 0 90 0 0 90 0 0 90 0 0 109 0 0 109 0 0 109 0 0 109 0 0 109 0 0 109 0 0 109 0 0 109 0 0 109 0 0 109 0 0 135 0 0 135 0 0 135 0 0 135 0 0 135 0 0 135 0 0 135 0 0 135 0 0 135 0 0 135 0 0 150 0 0 150 0 0 150 0 0 150 0 0 150 0 0 150 0 0 150 0 0 150 0 0 150 0 0 150 0 0 119 0 0 119 0 0 119 0 0 119 0 0 119 0 0 119 0 0 119 0 0 119 0 0 119 0 0 119 0 0 0 0 0 0 0 0 0 0 0 0 0 0 0 0 0 0 0 0 0 0 0 0 0 0 0 0 0 0 0 0 0 0 49 0 0 49 0 0 49 0 0 49 0 0 49 0 0 49 0 0 49 0 0 49 0 0 49 0 0 49 0 0 49 0 0 49 0 0 49 0 0 49 0 0 49 0 0 49 0 0 49 0 0 49 0 0 49 0 0 49 0 0 49 0 0 49 0 0 49 0 0 49 0 0 49 0 0 49 0 0 49 0 0 49 0 0 49 0 0 49 
133 0 0 133 0 0 133 0 0 133 0 0 133 0 0 133 0 0 133 0 0 133 0 0 133 0 0 133 0 0 131 0 0 131 0 0 131 0 0 131 0 0 131 0 0 131 0 0 131 0 0 131 0 0 131 0 0 131 0 0 132 0 0 132 0 0 132 0 0 132 0 0 132 0 0 132 0 0 132 0 0 132 0 0 132 0 0 132 0 0 149 0 0 149 0 0 149 0 0 149 0 0 149 0 0 149 0 0 149 0 0 149 0 0 149 0 0 149 0 0 139 0 0 139 0 0 139 0 0 139 0 0 139 0 0 139 0 0 139 0 0 139 0 0 139 0 0 139 0 0 93 0 0 93 0 0 93 0 0 93 0 0 93 0 0 93 0 0 93 0 0 93 0 0 93 0 0 93 0 0 72 0 0 72 0 0 72 0 0 72 0 0 72 0 0 72 0 0 72 0 0 72 0 0 72 0 0 72 0 0 46 0 0 46 0 0 46 0 0 46 0 0 46 0 0 46 0 0 46 0 0 46 0 0 46 0 0 46 0 0 28 0 0 28 0 0 28 0 0 28 0 0 28 0 0 28 0 0 28 0 0 28 0 0 28 0 0 28 0 0 0 0 18 0 0 18 0 0 18 0 0 18 0 0 18 0 0 18 0 0 18 0 0 18 0 0 18 0 0 18 0 0 63 0 0 63 0 0 63 0 0 63 0 0 63 0 0 63 0 0 63 0 0 63 0 0 63 0 0 63 0 0 12 0 0 12 0 0 12 0 0 12 0 0 12 0 0 12 0 0 12 0 0 12 0 0 12 0 0 12 150 0 0 150 0 0 150 0 0 150 0 0 150 0 0 150 0 0 150 0 0 150 0 0 150 0 0 150 0 0 255 105 0 255 105 0 255 105 0 255 105 0 255 105 0 255 105 0 255 105 0 255 105 0 255 105 0 255 105 0 255 214 0 255 214 0 255 214 0 255 214 0 255 214 0 255 214 0 255 214 0 255 214 0 255 214 0 255 214 0 255 13 0 255 13 0 255 13 0 255 13 0 255 13 0 255 13 0 255 13 0 255 13 0 255 13 0 255 13 0 109 0 0 109 0 0 109 0 0 109 0 0 109 0 0 109 0 0 109 0 0 109 0 0 109 0 0 109 0 0 0 0 72 0 0 72 0 0 72 0 0 72 0 0 72 0 0 72 0 0 72 0 0 72 0 0 72 0 0 72 0 0 91 0 0 91 0 0 91 0 0 91 0 0 91 0 0 91 0 0 91 0 0 91 0 0 91 0 0 91 0 0 45 0 0 45 0 0 45 0 0 45 0 0 45 0 0 45 0 0 45 0 0 45 0 0 45 0 0 45 15 0 0 15 0 0 15 0 0 15 0 0 15 0 0 15 0 0 15 0 0 15 0 0 15 0 0 15 0 0 84 0 0 84 0 0 84 0 0 84 0 0 84 0 0 84 0 0 84 0 0 84 0 0 84 0 0 84 0 0 85 0 0 85 0 0 85 0 0 85 0 0 85 0 0 85 0 0 85 0 0 85 0 0 85 0 0 85 0 0 90 0 0 90 0 0 90 0 0 90 0 0 90 0 0 90 0 0 90 0 0 90 0 0 90 0 0 90 0 0 109 0 0 109 0 0 109 0 0 109 0 0 109 0 0 109 0 0 109 0 0 109 0 0 109 0 0 109 0 0 135 0 0 135 0 0 135 0 0 135 0 0 135 0 0 135 0 0 135 0 0 135 0 0 135 0 0 135 0 0 150 0 0 150 0 0 150 0 0 150 0 0 150 0 0 150 0 0 150 0 0 150 0 0 150 0 0 150 0 0 119 0 0 119 0 0 119 0 0 119 0 0 119 0 0 119 0 0 119 0 0 119 0 0 119 0 0 119 0 0 0 0 0 0 0 0 0 0 0 0 0 0 0 0 0 0 0 0 0 0 0 0 0 0 0 0 0 0 0 0 0 0 53 0 0 53 0 0 53 0 0 53 0 0 53 0 0 53 0 0 53 0 0 53 0 0 53 0 0 53 0 0 53 0 0 53 0 0 53 0 0 53 0 0 53 0 0 53 0 0 53 0 0 53 0 0 53 0 0 53 0 0 53 0 0 53 0 0 53 0 0 53 0 0 53 0 0 53 0 0 53 0 0 53 0 0 53 0 0 53 
133 0 0 133 0 0 133 0 0 133 0 0 133 0 0 133 0 0 133 0 0 133 0 0 133 0 0 133 0 0 131 0 0 131 0 0 131 0 0 131 0 0 131 0 0 131 0 0 131 0 0 131 0 0 131 0 0 131 0 0 132 0 0 132 0 0 132 0 0 132 0 0 132 0 0 132 0 0 132 0 0 132 0 0 132 0 0 132 0 0 149 0 0 149 0 0 149 0 0 149 0 0 149 0 0 149 0 0 149 0 0 149 0 0 149 0 0 149 0 0 139 0 0 139 0 0 139 0 0 139 0 0 139 0 0 139 0 0 139 0 0 139 0 0 139 0 0 139 0 0 93 0 0 93 0 0 93 0 0 93 0 0 93 0 0 93 0 0 93 0 0 93 0 0 93 0 0 93 0 0 72 0 0 72 0 0 72 0 0 72 0 0 72 0 0 72 0 0 72 0 0 72 0 0 72 0 0 72 0 0 46 0 0 46 0 0 46 0 0 46 0 0 46 0 0 46 0 0 46 0 0 46 0 0 46 0 0 46 0 0 28 0 0 28 0 0 28 0 0 28 0 0 28 0 0 28 0 0 28 0 0 28 0 0 28 0 0 28 0 0 0 0 18 0 0 18 0 0 18 0 0 18 0 0 18 0 0 18 0 0 18 0 0 18 0 0 18 0 0 18 0 0 63 0 0 63 0 0 63 0 0 63 0 0 63 0 0 63 0 0 63 0 0 63 0 0 63 0 0 63 0 0 12 0 0 12 0 0 12 0 0 12 0 0 12 0 0 12 0 0 12 0 0 12 0 0 12 0 0 12 150 0 0 150 0 0 150 0 0 150 0 0 150 0 0 150 0 0 150 0 0 150 0 0 150 0 0 150 0 0 255 105 0 255 105 0 255 105 0 255 105 0 255 105 0 255 105 0 255 105 0 255 105 0 255 105 0 255 105 0 255 214 0 255 214 0 255 214 0 255 214 0 255 214 0 255 214 0 255 214 0 255 214 0 255 214 0 255 214 0 255 13 0 255 13 0 255 13 0 255 13 0 255 13 0 255 13 0 255 13 0 255 13 0 255 13 0 255 13 0 109 0 0 109 0 0 109 0 0 109 0 0 109 0 0 109 0 0 109 0 0 109 0 0 109 0 0 109 0 0 0 0 72 0 0 72 0 0 72 0 0 72 0 0 72 0 0 72 0 0 72 0 0 72 0 0 72 0 0 72 0 0 91 0 0 91 0 0 91 0 0 91 0 0 91 0 0 91 0 0 91 0 0 91 0 0 91 0 0 91 0 0 45 0 0 45 0 0 45 0 0 45 0 0 45 0 0 45 0 0 45 0 0 45 0 0 45 0 0 45 15 0 0 15 0 0 15 0 0 15 0 0 15 0 0 15 0 0 15 0 0 15 0 0 15 0 0 15 0 0 84 0 0 84 0 0 84 0 0 84 0 0 84 0 0 84 0 0 84 0 0 84 0 0 84 0 0 84 0 0 85 0 0 85 0 0 85 0 0 85 0 0 85 0 0 85 0 0 85 0 0 85 0 0 85 0 0 85 0 0 90 0 0 90 0 0 90 0 0 90 0 0 90 0 0 90 0 0 90 0 0 90 0 0 90 0 0 90 0 0 109 0 0 109 0 0 109 0 0 109 0 0 109 0 0 109 0 0 109 0 0 109 0 0 109 0 0 109 0 0 135 0 0 135 0 0 135 0 0 135 0 0 135 0 0 135 0 0 135 0 0 135 0 0 135 0 0 135 0 0 150 0 0 150 0 0 150 0 0 150 0 0 150 0 0 150 0 0 150 0 0 150 0 0 150 0 0 150 0 0 119 0 0 119 0 0 119 0 0 119 0 0 119 0 0 119 0 0 119 0 0 119 0 0 119 0 0 119 0 0 0 0 0 0 0 0 0 0 0 0 0 0 0 0 0 0 0 0 0 0 0 0 0 0 0 0 0 0 0 0 0 0 56 0 0 56 0 0 56 0 0 56 0 0 56 0 0 56 0 0 56 0 0 56 0 0 56 0 0 56 0 0 56 0 0 56 0 0 56 0 0 56 0 0 56 0 0 56 0 0 56 0 0 56 0 0 56 0 0 56 0 0 56 0 0 56 0 0 56 0 0 56 0 0 56 0 0 56 0 0 56 0 0 56 0 0 56 0 0 56 
133 0 0 133 0 0 133 0 0 133 0 0 133 0 0 133 0 0 133 0 0 133 0 0 133 0 0 133 0 0 131 0 0 131 0 0 131 0 0 131 0 0 131 0 0 131 0 0 131 0 0 131 0 0 131 0 0 131 0 0 132 0 0 132 0 0 132 0 0 132 0 0 132 0 0 132 0 0 132 0 0 132 0 0 132 0 0 132 0 0 149 0 0 149 0 0 149 0 0 149 0 0 149 0 0 149 0 0 149 0 0 149 0 0 149 0 0 149 0 0 139 0 0 139 0 0 139 0 0 139 0 0 139 0 0 139 0 0 139 0 0 139 0 0 139 0 0 139 0 0 93 0 0 93 0 0 93 0 0 93 0 0 93 0 0 93 0 0 93 0 0 93 0 0 93 0 0 93 0 0 72 0 0 72 0 0 72 0 0 72 0 0 72 0 0 72 0 0 72 0 0 72 0 0 72 0 0 72 0 0 46 0 0 46 0 0 46 0 0 46 0 0 46 0 0 46 0 0 46 0 0 46 0 0 46 0 0 46 0 0 28 0 0 28 0 0 28 0 0 28 0 0 28 0 0 28 0 0 28 0 0 28 0 0 28 0 0 28 0 0 0 0 18 0 0 18 0 0 18 0 0 18 0 0 18 0 0 18 0 0 18 0 0 18 0 0 18 0 0 18 0 0 63 0 0 63 0 0 63 0 0 63 0 0 63 0 0 63 0 0 63 0 0 63 0 0 63 0 0 63 0 0 12 0 0 12 0 0 12 0 0 12 0 0 12 0 0 12 0 0 12 0 0 12 0 0 12 0 0 12 150 0 0 150 0 0 150 0 0 150 0 0 150 0 0 150 0 0 150 0 0 150 0 0 150 0 0 150 0 0 255 105 0 255 105 0 255 105 0 255 105 0 255 105 0 255 105 0 255 105 0 255 105 0 255 105 0 255 105 0 255 214 0 255 214 0 255 214 0 255 214 0 255 214 0 255 214 0 255 214 0 255 214 0 255 214 0 255 214 0 255 13 0 255 13 0 255 13 0 255 13 0 255 13 0 255 13 0 255 13 0 255 13 0 255 13 0 255 13 0 109 0 0 109 0 0 109 0 0 109 0 0 109 0 0 109 0 0 109 0 0 109 0 0 109 0 0 109 0 0 0 0 72 0 0 72 0 0 72 0 0 72 0 0 72 0 0 72 0 0 72 0 0 72 0 0 72 0 0 72 0 0 91 0 0 91 0 0 91 0 0 91 0 0 91 0 0 91 0 0 91 0 0 91 0 0 91 0 0 91 0 0 45 0 0 45 0 0 45 0 0 45 0 0 45 0 0 45 0 0 45 0 0 45 0 0 45 0 0 45 15 0 0 15 0 0 15 0 0 15 0 0 15 0 0 15 0 0 15 0 0 15 0 0 15 0 0 15 0 0 84 0 0 84 0 0 84 0 0 84 0 0 84 0 0 84 0 0 84 0 0 84 0 0 84 0 0 84 0 0 85 0 0 85 0 0 85 0 0 85 0 0 85 0 0 85 0 0 85 0 0 85 0 0 85 0 0 85 0 0 90 0 0 90 0 0 90 0 0 90 0 0 90 0 0 90 0 0 90 0 0 90 0 0 90 0 0 90 0 0 109 0 0 109 0 0 109 0 0 109 0 0 109 0 0 109 0 0 109 0 0 109 0 0 109 0 0 109 0 0 135 0 0 135 0 0 135 0 0 135 0 0 135 0 0 135 0 0 135 0 0 135 0 0 135 0 0 135 0 0 150 0 0 150 0 0 150 0 0 150 0 0 150 0 0 150 0 0 150 0 0 150 0 0 150 0 0 150 0 0 119 0 0 119 0 0 119 0 0 119 0 0 119 0 0 119 0 0 119 0 0 119 0 0 119 0 0 119 0 0 0 0 0 0 0 0 0 0 0 0 0 0 0 0 0 0 0 0 0 0 0 0 0 0 0 0 0 0 0 0 0 0 60 0 0 60 0 0 60 0 0 60 0 0 60 0 0 60 0 0 60 0 0 60 0 0 60 0 0 60 0 0 60 0 0 60 0 0 60 0 0 60 0 0 60 0 0 60 0 0 60 0 0 60 0 0 60 0 0 60 0 0 60 0 0 60 0 0 60 0 0 60 0 0 60 0 0 60 0 0 60 0 0 60 0 0 60 0 0 60 
133 0 0 133 0 0 133 0 0 133 0 0 133 0 0 133 0 0 133 0 0 133 0 0 133 0 0 133 0 0 131 0 0 131 0 0 131 0 0 131 0 0 131 0 0 131 0 0 131 0 0 131 0 0 131 0 0 131 0 0 132 0 0 132 0 0 132 0 0 132 0 0 132 0 0 132 0 0 132 0 0 132 0 0 132 0 0 132 0 0 149 0 0 149 0 0 149 0 0 149 0 0 149 0 0 149 0 0 149 0 0 149 0 0 149 0 0 149 0 0 139 0 0 139 0 0 139 0 0 139 0 0 139 0 0 139 0 0 139 0 0 139 0 0 139 0 0 139 0 0 93 0 0 93 0 0 93 0 0 93 0 0 93 0 0 93 0 0 93 0 0 93 0 0 93 0 0 93 0 0 72 0 0 72 0 0 72 0 0 72 0 0 72 0 0 72 0 0 72 0 0 72 0 0 72 0 0 72 0 0 46 0 0 46 0 0 46 0 0 46 0 0 46 0 0 46 0 0 46 0 0 46 0 0 46 0 0 46 0 0 28 0 0 28 0 0 28 0 0 28 0 0 28 0 0 28 0 0 28 0 0 28 0 0 28 0 0 28 0 0 0 0 18 0 0 18 0 0 18 0 0 18 0 0 18 0 0 18 0 0 18 0 0 18 0 0 18 0 0 18 0 0 63 0 0 63 0 0 63 0 0 63 0 0 63 0 0 63 0 0 63 0 0 63 0 0 63 0 0 63 0 0 12 0 0 12 0 0 12 0 0 12 0 0 12 0 0 12 0 0 12 0 0 12 0 0 12 0 0 12 150 0 0 150 0 0 150 0 0 150 0 0 150 0 0 150 0 0 150 0 0 150 0 0 150 0 0 150 0 0 255 105 0 255 105 0 255 105 0 255 105 0 255 105 0 255 105 0 255 105 0 255 105 0 255 105 0 255 105 0 255 214 0 255 214 0 255 214 0 255 214 0 255 214 0 255 214 0 255 214 0 255 214 0 255 214 0 255 214 0 255 13 0 255 13 0 255 13 0 255 13 0 255 13 0 255 13 0 255 13 0 255 13 0 255 13 0 255 13 0 109 0 0 109 0 0 109 0 0 109 0 0 109 0 0 109 0 0 109 0 0 109 0 0 109 0 0 109 0 0 0 0 72 0 0 72 0 0 72 0 0 72 0 0 72 0 0 72 0 0 72 0 0 72 0 0 72 0 0 72 0 0 91 0 0 91 0 0 91 0 0 91 0 0 91 0 0 91 0 0 91 0 0 91 0 0 91 0 0 91 0 0 45 0 0 45 0 0 45 0 0 45 0 0 45 0 0 45 0 0 45 0 0 45 0 0 45 0 0 45 15 0 0 15 0 0 15 0 0 15 0 0 15 0 0 15 0 0 15 0 0 15 0 0 15 0 0 15 0 0 84 0 0 84 0 0 84 0 0 84 0 0 84 0 0 84 0 0 84 0 0 84 0 0 84 0 0 84 0 0 85 0 0 85 0 0 85 0 0 85 0 0 85 0 0 85 0 0 85 0 0 85 0 0 85 0 0 85 0 0 90 0 0 90 0 0 90 0 0 90 0 0 90 0 0 90 0 0 90 0 0 90 0 0 90 0 0 90 0 0 109 0 0 109 0 0 109 0 0 109 0 0 109 0 0 109 0 0 109 0 0 109 0 0 109 0 0 109 0 0 135 0 0 135 0 0 135 0 0 135 0 0 135 0 0 135 0 0 135 0 0 135 0 0 135 0 0 135 0 0 150 0 0 150 0 0 150 0 0 150 0 0 150 0 0 150 0 0 150 0 0 150 0 0 150 0 0 150 0 0 119 0 0 119 0 0 119 0 0 119 0 0 119 0 0 119 0 0 119 0 0 119 0 0 119 0 0 119 0 0 0 0 0 0 0 0 0 0 0 0 0 0 0 0 0 0 0 0 0 0 0 0 0 0 0 0 0 0 0 0 0 0 63 0 0 63 0 0 63 0 0 63 0 0 63 0 0 63 0 0 63 0 0 63 0 0 63 0 0 63 0 0 63 0 0 63 0 0 63 0 0 63 0 0 63 0 0 63 0 0 63 0 0 63 0 0 63 0 0 63 0 0 63 0 0 63 0 0 63 0 0 63 0 0 63 0 0 63 0 0 63 0 0 63 0 0 63 0 0 63 
133 0 0 133 0 0 133 0 0 133 0 0 133 0 0 133 0 0 133 0 0 133 0 0 133 0 0 133 0 0 131 0 0 131 0 0 131 0 0 131 0 0 131 0 0 131 0 0 131 0 0 131 0 0 131 0 0 131 0 0 132 0 0 132 0 0 132 0 0 132 0 0 132 0 0 132 0 0 132 0 0 132 0 0 132 0 0 132 0 0 149 0 0 149 0 0 149 0 0 149 0 0 149 0 0 149 0 0 149 0 0 149 0 0 149 0 0 149 0 0 139 0 0 139 0 0 139 0 0 139 0 0 139 0 0 139 0 0 139 0 0 139 0 0 139 0 0 139 0 0 93 0 0 93 0 0 93 0 0 93 0 0 93 0 0 93 0 0 93 0 0 93 0 0 93 0 0 93 0 0 72 0 0 72 0 0 72 0 0 72 0 0 72 0 0 72 0 0 72 0 0 72 0 0 72 0 0 72 0 0 46 0 0 46 0 0 46 0 0 46 0 0 46 0 0 46 0 0 46 0 0 46 0 0 46 0 0 46 0 0 28 0 0 28 0 0 28 0 0 28 0 0 28 0 0 28 0 0 28 0 0 28 0 0 28 0 0 28 0 0 0 0 18 0 0 18 0 0 18 0 0 18 0 0 18 0 0 18 0 0 18 0 0 18 0 0 18 0 0 18 0 0 63 0 0 63 0 0 63 0 0 63 0 0 63 0 0 63 0 0 63 0 0 63 0 0 63 0 0 63 0 0 12 0 0 12 0 0 12 0 0 12 0 0 12 0 0 12 0 0 12 0 0 12 0 0 12 0 0 12 150 0 0 150 0 0 150 0 0 150 0 0 150 0 0 150 0 0 150 0 0 150 0 0 150 0 0 150 0 0 255 105 0 255 105 0 255 105 0 255 105 0 255 105 0 255 105 0 255 105 0 255 105 0 255 105 0 255 105 0 255 214 0 255 214 0 255 214 0 255 214 0 255 214 0 255 214 0 255 214 0 255 214 0 255 214 0 255 214 0 255 13 0 255 13 0 255 13 0 255 13 0 255 13 0 255 13 0 255 13 0 255 13 0 255 13 0 255 13 0 109 0 0 109 0 0 109 0 0 109 0 0 109 0 0 109 0 0 109 0 0 109 0 0 109 0 0 109 0 0 0 0 72 0 0 72 0 0 72 0 0 72 0 0 72 0 0 72 0 0 72 0 0 72 0 0 72 0 0 72 0 0 91 0 0 91 0 0 91 0 0 91 0 0 91 0 0 91 0 0 91 0 0 91 0 0 91 0 0 91 0 0 45 0 0 45 0 0 45 0 0 45 0 0 45 0 0 45 0 0 45 0 0 45 0 0 45 0 0 45 15 0 0 15 0 0 15 0 0 15 0 0 15 0 0 15 0 0 15 0 0 15 0 0 15 0 0 15 0 0 84 0 0 84 0 0 84 0 0 84 0 0 84 0 0 84 0 0 84 0 0 84 0 0 84 0 0 84 0 0 85 0 0 85 0 0 85 0 0 85 0 0 85 0 0 85 0 0 85 0 0 85 0 0 85 0 0 85 0 0 90 0 0 90 0 0 90 0 0 90 0 0 90 0 0 90 0 0 90 0 0 90 0 0 90 0 0 90 0 0 109 0 0 109 0 0 109 0 0 109 0 0 109 0 0 109 0 0 109 0 0 109 0 0 109 0 0 109 0 0 135 0 0 135 0 0 135 0 0 135 0 0 135 0 0 135 0 0 135 0 0 135 0 0 135 0 0 135 0 0 150 0 0 150 0 0 150 0 0 150 0 0 150 0 0 150 0 0 150 0 0 150 0 0 150 0 0 150 0 0 119 0 0 119 0 0 119 0 0 119 0 0 119 0 0 119 0 0 119 0 0 119 0 0 119 0 0 119 0 0 0 0 0 0 0 0 0 0 0 0 0 0 0 0 0 0 0 0 0 0 0 0 0 0 0 0 0 0 0 0 0 0 67 0 0 67 0 0 67 0 0 67 0 0 67 0 0 67 0 0 67 0 0 67 0 0 67 0 0 67 0 0 67 0 0 67 0 0 67 0 0 67 0 0 67 0 0 67 0 0 67 0 0 67 0 0 67 0 0 67 0 0 67 0 0 67 0 0 67 0 0 67 0 0 67 0 0 67 0 0 67 0 0 67 0 0 67 0 0 67 
133 0 0 133 0 0 133 0 0 133 0 0 133 0 0 133 0 0 133 0 0 133 0 0 133 0 0 133 0 0 131 0 0 131 0 0 131 0 0 131 0 0 131 0 0 131 0 0 131 0 0 131 0 0 131 0 0 131 0 0 132 0 0 132 0 0 132 0 0 132 0 0 132 0 0 132 0 0 132 0 0 132 0 0 132 0 0 132 0 0 149 0 0 149 0 0 149 0 0 149 0 0 149 0 0 149 0 0 149 0 0 149 0 0 149 0 0 149 0 0 139 0 0 139 0 0 139 0 0 139 0 0 139 0 0 139 0 0 139 0 0 139 0 0 139 0 0 139 0 0 93 0 0 93 0 0 93 0 0 93 0 0 93 0 0 93 0 0 93 0 0 93 0 0 93 0 0 93 0 0 72 0 0 72 0 0 72 0 0 72 0 0 72 0 0 72 0 0 72 0 0 72 0 0 72 0 0 72 0 0 46 0 0 46 0 0 46 0 0 46 0 0 46 0 0 46 0 0 46 0 0 46 0 0 46 0 0 46 0 0 28 0 0 28 0 0 28 0 0 28 0 0 28 0 0 28 0 0 28 0 0 28 0 0 28 0 0 28 0 0 0 0 18 0 0 18 0 0 18 0 0 18 0 0 18 0 0 18 0 0 18 0 0 18 0 0 18 0 0 18 0 0 63 0 0 63 0 0 63 0 0 63 0 0 63 0 0 63 0 0 63 0 0 63 0 0 63 0 0 63 0 0 12 0 0 12 0 0 12 0 0 12 0 0 12 0 0 12 0 0 12 0 0 12 0 0 12 0 0 12 150 0 0 150 0 0 150 0 0 150 0 0 150 0 0 150 0 0 150 0 0 150 0 0 150 0 0 150 0 0 255 105 0 255 105 0 255 105 0 255 105 0 255 105 0 255 105 0 255 105 0 255 105 0 255 105 0 255 105 0 255 214 0 255 214 0 255 214 0 255 214 0 255 214 0 255 214 0 255 214 0 255 214 0 255 214 0 255 214 0 255 13 0 255 13 0 255 13 0 255 13 0 255 13 0 255 13 0 255 13 0 255 13 0 255 13 0 255 13 0 109 0 0 109 0 0 109 0 0 109 0 0 109 0 0 109 0 0 109 0 0 109 0 0 109 0 0 109 0 0 0 0 72 0 0 72 0 0 72 0 0 72 0 0 72 0 0 72 0 0 72 0 0 72 0 0 72 0 0 72 0 0 91 0 0 91 0 0 91 0 0 91 0 0 91 0 0 91 0 0 91 0 0 91 0 0 91 0 0 91 0 0 45 0 0 45 0 0 45 0 0 45 0 0 45 0 0 45 0 0 45 0 0 45 0 0 45 0 0 45 15 0 0 15 0 0 15 0 0 15 0 0 15 0 0 15 0 0 15 0 0 15 0 0 15 0 0 15 0 0 84 0 0 84 0 0 84 0 0 84 0 0 84 0 0 84 0 0 84 0 0 84 0 0 84 0 0 84 0 0 85 0 0 85 0 0 85 0 0 85 0 0 85 0 0 85 0 0 85 0 0 85 0 0 85 0 0 85 0 0 90 0 0 90 0 0 90 0 0 90 0 0 90 0 0 90 0 0 90 0 0 90 0 0 90 0 0 90 0 0 109 0 0 109 0 0 109 0 0 109 0 0 109 0 0 109 0 0 109 0 0 109 0 0 109 0 0 109 0 0 135 0 0 135 0 0 135 0 0 135 0 0 135 0 0 135 0 0 135 0 0 135 0 0 135 0 0 135 0 0 150 0 0 150 0 0 150 0 0 150 0 0 150 0 0 150 0 0 150 0 0 150 0 0 150 0 0 150 0 0 119 0 0 119 0 0 119 0 0 119 0 0 119 0 0 119 0 0 119 0 0 119 0 0 119 0 0 119 0 0 0 0 0 0 0 0 0 0 0 0 0 0 0 0 0 0 0 0 0 0 0 0 0 0 0 0 0 0 0 0 0 0 71 0 0 71 0 0 71 0 0 71 0 0 71 0 0 71 0 0 71 0 0 71 0 0 71 0 0 71 0 0 71 0 0 71 0 0 71 0 0 71 0 0 71 0 0 71 0 0 71 0 0 71 0 0 71 0 0 71 0 0 71 0 0 71 0 0 71 0 0 71 0 0 71 0 0 71 0 0 71 0 0 71 0 0 71 0 0 71 
123 0 0 123 0 0 123 0 0 123 0 0 123 0 0 123 0 0 123 0 0 123 0 0 123 0 0 123 0 0 138 0 0 138 0 0 138 0 0 138 0 0 138 0 0 138 0 0 138 0 0 138 0 0 138 0 0 138 0 0 154 0 0 154 0 0 154 0 0 154 0 0 154 0 0 154 0 0 154 0 0 154 0 0 154 0 0 154 0 0 122 0 0 122 0 0 122 0 0 122 0 0 122 0 0 122 0 0 122 0 0 122 0 0 122 0 0 122 0 0 124 0 0 124 0 0 124 0 0 124 0 0 124 0 0 124 0 0 124 0 0 124 0 0 124 0 0 124 0 0 79 0 0 79 0 0 79 0 0 79 0 0 79 0 0 79 0 0 79 0 0 79 0 0 79 0 0 79 0 0 60 0 0 60 0 0 60 0 0 60 0 0 60 0 0 60 0 0 60 0 0 60 0 0 60 0 0 60 0 0 38 0 0 38 0 0 38 0 0 38 0 0 38 0 0 38 0 0 38 0 0 38 0 0 38 0 0 38 0 0 17 0 0 17 0 0 17 0 0 17 0 0 17 0 0 17 0 0 17 0 0 17 0 0 17 0 0 17 0 0 0 0 0 0 0 0 0 0 0 0 0 0 0 0 0 0 0 0 0 0 0 0 0 0 0 0 0 0 0 0 45 0 0 45 0 0 45 0 0 45 0 0 45 0 0 45 0 0 45 0 0 45 0 0 45 0 0 45 0 0 72 0 0 72 0 0 72 0 0 72 0 0 72 0 0 72 0 0 72 0 0 72 0 0 72 0 0 72 0 0 162 0 0 162 0 0 162 0 0 162 0 0 162 0 0 162 0 0 162 0 0 162 0 0 162 0 0 162 0 0 255 103 0 255 103 0 255 103 0 255 103 0 255 103 0 255 103 0 255 103 0 255 103 0 255 103 0 255 103 0 255 161 0 255 161 0 255 161 0 255 161 0 255 161 0 255 161 0 255 161 0 255 161 0 255 161 0 255 161 0 164 0 0 164 0 0 164 0 0 164 0 0 164 0 0 164 0 0 164 0 0 164 0 0 164 0 0 164 0 0 13 0 0 13 0 0 13 0 0 13 0 0 13 0 0 13 0 0 13 0 0 13 0 0 13 0 0 13 0 0 0 0 96 0 0 96 0 0 96 0 0 96 0 0 96 0 0 96 0 0 96 0 0 96 0 0 96 0 0 96 0 0 76 0 0 76 0 0 76 0 0 76 0 0 76 0 0 76 0 0 76 0 0 76 0 0 76 0 0 76 0 0 11 0 0 11 0 0 11 0 0 11 0 0 11 0 0 11 0 0 11 0 0 11 0 0 11 0 0 11 37 0 0 37 0 0 37 0 0 37 0 0 37 0 0 37 0 0 37 0 0 37 0 0 37 0 0 37 0 0 54 0 0 54 0 0 54 0 0 54 0 0 54 0 0 54 0 0 54 0 0 54 0 0 54 0 0 54 0 0 63 0 0 63 0 0 63 0 0 63 0 0 63 0 0 63 0 0 63 0 0 63 0 0 63 0 0 63 0 0 104 0 0 104 0 0 104 0 0 104 0 0 104 0 0 104 0 0 104 0 0 104 0 0 104 0 0 104 0 0 129 0 0 129 0 0 129 0 0 129 0 0 129 0 0 129 0 0 129 0 0 129 0 0 129 0 0 129 0 0 110 0 0 110 0 0 110 0 0 110 0 0 110 0 0 110 0 0 110 0 0 110 0 0 110 0 0 110 0 0 135 0 0 135 0 0 135 0 0 135 0 0 135 0 0 135 0 0 135 0 0 135 0 0 135 0 0 135 0 0 122 0 0 122 0 0 122 0 0 122 0 0 122 0 0 122 0 0 122 0 0 122 0 0 122 0 0 122 0 0 0 0 0 0 0 0 0 0 0 0 0 0 0 0 0 0 0 0 0 0 0 0 0 0 0 0 0 0 0 0 0 0 74 0 0 74 0 0 74 0 0 74 0 0 74 0 0 74 0 0 74 0 0 74 0 0 74 0 0 74 0 0 74 0 0 74 0 0 74 0 0 74 0 0 74 0 0 74 0 0 74 0 0 74 0 0 74 0 0 74 0 0 74 0 0 74 0 0 74 0 0 74 0 0 74 0 0 74 0 0 74 0 0 74 0 0 74 0 0 74 
123 0 0 123 0 0 123 0 0 123 0 0 123 0 0 123 0 0 123 0 0 123 0 0 123 0 0 123 0 0 138 0 0 138 0 0 138 0 0 138 0 0 138 0 0 138 0 0 138 0 0 138 0 0 138 0 0 138 0 0 154 0 0 154 0 0 154 0 0 154 0 0 154 0 0 154 0 0 154 0 0 154 0 0 154 0 0 154 0 0 122 0 0 122 0 0 122 0 0 122 0 0 122 0 0 122 0 0 122 0 0 122 0 0 122 0 0 122 0 0 124 0 0 124 0 0 124 0 0 124 0 0 124 0 0 124 0 0 124 0 0 124 0 0 124 0 0 124 0 0 79 0 0 79 0 0 79 0 0 79 0 0 79 0 0 79 0 0 79 0 0 79 0 0 79 0 0 79 0 0 60 0 0 60 0 0 60 0 0 60 0 0 60 0 0 60 0 0 60 0 0 60 0 0 60 0 0 60 0 0 38 0 0 38 0 0 38 0 0 38 0 0 38 0 0 38 0 0 38 0 0 38 0 0 38 0 0 38 0 0 17 0 0 17 0 0 17 0 0 17 0 0 17 0 0 17 0 0 17 0 0 17 0 0 17 0 0 17 0 0 0 0 0 0 0 0 0 0 0 0 0 0 0 0 0 0 0 0 0 0 0 0 0 0 0 0 0 0 0 0 45 0 0 45 0 0 45 0 0 45 0 0 45 0 0 45 0 0 45 0 0 45 0 0 45 0 0 45 0 0 72 0 0 72 0 0 72 0 0 72 0 0 72 0 0 72 0 0 72 0 0 72 0 0 72 0 0 72 0 0 162 0 0 162 0 0 162 0 0 162 0 0 162 0 0 162 0 0 162 0 0 162 0 0 162 0 0 162 0 0 255 103 0 255 103 0 255 103 0 255 103 0 255 103 0 255 103 0 255 103 0 255 103 0 255 103 0 255 103 0 255 161 0 255 161 0 255 161 0 255 161 0 255 161 0 255 161 0 255 161 0 255 161 0 255 161 0 255 161 0 164 0 0 164 0 0 164 0 0 164 0 0 164 0 0 164 0 0 164 0 0 164 0 0 164 0 0 164 0 0 13 0 0 13 0 0 13 0 0 13 0 0 13 0 0 13 0 0 13 0 0 13 0 0 13 0 0 13 0 0 0 0 96 0 0 96 0 0 96 0 0 96 0 0 96 0 0 96 0 0 96 0 0 96 0 0 96 0 0 96 0 0 76 0 0 76 0 0 76 0 0 76 0 0 76 0 0 76 0 0 76 0 0 76 0 0 76 0 0 76 0 0 11 0 0 11 0 0 11 0 0 11 0 0 11 0 0 11 0 0 11 0 0 11 0 0 11 0 0 11 37 0 0 37 0 0 37 0 0 37 0 0 37 0 0 37 0 0 37 0 0 37 0 0 37 0 0 37 0 0 54 0 0 54 0 0 54 0 0 54 0 0 54 0 0 54 0 0 54 0 0 54 0 0 54 0 0 54 0 0 63 0 0 63 0 0 63 0 0 63 0 0 63 0 0 63 0 0 63 0 0 63 0 0 63 0 0 63 0 0 104 0 0 104 0 0 104 0 0 104 0 0 104 0 0 104 0 0 104 0 0 104 0 0 104 0 0 104 0 0 129 0 0 129 0 0 129 0 0 129 0 0 129 0 0 129 0 0 129 0 0 129 0 0 129 0 0 129 0 0 110 0 0 110 0 0 110 0 0 110 0 0 110 0 0 110 0 0 110 0 0 110 0 0 110 0 0 110 0 0 135 0 0 135 0 0 135 0 0 135 0 0 135 0 0 135 0 0 135 0 0 135 0 0 135 0 0 135 0 0 122 0 0 122 0 0 122 0 0 122 0 0 122 0 0 122 0 0 122 0 0 122 0 0 122 0 0 122 0 0 0 0 0 0 0 0 0 0 0 0 0 0 0 0 0 0 0 0 0 0 0 0 0 0 0 0 0 0 0 0 0 0 78 0 0 78 0 0 78 0 0 78 0 0 78 0 0 78 0 0 78 0 0 78 0 0 78 0 0 78 0 0 78 0 0 78 0 0 78 0 0 78 0 0 78 0 0 78 0 0 78 0 0 78 0 0 78 0 0 78 0 0 78 0 0 78 0 0 78 0 0 78 0 0 78 0 0 78 0 0 78 0 0 78 0 0 78 0 0 78 
123 0 0 123 0 0 123 0 0 123 0 0 123 0 0 123 0 0 123 0 0 123 0 0 123 0 0 123 0 0 138 0 0 138 0 0 138 0 0 138 0 0 138 0 0 138 0 0 138 0 0 138 0 0 138 0 0 138 0 0 154 0 0 154 0 0 154 0 0 154 0 0 154 0 0 154 0 0 154 0 0 154 0 0 154 0 0 154 0 0 122 0 0 122 0 0 122 0 0 122 0 0 122 0 0 122 0 0 122 0 0 122 0 0 122 0 0 122 0 0 124 0 0 124 0 0 124 0 0 124 0 0 124 0 0 124 0 0 124 0 0 124 0 0 124 0 0 124 0 0 79 0 0 79 0 0 79 0 0 79 0 0 79 0 0 79 0 0 79 0 0 79 0 0 79 0 0 79 0 0 60 0 0 60 0 0 60 0 0 60 0 0 60 0 0 60 0 0 60 0 0 60 0 0 60 0 0 60 0 0 38 0 0 38 0 0 38 0 0 38 0 0 38 0 0 38 0 0 38 0 0 38 0 0 38 0 0 38 0 0 17 0 0 17 0 0 17 0 0 17 0 0 17 0 0 17 0 0 17 0 0 17 0 0 17 0 0 17 0 0 0 0 0 0 0 0 0 0 0 0 0 0 0 0 0 0 0 0 0 0 0 0 0 0 0 0 0 0 0 0 45 0 0 45 0 0 45 0 0 45 0 0 45 0 0 45 0 0 45 0 0 45 0 0 45 0 0 45 0 0 72 0 0 72 0 0 72 0 0 72 0 0 72 0 0 72 0 0 72 0 0 72 0 0 72 0 0 72 0 0 162 0 0 162 0 0 162 0 0 162 0 0 162 0 0 162 0 0 162 0 0 162 0 0 162 0 0 162 0 0 255 103 0 255 103 0 255 103 0 255 103 0 255 103 0 255 103 0 255 103 0 255 103 0 255 103 0 255 103 0 255 161 0 255 161 0 255 161 0 255 161 0 255 161 0 255 161 0 255 161 0 255 161 0 255 161 0 255 161 0 164 0 0 164 0 0 164 0 0 164 0 0 164 0 0 164 0 0 164 0 0 164 0 0 164 0 0 164 0 0 13 0 0 13 0 0 13 0 0 13 0 0 13 0 0 13 0 0 13 0 0 13 0 0 13 0 0 13 0 0 0 0 96 0 0 96 0 0 96 0 0 96 0 0 96 0 0 96 0 0 96 0 0 96 0 0 96 0 0 96 0 0 76 0 0 76 0 0 76 0 0 76 0 0 76 0 0 76 0 0 76 0 0 76 0 0 76 0 0 76 0 0 11 0 0 11 0 0 11 0 0 11 0 0 11 0 0 11 0 0 11 0 0 11 0 0 11 0 0 11 37 0 0 37 0 0 37 0 0 37 0 0 37 0 0 37 0 0 37 0 0 37 0 0 37 0 0 37 0 0 54 0 0 54 0 0 54 0 0 54 0 0 54 0 0 54 0 0 54 0 0 54 0 0 54 0 0 54 0 0 63 0 0 63 0 0 63 0 0 63 0 0 63 0 0 63 0 0 63 0 0 63 0 0 63 0 0 63 0 0 104 0 0 104 0 0 104 0 0 104 0 0 104 0 0 104 0 0 104 0 0 104 0 0 104 0 0 104 0 0 129 0 0 129 0 0 129 0 0 129 0 0 129 0 0 129 0 0 129 0 0 129 0 0 129 0 0 129 0 0 110 0 0 110 0 0 110 0 0 110 0 0 110 0 0 110 0 0 110 0 0 110 0 0 110 0 0 110 0 0 135 0 0 135 0 0 135 0 0 135 0 0 135 0 0 135 0 0 135 0 0 135 0 0 135 0 0 135 0 0 122 0 0 122 0 0 122 0 0 122 0 0 122 0 0 122 0 0 122 0 0 122 0 0 122 0 0 122 0 0 0 0 0 0 0 0 0 0 0 0 0 0 0 0 0 0 0 0 0 0 0 0 0 0 0 0 0 0 0 0 0 0 82 0 0 82 0 0 82 0 0 82 0 0 82 0 0 82 0 0 82 0 0 82 0 0 82 0 0 82 0 0 82 0 0 82 0 0 82 0 0 82 0 0 82 0 0 82 0 0 82 0 0 82 0 0 82 0 0 82 0 0 82 0 0 82 0 0 82 0 0 82 0 0 82 0 0 82 0 0 82 0 0 82 0 0 82 0 0 82 
123 0 0 123 0 0 123 0 0 123 0 0 123 0 0 123 0 0 123 0 0 123 0 0 123 0 0 123 0 0 138 0 0 138 0 0 138 0 0 138 0 0 138 0 0 138 0 0 138 0 0 138 0 0 138 0 0 138 0 0 154 0 0 154 0 0 154 0 0 154 0 0 154 0 0 154 0 0 154 0 0 154 0 0 154 0 0 154 0 0 122 0 0 122 0 0 122 0 0 122 0 0 122 0 0 122 0 0 122 0 0 122 0 0 122 0 0 122 0 0 124 0 0 124 0 0 124 0 0 124 0 0 124 0 0 124 0 0 124 0 0 124 0 0 124 0 0 124 0 0 79 0 0 79 0 0 79 0 0 79 0 0 79 0 0 79 0 0 79 0 0 79 0 0 79 0 0 79 0 0 60 0 0 60 0 0 60 0 0 60 0 0 60 0 0 60 0 0 60 0 0 60 0 0 60 0 0 60 0 0 38 0 0 38 0 0 38 0 0 38 0 0 38 0 0 38 0 0 38 0 0 38 0 0 38 0 0 38 0 0 17 0 0 17 0 0 17 0 0 17 0 0 17 0 0 17 0 0 17 0 0 17 0 0 17 0 0 17 0 0 0 0 0 0 0 0 0 0 0 0 0 0 0 0 0 0 0 0 0 0 0 0 0 0 0 0 0 0 0 0 45 0 0 45 0 0 45 0 0 45 0 0 45 0 0 45 0 0 45 0 0 45 0 0 45 0 0 45 0 0 72 0 0 72 0 0 72 0 0 72 0 0 72 0 0 72 0 0 72 0 0 72 0 0 72 0 0 72 0 0 162 0 0 162 0 0 162 0 0 162 0 0 162 0 0 162 0 0 162 0 0 162 0 0 162 0 0 162 0 0 255 103 0 255 103 0 255 103 0 255 103 0 255 103 0 255 103 0 255 103 0 255 103 0 255 103 0 255 103 0 255 161 0 255 161 0 255 161 0 255 161 0 255 161 0 255 161 0 255 161 0 255 161 0 255 161 0 255 161 0 164 0 0 164 0 0 164 0 0 164 0 0 164 0 0 164 0 0 164 0 0 164 0 0 164 0 0 164 0 0 13 0 0 13 0 0 13 0 0 13 0 0 13 0 0 13 0 0 13 0 0 13 0 0 13 0 0 13 0 0 0 0 96 0 0 96 0 0 96 0 0 96 0 0 96 0 0 96 0 0 96 0 0 96 0 0 96 0 0 96 0 0 76 0 0 76 0 0 76 0 0 76 0 0 76 0 0 76 0 0 76 0 0 76 0 0 76 0 0 76 0 0 11 0 0 11 0 0 11 0 0 11 0 0 11 0 0 11 0 0 11 0 0 11 0 0 11 0 0 11 37 0 0 37 0 0 37 0 0 37 0 0 37 0 0 37 0 0 37 0 0 37 0 0 37 0 0 37 0 0 54 0 0 54 0 0 54 0 0 54 0 0 54 0 0 54 0 0 54 0 0 54 0 0 54 0 0 54 0 0 63 0 0 63 0 0 63 0 0 63 0 0 63 0 0 63 0 0 63 0 0 63 0 0 63 0 0 63 0 0 104 0 0 104 0 0 104 0 0 104 0 0 104 0 0 104 0 0 104 0 0 104 0 0 104 0 0 104 0 0 129 0 0 129 0 0 129 0 0 129 0 0 129 0 0 129 0 0 129 0 0 129 0 0 129 0 0 129 0 0 110 0 0 110 0 0 110 0 0 110 0 0 110 0 0 110 0 0 110 0 0 110 0 0 110 0 0 110 0 0 135 0 0 135 0 0 135 0 0 135 0 0 135 0 0 135 0 0 135 0 0 135 0 0 135 0 0 135 0 0 122 0 0 122 0 0 122 0 0 122 0 0 122 0 0 122 0 0 122 0 0 122 0 0 122 0 0 122 0 0 0 0 0 0 0 0 0 0 0 0 0 0 0 0 0 0 0 0 0 0 0 0 0 0 0 0 0 0 0 0 0 0 85 0 0 85 0 0 85 0 0 85 0 0 85 0 0 85 0 0 85 0 0 85 0 0 85 0 0 85 0 0 85 0 0 85 0 0 85 0 0 85 0 0 85 0 0 85 0 0 85 0 0 85 0 0 85 0 0 85 0 0 85 0 0 85 0 0 85 0 0 85 0 0 85 0 0 85 0 0 85 0 0 85 0 0 85 0 0 85 
123 0 0 123 0 0 123 0 0 123 0 0 123 0 0 123 0 0 123 0 0 123 0 0 123 0 0 123 0 0 138 0 0 138 0 0 138 0 0 138 0 0 138 0 0 138 0 0 138 0 0 138 0 0 138 0 0 138 0 0 154 0 0 154 0 0 154 0 0 154 0 0 154 0 0 154 0 0 154 0 0 154 0 0 154 0 0 154 0 0 122 0 0 122 0 0 122 0 0 122 0 0 122 0 0 122 0 0 122 0 0 122 0 0 122 0 0 122 0 0 124 0 0 124 0 0 124 0 0 124 0 0 124 0 0 124 0 0 124 0 0 124 0 0 124 0 0 124 0 0 79 0 0 79 0 0 79 0 0 79 0 0 79 0 0 79 0 0 79 0 0 79 0 0 79 0 0 79 0 0 60 0 0 60 0 0 60 0 0 60 0 0 60 0 0 60 0 0 60 0 0 60 0 0 60 0 0 60 0 0 38 0 0 38 0 0 38 0 0 38 0 0 38 0 0 38 0 0 38 0 0 38 0 0 38 0 0 38 0 0 17 0 0 17 0 0 17 0 0 17 0 0 17 0 0 17 0 0 17 0 0 17 0 0 17 0 0 17 0 0 0 0 0 0 0 0 0 0 0 0 0 0 0 0 0 0 0 0 0 0 0 0 0 0 0 0 0 0 0 0 45 0 0 45 0 0 45 0 0 45 0 0 45 0 0 45 0 0 45 0 0 45 0 0 45 0 0 45 0 0 72 0 0 72 0 0 72 0 0 72 0 0 72 0 0 72 0 0 72 0 0 72 0 0 72 0 0 72 0 0 162 0 0 162 0 0 162 0 0 162 0 0 162 0 0 162 0 0 162 0 0 162 0 0 162 0 0 162 0 0 255 103 0 255 103 0 255 103 0 255 103 0 255 103 0 255 103 0 255 103 0 255 103 0 255 103 0 255 103 0 255 161 0 255 161 0 255 161 0 255 161 0 255 161 0 255 161 0 255 161 0 255 161 0 255 161 0 255 161 0 164 0 0 164 0 0 164 0 0 164 0 0 164 0 0 164 0 0 164 0 0 164 0 0 164 0 0 164 0 0 13 0 0 13 0 0 13 0 0 13 0 0 13 0 0 13 0 0 13 0 0 13 0 0 13 0 0 13 0 0 0 0 96 0 0 96 0 0 96 0 0 96 0 0 96 0 0 96 0 0 96 0 0 96 0 0 96 0 0 96 0 0 76 0 0 76 0 0 76 0 0 76 0 0 76 0 0 76 0 0 76 0 0 76 0 0 76 0 0 76 0 0 11 0 0 11 0 0 11 0 0 11 0 0 11 0 0 11 0 0 11 0 0 11 0 0 11 0 0 11 37 0 0 37 0 0 37 0 0 37 0 0 37 0 0 37 0 0 37 0 0 37 0 0 37 0 0 37 0 0 54 0 0 54 0 0 54 0 0 54 0 0 54 0 0 54 0 0 54 0 0 54 0 0 54 0 0 54 0 0 63 0 0 63 0 0 63 0 0 63 0 0 63 0 0 63 0 0 63 0 0 63 0 0 63 0 0 63 0 0 104 0 0 104 0 0 104 0 0 104 0 0 104 0 0 104 0 0 104 0 0 104 0 0 104 0 0 104 0 0 129 0 0 129 0 0 129 0 0 129 0 0 129 0 0 129 0 0 129 0 0 129 0 0 129 0 0 129 0 0 110 0 0 110 0 0 110 0 0 110 0 0 110 0 0 110 0 0 110 0 0 110 0 0 110 0 0 110 0 0 135 0 0 135 0 0 135 0 0 135 0 0 135 0 0 135 0 0 135 0 0 135 0 0 135 0 0 135 0 0 122 0 0 122 0 0 122 0 0 122 0 0 122 0 0 122 0 0 122 0 0 122 0 0 122 0 0 122 0 0 0 0 0 0 0 0 0 0 0 0 0 0 0 0 0 0 0 0 0 0 0 0 0 0 0 0 0 0 0 0 0 0 89 0 0 89 0 0 89 0 0 89 0 0 89 0 0 89 0 0 89 0 0 89 0 0 89 0 0 89 0 0 89 0 0 89 0 0 89 0 0 89 0 0 89 0 0 89 0 0 89 0 0 89 0 0 89 0 0 89 0 0 89 0 0 89 0 0 89 0 0 89 0 0 89 0 0 89 0 0 89 0 0 89 0 0 89 0 0 89 
123 0 0 123 0 0 123 0 0 123 0 0 123 0 0 123 0 0 123 0 0 123 0 0 123 0 0 123 0 0 138 0 0 138 0 0 138 0 0 138 0 0 138 0 0 138 0 0 138 0 0 138 0 0 138 0 0 138 0 0 154 0 0 154 0 0 154 0 0 154 0 0 154 0 0 154 0 0 154 0 0 154 0 0 154 0 0 154 0 0 122 0 0 122 0 0 122 0 0 122 0 0 122 0 0 122 0 0 122 0 0 122 0 0 122 0 0 122 0 0 124 0 0 124 0 0 124 0 0 124 0 0 124 0 0 124 0 0 124 0 0 124 0 0 124 0 0 124 0 0 79 0 0 79 0 0 79 0 0 79 0 0 79 0 0 79 0 0 79 0 0 79 0 0 79 0 0 79 0 0 60 0 0 60 0 0 60 0 0 60 0 0 60 0 0 60 0 0 60 0 0 60 0 0 60 0 0 60 0 0 38 0 0 38 0 0 38 0 0 38 0 0 38 0 0 38 0 0 38 0 0 38 0 0 38 0 0 38 0 0 17 0 0 17 0 0 17 0 0 17 0 0 17 0 0 17 0 0 17 0 0 17 0 0 17 0 0 17 0 0 0 0 0 0 0 0 0 0 0 0 0 0 0 0 0 0 0 0 0 0 0 0 0 0 0 0 0 0 0 0 45 0 0 45 0 0 45 0 0 45 0 0 45 0 0 45 0 0 45 0 0 45 0 0 45 0 0 45 0 0 72 0 0 72 0 0 72 0 0 72 0 0 72 0 0 72 0 0 72 0 0 72 0 0 72 0 0 72 0 0 162 0 0 162 0 0 162 0 0 162 0 0 162 0 0 162 0 0 162 0 0 162 0 0 162 0 0 162 0 0 255 103 0 255 103 0 255 103 0 255 103 0 255 103 0 255 103 0 255 103 0 255 103 0 255 103 0 255 103 0 255 161 0 255 161 0 255 161 0 255 161 0 255 161 0 255 161 0 255 161 0 255 161 0 255 161 0 255 161 0 164 0 0 164 0 0 164 0 0 164 0 0 164 0 0 164 0 0 164 0 0 164 0 0 164 0 0 164 0 0 13 0 0 13 0 0 13 0 0 13 0 0 13 0 0 13 0 0 13 0 0 13 0 0 13 0 0 13 0 0 0 0 96 0 0 96 0 0 96 0 0 96 0 0 96 0 0 96 0 0 96 0 0 96 0 0 96 0 0 96 0 0 76 0 0 76 0 0 76 0 0 76 0 0 76 0 0 76 0 0 76 0 0 76 0 0 76 0 0 76 0 0 11 0 0 11 0 0 11 0 0 11 0 0 11 0 0 11 0 0 11 0 0 11 0 0 11 0 0 11 37 0 0 37 0 0 37 0 0 37 0 0 37 0 0 37 0 0 37 0 0 37 0 0 37 0 0 37 0 0 54 0 0 54 0 0 54 0 0 54 0 0 54 0 0 54 0 0 54 0 0 54 0 0 54 0 0 54 0 0 63 0 0 63 0 0 63 0 0 63 0 0 63 0 0 63 0 0 63 0 0 63 0 0 63 0 0 63 0 0 104 0 0 104 0 0 104 0 0 104 0 0 104 0 0 104 0 0 104 0 0 104 0 0 104 0 0 104 0 0 129 0 0 129 0 0 129 0 0 129 0 0 129 0 0 129 0 0 129 0 0 129 0 0 129 0 0 129 0 0 110 0 0 110 0 0 110 0 0 110 0 0 110 0 0 110 0 0 110 0 0 110 0 0 110 0 0 110 0 0 135 0 0 135 0 0 135 0 0 135 0 0 135 0 0 135 0 0 135 0 0 135 0 0 135 0 0 135 0 0 122 0 0 122 0 0 122 0 0 122 0 0 122 0 0 122 0 0 122 0 0 122 0 0 122 0 0 122 0 0 0 0 0 0 0 0 0 0 0 0 0 0 0 0 0 0 0 0 0 0 0 0 0 0 0 0 0 0 0 0 0 0 93 0 0 93 0 0 93 0 0 93 0 0 93 0 0 93 0 0 93 0 0 93 0 0 93 0 0 93 0 0 93 0 0 93 0 0 93 0 0 93 0 0 93 0 0 93 0 0 93 0 0 93 0 0 93 0 0 93 0 0 93 0 0 93 0 0 93 0 0 93 0 0 93 0 0 93 0 0 93 0 0 93 0 0 93 0 0 93 
123 0 0 123 0 0 123 0 0 123 0 0 123 0 0 123 0 0 123 0 0 123 0 0 123 0 0 123 0 0 138 0 0 138 0 0 138 0 0 138 0 0 138 0 0 138 0 0 138 0 0 138 0 0 138 0 0 138 0 0 154 0 0 154 0 0 154 0 0 154 0 0 154 0 0 154 0 0 154 0 0 154 0 0 154 0 0 154 0 0 122 0 0 122 0 0 122 0 0 122 0 0 122 0 0 122 0 0 122 0 0 122 0 0 122 0 0 122 0 0 124 0 0 124 0 0 124 0 0 124 0 0 124 0 0 124 0 0 124 0 0 124 0 0 124 0 0 124 0 0 79 0 0 79 0 0 79 0 0 79 0 0 79 0 0 79 0 0 79 0 0 79 0 0 79 0 0 79 0 0 60 0 0 60 0 0 60 0 0 60 0 0 60 0 0 60 0 0 60 0 0 60 0 0 60 0 0 60 0 0 38 0 0 38 0 0 38 0 0 38 0 0 38 0 0 38 0 0 38 0 0 38 0 0 38 0 0 38 0 0 17 0 0 17 0 0 17 0 0 17 0 0 17 0 0 17 0 0 17 0 0 17 0 0 17 0 0 17 0 0 0 0 0 0 0 0 0 0 0 0 0 0 0 0 0 0 0 0 0 0 0 0 0 0 0 0 0 0 0 0 45 0 0 45 0 0 45 0 0 45 0 0 45 0 0 45 0 0 45 0 0 45 0 0 45 0 0 45 0 0 72 0 0 72 0 0 72 0 0 72 0 0 72 0 0 72 0 0 72 0 0 72 0 0 72 0 0 72 0 0 162 0 0 162 0 0 162 0 0 162 0 0 162 0 0 162 0 0 162 0 0 162 0 0 162 0 0 162 0 0 255 103 0 255 103 0 255 103 0 255 103 0 255 103 0 255 103 0 255 103 0 255 103 0 255 103 0 255 103 0 255 161 0 255 161 0 255 161 0 255 161 0 255 161 0 255 161 0 255 161 0 255 161 0 255 161 0 255 161 0 164 0 0 164 0 0 164 0 0 164 0 0 164 0 0 164 0 0 164 0 0 164 0 0 164 0 0 164 0 0 13 0 0 13 0 0 13 0 0 13 0 0 13 0 0 13 0 0 13 0 0 13 0 0 13 0 0 13 0 0 0 0 96 0 0 96 0 0 96 0 0 96 0 0 96 0 0 96 0 0 96 0 0 96 0 0 96 0 0 96 0 0 76 0 0 76 0 0 76 0 0 76 0 0 76 0 0 76 0 0 76 0 0 76 0 0 76 0 0 76 0 0 11 0 0 11 0 0 11 0 0 11 0 0 11 0 0 11 0 0 11 0 0 11 0 0 11 0 0 11 37 0 0 37 0 0 37 0 0 37 0 0 37 0 0 37 0 0 37 0 0 37 0 0 37 0 0 37 0 0 54 0 0 54 0 0 54 0 0 54 0 0 54 0 0 54 0 0 54 0 0 54 0 0 54 0 0 54 0 0 63 0 0 63 0 0 63 0 0 63 0 0 63 0 0 63 0 0 63 0 0 63 0 0 63 0 0 63 0 0 104 0 0 104 0 0 104 0 0 104 0 0 104 0 0 104 0 0 104 0 0 104 0 0 104 0 0 104 0 0 129 0 0 129 0 0 129 0 0 129 0 0 129 0 0 129 0 0 129 0 0 129 0 0 129 0 0 129 0 0 110 0 0 110 0 0 110 0 0 110 0 0 110 0 0 110 0 0 110 0 0 110 0 0 110 0 0 110 0 0 135 0 0 135 0 0 135 0 0 135 0 0 135 0 0 135 0 0 135 0 0 135 0 0 135 0 0 135 0 0 122 0 0 122 0 0 122 0 0 122 0 0 122 0 0 122 0 0 122 0 0 122 0 0 122 0 0 122 0 0 0 0 0 0 0 0 0 0 0 0 0 0 0 0 0 0 0 0 0 0 0 0 0 0 0 0 0 0 0 0 0 0 96 0 0 96 0 0 96 0 0 96 0 0 96 0 0 96 0 0 96 0 0 96 0 0 96 0 0 96 0 0 96 0 0 96 0 0 96 0 0 96 0 0 96 0 0 96 0 0 96 0 0 96 0 0 96 0 0 96 0 0 96 0 0 96 0 0 96 0 0 96 0 0 96 0 0 96 0 0 96 0 0 96 0 0 96 0 0 96 
123 0 0 123 0 0 123 0 0 123 0 0 123 0 0 123 0 0 123 0 0 123 0 0 123 0 0 123 0 0 138 0 0 138 0 0 138 0 0 138 0 0 138 0 0 138 0 0 138 0 0 138 0 0 138 0 0 138 0 0 154 0 0 154 0 0 154 0 0 154 0 0 154 0 0 154 0 0 154 0 0 154 0 0 154 0 0 154 0 0 122 0 0 122 0 0 122 0 0 122 0 0 122 0 0 122 0 0 122 0 0 122 0 0 122 0 0 122 0 0 124 0 0 124 0 0 124 0 0 124 0 0 124 0 0 124 0 0 124 0 0 124 0 0 124 0 0 124 0 0 79 0 0 79 0 0 79 0 0 79 0 0 79 0 0 79 0 0 79 0 0 79 0 0 79 0 0 79 0 0 60 0 0 60 0 0 60 0 0 60 0 0 60 0 0 60 0 0 60 0 0 60 0 0 60 0 0 60 0 0 38 0 0 38 0 0 38 0 0 38 0 0 38 0 0 38 0 0 38 0 0 38 0 0 38 0 0 38 0 0 17 0 0 17 0 0 17 0 0 17 0 0 17 0 0 17 0 0 17 0 0 17 0 0 17 0 0 17 0 0 0 0 0 0 0 0 0 0 0 0 0 0 0 0 0 0 0 0 0 0 0 0 0 0 0 0 0 0 0 0 45 0 0 45 0 0 45 0 0 45 0 0 45 0 0 45 0 0 45 0 0 45 0 0 45 0 0 45 0 0 72 0 0 72 0 0 72 0 0 72 0 0 72 0 0 72 0 0 72 0 0 72 0 0 72 0 0 72 0 0 162 0 0 162 0 0 162 0 0 162 0 0 162 0 0 162 0 0 162 0 0 162 0 0 162 0 0 162 0 0 255 103 0 255 103 0 255 103 0 255 103 0 255 103 0 255 103 0 255 103 0 255 103 0 255 103 0 255 103 0 255 161 0 255 161 0 255 161 0 255 161 0 255 161 0 255 161 0 255 161 0 255 161 0 255 161 0 255 161 0 164 0 0 164 0 0 164 0 0 164 0 0 164 0 0 164 0 0 164 0 0 164 0 0 164 0 0 164 0 0 13 0 0 13 0 0 13 0 0 13 0 0 13 0 0 13 0 0 13 0 0 13 0 0 13 0 0 13 0 0 0 0 96 0 0 96 0 0 96 0 0 96 0 0 96 0 0 96 0 0 96 0 0 96 0 0 96 0 0 96 0 0 76 0 0 76 0 0 76 0 0 76 0 0 76 0 0 76 0 0 76 0 0 76 0 0 76 0 0 76 0 0 11 0 0 11 0 0 11 0 0 11 0 0 11 0 0 11 0 0 11 0 0 11 0 0 11 0 0 11 37 0 0 37 0 0 37 0 0 37 0 0 37 0 0 37 0 0 37 0 0 37 0 0 37 0 0 37 0 0 54 0 0 54 0 0 54 0 0 54 0 0 54 0 0 54 0 0 54 0 0 54 0 0 54 0 0 54 0 0 63 0 0 63 0 0 63 0 0 63 0 0 63 0 0 63 0 0 63 0 0 63 0 0 63 0 0 63 0 0 104 0 0 104 0 0 104 0 0 104 0 0 104 0 0 104 0 0 104 0 0 104 0 0 104 0 0 104 0 0 129 0 0 129 0 0 129 0 0 129 0 0 129 0 0 129 0 0 129 0 0 129 0 0 129 0 0 129 0 0 110 0 0 110 0 0 110 0 0 110 0 0 110 0 0 110 0 0 110 0 0 110 0 0 110 0 0 110 0 0 135 0 0 135 0 0 135 0 0 135 0 0 135 0 0 135 0 0 135 0 0 135 0 0 135 0 0 135 0 0 122 0 0 122 0 0 122 0 0 122 0 0 122 0 0 122 0 0 122 0 0 122 0 0 122 0 0 122 0 0 0 0 0 0 0 0 0 0 0 0 0 0 0 0 0 0 0 0 0 0 0 0 0 0 0 0 0 0 0 0 0 0 100 0 0 100 0 0 100 0 0 100 0 0 100 0 0 100 0 0 100 0 0 100 0 0 100 0 0 100 0 0 100 0 0 100 0 0 100 0 0 100 0 0 100 0 0 100 0 0 100 0 0 100 0 0 100 0 0 100 0 0 100 0 0 100 0 0 100 0 0 100 0 0 100 0 0 100 0 0 100 0 0 100 0 0 100 0 0 100 
123 0 0 123 0 0 123 0 0 123 0 0 123 0 0 123 0 0 123 0 0 123 0 0 123 0 0 123 0 0 138 0 0 138 0 0 138 0 0 138 0 0 138 0 0 138 0 0 138 0 0 138 0 0 138 0 0 138 0 0 154 0 0 154 0 0 154 0 0 154 0 0 154 0 0 154 0 0 154 0 0 154 0 0 154 0 0 154 0 0 122 0 0 122 0 0 122 0 0 122 0 0 122 0 0 122 0 0 122 0 0 122 0 0 122 0 0 122 0 0 124 0 0 124 0 0 124 0 0 124 0 0 124 0 0 124 0 0 124 0 0 124 0 0 124 0 0 124 0 0 79 0 0 79 0 0 79 0 0 79 0 0 79 0 0 79 0 0 79 0 0 79 0 0 79 0 0 79 0 0 60 0 0 60 0 0 60 0 0 60 0 0 60 0 0 60 0 0 60 0 0 60 0 0 60 0 0 60 0 0 38 0 0 38 0 0 38 0 0 38 0 0 38 0 0 38 0 0 38 0 0 38 0 0 38 0 0 38 0 0 17 0 0 17 0 0 17 0 0 17 0 0 17 0 0 17 0 0 17 0 0 17 0 0 17 0 0 17 0 0 0 0 0 0 0 0 0 0 0 0 0 0 0 0 0 0 0 0 0 0 0 0 0 0 0 0 0 0 0 0 45 0 0 45 0 0 45 0 0 45 0 0 45 0 0 45 0 0 45 0 0 45 0 0 45 0 0 45 0 0 72 0 0 72 0 0 72 0 0 72 0 0 72 0 0 72 0 0 72 0 0 72 0 0 72 0 0 72 0 0 162 0 0 162 0 0 162 0 0 162 0 0 162 0 0 162 0 0 162 0 0 162 0 0 162 0 0 162 0 0 255 103 0 255 103 0 255 103 0 255 103 0 255 103 0 255 103 0 255 103 0 255 103 0 255 103 0 255 103 0 255 161 0 255 161 0 255 161 0 255 161 0 255 161 0 255 161 0 255 161 0 255 161 0 255 161 0 255 161 0 164 0 0 164 0 0 164 0 0 164 0 0 164 0 0 164 0 0 164 0 0 164 0 0 164 0 0 164 0 0 13 0 0 13 0 0 13 0 0 13 0 0 13 0 0 13 0 0 13 0 0 13 0 0 13 0 0 13 0 0 0 0 96 0 0 96 0 0 96 0 0 96 0 0 96 0 0 96 0 0 96 0 0 96 0 0 96 0 0 96 0 0 76 0 0 76 0 0 76 0 0 76 0 0 76 0 0 76 0 0 76 0 0 76 0 0 76 0 0 76 0 0 11 0 0 11 0 0 11 0 0 11 0 0 11 0 0 11 0 0 11 0 0 11 0 0 11 0 0 11 37 0 0 37 0 0 37 0 0 37 0 0 37 0 0 37 0 0 37 0 0 37 0 0 37 0 0 37 0 0 54 0 0 54 0 0 54 0 0 54 0 0 54 0 0 54 0 0 54 0 0 54 0 0 54 0 0 54 0 0 63 0 0 63 0 0 63 0 0 63 0 0 63 0 0 63 0 0 63 0 0 63 0 0 63 0 0 63 0 0 104 0 0 104 0 0 104 0 0 104 0 0 104 0 0 104 0 0 104 0 0 104 0 0 104 0 0 104 0 0 129 0 0 129 0 0 129 0 0 129 0 0 129 0 0 129 0 0 129 0 0 129 0 0 129 0 0 129 0 0 110 0 0 110 0 0 110 0 0 110 0 0 110 0 0 110 0 0 110 0 0 110 0 0 110 0 0 110 0 0 135 0 0 135 0 0 135 0 0 135 0 0 135 0 0 135 0 0 135 0 0 135 0 0 135 0 0 135 0 0 122 0 0 122 0 0 122 0 0 122 0 0 122 0 0 122 0 0 122 0 0 122 0 0 122 0 0 122 0 0 0 0 0 0 0 0 0 0 0 0 0 0 0 0 0 0 0 0 0 0 0 0 0 0 0 0 0 0 0 0 0 0 104 0 0 104 0 0 104 0 0 104 0 0 104 0 0 104 0 0 104 0 0 104 0 0 104 0 0 104 0 0 104 0 0 104 0 0 104 0 0 104 0 0 104 0 0 104 0 0 104 0 0 104 0 0 104 0 0 104 0 0 104 0 0 104 0 0 104 0 0 104 0 0 104 0 0 104 0 0 104 0 0 104 0 0 104 0 0 104 
123 0 0 123 0 0 123 0 0 123 0 0 123 0 0 123 0 0 123 0 0 123 0 0 123 0 0 123 0 0 138 0 0 138 0 0 138 0 0 138 0 0 138 0 0 138 0 0 138 0 0 138 0 0 138 0 0 138 0 0 154 0 0 154 0 0 154 0 0 154 0 0 154 0 0 154 0 0 154 0 0 154 0 0 154 0 0 154 0 0 122 0 0 122 0 0 122 0 0 122 0 0 122 0 0 122 0 0 122 0 0 122 0 0 122 0 0 122 0 0 124 0 0 124 0 0 124 0 0 124 0 0 124 0 0 124 0 0 124 0 0 124 0 0 124 0 0 124 0 0 79 0 0 79 0 0 79 0 0 79 0 0 79 0 0 79 0 0 79 0 0 79 0 0 79 0 0 79 0 0 60 0 0 60 0 0 60 0 0 60 0 0 60 0 0 60 0 0 60 0 0 60 0 0 60 0 0 60 0 0 38 0 0 38 0 0 38 0 0 38 0 0 38 0 0 38 0 0 38 0 0 38 0 0 38 0 0 38 0 0 17 0 0 17 0 0 17 0 0 17 0 0 17 0 0 17 0 0 17 0 0 17 0 0 17 0 0 17 0 0 0 0 0 0 0 0 0 0 0 0 0 0 0 0 0 0 0 0 0 0 0 0 0 0 0 0 0 0 0 0 45 0 0 45 0 0 45 0 0 45 0 0 45 0 0 45 0 0 45 0 0 45 0 0 45 0 0 45 0 0 72 0 0 72 0 0 72 0 0 72 0 0 72 0 0 72 0 0 72 0 0 72 0 0 72 0 0 72 0 0 162 0 0 162 0 0 162 0 0 162 0 0 162 0 0 162 0 0 162 0 0 162 0 0 162 0 0 162 0 0 255 103 0 255 103 0 255 103 0 255 103 0 255 103 0 255 103 0 255 103 0 255 103 0 255 103 0 255 103 0 255 161 0 255 161 0 255 161 0 255 161 0 255 161 0 255 161 0 255 161 0 255 161 0 255 161 0 255 161 0 164 0 0 164 0 0 164 0 0 164 0 0 164 0 0 164 0 0 164 0 0 164 0 0 164 0 0 164 0 0 13 0 0 13 0 0 13 0 0 13 0 0 13 0 0 13 0 0 13 0 0 13 0 0 13 0 0 13 0 0 0 0 96 0 0 96 0 0 96 0 0 96 0 0 96 0 0 96 0 0 96 0 0 96 0 0 96 0 0 96 0 0 76 0 0 76 0 0 76 0 0 76 0 0 76 0 0 76 0 0 76 0 0 76 0 0 76 0 0 76 0 0 11 0 0 11 0 0 11 0 0 11 0 0 11 0 0 11 0 0 11 0 0 11 0 0 11 0 0 11 37 0 0 37 0 0 37 0 0 37 0 0 37 0 0 37 0 0 37 0 0 37 0 0 37 0 0 37 0 0 54 0 0 54 0 0 54 0 0 54 0 0 54 0 0 54 0 0 54 0 0 54 0 0 54 0 0 54 0 0 63 0 0 63 0 0 63 0 0 63 0 0 63 0 0 63 0 0 63 0 0 63 0 0 63 0 0 63 0 0 104 0 0 104 0 0 104 0 0 104 0 0 104 0 0 104 0 0 104 0 0 104 0 0 104 0 0 104 0 0 129 0 0 129 0 0 129 0 0 129 0 0 129 0 0 129 0 0 129 0 0 129 0 0 129 0 0 129 0 0 110 0 0 110 0 0 110 0 0 110 0 0 110 0 0 110 0 0 110 0 0 110 0 0 110 0 0 110 0 0 135 0 0 135 0 0 135 0 0 135 0 0 135 0 0 135 0 0 135 0 0 135 0 0 135 0 0 135 0 0 122 0 0 122 0 0 122 0 0 122 0 0 122 0 0 122 0 0 122 0 0 122 0 0 122 0 0 122 0 0 0 0 0 0 0 0 0 0 0 0 0 0 0 0 0 0 0 0 0 0 0 0 0 0 0 0 0 0 0 0 0 0 107 0 0 107 0 0 107 0 0 107 0 0 107 0 0 107 0 0 107 0 0 107 0 0 107 0 0 107 0 0 107 0 0 107 0 0 107 0 0 107 0 0 107 0 0 107 0 0 107 0 0 107 0 0 107 0 0 107 0 0 107 0 0 107 0 0 107 0 0 107 0 0 107 0 0 107 0 0 107 0 0 107 0 0 107 0 0 107 
137 0 0 137 0 0 137 0 0 137 0 0 137 0 0 137 0 0 137 0 0 137 0 0 137 0 0 137 0 0 144 0 0 144 0 0 144 0 0 144 0 0 144 0 0 144 0 0 144 0 0 144 0 0 144 0 0 144 0 0 153 0 0 153 0 0 153 0 0 153 0 0 153 0 0 153 0 0 153 0 0 153 0 0 153 0 0 153 0 0 148 0 0 148 0 0 148 0 0 148 0 0 148 0 0 148 0 0 148 0 0 148 0 0 148 0 0 148 0 0 113 0 0 113 0 0 113 0 0 113 0 0 113 0 0 113 0 0 113 0 0 113 0 0 113 0 0 113 0 0 77 0 0 77 0 0 77 0 0 77 0 0 77 0 0 77 0 0 77 0 0 77 0 0 77 0 0 77 0 0 0 0 0 0 0 0 0 0 0 0 0 0 0 0 0 0 0 0 0 0 0 0 0 0 0 0 0 0 0 0 0 0 11 0 0 11 0 0 11 0 0 11 0 0 11 0 0 11 0 0 11 0 0 11 0 0 11 0 0 11 40 0 0 40 0 0 40 0 0 40 0 0 40 0 0 40 0 0 40 0 0 40 0 0 40 0 0 40 0 0 53 0 0 53 0 0 53 0 0 53 0 0 53 0 0 53 0 0 53 0 0 53 0 0 53 0 0 53 0 0 113 0 0 113 0 0 113 0 0 113 0 0 113 0 0 113 0 0 113 0 0 113 0 0 113 0 0 113 0 0 105 0 0 105 0 0 105 0 0 105 0 0 105 0 0 105 0 0 105 0 0 105 0 0 105 0 0 105 0 0 191 0 0 191 0 0 191 0 0 191 0 0 191 0 0 191 0 0 191 0 0 191 0 0 191 0 0 191 0 0 255 108 0 255 108 0 255 108 0 255 108 0 255 108 0 255 108 0 255 108 0 255 108 0 255 108 0 255 108 0 255 74 0 255 74 0 255 74 0 255 74 0 255 74 0 255 74 0 255 74 0 255 74 0 255 74 0 255 74 0 155 0 0 155 0 0 155 0 0 155 0 0 155 0 0 155 0 0 155 0 0 155 0 0 155 0 0 155 0 0 3 0 0 3 0 0 3 0 0 3 0 0 3 0 0 3 0 0 3 0 0 3 0 0 3 0 0 3 0 0 0 0 66 0 0 66 0 0 66 0 0 66 0 0 66 0 0 66 0 0 66 0 0 66 0 0 66 0 0 66 0 0 20 0 0 20 0 0 20 0 0 20 0 0 20 0 0 20 0 0 20 0 0 20 0 0 20 0 0 20 0 0 10 0 0 10 0 0 10 0 0 10 0 0 10 0 0 10 0 0 10 0 0 10 0 0 10 0 0 10 35 0 0 35 0 0 35 0 0 35 0 0 35 0 0 35 0 0 35 0 0 35 0 0 35 0 0 35 0 0 50 0 0 50 0 0 50 0 0 50 0 0 50 0 0 50 0 0 50 0 0 50 0 0 50 0 0 50 0 0 86 0 0 86 0 0 86 0 0 86 0 0 86 0 0 86 0 0 86 0 0 86 0 0 86 0 0 86 0 0 114 0 0 114 0 0 114 0 0 114 0 0 114 0 0 114 0 0 114 0 0 114 0 0 114 0 0 114 0 0 100 0 0 100 0 0 100 0 0 100 0 0 100 0 0 100 0 0 100 0 0 100 0 0 100 0 0 100 0 0 137 0 0 137 0 0 137 0 0 137 0 0 137 0 0 137 0 0 137 0 0 137 0 0 137 0 0 137 0 0 132 0 0 132 0 0 132 0 0 132 0 0 132 0 0 132 0 0 132 0 0 132 0 0 132 0 0 132 0 0 115 0 0 115 0 0 115 0 0 115 0 0 115 0 0 115 0 0 115 0 0 115 0 0 115 0 0 115 0 0 0 0 0 0 0 0 0 0 0 0 0 0 0 0 0 0 0 0 0 0 0 0 0 0 0 0 0 0 0 0 0 0 111 0 0 111 0 0 111 0 0 111 0 0 111 0 0 111 0 0 111 0 0 111 0 0 111 0 0 111 0 0 111 0 0 111 0 0 111 0 0 111 0 0 111 0 0 111 0 0 111 0 0 111 0 0 111 0 0 111 0 0 111 0 0 111 0 0 111 0 0 111 0 0 111 0 0 111 0 0 111 0 0 111 0 0 111 0 0 111 
137 0 0 137 0 0 137 0 0 137 0 0 137 0 0 137 0 0 137 0 0 137 0 0 137 0 0 137 0 0 144 0 0 144 0 0 144 0 0 144 0 0 144 0 0 144 0 0 144 0 0 144 0 0 144 0 0 144 0 0 153 0 0 153 0 0 153 0 0 153 0 0 153 0 0 153 0 0 153 0 0 153 0 0 153 0 0 153 0 0 148 0 0 148 0 0 148 0 0 148 0 0 148 0 0 148 0 0 148 0 0 148 0 0 148 0 0 148 0 0 113 0 0 113 0 0 113 0 0 113 0 0 113 0 0 113 0 0 113 0 0 113 0 0 113 0 0 113 0 0 77 0 0 77 0 0 77 0 0 77 0 0 77 0 0 77 0 0 77 0 0 77 0 0 77 0 0 77 0 0 0 0 0 0 0 0 0 0 0 0 0 0 0 0 0 0 0 0 0 0 0 0 0 0 0 0 0 0 0 0 0 0 11 0 0 11 0 0 11 0 0 11 0 0 11 0 0 11 0 0 11 0 0 11 0 0 11 0 0 11 40 0 0 40 0 0 40 0 0 40 0 0 40 0 0 40 0 0 40 0 0 40 0 0 40 0 0 40 0 0 53 0 0 53 0 0 53 0 0 53 0 0 53 0 0 53 0 0 53 0 0 53 0 0 53 0 0 53 0 0 113 0 0 113 0 0 113 0 0 113 0 0 113 0 0 113 0 0 113 0 0 113 0 0 113 0 0 113 0 0 105 0 0 105 0 0 105 0 0 105 0 0 105 0 0 105 0 0 105 0 0 105 0 0 105 0 0 105 0 0 191 0 0 191 0 0 191 0 0 191 0 0 191 0 0 191 0 0 191 0 0 191 0 0 191 0 0 191 0 0 255 108 0 255 108 0 255 108 0 255 108 0 255 108 0 255 108 0 255 108 0 255 108 0 255 108 0 255 108 0 255 74 0 255 74 0 255 74 0 255 74 0 255 74 0 255 74 0 255 74 0 255 74 0 255 74 0 255 74 0 155 0 0 155 0 0 155 0 0 155 0 0 155 0 0 155 0 0 155 0 0 155 0 0 155 0 0 155 0 0 3 0 0 3 0 0 3 0 0 3 0 0 3 0 0 3 0 0 3 0 0 3 0 0 3 0 0 3 0 0 0 0 66 0 0 66 0 0 66 0 0 66 0 0 66 0 0 66 0 0 66 0 0 66 0 0 66 0 0 66 0 0 20 0 0 20 0 0 20 0 0 20 0 0 20 0 0 20 0 0 20 0 0 20 0 0 20 0 0 20 0 0 10 0 0 10 0 0 10 0 0 10 0 0 10 0 0 10 0 0 10 0 0 10 0 0 10 0 0 10 35 0 0 35 0 0 35 0 0 35 0 0 35 0 0 35 0 0 35 0 0 35 0 0 35 0 0 35 0 0 50 0 0 50 0 0 50 0 0 50 0 0 50 0 0 50 0 0 50 0 0 50 0 0 50 0 0 50 0 0 86 0 0 86 0 0 86 0 0 86 0 0 86 0 0 86 0 0 86 0 0 86 0 0 86 0 0 86 0 0 114 0 0 114 0 0 114 0 0 114 0 0 114 0 0 114 0 0 114 0 0 114 0 0 114 0 0 114 0 0 100 0 0 100 0 0 100 0 0 100 0 0 100 0 0 100 0 0 100 0 0 100 0 0 100 0 0 100 0 0 137 0 0 137 0 0 137 0 0 137 0 0 137 0 0 137 0 0 137 0 0 137 0 0 137 0 0 137 0 0 132 0 0 132 0 0 132 0 0 132 0 0 132 0 0 132 0 0 132 0 0 132 0 0 132 0 0 132 0 0 115 0 0 115 0 0 115 0 0 115 0 0 115 0 0 115 0 0 115 0 0 115 0 0 115 0 0 115 0 0 0 0 0 0 0 0 0 0 0 0 0 0 0 0 0 0 0 0 0 0 0 0 0 0 0 0 0 0 0 0 0 0 115 0 0 115 0 0 115 0 0 115 0 0 115 0 0 115 0 0 115 0 0 115 0 0 115 0 0 115 0 0 115 0 0 115 0 0 115 0 0 115 0 0 115 0 0 115 0 0 115 0 0 115 0 0 115 0 0 115 0 0 115 0 0 115 0 0 115 0 0 115 0 0 115 0 0 115 0 0 115 0 0 115 0 0 115 0 0 115 
137 0 0 137 0 0 137 0 0 137 0 0 137 0 0 137 0 0 137 0 0 137 0 0 137 0 0 137 0 0 144 0 0 144 0 0 144 0 0 144 0 0 144 0 0 144 0 0 144 0 0 144 0 0 144 0 0 144 0 0 153 0 0 153 0 0 153 0 0 153 0 0 153 0 0 153 0 0 153 0 0 153 0 0 153 0 0 153 0 0 148 0 0 148 0 0 148 0 0 148 0 0 148 0 0 148 0 0 148 0 0 148 0 0 148 0 0 148 0 0 113 0 0 113 0 0 113 0 0 113 0 0 113 0 0 113 0 0 113 0 0 113 0 0 113 0 0 113 0 0 77 0 0 77 0 0 77 0 0 77 0 0 77 0 0 77 0 0 77 0 0 77 0 0 77 0 0 77 0 0 0 0 0 0 0 0 0 0 0 0 0 0 0 0 0 0 0 0 0 0 0 0 0 0 0 0 0 0 0 0 0 0 11 0 0 11 0 0 11 0 0 11 0 0 11 0 0 11 0 0 11 0 0 11 0 0 11 0 0 11 40 0 0 40 0 0 40 0 0 40 0 0 40 0 0 40 0 0 40 0 0 40 0 0 40 0 0 40 0 0 53 0 0 53 0 0 53 0 0 53 0 0 53 0 0 53 0 0 53 0 0 53 0 0 53 0 0 53 0 0 113 0 0 113 0 0 113 0 0 113 0 0 113 0 0 113 0 0 113 0 0 113 0 0 113 0 0 113 0 0 105 0 0 105 0 0 105 0 0 105 0 0 105 0 0 105 0 0 105 0 0 105 0 0 105 0 0 105 0 0 191 0 0 191 0 0 191 0 0 191 0 0 191 0 0 191 0 0 191 0 0 191 0 0 191 0 0 191 0 0 255 108 0 255 108 0 255 108 0 255 108 0 255 108 0 255 108 0 255 108 0 255 108 0 255 108 0 255 108 0 255 74 0 255 74 0 255 74 0 255 74 0 255 74 0 255 74 0 255 74 0 255 74 0 255 74 0 255 74 0 155 0 0 155 0 0 155 0 0 155 0 0 155 0 0 155 0 0 155 0 0 155 0 0 155 0 0 155 0 0 3 0 0 3 0 0 3 0 0 3 0 0 3 0 0 3 0 0 3 0 0 3 0 0 3 0 0 3 0 0 0 0 66 0 0 66 0 0 66 0 0 66 0 0 66 0 0 66 0 0 66 0 0 66 0 0 66 0 0 66 0 0 20 0 0 20 0 0 20 0 0 20 0 0 20 0 0 20 0 0 20 0 0 20 0 0 20 0 0 20 0 0 10 0 0 10 0 0 10 0 0 10 0 0 10 0 0 10 0 0 10 0 0 10 0 0 10 0 0 10 35 0 0 35 0 0 35 0 0 35 0 0 35 0 0 35 0 0 35 0 0 35 0 0 35 0 0 35 0 0 50 0 0 50 0 0 50 0 0 50 0 0 50 0 0 50 0 0 50 0 0 50 0 0 50 0 0 50 0 0 86 0 0 86 0 0 86 0 0 86 0 0 86 0 0 86 0 0 86 0 0 86 0 0 86 0 0 86 0 0 114 0 0 114 0 0 114 0 0 114 0 0 114 0 0 114 0 0 114 0 0 114 0 0 114 0 0 114 0 0 100 0 0 100 0 0 100 0 0 100 0 0 100 0 0 100 0 0 100 0 0 100 0 0 100 0 0 100 0 0 137 0 0 137 0 0 137 0 0 137 0 0 137 0 0 137 0 0 137 0 0 137 0 0 137 0 0 137 0 0 132 0 0 132 0 0 132 0 0 132 0 0 132 0 0 132 0 0 132 0 0 132 0 0 132 0 0 132 0 0 115 0 0 115 0 0 115 0 0 115 0 0 115 0 0 115 0 0 115 0 0 115 0 0 115 0 0 115 0 0 0 0 0 0 0 0 0 0 0 0 0 0 0 0 0 0 0 0 0 0 0 0 0 0 0 0 0 0 0 0 0 0 118 0 0 118 0 0 118 0 0 118 0 0 118 0 0 118 0 0 118 0 0 118 0 0 118 0 0 118 0 0 118 0 0 118 0 0 118 0 0 118 0 0 118 0 0 118 0 0 118 0 0 118 0 0 118 0 0 118 0 0 118 0 0 118 0 0 118 0 0 118 0 0 118 0 0 118 0 0 118 0 0 118 0 0 118 0 0 118 
137 0 0 137 0 0 137 0 0 137 0 0 137 0 0 137 0 0 137 0 0 137 0 0 137 0 0 137 0 0 144 0 0 144 0 0 144 0 0 144 0 0 144 0 0 144 0 0 144 0 0 144 0 0 144 0 0 144 0 0 153 0 0 153 0 0 153 0 0 153 0 0 153 0 0 153 0 0 153 0 0 153 0 0 153 0 0 153 0 0 148 0 0 148 0 0 148 0 0 148 0 0 148 0 0 148 0 0 148 0 0 148 0 0 148 0 0 148 0 0 113 0 0 113 0 0 113 0 0 113 0 0 113 0 0 113 0 0 113 0 0 113 0 0 113 0 0 113 0 0 77 0 0 77 0 0 77 0 0 77 0 0 77 0 0 77 0 0 77 0 0 77 0 0 77 0 0 77 0 0 0 0 0 0 0 0 0 0 0 0 0 0 0 0 0 0 0 0 0 0 0 0 0 0 0 0 0 0 0 0 0 0 11 0 0 11 0 0 11 0 0 11 0 0 11 0 0 11 0 0 11 0 0 11 0 0 11 0 0 11 40 0 0 40 0 0 40 0 0 40 0 0 40 0 0 40 0 0 40 0 0 40 0 0 40 0 0 40 0 0 53 0 0 53 0 0 53 0 0 53 0 0 53 0 0 53 0 0 53 0 0 53 0 0 53 0 0 53 0 0 113 0 0 113 0 0 113 0 0 113 0 0 113 0 0 113 0 0 113 0 0 113 0 0 113 0 0 113 0 0 105 0 0 105 0 0 105 0 0 105 0 0 105 0 0 105 0 0 105 0 0 105 0 0 105 0 0 105 0 0 191 0 0 191 0 0 191 0 0 191 0 0 191 0 0 191 0 0 191 0 0 191 0 0 191 0 0 191 0 0 255 108 0 255 108 0 255 108 0 255 108 0 255 108 0 255 108 0 255 108 0 255 108 0 255 108 0 255 108 0 255 74 0 255 74 0 255 74 0 255 74 0 255 74 0 255 74 0 255 74 0 255 74 0 255 74 0 255 74 0 155 0 0 155 0 0 155 0 0 155 0 0 155 0 0 155 0 0 155 0 0 155 0 0 155 0 0 155 0 0 3 0 0 3 0 0 3 0 0 3 0 0 3 0 0 3 0 0 3 0 0 3 0 0 3 0 0 3 0 0 0 0 66 0 0 66 0 0 66 0 0 66 0 0 66 0 0 66 0 0 66 0 0 66 0 0 66 0 0 66 0 0 20 0 0 20 0 0 20 0 0 20 0 0 20 0 0 20 0 0 20 0 0 20 0 0 20 0 0 20 0 0 10 0 0 10 0 0 10 0 0 10 0 0 10 0 0 10 0 0 10 0 0 10 0 0 10 0 0 10 35 0 0 35 0 0 35 0 0 35 0 0 35 0 0 35 0 0 35 0 0 35 0 0 35 0 0 35 0 0 50 0 0 50 0 0 50 0 0 50 0 0 50 0 0 50 0 0 50 0 0 50 0 0 50 0 0 50 0 0 86 0 0 86 0 0 86 0 0 86 0 0 86 0 0 86 0 0 86 0 0 86 0 0 86 0 0 86 0 0 114 0 0 114 0 0 114 0 0 114 0 0 114 0 0 114 0 0 114 0 0 114 0 0 114 0 0 114 0 0 100 0 0 100 0 0 100 0 0 100 0 0 100 0 0 100 0 0 100 0 0 100 0 0 100 0 0 100 0 0 137 0 0 137 0 0 137 0 0 137 0 0 137 0 0 137 0 0 137 0 0 137 0 0 137 0 0 137 0 0 132 0 0 132 0 0 132 0 0 132 0 0 132 0 0 132 0 0 132 0 0 132 0 0 132 0 0 132 0 0 115 0 0 115 0 0 115 0 0 115 0 0 115 0 0 115 0 0 115 0 0 115 0 0 115 0 0 115 0 0 0 0 0 0 0 0 0 0 0 0 0 0 0 0 0 0 0 0 0 0 0 0 0 0 0 0 0 0 0 0 0 0 122 0 0 122 0 0 122 0 0 122 0 0 122 0 0 122 0 0 122 0 0 122 0 0 122 0 0 122 0 0 122 0 0 122 0 0 122 0 0 122 0 0 122 0 0 122 0 0 122 0 0 122 0 0 122 0 0 122 0 0 122 0 0 122 0 0 122 0 0 122 0 0 122 0 0 122 0 0 122 0 0 122 0 0 122 0 0 122 
137 0 0 137 0 0 137 0 0 137 0 0 137 0 0 137 0 0 137 0 0 137 0 0 137 0 0 137 0 0 144 0 0 144 0 0 144 0 0 144 0 0 144 0 0 144 0 0 144 0 0 144 0 0 144 0 0 144 0 0 153 0 0 153 0 0 153 0 0 153 0 0 153 0 0 153 0 0 153 0 0 153 0 0 153 0 0 153 0 0 148 0 0 148 0 0 148 0 0 148 0 0 148 0 0 148 0 0 148 0 0 148 0 0 148 0 0 148 0 0 113 0 0 113 0 0 113 0 0 113 0 0 113 0 0 113 0 0 113 0 0 113 0 0 113 0 0 113 0 0 77 0 0 77 0 0 77 0 0 77 0 0 77 0 0 77 0 0 77 0 0 77 0 0 77 0 0 77 0 0 0 0 0 0 0 0 0 0 0 0 0 0 0 0 0 0 0 0 0 0 0 0 0 0 0 0 0 0 0 0 0 0 11 0 0 11 0 0 11 0 0 11 0 0 11 0 0 11 0 0 11 0 0 11 0 0 11 0 0 11 40 0 0 40 0 0 40 0 0 40 0 0 40 0 0 40 0 0 40 0 0 40 0 0 40 0 0 40 0 0 53 0 0 53 0 0 53 0 0 53 0 0 53 0 0 53 0 0 53 0 0 53 0 0 53 0 0 53 0 0 113 0 0 113 0 0 113 0 0 113 0 0 113 0 0 113 0 0 113 0 0 113 0 0 113 0 0 113 0 0 105 0 0 105 0 0 105 0 0 105 0 0 105 0 0 105 0 0 105 0 0 105 0 0 105 0 0 105 0 0 191 0 0 191 0 0 191 0 0 191 0 0 191 0 0 191 0 0 191 0 0 191 0 0 191 0 0 191 0 0 255 108 0 255 108 0 255 108 0 255 108 0 255 108 0 255 108 0 255 108 0 255 108 0 255 108 0 255 108 0 255 74 0 255 74 0 255 74 0 255 74 0 255 74 0 255 74 0 255 74 0 255 74 0 255 74 0 255 74 0 155 0 0 155 0 0 155 0 0 155 0 0 155 0 0 155 0 0 155 0 0 155 0 0 155 0 0 155 0 0 3 0 0 3 0 0 3 0 0 3 0 0 3 0 0 3 0 0 3 0 0 3 0 0 3 0 0 3 0 0 0 0 66 0 0 66 0 0 66 0 0 66 0 0 66 0 0 66 0 0 66 0 0 66 0 0 66 0 0 66 0 0 20 0 0 20 0 0 20 0 0 20 0 0 20 0 0 20 0 0 20 0 0 20 0 0 20 0 0 20 0 0 10 0 0 10 0 0 10 0 0 10 0 0 10 0 0 10 0 0 10 0 0 10 0 0 10 0 0 10 35 0 0 35 0 0 35 0 0 35 0 0 35 0 0 35 0 0 35 0 0 35 0 0 35 0 0 35 0 0 50 0 0 50 0 0 50 0 0 50 0 0 50 0 0 50 0 0 50 0 0 50 0 0 50 0 0 50 0 0 86 0 0 86 0 0 86 0 0 86 0 0 86 0 0 86 0 0 86 0 0 86 0 0 86 0 0 86 0 0 114 0 0 114 0 0 114 0 0 114 0 0 114 0 0 114 0 0 114 0 0 114 0 0 114 0 0 114 0 0 100 0 0 100 0 0 100 0 0 100 0 0 100 0 0 100 0 0 100 0 0 100 0 0 100 0 0 100 0 0 137 0 0 137 0 0 137 0 0 137 0 0 137 0 0 137 0 0 137 0 0 137 0 0 137 0 0 137 0 0 132 0 0 132 0 0 132 0 0 132 0 0 132 0 0 132 0 0 132 0 0 132 0 0 132 0 0 132 0 0 115 0 0 115 0 0 115 0 0 115 0 0 115 0 0 115 0 0 115 0 0 115 0 0 115 0 0 115 0 0 0 0 0 0 0 0 0 0 0 0 0 0 0 0 0 0 0 0 0 0 0 0 0 0 0 0 0 0 0 0 0 0 126 0 0 126 0 0 126 0 0 126 0 0 126 0 0 126 0 0 126 0 0 126 0 0 126 0 0 126 0 0 126 0 0 126 0 0 126 0 0 126 0 0 126 0 0 126 0 0 126 0 0 126 0 0 126 0 0 126 0 0 126 0 0 126 0 0 126 0 0 126 0 0 126 0 0 126 0 0 126 0 0 126 0 0 126 0 0 126 
137 0 0 137 0 0 137 0 0 137 0 0 137 0 0 137 0 0 137 0 0 137 0 0 137 0 0 137 0 0 144 0 0 144 0 0 144 0 0 144 0 0 144 0 0 144 0 0 144 0 0 144 0 0 144 0 0 144 0 0 153 0 0 153 0 0 153 0 0 153 0 0 153 0 0 153 0 0 153 0 0 153 0 0 153 0 0 153 0 0 148 0 0 148 0 0 148 0 0 148 0 0 148 0 0 148 0 0 148 0 0 148 0 0 148 0 0 148 0 0 113 0 0 113 0 0 113 0 0 113 0 0 113 0 0 113 0 0 113 0 0 113 0 0 113 0 0 113 0 0 77 0 0 77 0 0 77 0 0 77 0 0 77 0 0 77 0 0 77 0 0 77 0 0 77 0 0 77 0 0 0 0 0 0 0 0 0 0 0 0 0 0 0 0 0 0 0 0 0 0 0 0 0 0 0 0 0 0 0 0 0 0 11 0 0 11 0 0 11 0 0 11 0 0 11 0 0 11 0 0 11 0 0 11 0 0 11 0 0 11 40 0 0 40 0 0 40 0 0 40 0 0 40 0 0 40 0 0 40 0 0 40 0 0 40 0 0 40 0 0 53 0 0 53 0 0 53 0 0 53 0 0 53 0 0 53 0 0 53 0 0 53 0 0 53 0 0 53 0 0 113 0 0 113 0 0 113 0 0 113 0 0 113 0 0 113 0 0 113 0 0 113 0 0 113 0 0 113 0 0 105 0 0 105 0 0 105 0 0 105 0 0 105 0 0 105 0 0 105 0 0 105 0 0 105 0 0 105 0 0 191 0 0 191 0 0 191 0 0 191 0 0 191 0 0 191 0 0 191 0 0 191 0 0 191 0 0 191 0 0 255 108 0 255 108 0 255 108 0 255 108 0 255 108 0 255 108 0 255 108 0 255 108 0 255 108 0 255 108 0 255 74 0 255 74 0 255 74 0 255 74 0 255 74 0 255 74 0 255 74 0 255 74 0 255 74 0 255 74 0 155 0 0 155 0 0 155 0 0 155 0 0 155 0 0 155 0 0 155 0 0 155 0 0 155 0 0 155 0 0 3 0 0 3 0 0 3 0 0 3 0 0 3 0 0 3 0 0 3 0 0 3 0 0 3 0 0 3 0 0 0 0 66 0 0 66 0 0 66 0 0 66 0 0 66 0 0 66 0 0 66 0 0 66 0 0 66 0 0 66 0 0 20 0 0 20 0 0 20 0 0 20 0 0 20 0 0 20 0 0 20 0 0 20 0 0 20 0 0 20 0 0 10 0 0 10 0 0 10 0 0 10 0 0 10 0 0 10 0 0 10 0 0 10 0 0 10 0 0 10 35 0 0 35 0 0 35 0 0 35 0 0 35 0 0 35 0 0 35 0 0 35 0 0 35 0 0 35 0 0 50 0 0 50 0 0 50 0 0 50 0 0 50 0 0 50 0 0 50 0 0 50 0 0 50 0 0 50 0 0 86 0 0 86 0 0 86 0 0 86 0 0 86 0 0 86 0 0 86 0 0 86 0 0 86 0 0 86 0 0 114 0 0 114 0 0 114 0 0 114 0 0 114 0 0 114 0 0 114 0 0 114 0 0 114 0 0 114 0 0 100 0 0 100 0 0 100 0 0 100 0 0 100 0 0 100 0 0 100 0 0 100 0 0 100 0 0 100 0 0 137 0 0 137 0 0 137 0 0 137 0 0 137 0 0 137 0 0 137 0 0 137 0 0 137 0 0 137 0 0 132 0 0 132 0 0 132 0 0 132 0 0 132 0 0 132 0 0 132 0 0 132 0 0 132 0 0 132 0 0 115 0 0 115 0 0 115 0 0 115 0 0 115 0 0 115 0 0 115 0 0 115 0 0 115 0 0 115 0 0 0 0 0 0 0 0 0 0 0 0 0 0 0 0 0 0 0 0 0 0 0 0 0 0 0 0 0 0 0 0 0 0 129 0 0 129 0 0 129 0 0 129 0 0 129 0 0 129 0 0 129 0 0 129 0 0 129 0 0 129 0 0 129 0 0 129 0 0 129 0 0 129 0 0 129 0 0 129 0 0 129 0 0 129 0 0 129 0 0 129 0 0 129 0 0 129 0 0 129 0 0 129 0 0 129 0 0 129 0 0 129 0 0 129 0 0 129 0 0 129 
137 0 0 137 0 0 137 0 0 137 0 0 137 0 0 137 0 0 137 0 0 137 0 0 137 0 0 137 0 0 144 0 0 144 0 0 144 0 0 144 0 0 144 0 0 144 0 0 144 0 0 144 0 0 144 0 0 144 0 0 153 0 0 153 0 0 153 0 0 153 0 0 153 0 0 153 0 0 153 0 0 153 0 0 153 0 0 153 0 0 148 0 0 148 0 0 148 0 0 148 0 0 148 0 0 148 0 0 148 0 0 148 0 0 148 0 0 148 0 0 113 0 0 113 0 0 113 0 0 113 0 0 113 0 0 113 0 0 113 0 0 113 0 0 113 0 0 113 0 0 77 0 0 77 0 0 77 0 0 77 0 0 77 0 0 77 0 0 77 0 0 77 0 0 77 0 0 77 0 0 0 0 0 0 0 0 0 0 0 0 0 0 0 0 0 0 0 0 0 0 0 0 0 0 0 0 0 0 0 0 0 0 11 0 0 11 0 0 11 0 0 11 0 0 11 0 0 11 0 0 11 0 0 11 0 0 11 0 0 11 40 0 0 40 0 0 40 0 0 40 0 0 40 0 0 40 0 0 40 0 0 40 0 0 40 0 0 40 0 0 53 0 0 53 0 0 53 0 0 53 0 0 53 0 0 53 0 0 53 0 0 53 0 0 53 0 0 53 0 0 113 0 0 113 0 0 113 0 0 113 0 0 113 0 0 113 0 0 113 0 0 113 0 0 113 0 0 113 0 0 105 0 0 105 0 0 105 0 0 105 0 0 105 0 0 105 0 0 105 0 0 105 0 0 105 0 0 105 0 0 191 0 0 191 0 0 191 0 0 191 0 0 191 0 0 191 0 0 191 0 0 191 0 0 191 0 0 191 0 0 255 108 0 255 108 0 255 108 0 255 108 0 255 108 0 255 108 0 255 108 0 255 108 0 255 108 0 255 108 0 255 74 0 255 74 0 255 74 0 255 74 0 255 74 0 255 74 0 255 74 0 255 74 0 255 74 0 255 74 0 155 0 0 155 0 0 155 0 0 155 0 0 155 0 0 155 0 0 155 0 0 155 0 0 155 0 0 155 0 0 3 0 0 3 0 0 3 0 0 3 0 0 3 0 0 3 0 0 3 0 0 3 0 0 3 0 0 3 0 0 0 0 66 0 0 66 0 0 66 0 0 66 0 0 66 0 0 66 0 0 66 0 0 66 0 0 66 0 0 66 0 0 20 0 0 20 0 0 20 0 0 20 0 0 20 0 0 20 0 0 20 0 0 20 0 0 20 0 0 20 0 0 10 0 0 10 0 0 10 0 0 10 0 0 10 0 0 10 0 0 10 0 0 10 0 0 10 0 0 10 35 0 0 35 0 0 35 0 0 35 0 0 35 0 0 35 0 0 35 0 0 35 0 0 35 0 0 35 0 0 50 0 0 50 0 0 50 0 0 50 0 0 50 0 0 50 0 0 50 0 0 50 0 0 50 0 0 50 0 0 86 0 0 86 0 0 86 0 0 86 0 0 86 0 0 86 0 0 86 0 0 86 0 0 86 0 0 86 0 0 114 0 0 114 0 0 114 0 0 114 0 0 114 0 0 114 0 0 114 0 0 114 0 0 114 0 0 114 0 0 100 0 0 100 0 0 100 0 0 100 0 0 100 0 0 100 0 0 100 0 0 100 0 0 100 0 0 100 0 0 137 0 0 137 0 0 137 0 0 137 0 0 137 0 0 137 0 0 137 0 0 137 0 0 137 0 0 137 0 0 132 0 0 132 0 0 132 0 0 132 0 0 132 0 0 132 0 0 132 0 0 132 0 0 132 0 0 132 0 0 115 0 0 115 0 0 115 0 0 115 0 0 115 0 0 115 0 0 115 0 0 115 0 0 115 0 0 115 0 0 0 0 0 0 0 0 0 0 0 0 0 0 0 0 0 0 0 0 0 0 0 0 0 0 0 0 0 0 0 0 0 0 133 0 0 133 0 0 133 0 0 133 0 0 133 0 0 133 0 0 133 0 0 133 0 0 133 0 0 133 0 0 133 0 0 133 0 0 133 0 0 133 0 0 133 0 0 133 0 0 133 0 0 133 0 0 133 0 0 133 0 0 133 0 0 133 0 0 133 0 0 133 0 0 133 0 0 133 0 0 133 0 0 133 0 0 133 0 0 133 
137 0 0 137 0 0 137 0 0 137 0 0 137 0 0 137 0 0 137 0 0 137 0 0 137 0 0 137 0 0 144 0 0 144 0 0 144 0 0 144 0 0 144 0 0 144 0 0 144 0 0 144 0 0 144 0 0 144 0 0 153 0 0 153 0 0 153 0 0 153 0 0 153 0 0 153 0 0 153 0 0 153 0 0 153 0 0 153 0 0 148 0 0 148 0 0 148 0 0 148 0 0 148 0 0 148 0 0 148 0 0 148 0 0 148 0 0 148 0 0 113 0 0 113 0 0 113 0 0 113 0 0 113 0 0 113 0 0 113 0 0 113 0 0 113 0 0 113 0 0 77 0 0 77 0 0 77 0 0 77 0 0 77 0 0 77 0 0 77 0 0 77 0 0 77 0 0 77 0 0 0 0 0 0 0 0 0 0 0 0 0 0 0 0 0 0 0 0 0 0 0 0 0 0 0 0 0 0 0 0 0 0 11 0 0 11 0 0 11 0 0 11 0 0 11 0 0 11 0 0 11 0 0 11 0 0 11 0 0 11 40 0 0 40 0 0 40 0 0 40 0 0 40 0 0 40 0 0 40 0 0 40 0 0 40 0 0 40 0 0 53 0 0 53 0 0 53 0 0 53 0 0 53 0 0 53 0 0 53 0 0 53 0 0 53 0 0 53 0 0 113 0 0 113 0 0 113 0 0 113 0 0 113 0 0 113 0 0 113 0 0 113 0 0 113 0 0 113 0 0 105 0 0 105 0 0 105 0 0 105 0 0 105 0 0 105 0 0 105 0 0 105 0 0 105 0 0 105 0 0 191 0 0 191 0 0 191 0 0 191 0 0 191 0 0 191 0 0 191 0 0 191 0 0 191 0 0 191 0 0 255 108 0 255 108 0 255 108 0 255 108 0 255 108 0 255 108 0 255 108 0 255 108 0 255 108 0 255 108 0 255 74 0 255 74 0 255 74 0 255 74 0 255 74 0 255 74 0 255 74 0 255 74 0 255 74 0 255 74 0 155 0 0 155 0 0 155 0 0 155 0 0 155 0 0 155 0 0 155 0 0 155 0 0 155 0 0 155 0 0 3 0 0 3 0 0 3 0 0 3 0 0 3 0 0 3 0 0 3 0 0 3 0 0 3 0 0 3 0 0 0 0 66 0 0 66 0 0 66 0 0 66 0 0 66 0 0 66 0 0 66 0 0 66 0 0 66 0 0 66 0 0 20 0 0 20 0 0 20 0 0 20 0 0 20 0 0 20 0 0 20 0 0 20 0 0 20 0 0 20 0 0 10 0 0 10 0 0 10 0 0 10 0 0 10 0 0 10 0 0 10 0 0 10 0 0 10 0 0 10 35 0 0 35 0 0 35 0 0 35 0 0 35 0 0 35 0 0 35 0 0 35 0 0 35 0 0 35 0 0 50 0 0 50 0 0 50 0 0 50 0 0 50 0 0 50 0 0 50 0 0 50 0 0 50 0 0 50 0 0 86 0 0 86 0 0 86 0 0 86 0 0 86 0 0 86 0 0 86 0 0 86 0 0 86 0 0 86 0 0 114 0 0 114 0 0 114 0 0 114 0 0 114 0 0 114 0 0 114 0 0 114 0 0 114 0 0 114 0 0 100 0 0 100 0 0 100 0 0 100 0 0 100 0 0 100 0 0 100 0 0 100 0 0 100 0 0 100 0 0 137 0 0 137 0 0 137 0 0 137 0 0 137 0 0 137 0 0 137 0 0 137 0 0 137 0 0 137 0 0 132 0 0 132 0 0 132 0 0 132 0 0 132 0 0 132 0 0 132 0 0 132 0 0 132 0 0 132 0 0 115 0 0 115 0 0 115 0 0 115 0 0 115 0 0 115 0 0 115 0 0 115 0 0 115 0 0 115 0 0 0 0 0 0 0 0 0 0 0 0 0 0 0 0 0 0 0 0 0 0 0 0 0 0 0 0 0 0 0 0 0 0 137 0 0 137 0 0 137 0 0 137 0 0 137 0 0 137 0 0 137 0 0 137 0 0 137 0 0 137 0 0 137 0 0 137 0 0 137 0 0 137 0 0 137 0 0 137 0 0 137 0 0 137 0 0 137 0 0 137 0 0 137 0 0 137 0 0 137 0 0 137 0 0 137 0 0 137 0 0 137 0 0 137 0 0 137 0 0 137 
137 0 0 137 0 0 137 0 0 137 0 0 137 0 0 137 0 0 137 0 0 137 0 0 137 0 0 137 0 0 144 0 0 144 0 0 144 0 0 144 0 0 144 0 0 144 0 0 144 0 0 144 0 0 144 0 0 144 0 0 153 0 0 153 0 0 153 0 0 153 0 0 153 0 0 153 0 0 153 0 0 153 0 0 153 0 0 153 0 0 148 0 0 148 0 0 148 0 0 148 0 0 148 0 0 148 0 0 148 0 0 148 0 0 148 0 0 148 0 0 113 0 0 113 0 0 113 0 0 113 0 0 113 0 0 113 0 0 113 0 0 113 0 0 113 0 0 113 0 0 77 0 0 77 0 0 77 0 0 77 0 0 77 0 0 77 0 0 77 0 0 77 0 0 77 0 0 77 0 0 0 0 0 0 0 0 0 0 0 0 0 0 0 0 0 0 0 0 0 0 0 0 0 0 0 0 0 0 0 0 0 0 11 0 0 11 0 0 11 0 0 11 0 0 11 0 0 11 0 0 11 0 0 11 0 0 11 0 0 11 40 0 0 40 0 0 40 0 0 40 0 0 40 0 0 40 0 0 40 0 0 40 0 0 40 0 0 40 0 0 53 0 0 53 0 0 53 0 0 53 0 0 53 0 0 53 0 0 53 0 0 53 0 0 53 0 0 53 0 0 113 0 0 113 0 0 113 0 0 113 0 0 113 0 0 113 0 0 113 0 0 113 0 0 113 0 0 113 0 0 105 0 0 105 0 0 105 0 0 105 0 0 105 0 0 105 0 0 105 0 0 105 0 0 105 0 0 105 0 0 191 0 0 191 0 0 191 0 0 191 0 0 191 0 0 191 0 0 191 0 0 191 0 0 191 0 0 191 0 0 255 108 0 255 108 0 255 108 0 255 108 0 255 108 0 255 108 0 255 108 0 255 108 0 255 108 0 255 108 0 255 74 0 255 74 0 255 74 0 255 74 0 255 74 0 255 74 0 255 74 0 255 74 0 255 74 0 255 74 0 155 0 0 155 0 0 155 0 0 155 0 0 155 0 0 155 0 0 155 0 0 155 0 0 155 0 0 155 0 0 3 0 0 3 0 0 3 0 0 3 0 0 3 0 0 3 0 0 3 0 0 3 0 0 3 0 0 3 0 0 0 0 66 0 0 66 0 0 66 0 0 66 0 0 66 0 0 66 0 0 66 0 0 66 0 0 66 0 0 66 0 0 20 0 0 20 0 0 20 0 0 20 0 0 20 0 0 20 0 0 20 0 0 20 0 0 20 0 0 20 0 0 10 0 0 10 0 0 10 0 0 10 0 0 10 0 0 10 0 0 10 0 0 10 0 0 10 0 0 10 35 0 0 35 0 0 35 0 0 35 0 0 35 0 0 35 0 0 35 0 0 35 0 0 35 0 0 35 0 0 50 0 0 50 0 0 50 0 0 50 0 0 50 0 0 50 0 0 50 0 0 50 0 0 50 0 0 50 0 0 86 0 0 86 0 0 86 0 0 86 0 0 86 0 0 86 0 0 86 0 0 86 0 0 86 0 0 86 0 0 114 0 0 114 0 0 114 0 0 114 0 0 114 0 0 114 0 0 114 0 0 114 0 0 114 0 0 114 0 0 100 0 0 100 0 0 100 0 0 100 0 0 100 0 0 100 0 0 100 0 0 100 0 0 100 0 0 100 0 0 137 0 0 137 0 0 137 0 0 137 0 0 137 0 0 137 0 0 137 0 0 137 0 0 137 0 0 137 0 0 132 0 0 132 0 0 132 0 0 132 0 0 132 0 0 132 0 0 132 0 0 132 0 0 132 0 0 132 0 0 115 0 0 115 0 0 115 0 0 115 0 0 115 0 0 115 0 0 115 0 0 115 0 0 115 0 0 115 0 0 0 0 0 0 0 0 0 0 0 0 0 0 0 0 0 0 0 0 0 0 0 0 0 0 0 0 0 0 0 0 0 0 140 0 0 140 0 0 140 0 0 140 0 0 140 0 0 140 0 0 140 0 0 140 0 0 140 0 0 140 0 0 140 0 0 140 0 0 140 0 0 140 0 0 140 0 0 140 0 0 140 0 0 140 0 0 140 0 0 140 0 0 140 0 0 140 0 0 140 0 0 140 0 0 140 0 0 140 0 0 140 0 0 140 0 0 140 0 0 140 
137 0 0 137 0 0 137 0 0 137 0 0 137 0 0 137 0 0 137 0 0 137 0 0 137 0 0 137 0 0 144 0 0 144 0 0 144 0 0 144 0 0 144 0 0 144 0 0 144 0 0 144 0 0 144 0 0 144 0 0 153 0 0 153 0 0 153 0 0 153 0 0 153 0 0 153 0 0 153 0 0 153 0 0 153 0 0 153 0 0 148 0 0 148 0 0 148 0 0 148 0 0 148 0 0 148 0 0 148 0 0 148 0 0 148 0 0 148 0 0 113 0 0 113 0 0 113 0 0 113 0 0 113 0 0 113 0 0 113 0 0 113 0 0 113 0 0 113 0 0 77 0 0 77 0 0 77 0 0 77 0 0 77 0 0 77 0 0 77 0 0 77 0 0 77 0 0 77 0 0 0 0 0 0 0 0 0 0 0 0 0 0 0 0 0 0 0 0 0 0 0 0 0 0 0 0 0 0 0 0 0 0 11 0 0 11 0 0 11 0 0 11 0 0 11 0 0 11 0 0 11 0 0 11 0 0 11 0 0 11 40 0 0 40 0 0 40 0 0 40 0 0 40 0 0 40 0 0 40 0 0 40 0 0 40 0 0 40 0 0 53 0 0 53 0 0 53 0 0 53 0 0 53 0 0 53 0 0 53 0 0 53 0 0 53 0 0 53 0 0 113 0 0 113 0 0 113 0 0 113 0 0 113 0 0 113 0 0 113 0 0 113 0 0 113 0 0 113 0 0 105 0 0 105 0 0 105 0 0 105 0 0 105 0 0 105 0 0 105 0 0 105 0 0 105 0 0 105 0 0 191 0 0 191 0 0 191 0 0 191 0 0 191 0 0 191 0 0 191 0 0 191 0 0 191 0 0 191 0 0 255 108 0 255 108 0 255 108 0 255 108 0 255 108 0 255 108 0 255 108 0 255 108 0 255 108 0 255 108 0 255 74 0 255 74 0 255 74 0 255 74 0 255 74 0 255 74 0 255 74 0 255 74 0 255 74 0 255 74 0 155 0 0 155 0 0 155 0 0 155 0 0 155 0 0 155 0 0 155 0 0 155 0 0 155 0 0 155 0 0 3 0 0 3 0 0 3 0 0 3 0 0 3 0 0 3 0 0 3 0 0 3 0 0 3 0 0 3 0 0 0 0 66 0 0 66 0 0 66 0 0 66 0 0 66 0 0 66 0 0 66 0 0 66 0 0 66 0 0 66 0 0 20 0 0 20 0 0 20 0 0 20 0 0 20 0 0 20 0 0 20 0 0 20 0 0 20 0 0 20 0 0 10 0 0 10 0 0 10 0 0 10 0 0 10 0 0 10 0 0 10 0 0 10 0 0 10 0 0 10 35 0 0 35 0 0 35 0 0 35 0 0 35 0 0 35 0 0 35 0 0 35 0 0 35 0 0 35 0 0 50 0 0 50 0 0 50 0 0 50 0 0 50 0 0 50 0 0 50 0 0 50 0 0 50 0 0 50 0 0 86 0 0 86 0 0 86 0 0 86 0 0 86 0 0 86 0 0 86 0 0 86 0 0 86 0 0 86 0 0 114 0 0 114 0 0 114 0 0 114 0 0 114 0 0 114 0 0 114 0 0 114 0 0 114 0 0 114 0 0 100 0 0 100 0 0 100 0 0 100 0 0 100 0 0 100 0 0 100 0 0 100 0 0 100 0 0 100 0 0 137 0 0 137 0 0 137 0 0 137 0 0 137 0 0 137 0 0 137 0 0 137 0 0 137 0 0 137 0 0 132 0 0 132 0 0 132 0 0 132 0 0 132 0 0 132 0 0 132 0 0 132 0 0 132 0 0 132 0 0 115 0 0 115 0 0 115 0 0 115 0 0 115 0 0 115 0 0 115 0 0 115 0 0 115 0 0 115 0 0 0 0 0 0 0 0 0 0 0 0 0 0 0 0 0 0 0 0 0 0 0 0 0 0 0 0 0 0 0 0 0 0 144 0 0 144 0 0 144 0 0 144 0 0 144 0 0 144 0 0 144 0 0 144 0 0 144 0 0 144 0 0 144 0 0 144 0 0 144 0 0 144 0 0 144 0 0 144 0 0 144 0 0 144 0 0 144 0 0 144 0 0 144 0 0 144 0 0 144 0 0 144 0 0 144 0 0 144 0 0 144 0 0 144 0 0 144 0 0 144 
147 0 0 147 0 0 147 0 0 147 0 0 147 0 0 147 0 0 147 0 0 147 0 0 147 0 0 147 0 0 130 0 0 130 0 0 130 0 0 130 0 0 130 0 0 130 0 0 130 0 0 130 0 0 130 0 0 130 0 0 149 0 0 149 0 0 149 0 0 149 0 0 149 0 0 149 0 0 149 0 0 149 0 0 149 0 0 149 0 0 112 0 0 112 0 0 112 0 0 112 0 0 112 0 0 112 0 0 112 0 0 112 0 0 112 0 0 112 0 0 111 0 0 111 0 0 111 0 0 111 0 0 111 0 0 111 0 0 111 0 0 111 0 0 111 0 0 111 0 0 40 0 0 40 0 0 40 0 0 40 0 0 40 0 0 40 0 0 40 0 0 40 0 0 40 0 0 40 0 0 0 0 0 0 0 0 0 0 0 0 0 0 0 0 0 0 0 0 0 0 0 0 0 0 0 0 0 0 0 0 0 0 5 0 0 5 0 0 5 0 0 5 0 0 5 0 0 5 0 0 5 0 0 5 0 0 5 0 0 5 51 0 0 51 0 0 51 0 0 51 0 0 51 0 0 51 0 0 51 0 0 51 0 0 51 0 0 51 0 0 120 0 0 120 0 0 120 0 0 120 0 0 120 0 0 120 0 0 120 0 0 120 0 0 120 0 0 120 0 0 97 0 0 97 0 0 97 0 0 97 0 0 97 0 0 97 0 0 97 0 0 97 0 0 97 0 0 97 0 0 131 0 0 131 0 0 131 0 0 131 0 0 131 0 0 131 0 0 131 0 0 131 0 0 131 0 0 131 0 0 171 0 0 171 0 0 171 0 0 171 0 0 171 0 0 171 0 0 171 0 0 171 0 0 171 0 0 171 0 0 255 25 0 255 25 0 255 25 0 255 25 0 255 25 0 255 25 0 255 25 0 255 25 0 255 25 0 255 25 0 249 0 0 249 0 0 249 0 0 249 0 0 249 0 0 249 0 0 249 0 0 249 0 0 249 0 0 249 0 0 101 0 0 101 0 0 101 0 0 101 0 0 101 0 0 101 0 0 101 0 0 101 0 0 101 0 0 101 0 0 22 0 0 22 0 0 22 0 0 22 0 0 22 0 0 22 0 0 22 0 0 22 0 0 22 0 0 22 0 0 47 0 0 47 0 0 47 0 0 47 0 0 47 0 0 47 0 0 47 0 0 47 0 0 47 0 0 47 0 0 61 0 0 61 0 0 61 0 0 61 0 0 61 0 0 61 0 0 61 0 0 61 0 0 61 0 0 61 0 0 40 0 0 40 0 0 40 0 0 40 0 0 40 0 0 40 0 0 40 0 0 40 0 0 40 0 0 40 0 0 94 0 0 94 0 0 94 0 0 94 0 0 94 0 0 94 0 0 94 0 0 94 0 0 94 0 0 94 0 0 76 0 0 76 0 0 76 0 0 76 0 0 76 0 0 76 0 0 76 0 0 76 0 0 76 0 0 76 0 0 107 0 0 107 0 0 107 0 0 107 0 0 107 0 0 107 0 0 107 0 0 107 0 0 107 0 0 107 0 0 118 0 0 118 0 0 118 0 0 118 0 0 118 0 0 118 0 0 118 0 0 118 0 0 118 0 0 118 0 0 109 0 0 109 0 0 109 0 0 109 0 0 109 0 0 109 0 0 109 0 0 109 0 0 109 0 0 109 0 0 149 0 0 149 0 0 149 0 0 149 0 0 149 0 0 149 0 0 149 0 0 149 0 0 149 0 0 149 0 0 137 0 0 137 0 0 137 0 0 137 0 0 137 0 0 137 0 0 137 0 0 137 0 0 137 0 0 137 0 0 121 0 0 121 0 0 121 0 0 121 0 0 121 0 0 121 0 0 121 0 0 121 0 0 121 0 0 121 0 0 0 0 0 0 0 0 0 0 0 0 0 0 0 0 0 0 0 0 0 0 0 0 0 0 0 0 0 0 0 0 0 0 148 0 0 148 0 0 148 0 0 148 0 0 148 0 0 148 0 0 148 0 0 148 0 0 148 0 0 148 0 0 148 0 0 148 0 0 148 0 0 148 0 0 148 0 0 148 0 0 148 0 0 148 0 0 148 0 0 148 0 0 148 0 0 148 0 0 148 0 0 148 0 0 148 0 0 148 0 0 148 0 0 148 0 0 148 0 0 148 
147 0 0 147 0 0 147 0 0 147 0 0 147 0 0 147 0 0 147 0 0 147 0 0 147 0 0 147 0 0 130 0 0 130 0 0 130 0 0 130 0 0 130 0 0 130 0 0 130 0 0 130 0 0 130 0 0 130 0 0 149 0 0 149 0 0 149 0 0 149 0 0 149 0 0 149 0 0 149 0 0 149 0 0 149 0 0 149 0 0 112 0 0 112 0 0 112 0 0 112 0 0 112 0 0 112 0 0 112 0 0 112 0 0 112 0 0 112 0 0 111 0 0 111 0 0 111 0 0 111 0 0 111 0 0 111 0 0 111 0 0 111 0 0 111 0 0 111 0 0 40 0 0 40 0 0 40 0 0 40 0 0 40 0 0 40 0 0 40 0 0 40 0 0 40 0 0 40 0 0 0 0 0 0 0 0 0 0 0 0 0 0 0 0 0 0 0 0 0 0 0 0 0 0 0 0 0 0 0 0 0 0 5 0 0 5 0 0 5 0 0 5 0 0 5 0 0 5 0 0 5 0 0 5 0 0 5 0 0 5 51 0 0 51 0 0 51 0 0 51 0 0 51 0 0 51 0 0 51 0 0 51 0 0 51 0 0 51 0 0 120 0 0 120 0 0 120 0 0 120 0 0 120 0 0 120 0 0 120 0 0 120 0 0 120 0 0 120 0 0 97 0 0 97 0 0 97 0 0 97 0 0 97 0 0 97 0 0 97 0 0 97 0 0 97 0 0 97 0 0 131 0 0 131 0 0 131 0 0 131 0 0 131 0 0 131 0 0 131 0 0 131 0 0 131 0 0 131 0 0 171 0 0 171 0 0 171 0 0 171 0 0 171 0 0 171 0 0 171 0 0 171 0 0 171 0 0 171 0 0 255 25 0 255 25 0 255 25 0 255 25 0 255 25 0 255 25 0 255 25 0 255 25 0 255 25 0 255 25 0 249 0 0 249 0 0 249 0 0 249 0 0 249 0 0 249 0 0 249 0 0 249 0 0 249 0 0 249 0 0 101 0 0 101 0 0 101 0 0 101 0 0 101 0 0 101 0 0 101 0 0 101 0 0 101 0 0 101 0 0 22 0 0 22 0 0 22 0 0 22 0 0 22 0 0 22 0 0 22 0 0 22 0 0 22 0 0 22 0 0 47 0 0 47 0 0 47 0 0 47 0 0 47 0 0 47 0 0 47 0 0 47 0 0 47 0 0 47 0 0 61 0 0 61 0 0 61 0 0 61 0 0 61 0 0 61 0 0 61 0 0 61 0 0 61 0 0 61 0 0 40 0 0 40 0 0 40 0 0 40 0 0 40 0 0 40 0 0 40 0 0 40 0 0 40 0 0 40 0 0 94 0 0 94 0 0 94 0 0 94 0 0 94 0 0 94 0 0 94 0 0 94 0 0 94 0 0 94 0 0 76 0 0 76 0 0 76 0 0 76 0 0 76 0 0 76 0 0 76 0 0 76 0 0 76 0 0 76 0 0 107 0 0 107 0 0 107 0 0 107 0 0 107 0 0 107 0 0 107 0 0 107 0 0 107 0 0 107 0 0 118 0 0 118 0 0 118 0 0 118 0 0 118 0 0 118 0 0 118 0 0 118 0 0 118 0 0 118 0 0 109 0 0 109 0 0 109 0 0 109 0 0 109 0 0 109 0 0 109 0 0 109 0 0 109 0 0 109 0 0 149 0 0 149 0 0 149 0 0 149 0 0 149 0 0 149 0 0 149 0 0 149 0 0 149 0 0 149 0 0 137 0 0 137 0 0 137 0 0 137 0 0 137 0 0 137 0 0 137 0 0 137 0 0 137 0 0 137 0 0 121 0 0 121 0 0 121 0 0 121 0 0 121 0 0 121 0 0 121 0 0 121 0 0 121 0 0 121 0 0 0 0 0 0 0 0 0 0 0 0 0 0 0 0 0 0 0 0 0 0 0 0 0 0 0 0 0 0 0 0 0 0 151 0 0 151 0 0 151 0 0 151 0 0 151 0 0 151 0 0 151 0 0 151 0 0 151 0 0 151 0 0 151 0 0 151 0 0 151 0 0 151 0 0 151 0 0 151 0 0 151 0 0 151 0 0 151 0 0 151 0 0 151 0 0 151 0 0 151 0 0 151 0 0 151 0 0 151 0 0 151 0 0 151 0 0 151 0 0 151 
147 0 0 147 0 0 147 0 0 147 0 0 147 0 0 147 0 0 147 0 0 147 0 0 147 0 0 147 0 0 130 0 0 130 0 0 130 0 0 130 0 0 130 0 0 130 0 0 130 0 0 130 0 0 130 0 0 130 0 0 149 0 0 149 0 0 149 0 0 149 0 0 149 0 0 149 0 0 149 0 0 149 0 0 149 0 0 149 0 0 112 0 0 112 0 0 112 0 0 112 0 0 112 0 0 112 0 0 112 0 0 112 0 0 112 0 0 112 0 0 111 0 0 111 0 0 111 0 0 111 0 0 111 0 0 111 0 0 111 0 0 111 0 0 111 0 0 111 0 0 40 0 0 40 0 0 40 0 0 40 0 0 40 0 0 40 0 0 40 0 0 40 0 0 40 0 0 40 0 0 0 0 0 0 0 0 0 0 0 0 0 0 0 0 0 0 0 0 0 0 0 0 0 0 0 0 0 0 0 0 0 0 5 0 0 5 0 0 5 0 0 5 0 0 5 0 0 5 0 0 5 0 0 5 0 0 5 0 0 5 51 0 0 51 0 0 51 0 0 51 0 0 51 0 0 51 0 0 51 0 0 51 0 0 51 0 0 51 0 0 120 0 0 120 0 0 120 0 0 120 0 0 120 0 0 120 0 0 120 0 0 120 0 0 120 0 0 120 0 0 97 0 0 97 0 0 97 0 0 97 0 0 97 0 0 97 0 0 97 0 0 97 0 0 97 0 0 97 0 0 131 0 0 131 0 0 131 0 0 131 0 0 131 0 0 131 0 0 131 0 0 131 0 0 131 0 0 131 0 0 171 0 0 171 0 0 171 0 0 171 0 0 171 0 0 171 0 0 171 0 0 171 0 0 171 0 0 171 0 0 255 25 0 255 25 0 255 25 0 255 25 0 255 25 0 255 25 0 255 25 0 255 25 0 255 25 0 255 25 0 249 0 0 249 0 0 249 0 0 249 0 0 249 0 0 249 0 0 249 0 0 249 0 0 249 0 0 249 0 0 101 0 0 101 0 0 101 0 0 101 0 0 101 0 0 101 0 0 101 0 0 101 0 0 101 0 0 101 0 0 22 0 0 22 0 0 22 0 0 22 0 0 22 0 0 22 0 0 22 0 0 22 0 0 22 0 0 22 0 0 47 0 0 47 0 0 47 0 0 47 0 0 47 0 0 47 0 0 47 0 0 47 0 0 47 0 0 47 0 0 61 0 0 61 0 0 61 0 0 61 0 0 61 0 0 61 0 0 61 0 0 61 0 0 61 0 0 61 0 0 40 0 0 40 0 0 40 0 0 40 0 0 40 0 0 40 0 0 40 0 0 40 0 0 40 0 0 40 0 0 94 0 0 94 0 0 94 0 0 94 0 0 94 0 0 94 0 0 94 0 0 94 0 0 94 0 0 94 0 0 76 0 0 76 0 0 76 0 0 76 0 0 76 0 0 76 0 0 76 0 0 76 0 0 76 0 0 76 0 0 107 0 0 107 0 0 107 0 0 107 0 0 107 0 0 107 0 0 107 0 0 107 0 0 107 0 0 107 0 0 118 0 0 118 0 0 118 0 0 118 0 0 118 0 0 118 0 0 118 0 0 118 0 0 118 0 0 118 0 0 109 0 0 109 0 0 109 0 0 109 0 0 109 0 0 109 0 0 109 0 0 109 0 0 109 0 0 109 0 0 149 0 0 149 0 0 149 0 0 149 0 0 149 0 0 149 0 0 149 0 0 149 0 0 149 0 0 149 0 0 137 0 0 137 0 0 137 0 0 137 0 0 137 0 0 137 0 0 137 0 0 137 0 0 137 0 0 137 0 0 121 0 0 121 0 0 121 0 0 121 0 0 121 0 0 121 0 0 121 0 0 121 0 0 121 0 0 121 0 0 0 0 0 0 0 0 0 0 0 0 0 0 0 0 0 0 0 0 0 0 0 0 0 0 0 0 0 0 0 0 0 0 155 0 0 155 0 0 155 0 0 155 0 0 155 0 0 155 0 0 155 0 0 155 0 0 155 0 0 155 0 0 155 0 0 155 0 0 155 0 0 155 0 0 155 0 0 155 0 0 155 0 0 155 0 0 155 0 0 155 0 0 155 0 0 155 0 0 155 0 0 155 0 0 155 0 0 155 0 0 155 0 0 155 0 0 155 0 0 155 
147 0 0 147 0 0 147 0 0 147 0 0 147 0 0 147 0 0 147 0 0 147 0 0 147 0 0 147 0 0 130 0 0 130 0 0 130 0 0 130 0 0 130 0 0 130 0 0 130 0 0 130 0 0 130 0 0 130 0 0 149 0 0 149 0 0 149 0 0 149 0 0 149 0 0 149 0 0 149 0 0 149 0 0 149 0 0 149 0 0 112 0 0 112 0 0 112 0 0 112 0 0 112 0 0 112 0 0 112 0 0 112 0 0 112 0 0 112 0 0 111 0 0 111 0 0 111 0 0 111 0 0 111 0 0 111 0 0 111 0 0 111 0 0 111 0 0 111 0 0 40 0 0 40 0 0 40 0 0 40 0 0 40 0 0 40 0 0 40 0 0 40 0 0 40 0 0 40 0 0 0 0 0 0 0 0 0 0 0 0 0 0 0 0 0 0 0 0 0 0 0 0 0 0 0 0 0 0 0 0 0 0 5 0 0 5 0 0 5 0 0 5 0 0 5 0 0 5 0 0 5 0 0 5 0 0 5 0 0 5 51 0 0 51 0 0 51 0 0 51 0 0 51 0 0 51 0 0 51 0 0 51 0 0 51 0 0 51 0 0 120 0 0 120 0 0 120 0 0 120 0 0 120 0 0 120 0 0 120 0 0 120 0 0 120 0 0 120 0 0 97 0 0 97 0 0 97 0 0 97 0 0 97 0 0 97 0 0 97 0 0 97 0 0 97 0 0 97 0 0 131 0 0 131 0 0 131 0 0 131 0 0 131 0 0 131 0 0 131 0 0 131 0 0 131 0 0 131 0 0 171 0 0 171 0 0 171 0 0 171 0 0 171 0 0 171 0 0 171 0 0 171 0 0 171 0 0 171 0 0 255 25 0 255 25 0 255 25 0 255 25 0 255 25 0 255 25 0 255 25 0 255 25 0 255 25 0 255 25 0 249 0 0 249 0 0 249 0 0 249 0 0 249 0 0 249 0 0 249 0 0 249 0 0 249 0 0 249 0 0 101 0 0 101 0 0 101 0 0 101 0 0 101 0 0 101 0 0 101 0 0 101 0 0 101 0 0 101 0 0 22 0 0 22 0 0 22 0 0 22 0 0 22 0 0 22 0 0 22 0 0 22 0 0 22 0 0 22 0 0 47 0 0 47 0 0 47 0 0 47 0 0 47 0 0 47 0 0 47 0 0 47 0 0 47 0 0 47 0 0 61 0 0 61 0 0 61 0 0 61 0 0 61 0 0 61 0 0 61 0 0 61 0 0 61 0 0 61 0 0 40 0 0 40 0 0 40 0 0 40 0 0 40 0 0 40 0 0 40 0 0 40 0 0 40 0 0 40 0 0 94 0 0 94 0 0 94 0 0 94 0 0 94 0 0 94 0 0 94 0 0 94 0 0 94 0 0 94 0 0 76 0 0 76 0 0 76 0 0 76 0 0 76 0 0 76 0 0 76 0 0 76 0 0 76 0 0 76 0 0 107 0 0 107 0 0 107 0 0 107 0 0 107 0 0 107 0 0 107 0 0 107 0 0 107 0 0 107 0 0 118 0 0 118 0 0 118 0 0 118 0 0 118 0 0 118 0 0 118 0 0 118 0 0 118 0 0 118 0 0 109 0 0 109 0 0 109 0 0 109 0 0 109 0 0 109 0 0 109 0 0 109 0 0 109 0 0 109 0 0 149 0 0 149 0 0 149 0 0 149 0 0 149 0 0 149 0 0 149 0 0 149 0 0 149 0 0 149 0 0 137 0 0 137 0 0 137 0 0 137 0 0 137 0 0 137 0 0 137 0 0 137 0 0 137 0 0 137 0 0 121 0 0 121 0 0 121 0 0 121 0 0 121 0 0 121 0 0 121 0 0 121 0 0 121 0 0 121 0 0 0 0 0 0 0 0 0 0 0 0 0 0 0 0 0 0 0 0 0 0 0 0 0 0 0 0 0 0 0 0 0 0 159 0 0 159 0 0 159 0 0 159 0 0 159 0 0 159 0 0 159 0 0 159 0 0 159 0 0 159 0 0 159 0 0 159 0 0 159 0 0 159 0 0 159 0 0 159 0 0 159 0 0 159 0 0 159 0 0 159 0 0 159 0 0 159 0 0 159 0 0 159 0 0 159 0 0 159 0 0 159 0 0 159 0 0 159 0 0 159 
147 0 0 147 0 0 147 0 0 147 0 0 147 0 0 147 0 0 147 0 0 147 0 0 147 0 0 147 0 0 130 0 0 130 0 0 130 0 0 130 0 0 130 0 0 130 0 0 130 0 0 130 0 0 130 0 0 130 0 0 149 0 0 149 0 0 149 0 0 149 0 0 149 0 0 149 0 0 149 0 0 149 0 0 149 0 0 149 0 0 112 0 0 112 0 0 112 0 0 112 0 0 112 0 0 112 0 0 112 0 0 112 0 0 112 0 0 112 0 0 111 0 0 111 0 0 111 0 0 111 0 0 111 0 0 111 0 0 111 0 0 111 0 0 111 0 0 111 0 0 40 0 0 40 0 0 40 0 0 40 0 0 40 0 0 40 0 0 40 0 0 40 0 0 40 0 0 40 0 0 0 0 0 0 0 0 0 0 0 0 0 0 0 0 0 0 0 0 0 0 0 0 0 0 0 0 0 0 0 0 0 0 5 0 0 5 0 0 5 0 0 5 0 0 5 0 0 5 0 0 5 0 0 5 0 0 5 0 0 5 51 0 0 51 0 0 51 0 0 51 0 0 51 0 0 51 0 0 51 0 0 51 0 0 51 0 0 51 0 0 120 0 0 120 0 0 120 0 0 120 0 0 120 0 0 120 0 0 120 0 0 120 0 0 120 0 0 120 0 0 97 0 0 97 0 0 97 0 0 97 0 0 97 0 0 97 0 0 97 0 0 97 0 0 97 0 0 97 0 0 131 0 0 131 0 0 131 0 0 131 0 0 131 0 0 131 0 0 131 0 0 131 0 0 131 0 0 131 0 0 171 0 0 171 0 0 171 0 0 171 0 0 171 0 0 171 0 0 171 0 0 171 0 0 171 0 0 171 0 0 255 25 0 255 25 0 255 25 0 255 25 0 255 25 0 255 25 0 255 25 0 255 25 0 255 25 0 255 25 0 249 0 0 249 0 0 249 0 0 249 0 0 249 0 0 249 0 0 249 0 0 249 0 0 249 0 0 249 0 0 101 0 0 101 0 0 101 0 0 101 0 0 101 0 0 101 0 0 101 0 0 101 0 0 101 0 0 101 0 0 22 0 0 22 0 0 22 0 0 22 0 0 22 0 0 22 0 0 22 0 0 22 0 0 22 0 0 22 0 0 47 0 0 47 0 0 47 0 0 47 0 0 47 0 0 47 0 0 47 0 0 47 0 0 47 0 0 47 0 0 61 0 0 61 0 0 61 0 0 61 0 0 61 0 0 61 0 0 61 0 0 61 0 0 61 0 0 61 0 0 40 0 0 40 0 0 40 0 0 40 0 0 40 0 0 40 0 0 40 0 0 40 0 0 40 0 0 40 0 0 94 0 0 94 0 0 94 0 0 94 0 0 94 0 0 94 0 0 94 0 0 94 0 0 94 0 0 94 0 0 76 0 0 76 0 0 76 0 0 76 0 0 76 0 0 76 0 0 76 0 0 76 0 0 76 0 0 76 0 0 107 0 0 107 0 0 107 0 0 107 0 0 107 0 0 107 0 0 107 0 0 107 0 0 107 0 0 107 0 0 118 0 0 118 0 0 118 0 0 118 0 0 118 0 0 118 0 0 118 0 0 118 0 0 118 0 0 118 0 0 109 0 0 109 0 0 109 0 0 109 0 0 109 0 0 109 0 0 109 0 0 109 0 0 109 0 0 109 0 0 149 0 0 149 0 0 149 0 0 149 0 0 149 0 0 149 0 0 149 0 0 149 0 0 149 0 0 149 0 0 137 0 0 137 0 0 137 0 0 137 0 0 137 0 0 137 0 0 137 0 0 137 0 0 137 0 0 137 0 0 121 0 0 121 0 0 121 0 0 121 0 0 121 0 0 121 0 0 121 0 0 121 0 0 121 0 0 121 0 0 0 0 0 0 0 0 0 0 0 0 0 0 0 0 0 0 0 0 0 0 0 0 0 0 0 0 0 0 0 0 0 0 162 0 0 162 0 0 162 0 0 162 0 0 162 0 0 162 0 0 162 0 0 162 0 0 162 0 0 162 0 0 162 0 0 162 0 0 162 0 0 162 0 0 162 0 0 162 0 0 162 0 0 162 0 0 162 0 0 162 0 0 162 0 0 162 0 0 162 0 0 162 0 0 162 0 0 162 0 0 162 0 0 162 0 0 162 0 0 162 
147 0 0 147 0 0 147 0 0 147 0 0 147 0 0 147 0 0 147 0 0 147 0 0 147 0 0 147 0 0 130 0 0 130 0 0 130 0 0 130 0 0 130 0 0 130 0 0 130 0 0 130 0 0 130 0 0 130 0 0 149 0 0 149 0 0 149 0 0 149 0 0 149 0 0 149 0 0 149 0 0 149 0 0 149 0 0 149 0 0 112 0 0 112 0 0 112 0 0 112 0 0 112 0 0 112 0 0 112 0 0 112 0 0 112 0 0 112 0 0 111 0 0 111 0 0 111 0 0 111 0 0 111 0 0 111 0 0 111 0 0 111 0 0 111 0 0 111 0 0 40 0 0 40 0 0 40 0 0 40 0 0 40 0 0 40 0 0 40 0 0 40 0 0 40 0 0 40 0 0 0 0 0 0 0 0 0 0 0 0 0 0 0 0 0 0 0 0 0 0 0 0 0 0 0 0 0 0 0 0 0 0 5 0 0 5 0 0 5 0 0 5 0 0 5 0 0 5 0 0 5 0 0 5 0 0 5 0 0 5 51 0 0 51 0 0 51 0 0 51 0 0 51 0 0 51 0 0 51 0 0 51 0 0 51 0 0 51 0 0 120 0 0 120 0 0 120 0 0 120 0 0 120 0 0 120 0 0 120 0 0 120 0 0 120 0 0 120 0 0 97 0 0 97 0 0 97 0 0 97 0 0 97 0 0 97 0 0 97 0 0 97 0 0 97 0 0 97 0 0 131 0 0 131 0 0 131 0 0 131 0 0 131 0 0 131 0 0 131 0 0 131 0 0 131 0 0 131 0 0 171 0 0 171 0 0 171 0 0 171 0 0 171 0 0 171 0 0 171 0 0 171 0 0 171 0 0 171 0 0 255 25 0 255 25 0 255 25 0 255 25 0 255 25 0 255 25 0 255 25 0 255 25 0 255 25 0 255 25 0 249 0 0 249 0 0 249 0 0 249 0 0 249 0 0 249 0 0 249 0 0 249 0 0 249 0 0 249 0 0 101 0 0 101 0 0 101 0 0 101 0 0 101 0 0 101 0 0 101 0 0 101 0 0 101 0 0 101 0 0 22 0 0 22 0 0 22 0 0 22 0 0 22 0 0 22 0 0 22 0 0 22 0 0 22 0 0 22 0 0 47 0 0 47 0 0 47 0 0 47 0 0 47 0 0 47 0 0 47 0 0 47 0 0 47 0 0 47 0 0 61 0 0 61 0 0 61 0 0 61 0 0 61 0 0 61 0 0 61 0 0 61 0 0 61 0 0 61 0 0 40 0 0 40 0 0 40 0 0 40 0 0 40 0 0 40 0 0 40 0 0 40 0 0 40 0 0 40 0 0 94 0 0 94 0 0 94 0 0 94 0 0 94 0 0 94 0 0 94 0 0 94 0 0 94 0 0 94 0 0 76 0 0 76 0 0 76 0 0 76 0 0 76 0 0 76 0 0 76 0 0 76 0 0 76 0 0 76 0 0 107 0 0 107 0 0 107 0 0 107 0 0 107 0 0 107 0 0 107 0 0 107 0 0 107 0 0 107 0 0 118 0 0 118 0 0 118 0 0 118 0 0 118 0 0 118 0 0 118 0 0 118 0 0 118 0 0 118 0 0 109 0 0 109 0 0 109 0 0 109 0 0 109 0 0 109 0 0 109 0 0 109 0 0 109 0 0 109 0 0 149 0 0 149 0 0 149 0 0 149 0 0 149 0 0 149 0 0 149 0 0 149 0 0 149 0 0 149 0 0 137 0 0 137 0 0 137 0 0 137 0 0 137 0 0 137 0 0 137 0 0 137 0 0 137 0 0 137 0 0 121 0 0 121 0 0 121 0 0 121 0 0 121 0 0 121 0 0 121 0 0 121 0 0 121 0 0 121 0 0 0 0 0 0 0 0 0 0 0 0 0 0 0 0 0 0 0 0 0 0 0 0 0 0 0 0 0 0 0 0 0 0 166 0 0 166 0 0 166 0 0 166 0 0 166 0 0 166 0 0 166 0 0 166 0 0 166 0 0 166 0 0 166 0 0 166 0 0 166 0 0 166 0 0 166 0 0 166 0 0 166 0 0 166 0 0 166 0 0 166 0 0 166 0 0 166 0 0 166 0 0 166 0 0 166 0 0 166 0 0 166 0 0 166 0 0 166 0 0 166 
147 0 0 147 0 0 147 0 0 147 0 0 147 0 0 147 0 0 147 0 0 147 0 0 147 0 0 147 0 0 130 0 0 130 0 0 130 0 0 130 0 0 130 0 0 130 0 0 130 0 0 130 0 0 130 0 0 130 0 0 149 0 0 149 0 0 149 0 0 149 0 0 149 0 0 149 0 0 149 0 0 149 0 0 149 0 0 149 0 0 112 0 0 112 0 0 112 0 0 112 0 0 112 0 0 112 0 0 112 0 0 112 0 0 112 0 0 112 0 0 111 0 0 111 0 0 111 0 0 111 0 0 111 0 0 111 0 0 111 0 0 111 0 0 111 0 0 111 0 0 40 0 0 40 0 0 40 0 0 40 0 0 40 0 0 40 0 0 40 0 0 40 0 0 40 0 0 40 0 0 0 0 0 0 0 0 0 0 0 0 0 0 0 0 0 0 0 0 0 0 0 0 0 0 0 0 0 0 0 0 0 0 5 0 0 5 0 0 5 0 0 5 0 0 5 0 0 5 0 0 5 0 0 5 0 0 5 0 0 5 51 0 0 51 0 0 51 0 0 51 0 0 51 0 0 51 0 0 51 0 0 51 0 0 51 0 0 51 0 0 120 0 0 120 0 0 120 0 0 120 0 0 120 0 0 120 0 0 120 0 0 120 0 0 120 0 0 120 0 0 97 0 0 97 0 0 97 0 0 97 0 0 97 0 0 97 0 0 97 0 0 97 0 0 97 0 0 97 0 0 131 0 0 131 0 0 131 0 0 131 0 0 131 0 0 131 0 0 131 0 0 131 0 0 131 0 0 131 0 0 171 0 0 171 0 0 171 0 0 171 0 0 171 0 0 171 0 0 171 0 0 171 0 0 171 0 0 171 0 0 255 25 0 255 25 0 255 25 0 255 25 0 255 25 0 255 25 0 255 25 0 255 25 0 255 25 0 255 25 0 249 0 0 249 0 0 249 0 0 249 0 0 249 0 0 249 0 0 249 0 0 249 0 0 249 0 0 249 0 0 101 0 0 101 0 0 101 0 0 101 0 0 101 0 0 101 0 0 101 0 0 101 0 0 101 0 0 101 0 0 22 0 0 22 0 0 22 0 0 22 0 0 22 0 0 22 0 0 22 0 0 22 0 0 22 0 0 22 0 0 47 0 0 47 0 0 47 0 0 47 0 0 47 0 0 47 0 0 47 0 0 47 0 0 47 0 0 47 0 0 61 0 0 61 0 0 61 0 0 61 0 0 61 0 0 61 0 0 61 0 0 61 0 0 61 0 0 61 0 0 40 0 0 40 0 0 40 0 0 40 0 0 40 0 0 40 0 0 40 0 0 40 0 0 40 0 0 40 0 0 94 0 0 94 0 0 94 0 0 94 0 0 94 0 0 94 0 0 94 0 0 94 0 0 94 0 0 94 0 0 76 0 0 76 0 0 76 0 0 76 0 0 76 0 0 76 0 0 76 0 0 76 0 0 76 0 0 76 0 0 107 0 0 107 0 0 107 0 0 107 0 0 107 0 0 107 0 0 107 0 0 107 0 0 107 0 0 107 0 0 118 0 0 118 0 0 118 0 0 118 0 0 118 0 0 118 0 0 118 0 0 118 0 0 118 0 0 118 0 0 109 0 0 109 0 0 109 0 0 109 0 0 109 0 0 109 0 0 109 0 0 109 0 0 109 0 0 109 0 0 149 0 0 149 0 0 149 0 0 149 0 0 149 0 0 149 0 0 149 0 0 149 0 0 149 0 0 149 0 0 137 0 0 137 0 0 137 0 0 137 0 0 137 0 0 137 0 0 137 0 0 137 0 0 137 0 0 137 0 0 121 0 0 121 0 0 121 0 0 121 0 0 121 0 0 121 0 0 121 0 0 121 0 0 121 0 0 121 0 0 0 0 0 0 0 0 0 0 0 0 0 0 0 0 0 0 0 0 0 0 0 0 0 0 0 0 0 0 0 0 0 0 170 0 0 170 0 0 170 0 0 170 0 0 170 0 0 170 0 0 170 0 0 170 0 0 170 0 0 170 0 0 170 0 0 170 0 0 170 0 0 170 0 0 170 0 0 170 0 0 170 0 0 170 0 0 170 0 0 170 0 0 170 0 0 170 0 0 170 0 0 170 0 0 170 0 0 170 0 0 170 0 0 170 0 0 170 0 0 170 
147 0 0 147 0 0 147 0 0 147 0 0 147 0 0 147 0 0 147 0 0 147 0 0 147 0 0 147 0 0 130 0 0 130 0 0 130 0 0 130 0 0 130 0 0 130 0 0 130 0 0 130 0 0 130 0 0 130 0 0 149 0 0 149 0 0 149 0 0 149 0 0 149 0 0 149 0 0 149 0 0 149 0 0 149 0 0 149 0 0 112 0 0 112 0 0 112 0 0 112 0 0 112 0 0 112 0 0 112 0 0 112 0 0 112 0 0 112 0 0 111 0 0 111 0 0 111 0 0 111 0 0 111 0 0 111 0 0 111 0 0 111 0 0 111 0 0 111 0 0 40 0 0 40 0 0 40 0 0 40 0 0 40 0 0 40 0 0 40 0 0 40 0 0 40 0 0 40 0 0 0 0 0 0 0 0 0 0 0 0 0 0 0 0 0 0 0 0 0 0 0 0 0 0 0 0 0 0 0 0 0 0 5 0 0 5 0 0 5 0 0 5 0 0 5 0 0 5 0 0 5 0 0 5 0 0 5 0 0 5 51 0 0 51 0 0 51 0 0 51 0 0 51 0 0 51 0 0 51 0 0 51 0 0 51 0 0 51 0 0 120 0 0 120 0 0 120 0 0 120 0 0 120 0 0 120 0 0 120 0 0 120 0 0 120 0 0 120 0 0 97 0 0 97 0 0 97 0 0 97 0 0 97 0 0 97 0 0 97 0 0 97 0 0 97 0 0 97 0 0 131 0 0 131 0 0 131 0 0 131 0 0 131 0 0 131 0 0 131 0 0 131 0 0 131 0 0 131 0 0 171 0 0 171 0 0 171 0 0 171 0 0 171 0 0 171 0 0 171 0 0 171 0 0 171 0 0 171 0 0 255 25 0 255 25 0 255 25 0 255 25 0 255 25 0 255 25 0 255 25 0 255 25 0 255 25 0 255 25 0 249 0 0 249 0 0 249 0 0 249 0 0 249 0 0 249 0 0 249 0 0 249 0 0 249 0 0 249 0 0 101 0 0 101 0 0 101 0 0 101 0 0 101 0 0 101 0 0 101 0 0 101 0 0 101 0 0 101 0 0 22 0 0 22 0 0 22 0 0 22 0 0 22 0 0 22 0 0 22 0 0 22 0 0 22 0 0 22 0 0 47 0 0 47 0 0 47 0 0 47 0 0 47 0 0 47 0 0 47 0 0 47 0 0 47 0 0 47 0 0 61 0 0 61 0 0 61 0 0 61 0 0 61 0 0 61 0 0 61 0 0 61 0 0 61 0 0 61 0 0 40 0 0 40 0 0 40 0 0 40 0 0 40 0 0 40 0 0 40 0 0 40 0 0 40 0 0 40 0 0 94 0 0 94 0 0 94 0 0 94 0 0 94 0 0 94 0 0 94 0 0 94 0 0 94 0 0 94 0 0 76 0 0 76 0 0 76 0 0 76 0 0 76 0 0 76 0 0 76 0 0 76 0 0 76 0 0 76 0 0 107 0 0 107 0 0 107 0 0 107 0 0 107 0 0 107 0 0 107 0 0 107 0 0 107 0 0 107 0 0 118 0 0 118 0 0 118 0 0 118 0 0 118 0 0 118 0 0 118 0 0 118 0 0 118 0 0 118 0 0 109 0 0 109 0 0 109 0 0 109 0 0 109 0 0 109 0 0 109 0 0 109 0 0 109 0 0 109 0 0 149 0 0 149 0 0 149 0 0 149 0 0 149 0 0 149 0 0 149 0 0 149 0 0 149 0 0 149 0 0 137 0 0 137 0 0 137 0 0 137 0 0 137 0 0 137 0 0 137 0 0 137 0 0 137 0 0 137 0 0 121 0 0 121 0 0 121 0 0 121 0 0 121 0 0 121 0 0 121 0 0 121 0 0 121 0 0 121 0 0 0 0 0 0 0 0 0 0 0 0 0 0 0 0 0 0 0 0 0 0 0 0 0 0 0 0 0 0 0 0 0 0 173 0 0 173 0 0 173 0 0 173 0 0 173 0 0 173 0 0 173 0 0 173 0 0 173 0 0 173 0 0 173 0 0 173 0 0 173 0 0 173 0 0 173 0 0 173 0 0 173 0 0 173 0 0 173 0 0 173 0 0 173 0 0 173 0 0 173 0 0 173 0 0 173 0 0 173 0 0 173 0 0 173 0 0 173 0 0 173 
147 0 0 147 0 0 147 0 0 147 0 0 147 0 0 147 0 0 147 0 0 147 0 0 147 0 0 147 0 0 130 0 0 130 0 0 130 0 0 130 0 0 130 0 0 130 0 0 130 0 0 130 0 0 130 0 0 130 0 0 149 0 0 149 0 0 149 0 0 149 0 0 149 0 0 149 0 0 149 0 0 149 0 0 149 0 0 149 0 0 112 0 0 112 0 0 112 0 0 112 0 0 112 0 0 112 0 0 112 0 0 112 0 0 112 0 0 112 0 0 111 0 0 111 0 0 111 0 0 111 0 0 111 0 0 111 0 0 111 0 0 111 0 0 111 0 0 111 0 0 40 0 0 40 0 0 40 0 0 40 0 0 40 0 0 40 0 0 40 0 0 40 0 0 40 0 0 40 0 0 0 0 0 0 0 0 0 0 0 0 0 0 0 0 0 0 0 0 0 0 0 0 0 0 0 0 0 0 0 0 0 0 5 0 0 5 0 0 5 0 0 5 0 0 5 0 0 5 0 0 5 0 0 5 0 0 5 0 0 5 51 0 0 51 0 0 51 0 0 51 0 0 51 0 0 51 0 0 51 0 0 51 0 0 51 0 0 51 0 0 120 0 0 120 0 0 120 0 0 120 0 0 120 0 0 120 0 0 120 0 0 120 0 0 120 0 0 120 0 0 97 0 0 97 0 0 97 0 0 97 0 0 97 0 0 97 0 0 97 0 0 97 0 0 97 0 0 97 0 0 131 0 0 131 0 0 131 0 0 131 0 0 131 0 0 131 0 0 131 0 0 131 0 0 131 0 0 131 0 0 171 0 0 171 0 0 171 0 0 171 0 0 171 0 0 171 0 0 171 0 0 171 0 0 171 0 0 171 0 0 255 25 0 255 25 0 255 25 0 255 25 0 255 25 0 255 25 0 255 25 0 255 25 0 255 25 0 255 25 0 249 0 0 249 0 0 249 0 0 249 0 0 249 0 0 249 0 0 249 0 0 249 0 0 249 0 0 249 0 0 101 0 0 101 0 0 101 0 0 101 0 0 101 0 0 101 0 0 101 0 0 101 0 0 101 0 0 101 0 0 22 0 0 22 0 0 22 0 0 22 0 0 22 0 0 22 0 0 22 0 0 22 0 0 22 0 0 22 0 0 47 0 0 47 0 0 47 0 0 47 0 0 47 0 0 47 0 0 47 0 0 47 0 0 47 0 0 47 0 0 61 0 0 61 0 0 61 0 0 61 0 0 61 0 0 61 0 0 61 0 0 61 0 0 61 0 0 61 0 0 40 0 0 40 0 0 40 0 0 40 0 0 40 0 0 40 0 0 40 0 0 40 0 0 40 0 0 40 0 0 94 0 0 94 0 0 94 0 0 94 0 0 94 0 0 94 0 0 94 0 0 94 0 0 94 0 0 94 0 0 76 0 0 76 0 0 76 0 0 76 0 0 76 0 0 76 0 0 76 0 0 76 0 0 76 0 0 76 0 0 107 0 0 107 0 0 107 0 0 107 0 0 107 0 0 107 0 0 107 0 0 107 0 0 107 0 0 107 0 0 118 0 0 118 0 0 118 0 0 118 0 0 118 0 0 118 0 0 118 0 0 118 0 0 118 0 0 118 0 0 109 0 0 109 0 0 109 0 0 109 0 0 109 0 0 109 0 0 109 0 0 109 0 0 109 0 0 109 0 0 149 0 0 149 0 0 149 0 0 149 0 0 149 0 0 149 0 0 149 0 0 149 0 0 149 0 0 149 0 0 137 0 0 137 0 0 137 0 0 137 0 0 137 0 0 137 0 0 137 0 0 137 0 0 137 0 0 137 0 0 121 0 0 121 0 0 121 0 0 121 0 0 121 0 0 121 0 0 121 0 0 121 0 0 121 0 0 121 0 0 0 0 0 0 0 0 0 0 0 0 0 0 0 0 0 0 0 0 0 0 0 0 0 0 0 0 0 0 0 0 0 0 177 0 0 177 0 0 177 0 0 177 0 0 177 0 0 177 0 0 177 0 0 177 0 0 177 0 0 177 0 0 177 0 0 177 0 0 177 0 0 177 0 0 177 0 0 177 0 0 177 0 0 177 0 0 177 0 0 177 0 0 177 0 0 177 0 0 177 0 0 177 0 0 177 0 0 177 0 0 177 0 0 177 0 0 177 0 0 177 
147 0 0 147 0 0 147 0 0 147 0 0 147 0 0 147 0 0 147 0 0 147 0 0 147 0 0 147 0 0 130 0 0 130 0 0 130 0 0 130 0 0 130 0 0 130 0 0 130 0 0 130 0 0 130 0 0 130 0 0 149 0 0 149 0 0 149 0 0 149 0 0 149 0 0 149 0 0 149 0 0 149 0 0 149 0 0 149 0 0 112 0 0 112 0 0 112 0 0 112 0 0 112 0 0 112 0 0 112 0 0 112 0 0 112 0 0 112 0 0 111 0 0 111 0 0 111 0 0 111 0 0 111 0 0 111 0 0 111 0 0 111 0 0 111 0 0 111 0 0 40 0 0 40 0 0 40 0 0 40 0 0 40 0 0 40 0 0 40 0 0 40 0 0 40 0 0 40 0 0 0 0 0 0 0 0 0 0 0 0 0 0 0 0 0 0 0 0 0 0 0 0 0 0 0 0 0 0 0 0 0 0 5 0 0 5 0 0 5 0 0 5 0 0 5 0 0 5 0 0 5 0 0 5 0 0 5 0 0 5 51 0 0 51 0 0 51 0 0 51 0 0 51 0 0 51 0 0 51 0 0 51 0 0 51 0 0 51 0 0 120 0 0 120 0 0 120 0 0 120 0 0 120 0 0 120 0 0 120 0 0 120 0 0 120 0 0 120 0 0 97 0 0 97 0 0 97 0 0 97 0 0 97 0 0 97 0 0 97 0 0 97 0 0 97 0 0 97 0 0 131 0 0 131 0 0 131 0 0 131 0 0 131 0 0 131 0 0 131 0 0 131 0 0 131 0 0 131 0 0 171 0 0 171 0 0 171 0 0 171 0 0 171 0 0 171 0 0 171 0 0 171 0 0 171 0 0 171 0 0 255 25 0 255 25 0 255 25 0 255 25 0 255 25 0 255 25 0 255 25 0 255 25 0 255 25 0 255 25 0 249 0 0 249 0 0 249 0 0 249 0 0 249 0 0 249 0 0 249 0 0 249 0 0 249 0 0 249 0 0 101 0 0 101 0 0 101 0 0 101 0 0 101 0 0 101 0 0 101 0 0 101 0 0 101 0 0 101 0 0 22 0 0 22 0 0 22 0 0 22 0 0 22 0 0 22 0 0 22 0 0 22 0 0 22 0 0 22 0 0 47 0 0 47 0 0 47 0 0 47 0 0 47 0 0 47 0 0 47 0 0 47 0 0 47 0 0 47 0 0 61 0 0 61 0 0 61 0 0 61 0 0 61 0 0 61 0 0 61 0 0 61 0 0 61 0 0 61 0 0 40 0 0 40 0 0 40 0 0 40 0 0 40 0 0 40 0 0 40 0 0 40 0 0 40 0 0 40 0 0 94 0 0 94 0 0 94 0 0 94 0 0 94 0 0 94 0 0 94 0 0 94 0 0 94 0 0 94 0 0 76 0 0 76 0 0 76 0 0 76 0 0 76 0 0 76 0 0 76 0 0 76 0 0 76 0 0 76 0 0 107 0 0 107 0 0 107 0 0 107 0 0 107 0 0 107 0 0 107 0 0 107 0 0 107 0 0 107 0 0 118 0 0 118 0 0 118 0 0 118 0 0 118 0 0 118 0 0 118 0 0 118 0 0 118 0 0 118 0 0 109 0 0 109 0 0 109 0 0 109 0 0 109 0 0 109 0 0 109 0 0 109 0 0 109 0 0 109 0 0 149 0 0 149 0 0 149 0 0 149 0 0 149 0 0 149 0 0 149 0 0 149 0 0 149 0 0 149 0 0 137 0 0 137 0 0 137 0 0 137 0 0 137 0 0 137 0 0 137 0 0 137 0 0 137 0 0 137 0 0 121 0 0 121 0 0 121 0 0 121 0 0 121 0 0 121 0 0 121 0 0 121 0 0 121 0 0 121 0 0 0 0 0 0 0 0 0 0 0 0 0 0 0 0 0 0 0 0 0 0 0 0 0 0 0 0 0 0 0 0 0 0 180 0 0 180 0 0 180 0 0 180 0 0 180 0 0 180 0 0 180 0 0 180 0 0 180 0 0 180 0 0 180 0 0 180 0 0 180 0 0 180 0 0 180 0 0 180 0 0 180 0 0 180 0 0 180 0 0 180 0 0 180 0 0 180 0 0 180 0 0 180 0 0 180 0 0 180 0 0 180 0 0 180 0 0 180 0 0 180 
110 0 0 110 0 0 110 0 0 110 0 0 110 0 0 110 0 0 110 0 0 110 0 0 110 0 0 110 0 0 139 0 0 139 0 0 139 0 0 139 0 0 139 0 0 139 0 0 139 0 0 139 0 0 139 0 0 139 0 0 145 0 0 145 0 0 145 0 0 145 0 0 145 0 0 145 0 0 145 0 0 145 0 0 145 0 0 145 0 0 145 0 0 145 0 0 145 0 0 145 0 0 145 0 0 145 0 0 145 0 0 145 0 0 145 0 0 145 0 0 94 0 0 94 0 0 94 0 0 94 0 0 94 0 0 94 0 0 94 0 0 94 0 0 94 0 0 94 0 0 71 0 0 71 0 0 71 0 0 71 0 0 71 0 0 71 0 0 71 0 0 71 0 0 71 0 0 71 0 0 57 0 0 57 0 0 57 0 0 57 0 0 57 0 0 57 0 0 57 0 0 57 0 0 57 0 0 57 0 0 55 0 0 55 0 0 55 0 0 55 0 0 55 0 0 55 0 0 55 0 0 55 0 0 55 0 0 55 0 0 101 0 0 101 0 0 101 0 0 101 0 0 101 0 0 101 0 0 101 0 0 101 0 0 101 0 0 101 0 0 136 0 0 136 0 0 136 0 0 136 0 0 136 0 0 136 0 0 136 0 0 136 0 0 136 0 0 136 0 0 108 0 0 108 0 0 108 0 0 108 0 0 108 0 0 108 0 0 108 0 0 108 0 0 108 0 0 108 0 0 137 0 0 137 0 0 137 0 0 137 0 0 137 0 0 137 0 0 137 0 0 137 0 0 137 0 0 137 0 0 156 0 0 156 0 0 156 0 0 156 0 0 156 0 0 156 0 0 156 0 0 156 0 0 156 0 0 156 0 0 215 0 0 215 0 0 215 0 0 215 0 0 215 0 0 215 0 0 215 0 0 215 0 0 215 0 0 215 0 0 163 0 0 163 0 0 163 0 0 163 0 0 163 0 0 163 0 0 163 0 0 163 0 0 163 0 0 163 0 0 101 0 0 101 0 0 101 0 0 101 0 0 101 0 0 101 0 0 101 0 0 101 0 0 101 0 0 101 0 0 138 0 0 138 0 0 138 0 0 138 0 0 138 0 0 138 0 0 138 0 0 138 0 0 138 0 0 138 0 0 113 0 0 113 0 0 113 0 0 113 0 0 113 0 0 113 0 0 113 0 0 113 0 0 113 0 0 113 0 0 131 0 0 131 0 0 131 0 0 131 0 0 131 0 0 131 0 0 131 0 0 131 0 0 131 0 0 131 0 0 131 0 0 131 0 0 131 0 0 131 0 0 131 0 0 131 0 0 131 0 0 131 0 0 131 0 0 131 0 0 135 0 0 135 0 0 135 0 0 135 0 0 135 0 0 135 0 0 135 0 0 135 0 0 135 0 0 135 0 0 87 0 0 87 0 0 87 0 0 87 0 0 87 0 0 87 0 0 87 0 0 87 0 0 87 0 0 87 0 0 98 0 0 98 0 0 98 0 0 98 0 0 98 0 0 98 0 0 98 0 0 98 0 0 98 0 0 98 0 0 96 0 0 96 0 0 96 0 0 96 0 0 96 0 0 96 0 0 96 0 0 96 0 0 96 0 0 96 0 0 125 0 0 125 0 0 125 0 0 125 0 0 125 0 0 125 0 0 125 0 0 125 0 0 125 0 0 125 0 0 112 0 0 112 0 0 112 0 0 112 0 0 112 0 0 112 0 0 112 0 0 112 0 0 112 0 0 112 0 0 146 0 0 146 0 0 146 0 0 146 0 0 146 0 0 146 0 0 146 0 0 146 0 0 146 0 0 146 0 0 141 0 0 141 0 0 141 0 0 141 0 0 141 0 0 141 0 0 141 0 0 141 0 0 141 0 0 141 0 0 0 0 0 0 0 0 0 0 0 0 0 0 0 0 0 0 0 0 0 0 0 0 0 0 0 0 0 0 0 0 0 0 184 0 0 184 0 0 184 0 0 184 0 0 184 0 0 184 0 0 184 0 0 184 0 0 184 0 0 184 0 0 184 0 0 184 0 0 184 0 0 184 0 0 184 0 0 184 0 0 184 0 0 184 0 0 184 0 0 184 0 0 184 0 0 184 0 0 184 0 0 184 0 0 184 0 0 184 0 0 184 0 0 184 0 0 184 0 0 184 
110 0 0 110 0 0 110 0 0 110 0 0 110 0 0 110 0 0 110 0 0 110 0 0 110 0 0 110 0 0 139 0 0 139 0 0 139 0 0 139 0 0 139 0 0 139 0 0 139 0 0 139 0 0 139 0 0 139 0 0 145 0 0 145 0 0 145 0 0 145 0 0 145 0 0 145 0 0 145 0 0 145 0 0 145 0 0 145 0 0 145 0 0 145 0 0 145 0 0 145 0 0 145 0 0 145 0 0 145 0 0 145 0 0 145 0 0 145 0 0 94 0 0 94 0 0 94 0 0 94 0 0 94 0 0 94 0 0 94 0 0 94 0 0 94 0 0 94 0 0 71 0 0 71 0 0 71 0 0 71 0 0 71 0 0 71 0 0 71 0 0 71 0 0 71 0 0 71 0 0 57 0 0 57 0 0 57 0 0 57 0 0 57 0 0 57 0 0 57 0 0 57 0 0 57 0 0 57 0 0 55 0 0 55 0 0 55 0 0 55 0 0 55 0 0 55 0 0 55 0 0 55 0 0 55 0 0 55 0 0 101 0 0 101 0 0 101 0 0 101 0 0 101 0 0 101 0 0 101 0 0 101 0 0 101 0 0 101 0 0 136 0 0 136 0 0 136 0 0 136 0 0 136 0 0 136 0 0 136 0 0 136 0 0 136 0 0 136 0 0 108 0 0 108 0 0 108 0 0 108 0 0 108 0 0 108 0 0 108 0 0 108 0 0 108 0 0 108 0 0 137 0 0 137 0 0 137 0 0 137 0 0 137 0 0 137 0 0 137 0 0 137 0 0 137 0 0 137 0 0 156 0 0 156 0 0 156 0 0 156 0 0 156 0 0 156 0 0 156 0 0 156 0 0 156 0 0 156 0 0 215 0 0 215 0 0 215 0 0 215 0 0 215 0 0 215 0 0 215 0 0 215 0 0 215 0 0 215 0 0 163 0 0 163 0 0 163 0 0 163 0 0 163 0 0 163 0 0 163 0 0 163 0 0 163 0 0 163 0 0 101 0 0 101 0 0 101 0 0 101 0 0 101 0 0 101 0 0 101 0 0 101 0 0 101 0 0 101 0 0 138 0 0 138 0 0 138 0 0 138 0 0 138 0 0 138 0 0 138 0 0 138 0 0 138 0 0 138 0 0 113 0 0 113 0 0 113 0 0 113 0 0 113 0 0 113 0 0 113 0 0 113 0 0 113 0 0 113 0 0 131 0 0 131 0 0 131 0 0 131 0 0 131 0 0 131 0 0 131 0 0 131 0 0 131 0 0 131 0 0 131 0 0 131 0 0 131 0 0 131 0 0 131 0 0 131 0 0 131 0 0 131 0 0 131 0 0 131 0 0 135 0 0 135 0 0 135 0 0 135 0 0 135 0 0 135 0 0 135 0 0 135 0 0 135 0 0 135 0 0 87 0 0 87 0 0 87 0 0 87 0 0 87 0 0 87 0 0 87 0 0 87 0 0 87 0 0 87 0 0 98 0 0 98 0 0 98 0 0 98 0 0 98 0 0 98 0 0 98 0 0 98 0 0 98 0 0 98 0 0 96 0 0 96 0 0 96 0 0 96 0 0 96 0 0 96 0 0 96 0 0 96 0 0 96 0 0 96 0 0 125 0 0 125 0 0 125 0 0 125 0 0 125 0 0 125 0 0 125 0 0 125 0 0 125 0 0 125 0 0 112 0 0 112 0 0 112 0 0 112 0 0 112 0 0 112 0 0 112 0 0 112 0 0 112 0 0 112 0 0 146 0 0 146 0 0 146 0 0 146 0 0 146 0 0 146 0 0 146 0 0 146 0 0 146 0 0 146 0 0 141 0 0 141 0 0 141 0 0 141 0 0 141 0 0 141 0 0 141 0 0 141 0 0 141 0 0 141 0 0 0 0 0 0 0 0 0 0 0 0 0 0 0 0 0 0 0 0 0 0 0 0 0 0 0 0 0 0 0 0 0 0 188 0 0 188 0 0 188 0 0 188 0 0 188 0 0 188 0 0 188 0 0 188 0 0 188 0 0 188 0 0 188 0 0 188 0 0 188 0 0 188 0 0 188 0 0 188 0 0 188 0 0 188 0 0 188 0 0 188 0 0 188 0 0 188 0 0 188 0 0 188 0 0 188 0 0 188 0 0 188 0 0 188 0 0 188 0 0 188 
110 0 0 110 0 0 110 0 0 110 0 0 110 0 0 110 0 0 110 0 0 110 0 0 110 0 0 110 0 0 139 0 0 139 0 0 139 0 0 139 0 0 139 0 0 139 0 0 139 0 0 139 0 0 139 0 0 139 0 0 145 0 0 145 0 0 145 0 0 145 0 0 145 0 0 145 0 0 145 0 0 145 0 0 145 0 0 145 0 0 145 0 0 145 0 0 145 0 0 145 0 0 145 0 0 145 0 0 145 0 0 145 0 0 145 0 0 145 0 0 94 0 0 94 0 0 94 0 0 94 0 0 94 0 0 94 0 0 94 0 0 94 0 0 94 0 0 94 0 0 71 0 0 71 0 0 71 0 0 71 0 0 71 0 0 71 0 0 71 0 0 71 0 0 71 0 0 71 0 0 57 0 0 57 0 0 57 0 0 57 0 0 57 0 0 57 0 0 57 0 0 57 0 0 57 0 0 57 0 0 55 0 0 55 0 0 55 0 0 55 0 0 55 0 0 55 0 0 55 0 0 55 0 0 55 0 0 55 0 0 101 0 0 101 0 0 101 0 0 101 0 0 101 0 0 101 0 0 101 0 0 101 0 0 101 0 0 101 0 0 136 0 0 136 0 0 136 0 0 136 0 0 136 0 0 136 0 0 136 0 0 136 0 0 136 0 0 136 0 0 108 0 0 108 0 0 108 0 0 108 0 0 108 0 0 108 0 0 108 0 0 108 0 0 108 0 0 108 0 0 137 0 0 137 0 0 137 0 0 137 0 0 137 0 0 137 0 0 137 0 0 137 0 0 137 0 0 137 0 0 156 0 0 156 0 0 156 0 0 156 0 0 156 0 0 156 0 0 156 0 0 156 0 0 156 0 0 156 0 0 215 0 0 215 0 0 215 0 0 215 0 0 215 0 0 215 0 0 215 0 0 215 0 0 215 0 0 215 0 0 163 0 0 163 0 0 163 0 0 163 0 0 163 0 0 163 0 0 163 0 0 163 0 0 163 0 0 163 0 0 101 0 0 101 0 0 101 0 0 101 0 0 101 0 0 101 0 0 101 0 0 101 0 0 101 0 0 101 0 0 138 0 0 138 0 0 138 0 0 138 0 0 138 0 0 138 0 0 138 0 0 138 0 0 138 0 0 138 0 0 113 0 0 113 0 0 113 0 0 113 0 0 113 0 0 113 0 0 113 0 0 113 0 0 113 0 0 113 0 0 131 0 0 131 0 0 131 0 0 131 0 0 131 0 0 131 0 0 131 0 0 131 0 0 131 0 0 131 0 0 131 0 0 131 0 0 131 0 0 131 0 0 131 0 0 131 0 0 131 0 0 131 0 0 131 0 0 131 0 0 135 0 0 135 0 0 135 0 0 135 0 0 135 0 0 135 0 0 135 0 0 135 0 0 135 0 0 135 0 0 87 0 0 87 0 0 87 0 0 87 0 0 87 0 0 87 0 0 87 0 0 87 0 0 87 0 0 87 0 0 98 0 0 98 0 0 98 0 0 98 0 0 98 0 0 98 0 0 98 0 0 98 0 0 98 0 0 98 0 0 96 0 0 96 0 0 96 0 0 96 0 0 96 0 0 96 0 0 96 0 0 96 0 0 96 0 0 96 0 0 125 0 0 125 0 0 125 0 0 125 0 0 125 0 0 125 0 0 125 0 0 125 0 0 125 0 0 125 0 0 112 0 0 112 0 0 112 0 0 112 0 0 112 0 0 112 0 0 112 0 0 112 0 0 112 0 0 112 0 0 146 0 0 146 0 0 146 0 0 146 0 0 146 0 0 146 0 0 146 0 0 146 0 0 146 0 0 146 0 0 141 0 0 141 0 0 141 0 0 141 0 0 141 0 0 141 0 0 141 0 0 141 0 0 141 0 0 141 0 0 0 0 0 0 0 0 0 0 0 0 0 0 0 0 0 0 0 0 0 0 0 0 0 0 0 0 0 0 0 0 0 0 191 0 0 191 0 0 191 0 0 191 0 0 191 0 0 191 0 0 191 0 0 191 0 0 191 0 0 191 0 0 191 0 0 191 0 0 191 0 0 191 0 0 191 0 0 191 0 0 191 0 0 191 0 0 191 0 0 191 0 0 191 0 0 191 0 0 191 0 0 191 0 0 191 0 0 191 0 0 191 0 0 191 0 0 191 0 0 191 
110 0 0 110 0 0 110 0 0 110 0 0 110 0 0 110 0 0 110 0 0 110 0 0 110 0 0 110 0 0 139 0 0 139 0 0 139 0 0 139 0 0 139 0 0 139 0 0 139 0 0 139 0 0 139 0 0 139 0 0 145 0 0 145 0 0 145 0 0 145 0 0 145 0 0 145 0 0 145 0 0 145 0 0 145 0 0 145 0 0 145 0 0 145 0 0 145 0 0 145 0 0 145 0 0 145 0 0 145 0 0 145 0 0 145 0 0 145 0 0 94 0 0 94 0 0 94 0 0 94 0 0 94 0 0 94 0 0 94 0 0 94 0 0 94 0 0 94 0 0 71 0 0 71 0 0 71 0 0 71 0 0 71 0 0 71 0 0 71 0 0 71 0 0 71 0 0 71 0 0 57 0 0 57 0 0 57 0 0 57 0 0 57 0 0 57 0 0 57 0 0 57 0 0 57 0 0 57 0 0 55 0 0 55 0 0 55 0 0 55 0 0 55 0 0 55 0 0 55 0 0 55 0 0 55 0 0 55 0 0 101 0 0 101 0 0 101 0 0 101 0 0 101 0 0 101 0 0 101 0 0 101 0 0 101 0 0 101 0 0 136 0 0 136 0 0 136 0 0 136 0 0 136 0 0 136 0 0 136 0 0 136 0 0 136 0 0 136 0 0 108 0 0 108 0 0 108 0 0 108 0 0 108 0 0 108 0 0 108 0 0 108 0 0 108 0 0 108 0 0 137 0 0 137 0 0 137 0 0 137 0 0 137 0 0 137 0 0 137 0 0 137 0 0 137 0 0 137 0 0 156 0 0 156 0 0 156 0 0 156 0 0 156 0 0 156 0 0 156 0 0 156 0 0 156 0 0 156 0 0 215 0 0 215 0 0 215 0 0 215 0 0 215 0 0 215 0 0 215 0 0 215 0 0 215 0 0 215 0 0 163 0 0 163 0 0 163 0 0 163 0 0 163 0 0 163 0 0 163 0 0 163 0 0 163 0 0 163 0 0 101 0 0 101 0 0 101 0 0 101 0 0 101 0 0 101 0 0 101 0 0 101 0 0 101 0 0 101 0 0 138 0 0 138 0 0 138 0 0 138 0 0 138 0 0 138 0 0 138 0 0 138 0 0 138 0 0 138 0 0 113 0 0 113 0 0 113 0 0 113 0 0 113 0 0 113 0 0 113 0 0 113 0 0 113 0 0 113 0 0 131 0 0 131 0 0 131 0 0 131 0 0 131 0 0 131 0 0 131 0 0 131 0 0 131 0 0 131 0 0 131 0 0 131 0 0 131 0 0 131 0 0 131 0 0 131 0 0 131 0 0 131 0 0 131 0 0 131 0 0 135 0 0 135 0 0 135 0 0 135 0 0 135 0 0 135 0 0 135 0 0 135 0 0 135 0 0 135 0 0 87 0 0 87 0 0 87 0 0 87 0 0 87 0 0 87 0 0 87 0 0 87 0 0 87 0 0 87 0 0 98 0 0 98 0 0 98 0 0 98 0 0 98 0 0 98 0 0 98 0 0 98 0 0 98 0 0 98 0 0 96 0 0 96 0 0 96 0 0 96 0 0 96 0 0 96 0 0 96 0 0 96 0 0 96 0 0 96 0 0 125 0 0 125 0 0 125 0 0 125 0 0 125 0 0 125 0 0 125 0 0 125 0 0 125 0 0 125 0 0 112 0 0 112 0 0 112 0 0 112 0 0 112 0 0 112 0 0 112 0 0 112 0 0 112 0 0 112 0 0 146 0 0 146 0 0 146 0 0 146 0 0 146 0 0 146 0 0 146 0 0 146 0 0 146 0 0 146 0 0 141 0 0 141 0 0 141 0 0 141 0 0 141 0 0 141 0 0 141 0 0 141 0 0 141 0 0 141 0 0 0 0 0 0 0 0 0 0 0 0 0 0 0 0 0 0 0 0 0 0 0 0 0 0 0 0 0 0 0 0 0 0 195 0 0 195 0 0 195 0 0 195 0 0 195 0 0 195 0 0 195 0 0 195 0 0 195 0 0 195 0 0 195 0 0 195 0 0 195 0 0 195 0 0 195 0 0 195 0 0 195 0 0 195 0 0 195 0 0 195 0 0 195 0 0 195 0 0 195 0 0 195 0 0 195 0 0 195 0 0 195 0 0 195 0 0 195 0 0 195 
110 0 0 110 0 0 110 0 0 110 0 0 110 0 0 110 0 0 110 0 0 110 0 0 110 0 0 110 0 0 139 0 0 139 0 0 139 0 0 139 0 0 139 0 0 139 0 0 139 0 0 139 0 0 139 0 0 139 0 0 145 0 0 145 0 0 145 0 0 145 0 0 145 0 0 145 0 0 145 0 0 145 0 0 145 0 0 145 0 0 145 0 0 145 0 0 145 0 0 145 0 0 145 0 0 145 0 0 145 0 0 145 0 0 145 0 0 145 0 0 94 0 0 94 0 0 94 0 0 94 0 0 94 0 0 94 0 0 94 0 0 94 0 0 94 0 0 94 0 0 71 0 0 71 0 0 71 0 0 71 0 0 71 0 0 71 0 0 71 0 0 71 0 0 71 0 0 71 0 0 57 0 0 57 0 0 57 0 0 57 0 0 57 0 0 57 0 0 57 0 0 57 0 0 57 0 0 57 0 0 55 0 0 55 0 0 55 0 0 55 0 0 55 0 0 55 0 0 55 0 0 55 0 0 55 0 0 55 0 0 101 0 0 101 0 0 101 0 0 101 0 0 101 0 0 101 0 0 101 0 0 101 0 0 101 0 0 101 0 0 136 0 0 136 0 0 136 0 0 136 0 0 136 0 0 136 0 0 136 0 0 136 0 0 136 0 0 136 0 0 108 0 0 108 0 0 108 0 0 108 0 0 108 0 0 108 0 0 108 0 0 108 0 0 108 0 0 108 0 0 137 0 0 137 0 0 137 0 0 137 0 0 137 0 0 137 0 0 137 0 0 137 0 0 137 0 0 137 0 0 156 0 0 156 0 0 156 0 0 156 0 0 156 0 0 156 0 0 156 0 0 156 0 0 156 0 0 156 0 0 215 0 0 215 0 0 215 0 0 215 0 0 215 0 0 215 0 0 215 0 0 215 0 0 215 0 0 215 0 0 163 0 0 163 0 0 163 0 0 163 0 0 163 0 0 163 0 0 163 0 0 163 0 0 163 0 0 163 0 0 101 0 0 101 0 0 101 0 0 101 0 0 101 0 0 101 0 0 101 0 0 101 0 0 101 0 0 101 0 0 138 0 0 138 0 0 138 0 0 138 0 0 138 0 0 138 0 0 138 0 0 138 0 0 138 0 0 138 0 0 113 0 0 113 0 0 113 0 0 113 0 0 113 0 0 113 0 0 113 0 0 113 0 0 113 0 0 113 0 0 131 0 0 131 0 0 131 0 0 131 0 0 131 0 0 131 0 0 131 0 0 131 0 0 131 0 0 131 0 0 131 0 0 131 0 0 131 0 0 131 0 0 131 0 0 131 0 0 131 0 0 131 0 0 131 0 0 131 0 0 135 0 0 135 0 0 135 0 0 135 0 0 135 0 0 135 0 0 135 0 0 135 0 0 135 0 0 135 0 0 87 0 0 87 0 0 87 0 0 87 0 0 87 0 0 87 0 0 87 0 0 87 0 0 87 0 0 87 0 0 98 0 0 98 0 0 98 0 0 98 0 0 98 0 0 98 0 0 98 0 0 98 0 0 98 0 0 98 0 0 96 0 0 96 0 0 96 0 0 96 0 0 96 0 0 96 0 0 96 0 0 96 0 0 96 0 0 96 0 0 125 0 0 125 0 0 125 0 0 125 0 0 125 0 0 125 0 0 125 0 0 125 0 0 125 0 0 125 0 0 112 0 0 112 0 0 112 0 0 112 0 0 112 0 0 112 0 0 112 0 0 112 0 0 112 0 0 112 0 0 146 0 0 146 0 0 146 0 0 146 0 0 146 0 0 146 0 0 146 0 0 146 0 0 146 0 0 146 0 0 141 0 0 141 0 0 141 0 0 141 0 0 141 0 0 141 0 0 141 0 0 141 0 0 141 0 0 141 0 0 0 0 0 0 0 0 0 0 0 0 0 0 0 0 0 0 0 0 0 0 0 0 0 0 0 0 0 0 0 0 0 0 199 0 0 199 0 0 199 0 0 199 0 0 199 0 0 199 0 0 199 0 0 199 0 0 199 0 0 199 0 0 199 0 0 199 0 0 199 0 0 199 0 0 199 0 0 199 0 0 199 0 0 199 0 0 199 0 0 199 0 0 199 0 0 199 0 0 199 0 0 199 0 0 199 0 0 199 0 0 199 0 0 199 0 0 199 0 0 199 
110 0 0 110 0 0 110 0 0 110 0 0 110 0 0 110 0 0 110 0 0 110 0 0 110 0 0 110 0 0 139 0 0 139 0 0 139 0 0 139 0 0 139 0 0 139 0 0 139 0 0 139 0 0 139 0 0 139 0 0 145 0 0 145 0 0 145 0 0 145 0 0 145 0 0 145 0 0 145 0 0 145 0 0 145 0 0 145 0 0 145 0 0 145 0 0 145 0 0 145 0 0 145 0 0 145 0 0 145 0 0 145 0 0 145 0 0 145 0 0 94 0 0 94 0 0 94 0 0 94 0 0 94 0 0 94 0 0 94 0 0 94 0 0 94 0 0 94 0 0 71 0 0 71 0 0 71 0 0 71 0 0 71 0 0 71 0 0 71 0 0 71 0 0 71 0 0 71 0 0 57 0 0 57 0 0 57 0 0 57 0 0 57 0 0 57 0 0 57 0 0 57 0 0 57 0 0 57 0 0 55 0 0 55 0 0 55 0 0 55 0 0 55 0 0 55 0 0 55 0 0 55 0 0 55 0 0 55 0 0 101 0 0 101 0 0 101 0 0 101 0 0 101 0 0 101 0 0 101 0 0 101 0 0 101 0 0 101 0 0 136 0 0 136 0 0 136 0 0 136 0 0 136 0 0 136 0 0 136 0 0 136 0 0 136 0 0 136 0 0 108 0 0 108 0 0 108 0 0 108 0 0 108 0 0 108 0 0 108 0 0 108 0 0 108 0 0 108 0 0 137 0 0 137 0 0 137 0 0 137 0 0 137 0 0 137 0 0 137 0 0 137 0 0 137 0 0 137 0 0 156 0 0 156 0 0 156 0 0 156 0 0 156 0 0 156 0 0 156 0 0 156 0 0 156 0 0 156 0 0 215 0 0 215 0 0 215 0 0 215 0 0 215 0 0 215 0 0 215 0 0 215 0 0 215 0 0 215 0 0 163 0 0 163 0 0 163 0 0 163 0 0 163 0 0 163 0 0 163 0 0 163 0 0 163 0 0 163 0 0 101 0 0 101 0 0 101 0 0 101 0 0 101 0 0 101 0 0 101 0 0 101 0 0 101 0 0 101 0 0 138 0 0 138 0 0 138 0 0 138 0 0 138 0 0 138 0 0 138 0 0 138 0 0 138 0 0 138 0 0 113 0 0 113 0 0 113 0 0 113 0 0 113 0 0 113 0 0 113 0 0 113 0 0 113 0 0 113 0 0 131 0 0 131 0 0 131 0 0 131 0 0 131 0 0 131 0 0 131 0 0 131 0 0 131 0 0 131 0 0 131 0 0 131 0 0 131 0 0 131 0 0 131 0 0 131 0 0 131 0 0 131 0 0 131 0 0 131 0 0 135 0 0 135 0 0 135 0 0 135 0 0 135 0 0 135 0 0 135 0 0 135 0 0 135 0 0 135 0 0 87 0 0 87 0 0 87 0 0 87 0 0 87 0 0 87 0 0 87 0 0 87 0 0 87 0 0 87 0 0 98 0 0 98 0 0 98 0 0 98 0 0 98 0 0 98 0 0 98 0 0 98 0 0 98 0 0 98 0 0 96 0 0 96 0 0 96 0 0 96 0 0 96 0 0 96 0 0 96 0 0 96 0 0 96 0 0 96 0 0 125 0 0 125 0 0 125 0 0 125 0 0 125 0 0 125 0 0 125 0 0 125 0 0 125 0 0 125 0 0 112 0 0 112 0 0 112 0 0 112 0 0 112 0 0 112 0 0 112 0 0 112 0 0 112 0 0 112 0 0 146 0 0 146 0 0 146 0 0 146 0 0 146 0 0 146 0 0 146 0 0 146 0 0 146 0 0 146 0 0 141 0 0 141 0 0 141 0 0 141 0 0 141 0 0 141 0 0 141 0 0 141 0 0 141 0 0 141 0 0 0 0 0 0 0 0 0 0 0 0 0 0 0 0 0 0 0 0 0 0 0 0 0 0 0 0 0 0 0 0 0 0 202 0 0 202 0 0 202 0 0 202 0 0 202 0 0 202 0 0 202 0 0 202 0 0 202 0 0 202 0 0 202 0 0 202 0 0 202 0 0 202 0 0 202 0 0 202 0 0 202 0 0 202 0 0 202 0 0 202 0 0 202 0 0 202 0 0 202 0 0 202 0 0 202 0 0 202 0 0 202 0 0 202 0 0 202 0 0 202 
110 0 0 110 0 0 110 0 0 110 0 0 110 0 0 110 0 0 110 0 0 110 0 0 110 0 0 110 0 0 139 0 0 139 0 0 139 0 0 139 0 0 139 0 0 139 0 0 139 0 0 139 0 0 139 0 0 139 0 0 145 0 0 145 0 0 145 0 0 145 0 0 145 0 0 145 0 0 145 0 0 145 0 0 145 0 0 145 0 0 145 0 0 145 0 0 145 0 0 145 0 0 145 0 0 145 0 0 145 0 0 145 0 0 145 0 0 145 0 0 94 0 0 94 0 0 94 0 0 94 0 0 94 0 0 94 0 0 94 0 0 94 0 0 94 0 0 94 0 0 71 0 0 71 0 0 71 0 0 71 0 0 71 0 0 71 0 0 71 0 0 71 0 0 71 0 0 71 0 0 57 0 0 57 0 0 57 0 0 57 0 0 57 0 0 57 0 0 57 0 0 57 0 0 57 0 0 57 0 0 55 0 0 55 0 0 55 0 0 55 0 0 55 0 0 55 0 0 55 0 0 55 0 0 55 0 0 55 0 0 101 0 0 101 0 0 101 0 0 101 0 0 101 0 0 101 0 0 101 0 0 101 0 0 101 0 0 101 0 0 136 0 0 136 0 0 136 0 0 136 0 0 136 0 0 136 0 0 136 0 0 136 0 0 136 0 0 136 0 0 108 0 0 108 0 0 108 0 0 108 0 0 108 0 0 108 0 0 108 0 0 108 0 0 108 0 0 108 0 0 137 0 0 137 0 0 137 0 0 137 0 0 137 0 0 137 0 0 137 0 0 137 0 0 137 0 0 137 0 0 156 0 0 156 0 0 156 0 0 156 0 0 156 0 0 156 0 0 156 0 0 156 0 0 156 0 0 156 0 0 215 0 0 215 0 0 215 0 0 215 0 0 215 0 0 215 0 0 215 0 0 215 0 0 215 0 0 215 0 0 163 0 0 163 0 0 163 0 0 163 0 0 163 0 0 163 0 0 163 0 0 163 0 0 163 0 0 163 0 0 101 0 0 101 0 0 101 0 0 101 0 0 101 0 0 101 0 0 101 0 0 101 0 0 101 0 0 101 0 0 138 0 0 138 0 0 138 0 0 138 0 0 138 0 0 138 0 0 138 0 0 138 0 0 138 0 0 138 0 0 113 0 0 113 0 0 113 0 0 113 0 0 113 0 0 113 0 0 113 0 0 113 0 0 113 0 0 113 0 0 131 0 0 131 0 0 131 0 0 131 0 0 131 0 0 131 0 0 131 0 0 131 0 0 131 0 0 131 0 0 131 0 0 131 0 0 131 0 0 131 0 0 131 0 0 131 0 0 131 0 0 131 0 0 131 0 0 131 0 0 135 0 0 135 0 0 135 0 0 135 0 0 135 0 0 135 0 0 135 0 0 135 0 0 135 0 0 135 0 0 87 0 0 87 0 0 87 0 0 87 0 0 87 0 0 87 0 0 87 0 0 87 0 0 87 0 0 87 0 0 98 0 0 98 0 0 98 0 0 98 0 0 98 0 0 98 0 0 98 0 0 98 0 0 98 0 0 98 0 0 96 0 0 96 0 0 96 0 0 96 0 0 96 0 0 96 0 0 96 0 0 96 0 0 96 0 0 96 0 0 125 0 0 125 0 0 125 0 0 125 0 0 125 0 0 125 0 0 125 0 0 125 0 0 125 0 0 125 0 0 112 0 0 112 0 0 112 0 0 112 0 0 112 0 0 112 0 0 112 0 0 112 0 0 112 0 0 112 0 0 146 0 0 146 0 0 146 0 0 146 0 0 146 0 0 146 0 0 146 0 0 146 0 0 146 0 0 146 0 0 141 0 0 141 0 0 141 0 0 141 0 0 141 0 0 141 0 0 141 0 0 141 0 0 141 0 0 141 0 0 0 0 0 0 0 0 0 0 0 0 0 0 0 0 0 0 0 0 0 0 0 0 0 0 0 0 0 0 0 0 0 0 206 0 0 206 0 0 206 0 0 206 0 0 206 0 0 206 0 0 206 0 0 206 0 0 206 0 0 206 0 0 206 0 0 206 0 0 206 0 0 206 0 0 206 0 0 206 0 0 206 0 0 206 0 0 206 0 0 206 0 0 206 0 0 206 0 0 206 0 0 206 0 0 206 0 0 206 0 0 206 0 0 206 0 0 206 0 0 206 
110 0 0 110 0 0 110 0 0 110 0 0 110 0 0 110 0 0 110 0 0 110 0 0 110 0 0 110 0 0 139 0 0 139 0 0 139 0 0 139 0 0 139 0 0 139 0 0 139 0 0 139 0 0 139 0 0 139 0 0 145 0 0 145 0 0 145 0 0 145 0 0 145 0 0 145 0 0 145 0 0 145 0 0 145 0 0 145 0 0 145 0 0 145 0 0 145 0 0 145 0 0 145 0 0 145 0 0 145 0 0 145 0 0 145 0 0 145 0 0 94 0 0 94 0 0 94 0 0 94 0 0 94 0 0 94 0 0 94 0 0 94 0 0 94 0 0 94 0 0 71 0 0 71 0 0 71 0 0 71 0 0 71 0 0 71 0 0 71 0 0 71 0 0 71 0 0 71 0 0 57 0 0 57 0 0 57 0 0 57 0 0 57 0 0 57 0 0 57 0 0 57 0 0 57 0 0 57 0 0 55 0 0 55 0 0 55 0 0 55 0 0 55 0 0 55 0 0 55 0 0 55 0 0 55 0 0 55 0 0 101 0 0 101 0 0 101 0 0 101 0 0 101 0 0 101 0 0 101 0 0 101 0 0 101 0 0 101 0 0 136 0 0 136 0 0 136 0 0 136 0 0 136 0 0 136 0 0 136 0 0 136 0 0 136 0 0 136 0 0 108 0 0 108 0 0 108 0 0 108 0 0 108 0 0 108 0 0 108 0 0 108 0 0 108 0 0 108 0 0 137 0 0 137 0 0 137 0 0 137 0 0 137 0 0 137 0 0 137 0 0 137 0 0 137 0 0 137 0 0 156 0 0 156 0 0 156 0 0 156 0 0 156 0 0 156 0 0 156 0 0 156 0 0 156 0 0 156 0 0 215 0 0 215 0 0 215 0 0 215 0 0 215 0 0 215 0 0 215 0 0 215 0 0 215 0 0 215 0 0 163 0 0 163 0 0 163 0 0 163 0 0 163 0 0 163 0 0 163 0 0 163 0 0 163 0 0 163 0 0 101 0 0 101 0 0 101 0 0 101 0 0 101 0 0 101 0 0 101 0 0 101 0 0 101 0 0 101 0 0 138 0 0 138 0 0 138 0 0 138 0 0 138 0 0 138 0 0 138 0 0 138 0 0 138 0 0 138 0 0 113 0 0 113 0 0 113 0 0 113 0 0 113 0 0 113 0 0 113 0 0 113 0 0 113 0 0 113 0 0 131 0 0 131 0 0 131 0 0 131 0 0 131 0 0 131 0 0 131 0 0 131 0 0 131 0 0 131 0 0 131 0 0 131 0 0 131 0 0 131 0 0 131 0 0 131 0 0 131 0 0 131 0 0 131 0 0 131 0 0 135 0 0 135 0 0 135 0 0 135 0 0 135 0 0 135 0 0 135 0 0 135 0 0 135 0 0 135 0 0 87 0 0 87 0 0 87 0 0 87 0 0 87 0 0 87 0 0 87 0 0 87 0 0 87 0 0 87 0 0 98 0 0 98 0 0 98 0 0 98 0 0 98 0 0 98 0 0 98 0 0 98 0 0 98 0 0 98 0 0 96 0 0 96 0 0 96 0 0 96 0 0 96 0 0 96 0 0 96 0 0 96 0 0 96 0 0 96 0 0 125 0 0 125 0 0 125 0 0 125 0 0 125 0 0 125 0 0 125 0 0 125 0 0 125 0 0 125 0 0 112 0 0 112 0 0 112 0 0 112 0 0 112 0 0 112 0 0 112 0 0 112 0 0 112 0 0 112 0 0 146 0 0 146 0 0 146 0 0 146 0 0 146 0 0 146 0 0 146 0 0 146 0 0 146 0 0 146 0 0 141 0 0 141 0 0 141 0 0 141 0 0 141 0 0 141 0 0 141 0 0 141 0 0 141 0 0 141 0 0 0 0 0 0 0 0 0 0 0 0 0 0 0 0 0 0 0 0 0 0 0 0 0 0 0 0 0 0 0 0 0 0 210 0 0 210 0 0 210 0 0 210 0 0 210 0 0 210 0 0 210 0 0 210 0 0 210 0 0 210 0 0 210 0 0 210 0 0 210 0 0 210 0 0 210 0 0 210 0 0 210 0 0 210 0 0 210 0 0 210 0 0 210 0 0 210 0 0 210 0 0 210 0 0 210 0 0 210 0 0 210 0 0 210 0 0 210 0 0 210 
110 0 0 110 0 0 110 0 0 110 0 0 110 0 0 110 0 0 110 0 0 110 0 0 110 0 0 110 0 0 139 0 0 139 0 0 139 0 0 139 0 0 139 0 0 139 0 0 139 0 0 139 0 0 139 0 0 139 0 0 145 0 0 145 0 0 145 0 0 145 0 0 145 0 0 145 0 0 145 0 0 145 0 0 145 0 0 145 0 0 145 0 0 145 0 0 145 0 0 145 0 0 145 0 0 145 0 0 145 0 0 145 0 0 145 0 0 145 0 0 94 0 0 94 0 0 94 0 0 94 0 0 94 0 0 94 0 0 94 0 0 94 0 0 94 0 0 94 0 0 71 0 0 71 0 0 71 0 0 71 0 0 71 0 0 71 0 0 71 0 0 71 0 0 71 0 0 71 0 0 57 0 0 57 0 0 57 0 0 57 0 0 57 0 0 57 0 0 57 0 0 57 0 0 57 0 0 57 0 0 55 0 0 55 0 0 55 0 0 55 0 0 55 0 0 55 0 0 55 0 0 55 0 0 55 0 0 55 0 0 101 0 0 101 0 0 101 0 0 101 0 0 101 0 0 101 0 0 101 0 0 101 0 0 101 0 0 101 0 0 136 0 0 136 0 0 136 0 0 136 0 0 136 0 0 136 0 0 136 0 0 136 0 0 136 0 0 136 0 0 108 0 0 108 0 0 108 0 0 108 0 0 108 0 0 108 0 0 108 0 0 108 0 0 108 0 0 108 0 0 137 0 0 137 0 0 137 0 0 137 0 0 137 0 0 137 0 0 137 0 0 137 0 0 137 0 0 137 0 0 156 0 0 156 0 0 156 0 0 156 0 0 156 0 0 156 0 0 156 0 0 156 0 0 156 0 0 156 0 0 215 0 0 215 0 0 215 0 0 215 0 0 215 0 0 215 0 0 215 0 0 215 0 0 215 0 0 215 0 0 163 0 0 163 0 0 163 0 0 163 0 0 163 0 0 163 0 0 163 0 0 163 0 0 163 0 0 163 0 0 101 0 0 101 0 0 101 0 0 101 0 0 101 0 0 101 0 0 101 0 0 101 0 0 101 0 0 101 0 0 138 0 0 138 0 0 138 0 0 138 0 0 138 0 0 138 0 0 138 0 0 138 0 0 138 0 0 138 0 0 113 0 0 113 0 0 113 0 0 113 0 0 113 0 0 113 0 0 113 0 0 113 0 0 113 0 0 113 0 0 131 0 0 131 0 0 131 0 0 131 0 0 131 0 0 131 0 0 131 0 0 131 0 0 131 0 0 131 0 0 131 0 0 131 0 0 131 0 0 131 0 0 131 0 0 131 0 0 131 0 0 131 0 0 131 0 0 131 0 0 135 0 0 135 0 0 135 0 0 135 0 0 135 0 0 135 0 0 135 0 0 135 0 0 135 0 0 135 0 0 87 0 0 87 0 0 87 0 0 87 0 0 87 0 0 87 0 0 87 0 0 87 0 0 87 0 0 87 0 0 98 0 0 98 0 0 98 0 0 98 0 0 98 0 0 98 0 0 98 0 0 98 0 0 98 0 0 98 0 0 96 0 0 96 0 0 96 0 0 96 0 0 96 0 0 96 0 0 96 0 0 96 0 0 96 0 0 96 0 0 125 0 0 125 0 0 125 0 0 125 0 0 125 0 0 125 0 0 125 0 0 125 0 0 125 0 0 125 0 0 112 0 0 112 0 0 112 0 0 112 0 0 112 0 0 112 0 0 112 0 0 112 0 0 112 0 0 112 0 0 146 0 0 146 0 0 146 0 0 146 0 0 146 0 0 146 0 0 146 0 0 146 0 0 146 0 0 146 0 0 141 0 0 141 0 0 141 0 0 141 0 0 141 0 0 141 0 0 141 0 0 141 0 0 141 0 0 141 0 0 0 0 0 0 0 0 0 0 0 0 0 0 0 0 0 0 0 0 0 0 0 0 0 0 0 0 0 0 0 0 0 0 213 0 0 213 0 0 213 0 0 213 0 0 213 0 0 213 0 0 213 0 0 213 0 0 213 0 0 213 0 0 213 0 0 213 0 0 213 0 0 213 0 0 213 0 0 213 0 0 213 0 0 213 0 0 213 0 0 213 0 0 213 0 0 213 0 0 213 0 0 213 0 0 213 0 0 213 0 0 213 0 0 213 0 0 213 0 0 213 
110 0 0 110 0 0 110 0 0 110 0 0 110 0 0 110 0 0 110 0 0 110 0 0 110 0 0 110 0 0 139 0 0 139 0 0 139 0 0 139 0 0 139 0 0 139 0 0 139 0 0 139 0 0 139 0 0 139 0 0 145 0 0 145 0 0 145 0 0 145 0 0 145 0 0 145 0 0 145 0 0 145 0 0 145 0 0 145 0 0 145 0 0 145 0 0 145 0 0 145 0 0 145 0 0 145 0 0 145 0 0 145 0 0 145 0 0 145 0 0 94 0 0 94 0 0 94 0 0 94 0 0 94 0 0 94 0 0 94 0 0 94 0 0 94 0 0 94 0 0 71 0 0 71 0 0 71 0 0 71 0 0 71 0 0 71 0 0 71 0 0 71 0 0 71 0 0 71 0 0 57 0 0 57 0 0 57 0 0 57 0 0 57 0 0 57 0 0 57 0 0 57 0 0 57 0 0 57 0 0 55 0 0 55 0 0 55 0 0 55 0 0 55 0 0 55 0 0 55 0 0 55 0 0 55 0 0 55 0 0 101 0 0 101 0 0 101 0 0 101 0 0 101 0 0 101 0 0 101 0 0 101 0 0 101 0 0 101 0 0 136 0 0 136 0 0 136 0 0 136 0 0 136 0 0 136 0 0 136 0 0 136 0 0 136 0 0 136 0 0 108 0 0 108 0 0 108 0 0 108 0 0 108 0 0 108 0 0 108 0 0 108 0 0 108 0 0 108 0 0 137 0 0 137 0 0 137 0 0 137 0 0 137 0 0 137 0 0 137 0 0 137 0 0 137 0 0 137 0 0 156 0 0 156 0 0 156 0 0 156 0 0 156 0 0 156 0 0 156 0 0 156 0 0 156 0 0 156 0 0 215 0 0 215 0 0 215 0 0 215 0 0 215 0 0 215 0 0 215 0 0 215 0 0 215 0 0 215 0 0 163 0 0 163 0 0 163 0 0 163 0 0 163 0 0 163 0 0 163 0 0 163 0 0 163 0 0 163 0 0 101 0 0 101 0 0 101 0 0 101 0 0 101 0 0 101 0 0 101 0 0 101 0 0 101 0 0 101 0 0 138 0 0 138 0 0 138 0 0 138 0 0 138 0 0 138 0 0 138 0 0 138 0 0 138 0 0 138 0 0 113 0 0 113 0 0 113 0 0 113 0 0 113 0 0 113 0 0 113 0 0 113 0 0 113 0 0 113 0 0 131 0 0 131 0 0 131 0 0 131 0 0 131 0 0 131 0 0 131 0 0 131 0 0 131 0 0 131 0 0 131 0 0 131 0 0 131 0 0 131 0 0 131 0 0 131 0 0 131 0 0 131 0 0 131 0 0 131 0 0 135 0 0 135 0 0 135 0 0 135 0 0 135 0 0 135 0 0 135 0 0 135 0 0 135 0 0 135 0 0 87 0 0 87 0 0 87 0 0 87 0 0 87 0 0 87 0 0 87 0 0 87 0 0 87 0 0 87 0 0 98 0 0 98 0 0 98 0 0 98 0 0 98 0 0 98 0 0 98 0 0 98 0 0 98 0 0 98 0 0 96 0 0 96 0 0 96 0 0 96 0 0 96 0 0 96 0 0 96 0 0 96 0 0 96 0 0 96 0 0 125 0 0 125 0 0 125 0 0 125 0 0 125 0 0 125 0 0 125 0 0 125 0 0 125 0 0 125 0 0 112 0 0 112 0 0 112 0 0 112 0 0 112 0 0 112 0 0 112 0 0 112 0 0 112 0 0 112 0 0 146 0 0 146 0 0 146 0 0 146 0 0 146 0 0 146 0 0 146 0 0 146 0 0 146 0 0 146 0 0 141 0 0 141 0 0 141 0 0 141 0 0 141 0 0 141 0 0 141 0 0 141 0 0 141 0 0 141 0 0 0 0 0 0 0 0 0 0 0 0 0 0 0 0 0 0 0 0 0 0 0 0 0 0 0 0 0 0 0 0 0 0 217 0 0 217 0 0 217 0 0 217 0 0 217 0 0 217 0 0 217 0 0 217 0 0 217 0 0 217 0 0 217 0 0 217 0 0 217 0 0 217 0 0 217 0 0 217 0 0 217 0 0 217 0 0 217 0 0 217 0 0 217 0 0 217 0 0 217 0 0 217 0 0 217 0 0 217 0 0 217 0 0 217 0 0 217 0 0 217 
110 0 0 110 0 0 110 0 0 110 0 0 110 0 0 110 0 0 110 0 0 110 0 0 110 0 0 110 0 0 109 0 0 109 0 0 109 0 0 109 0 0 109 0 0 109 0 0 109 0 0 109 0 0 109 0 0 109 0 0 111 0 0 111 0 0 111 0 0 111 0 0 111 0 0 111 0 0 111 0 0 111 0 0 111 0 0 111 0 0 108 0 0 108 0 0 108 0 0 108 0 0 108 0 0 108 0 0 108 0 0 108 0 0 108 0 0 108 0 0 138 0 0 138 0 0 138 0 0 138 0 0 138 0 0 138 0 0 138 0 0 138 0 0 138 0 0 138 0 0 107 0 0 107 0 0 107 0 0 107 0 0 107 0 0 107 0 0 107 0 0 107 0 0 107 0 0 107 0 0 102 0 0 102 0 0 102 0 0 102 0 0 102 0 0 102 0 0 102 0 0 102 0 0 102 0 0 102 0 0 129 0 0 129 0 0 129 0 0 129 0 0 129 0 0 129 0 0 129 0 0 129 0 0 129 0 0 129 0 0 174 0 0 174 0 0 174 0 0 174 0 0 174 0 0 174 0 0 174 0 0 174 0 0 174 0 0 174 0 0 162 0 0 162 0 0 162 0 0 162 0 0 162 0 0 162 0 0 162 0 0 162 0 0 162 0 0 162 0 0 148 0 0 148 0 0 148 0 0 148 0 0 148 0 0 148 0 0 148 0 0 148 0 0 148 0 0 148 0 0 154 0 0 154 0 0 154 0 0 154 0 0 154 0 0 154 0 0 154 0 0 154 0 0 154 0 0 154 0 0 164 0 0 164 0 0 164 0 0 164 0 0 164 0 0 164 0 0 164 0 0 164 0 0 164 0 0 164 0 0 119 0 0 119 0 0 119 0 0 119 0 0 119 0 0 119 0 0 119 0 0 119 0 0 119 0 0 119 0 0 118 0 0 118 0 0 118 0 0 118 0 0 118 0 0 118 0 0 118 0 0 118 0 0 118 0 0 118 0 0 143 0 0 143 0 0 143 0 0 143 0 0 143 0 0 143 0 0 143 0 0 143 0 0 143 0 0 143 0 0 191 0 0 191 0 0 191 0 0 191 0 0 191 0 0 191 0 0 191 0 0 191 0 0 191 0 0 191 0 0 216 0 0 216 0 0 216 0 0 216 0 0 216 0 0 216 0 0 216 0 0 216 0 0 216 0 0 216 0 0 192 0 0 192 0 0 192 0 0 192 0 0 192 0 0 192 0 0 192 0 0 192 0 0 192 0 0 192 0 0 145 0 0 145 0 0 145 0 0 145 0 0 145 0 0 145 0 0 145 0 0 145 0 0 145 0 0 145 0 0 125 0 0 125 0 0 125 0 0 125 0 0 125 0 0 125 0 0 125 0 0 125 0 0 125 0 0 125 0 0 138 0 0 138 0 0 138 0 0 138 0 0 138 0 0 138 0 0 138 0 0 138 0 0 138 0 0 138 0 0 102 0 0 102 0 0 102 0 0 102 0 0 102 0 0 102 0 0 102 0 0 102 0 0 102 0 0 102 0 0 128 0 0 128 0 0 128 0 0 128 0 0 128 0 0 128 0 0 128 0 0 128 0 0 128 0 0 128 0 0 144 0 0 144 0 0 144 0 0 144 0 0 144 0 0 144 0 0 144 0 0 144 0 0 144 0 0 144 0 0 128 0 0 128 0 0 128 0 0 128 0 0 128 0 0 128 0 0 128 0 0 128 0 0 128 0 0 128 0 0 146 0 0 146 0 0 146 0 0 146 0 0 146 0 0 146 0 0 146 0 0 146 0 0 146 0 0 146 0 0 145 0 0 145 0 0 145 0 0 145 0 0 145 0 0 145 0 0 145 0 0 145 0 0 145 0 0 145 0 0 0 0 0 0 0 0 0 0 0 0 0 0 0 0 0 0 0 0 0 0 0 0 0 0 0 0 0 0 0 0 0 0 221 0 0 221 0 0 221 0 0 221 0 0 221 0 0 221 0 0 221 0 0 221 0 0 221 0 0 221 0 0 221 0 0 221 0 0 221 0 0 221 0 0 221 0 0 221 0 0 221 0 0 221 0 0 221 0 0 221 0 0 221 0 0 221 0 0 221 0 0 221 0 0 221 0 0 221 0 0 221 0 0 221 0 0 221 0 0 221 
110 0 0 110 0 0 110 0 0 110 0 0 110 0 0 110 0 0 110 0 0 110 0 0 110 0 0 110 0 0 109 0 0 109 0 0 109 0 0 109 0 0 109 0 0 109 0 0 109 0 0 109 0 0 109 0 0 109 0 0 111 0 0 111 0 0 111 0 0 111 0 0 111 0 0 111 0 0 111 0 0 111 0 0 111 0 0 111 0 0 108 0 0 108 0 0 108 0 0 108 0 0 108 0 0 108 0 0 108 0 0 108 0 0 108 0 0 108 0 0 138 0 0 138 0 0 138 0 0 138 0 0 138 0 0 138 0 0 138 0 0 138 0 0 138 0 0 138 0 0 107 0 0 107 0 0 107 0 0 107 0 0 107 0 0 107 0 0 107 0 0 107 0 0 107 0 0 107 0 0 102 0 0 102 0 0 102 0 0 102 0 0 102 0 0 102 0 0 102 0 0 102 0 0 102 0 0 102 0 0 129 0 0 129 0 0 129 0 0 129 0 0 129 0 0 129 0 0 129 0 0 129 0 0 129 0 0 129 0 0 174 0 0 174 0 0 174 0 0 174 0 0 174 0 0 174 0 0 174 0 0 174 0 0 174 0 0 174 0 0 162 0 0 162 0 0 162 0 0 162 0 0 162 0 0 162 0 0 162 0 0 162 0 0 162 0 0 162 0 0 148 0 0 148 0 0 148 0 0 148 0 0 148 0 0 148 0 0 148 0 0 148 0 0 148 0 0 148 0 0 154 0 0 154 0 0 154 0 0 154 0 0 154 0 0 154 0 0 154 0 0 154 0 0 154 0 0 154 0 0 164 0 0 164 0 0 164 0 0 164 0 0 164 0 0 164 0 0 164 0 0 164 0 0 164 0 0 164 0 0 119 0 0 119 0 0 119 0 0 119 0 0 119 0 0 119 0 0 119 0 0 119 0 0 119 0 0 119 0 0 118 0 0 118 0 0 118 0 0 118 0 0 118 0 0 118 0 0 118 0 0 118 0 0 118 0 0 118 0 0 143 0 0 143 0 0 143 0 0 143 0 0 143 0 0 143 0 0 143 0 0 143 0 0 143 0 0 143 0 0 191 0 0 191 0 0 191 0 0 191 0 0 191 0 0 191 0 0 191 0 0 191 0 0 191 0 0 191 0 0 216 0 0 216 0 0 216 0 0 216 0 0 216 0 0 216 0 0 216 0 0 216 0 0 216 0 0 216 0 0 192 0 0 192 0 0 192 0 0 192 0 0 192 0 0 192 0 0 192 0 0 192 0 0 192 0 0 192 0 0 145 0 0 145 0 0 145 0 0 145 0 0 145 0 0 145 0 0 145 0 0 145 0 0 145 0 0 145 0 0 125 0 0 125 0 0 125 0 0 125 0 0 125 0 0 125 0 0 125 0 0 125 0 0 125 0 0 125 0 0 138 0 0 138 0 0 138 0 0 138 0 0 138 0 0 138 0 0 138 0 0 138 0 0 138 0 0 138 0 0 102 0 0 102 0 0 102 0 0 102 0 0 102 0 0 102 0 0 102 0 0 102 0 0 102 0 0 102 0 0 128 0 0 128 0 0 128 0 0 128 0 0 128 0 0 128 0 0 128 0 0 128 0 0 128 0 0 128 0 0 144 0 0 144 0 0 144 0 0 144 0 0 144 0 0 144 0 0 144 0 0 144 0 0 144 0 0 144 0 0 128 0 0 128 0 0 128 0 0 128 0 0 128 0 0 128 0 0 128 0 0 128 0 0 128 0 0 128 0 0 146 0 0 146 0 0 146 0 0 146 0 0 146 0 0 146 0 0 146 0 0 146 0 0 146 0 0 146 0 0 145 0 0 145 0 0 145 0 0 145 0 0 145 0 0 145 0 0 145 0 0 145 0 0 145 0 0 145 0 0 0 0 0 0 0 0 0 0 0 0 0 0 0 0 0 0 0 0 0 0 0 0 0 0 0 0 0 0 0 0 0 0 224 0 0 224 0 0 224 0 0 224 0 0 224 0 0 224 0 0 224 0 0 224 0 0 224 0 0 224 0 0 224 0 0 224 0 0 224 0 0 224 0 0 224 0 0 224 0 0 224 0 0 224 0 0 224 0 0 224 0 0 224 0 0 224 0 0 224 0 0 224 0 0 224 0 0 224 0 0 224 0 0 224 0 0 224 0 0 224 
110 0 0 110 0 0 110 0 0 110 0 0 110 0 0 110 0 0 110 0 0 110 0 0 110 0 0 110 0 0 109 0 0 109 0 0 109 0 0 109 0 0 109 0 0 109 0 0 109 0 0 109 0 0 109 0 0 109 0 0 111 0 0 111 0 0 111 0 0 111 0 0 111 0 0 111 0 0 111 0 0 111 0 0 111 0 0 111 0 0 108 0 0 108 0 0 108 0 0 108 0 0 108 0 0 108 0 0 108 0 0 108 0 0 108 0 0 108 0 0 138 0 0 138 0 0 138 0 0 138 0 0 138 0 0 138 0 0 138 0 0 138 0 0 138 0 0 138 0 0 107 0 0 107 0 0 107 0 0 107 0 0 107 0 0 107 0 0 107 0 0 107 0 0 107 0 0 107 0 0 102 0 0 102 0 0 102 0 0 102 0 0 102 0 0 102 0 0 102 0 0 102 0 0 102 0 0 102 0 0 129 0 0 129 0 0 129 0 0 129 0 0 129 0 0 129 0 0 129 0 0 129 0 0 129 0 0 129 0 0 174 0 0 174 0 0 174 0 0 174 0 0 174 0 0 174 0 0 174 0 0 174 0 0 174 0 0 174 0 0 162 0 0 162 0 0 162 0 0 162 0 0 162 0 0 162 0 0 162 0 0 162 0 0 162 0 0 162 0 0 148 0 0 148 0 0 148 0 0 148 0 0 148 0 0 148 0 0 148 0 0 148 0 0 148 0 0 148 0 0 154 0 0 154 0 0 154 0 0 154 0 0 154 0 0 154 0 0 154 0 0 154 0 0 154 0 0 154 0 0 164 0 0 164 0 0 164 0 0 164 0 0 164 0 0 164 0 0 164 0 0 164 0 0 164 0 0 164 0 0 119 0 0 119 0 0 119 0 0 119 0 0 119 0 0 119 0 0 119 0 0 119 0 0 119 0 0 119 0 0 118 0 0 118 0 0 118 0 0 118 0 0 118 0 0 118 0 0 118 0 0 118 0 0 118 0 0 118 0 0 143 0 0 143 0 0 143 0 0 143 0 0 143 0 0 143 0 0 143 0 0 143 0 0 143 0 0 143 0 0 191 0 0 191 0 0 191 0 0 191 0 0 191 0 0 191 0 0 191 0 0 191 0 0 191 0 0 191 0 0 216 0 0 216 0 0 216 0 0 216 0 0 216 0 0 216 0 0 216 0 0 216 0 0 216 0 0 216 0 0 192 0 0 192 0 0 192 0 0 192 0 0 192 0 0 192 0 0 192 0 0 192 0 0 192 0 0 192 0 0 145 0 0 145 0 0 145 0 0 145 0 0 145 0 0 145 0 0 145 0 0 145 0 0 145 0 0 145 0 0 125 0 0 125 0 0 125 0 0 125 0 0 125 0 0 125 0 0 125 0 0 125 0 0 125 0 0 125 0 0 138 0 0 138 0 0 138 0 0 138 0 0 138 0 0 138 0 0 138 0 0 138 0 0 138 0 0 138 0 0 102 0 0 102 0 0 102 0 0 102 0 0 102 0 0 102 0 0 102 0 0 102 0 0 102 0 0 102 0 0 128 0 0 128 0 0 128 0 0 128 0 0 128 0 0 128 0 0 128 0 0 128 0 0 128 0 0 128 0 0 144 0 0 144 0 0 144 0 0 144 0 0 144 0 0 144 0 0 144 0 0 144 0 0 144 0 0 144 0 0 128 0 0 128 0 0 128 0 0 128 0 0 128 0 0 128 0 0 128 0 0 128 0 0 128 0 0 128 0 0 146 0 0 146 0 0 146 0 0 146 0 0 146 0 0 146 0 0 146 0 0 146 0 0 146 0 0 146 0 0 145 0 0 145 0 0 145 0 0 145 0 0 145 0 0 145 0 0 145 0 0 145 0 0 145 0 0 145 0 0 0 0 0 0 0 0 0 0 0 0 0 0 0 0 0 0 0 0 0 0 0 0 0 0 0 0 0 0 0 0 0 0 228 0 0 228 0 0 228 0 0 228 0 0 228 0 0 228 0 0 228 0 0 228 0 0 228 0 0 228 0 0 228 0 0 228 0 0 228 0 0 228 0 0 228 0 0 228 0 0 228 0 0 228 0 0 228 0 0 228 0 0 228 0 0 228 0 0 228 0 0 228 0 0 228 0 0 228 0 0 228 0 0 228 0 0 228 0 0 228 
110 0 0 110 0 0 110 0 0 110 0 0 110 0 0 110 0 0 110 0 0 110 0 0 110 0 0 110 0 0 109 0 0 109 0 0 109 0 0 109 0 0 109 0 0 109 0 0 109 0 0 109 0 0 109 0 0 109 0 0 111 0 0 111 0 0 111 0 0 111 0 0 111 0 0 111 0 0 111 0 0 111 0 0 111 0 0 111 0 0 108 0 0 108 0 0 108 0 0 108 0 0 108 0 0 108 0 0 108 0 0 108 0 0 108 0 0 108 0 0 138 0 0 138 0 0 138 0 0 138 0 0 138 0 0 138 0 0 138 0 0 138 0 0 138 0 0 138 0 0 107 0 0 107 0 0 107 0 0 107 0 0 107 0 0 107 0 0 107 0 0 107 0 0 107 0 0 107 0 0 102 0 0 102 0 0 102 0 0 102 0 0 102 0 0 102 0 0 102 0 0 102 0 0 102 0 0 102 0 0 129 0 0 129 0 0 129 0 0 129 0 0 129 0 0 129 0 0 129 0 0 129 0 0 129 0 0 129 0 0 174 0 0 174 0 0 174 0 0 174 0 0 174 0 0 174 0 0 174 0 0 174 0 0 174 0 0 174 0 0 162 0 0 162 0 0 162 0 0 162 0 0 162 0 0 162 0 0 162 0 0 162 0 0 162 0 0 162 0 0 148 0 0 148 0 0 148 0 0 148 0 0 148 0 0 148 0 0 148 0 0 148 0 0 148 0 0 148 0 0 154 0 0 154 0 0 154 0 0 154 0 0 154 0 0 154 0 0 154 0 0 154 0 0 154 0 0 154 0 0 164 0 0 164 0 0 164 0 0 164 0 0 164 0 0 164 0 0 164 0 0 164 0 0 164 0 0 164 0 0 119 0 0 119 0 0 119 0 0 119 0 0 119 0 0 119 0 0 119 0 0 119 0 0 119 0 0 119 0 0 118 0 0 118 0 0 118 0 0 118 0 0 118 0 0 118 0 0 118 0 0 118 0 0 118 0 0 118 0 0 143 0 0 143 0 0 143 0 0 143 0 0 143 0 0 143 0 0 143 0 0 143 0 0 143 0 0 143 0 0 191 0 0 191 0 0 191 0 0 191 0 0 191 0 0 191 0 0 191 0 0 191 0 0 191 0 0 191 0 0 216 0 0 216 0 0 216 0 0 216 0 0 216 0 0 216 0 0 216 0 0 216 0 0 216 0 0 216 0 0 192 0 0 192 0 0 192 0 0 192 0 0 192 0 0 192 0 0 192 0 0 192 0 0 192 0 0 192 0 0 145 0 0 145 0 0 145 0 0 145 0 0 145 0 0 145 0 0 145 0 0 145 0 0 145 0 0 145 0 0 125 0 0 125 0 0 125 0 0 125 0 0 125 0 0 125 0 0 125 0 0 125 0 0 125 0 0 125 0 0 138 0 0 138 0 0 138 0 0 138 0 0 138 0 0 138 0 0 138 0 0 138 0 0 138 0 0 138 0 0 102 0 0 102 0 0 102 0 0 102 0 0 102 0 0 102 0 0 102 0 0 102 0 0 102 0 0 102 0 0 128 0 0 128 0 0 128 0 0 128 0 0 128 0 0 128 0 0 128 0 0 128 0 0 128 0 0 128 0 0 144 0 0 144 0 0 144 0 0 144 0 0 144 0 0 144 0 0 144 0 0 144 0 0 144 0 0 144 0 0 128 0 0 128 0 0 128 0 0 128 0 0 128 0 0 128 0 0 128 0 0 128 0 0 128 0 0 128 0 0 146 0 0 146 0 0 146 0 0 146 0 0 146 0 0 146 0 0 146 0 0 146 0 0 146 0 0 146 0 0 145 0 0 145 0 0 145 0 0 145 0 0 145 0 0 145 0 0 145 0 0 145 0 0 145 0 0 145 0 0 0 0 0 0 0 0 0 0 0 0 0 0 0 0 0 0 0 0 0 0 0 0 0 0 0 0 0 0 0 0 0 0 232 0 0 232 0 0 232 0 0 232 0 0 232 0 0 232 0 0 232 0 0 232 0 0 232 0 0 232 0 0 232 0 0 232 0 0 232 0 0 232 0 0 232 0 0 232 0 0 232 0 0 232 0 0 232 0 0 232 0 0 232 0 0 232 0 0 232 0 0 232 0 0 232 0 0 232 0 0 232 0 0 232 0 0 232 0 0 232 
110 0 0 110 0 0 110 0 0 110 0 0 110 0 0 110 0 0 110 0 0 110 0 0 110 0 0 110 0 0 109 0 0 109 0 0 109 0 0 109 0 0 109 0 0 109 0 0 109 0 0 109 0 0 109 0 0 109 0 0 111 0 0 111 0 0 111 0 0 111 0 0 111 0 0 111 0 0 111 0 0 111 0 0 111 0 0 111 0 0 108 0 0 108 0 0 108 0 0 108 0 0 108 0 0 108 0 0 108 0 0 108 0 0 108 0 0 108 0 0 138 0 0 138 0 0 138 0 0 138 0 0 138 0 0 138 0 0 138 0 0 138 0 0 138 0 0 138 0 0 107 0 0 107 0 0 107 0 0 107 0 0 107 0 0 107 0 0 107 0 0 107 0 0 107 0 0 107 0 0 102 0 0 102 0 0 102 0 0 102 0 0 102 0 0 102 0 0 102 0 0 102 0 0 102 0 0 102 0 0 129 0 0 129 0 0 129 0 0 129 0 0 129 0 0 129 0 0 129 0 0 129 0 0 129 0 0 129 0 0 174 0 0 174 0 0 174 0 0 174 0 0 174 0 0 174 0 0 174 0 0 174 0 0 174 0 0 174 0 0 162 0 0 162 0 0 162 0 0 162 0 0 162 0 0 162 0 0 162 0 0 162 0 0 162 0 0 162 0 0 148 0 0 148 0 0 148 0 0 148 0 0 148 0 0 148 0 0 148 0 0 148 0 0 148 0 0 148 0 0 154 0 0 154 0 0 154 0 0 154 0 0 154 0 0 154 0 0 154 0 0 154 0 0 154 0 0 154 0 0 164 0 0 164 0 0 164 0 0 164 0 0 164 0 0 164 0 0 164 0 0 164 0 0 164 0 0 164 0 0 119 0 0 119 0 0 119 0 0 119 0 0 119 0 0 119 0 0 119 0 0 119 0 0 119 0 0 119 0 0 118 0 0 118 0 0 118 0 0 118 0 0 118 0 0 118 0 0 118 0 0 118 0 0 118 0 0 118 0 0 143 0 0 143 0 0 143 0 0 143 0 0 143 0 0 143 0 0 143 0 0 143 0 0 143 0 0 143 0 0 191 0 0 191 0 0 191 0 0 191 0 0 191 0 0 191 0 0 191 0 0 191 0 0 191 0 0 191 0 0 216 0 0 216 0 0 216 0 0 216 0 0 216 0 0 216 0 0 216 0 0 216 0 0 216 0 0 216 0 0 192 0 0 192 0 0 192 0 0 192 0 0 192 0 0 192 0 0 192 0 0 192 0 0 192 0 0 192 0 0 145 0 0 145 0 0 145 0 0 145 0 0 145 0 0 145 0 0 145 0 0 145 0 0 145 0 0 145 0 0 125 0 0 125 0 0 125 0 0 125 0 0 125 0 0 125 0 0 125 0 0 125 0 0 125 0 0 125 0 0 138 0 0 138 0 0 138 0 0 138 0 0 138 0 0 138 0 0 138 0 0 138 0 0 138 0 0 138 0 0 102 0 0 102 0 0 102 0 0 102 0 0 102 0 0 102 0 0 102 0 0 102 0 0 102 0 0 102 0 0 128 0 0 128 0 0 128 0 0 128 0 0 128 0 0 128 0 0 128 0 0 128 0 0 128 0 0 128 0 0 144 0 0 144 0 0 144 0 0 144 0 0 144 0 0 144 0 0 144 0 0 144 0 0 144 0 0 144 0 0 128 0 0 128 0 0 128 0 0 128 0 0 128 0 0 128 0 0 128 0 0 128 0 0 128 0 0 128 0 0 146 0 0 146 0 0 146 0 0 146 0 0 146 0 0 146 0 0 146 0 0 146 0 0 146 0 0 146 0 0 145 0 0 145 0 0 145 0 0 145 0 0 145 0 0 145 0 0 145 0 0 145 0 0 145 0 0 145 0 0 0 0 0 0 0 0 0 0 0 0 0 0 0 0 0 0 0 0 0 0 0 0 0 0 0 0 0 0 0 0 0 0 235 0 0 235 0 0 235 0 0 235 0 0 235 0 0 235 0 0 235 0 0 235 0 0 235 0 0 235 0 0 235 0 0 235 0 0 235 0 0 235 0 0 235 0 0 235 0 0 235 0 0 235 0 0 235 0 0 235 0 0 235 0 0 235 0 0 235 0 0 235 0 0 235 0 0 235 0 0 235 0 0 235 0 0 235 0 0 235 
110 0 0 110 0 0 110 0 0 110 0 0 110 0 0 110 0 0 110 0 0 110 0 0 110 0 0 110 0 0 109 0 0 109 0 0 109 0 0 109 0 0 109 0 0 109 0 0 109 0 0 109 0 0 109 0 0 109 0 0 111 0 0 111 0 0 111 0 0 111 0 0 111 0 0 111 0 0 111 0 0 111 0 0 111 0 0 111 0 0 108 0 0 108 0 0 108 0 0 108 0 0 108 0 0 108 0 0 108 0 0 108 0 0 108 0 0 108 0 0 138 0 0 138 0 0 138 0 0 138 0 0 138 0 0 138 0 0 138 0 0 138 0 0 138 0 0 138 0 0 107 0 0 107 0 0 107 0 0 107 0 0 107 0 0 107 0 0 107 0 0 107 0 0 107 0 0 107 0 0 102 0 0 102 0 0 102 0 0 102 0 0 102 0 0 102 0 0 102 0 0 102 0 0 102 0 0 102 0 0 129 0 0 129 0 0 129 0 0 129 0 0 129 0 0 129 0 0 129 0 0 129 0 0 129 0 0 129 0 0 174 0 0 174 0 0 174 0 0 174 0 0 174 0 0 174 0 0 174 0 0 174 0 0 174 0 0 174 0 0 162 0 0 162 0 0 162 0 0 162 0 0 162 0 0 162 0 0 162 0 0 162 0 0 162 0 0 162 0 0 148 0 0 148 0 0 148 0 0 148 0 0 148 0 0 148 0 0 148 0 0 148 0 0 148 0 0 148 0 0 154 0 0 154 0 0 154 0 0 154 0 0 154 0 0 154 0 0 154 0 0 154 0 0 154 0 0 154 0 0 164 0 0 164 0 0 164 0 0 164 0 0 164 0 0 164 0 0 164 0 0 164 0 0 164 0 0 164 0 0 119 0 0 119 0 0 119 0 0 119 0 0 119 0 0 119 0 0 119 0 0 119 0 0 119 0 0 119 0 0 118 0 0 118 0 0 118 0 0 118 0 0 118 0 0 118 0 0 118 0 0 118 0 0 118 0 0 118 0 0 143 0 0 143 0 0 143 0 0 143 0 0 143 0 0 143 0 0 143 0 0 143 0 0 143 0 0 143 0 0 191 0 0 191 0 0 191 0 0 191 0 0 191 0 0 191 0 0 191 0 0 191 0 0 191 0 0 191 0 0 216 0 0 216 0 0 216 0 0 216 0 0 216 0 0 216 0 0 216 0 0 216 0 0 216 0 0 216 0 0 192 0 0 192 0 0 192 0 0 192 0 0 192 0 0 192 0 0 192 0 0 192 0 0 192 0 0 192 0 0 145 0 0 145 0 0 145 0 0 145 0 0 145 0 0 145 0 0 145 0 0 145 0 0 145 0 0 145 0 0 125 0 0 125 0 0 125 0 0 125 0 0 125 0 0 125 0 0 125 0 0 125 0 0 125 0 0 125 0 0 138 0 0 138 0 0 138 0 0 138 0 0 138 0 0 138 0 0 138 0 0 138 0 0 138 0 0 138 0 0 102 0 0 102 0 0 102 0 0 102 0 0 102 0 0 102 0 0 102 0 0 102 0 0 102 0 0 102 0 0 128 0 0 128 0 0 128 0 0 128 0 0 128 0 0 128 0 0 128 0 0 128 0 0 128 0 0 128 0 0 144 0 0 144 0 0 144 0 0 144 0 0 144 0 0 144 0 0 144 0 0 144 0 0 144 0 0 144 0 0 128 0 0 128 0 0 128 0 0 128 0 0 128 0 0 128 0 0 128 0 0 128 0 0 128 0 0 128 0 0 146 0 0 146 0 0 146 0 0 146 0 0 146 0 0 146 0 0 146 0 0 146 0 0 146 0 0 146 0 0 145 0 0 145 0 0 145 0 0 145 0 0 145 0 0 145 0 0 145 0 0 145 0 0 145 0 0 145 0 0 0 0 0 0 0 0 0 0 0 0 0 0 0 0 0 0 0 0 0 0 0 0 0 0 0 0 0 0 0 0 0 0 239 0 0 239 0 0 239 0 0 239 0 0 239 0 0 239 0 0 239 0 0 239 0 0 239 0 0 239 0 0 239 0 0 239 0 0 239 0 0 239 0 0 239 0 0 239 0 0 239 0 0 239 0 0 239 0 0 239 0 0 239 0 0 239 0 0 239 0 0 239 0 0 239 0 0 239 0 0 239 0 0 239 0 0 239 0 0 239 
110 0 0 110 0 0 110 0 0 110 0 0 110 0 0 110 0 0 110 0 0 110 0 0 110 0 0 110 0 0 109 0 0 109 0 0 109 0 0 109 0 0 109 0 0 109 0 0 109 0 0 109 0 0 109 0 0 109 0 0 111 0 0 111 0 0 111 0 0 111 0 0 111 0 0 111 0 0 111 0 0 111 0 0 111 0 0 111 0 0 108 0 0 108 0 0 108 0 0 108 0 0 108 0 0 108 0 0 108 0 0 108 0 0 108 0 0 108 0 0 138 0 0 138 0 0 138 0 0 138 0 0 138 0 0 138 0 0 138 0 0 138 0 0 138 0 0 138 0 0 107 0 0 107 0 0 107 0 0 107 0 0 107 0 0 107 0 0 107 0 0 107 0 0 107 0 0 107 0 0 102 0 0 102 0 0 102 0 0 102 0 0 102 0 0 102 0 0 102 0 0 102 0 0 102 0 0 102 0 0 129 0 0 129 0 0 129 0 0 129 0 0 129 0 0 129 0 0 129 0 0 129 0 0 129 0 0 129 0 0 174 0 0 174 0 0 174 0 0 174 0 0 174 0 0 174 0 0 174 0 0 174 0 0 174 0 0 174 0 0 162 0 0 162 0 0 162 0 0 162 0 0 162 0 0 162 0 0 162 0 0 162 0 0 162 0 0 162 0 0 148 0 0 148 0 0 148 0 0 148 0 0 148 0 0 148 0 0 148 0 0 148 0 0 148 0 0 148 0 0 154 0 0 154 0 0 154 0 0 154 0 0 154 0 0 154 0 0 154 0 0 154 0 0 154 0 0 154 0 0 164 0 0 164 0 0 164 0 0 164 0 0 164 0 0 164 0 0 164 0 0 164 0 0 164 0 0 164 0 0 119 0 0 119 0 0 119 0 0 119 0 0 119 0 0 119 0 0 119 0 0 119 0 0 119 0 0 119 0 0 118 0 0 118 0 0 118 0 0 118 0 0 118 0 0 118 0 0 118 0 0 118 0 0 118 0 0 118 0 0 143 0 0 143 0 0 143 0 0 143 0 0 143 0 0 143 0 0 143 0 0 143 0 0 143 0 0 143 0 0 191 0 0 191 0 0 191 0 0 191 0 0 191 0 0 191 0 0 191 0 0 191 0 0 191 0 0 191 0 0 216 0 0 216 0 0 216 0 0 216 0 0 216 0 0 216 0 0 216 0 0 216 0 0 216 0 0 216 0 0 192 0 0 192 0 0 192 0 0 192 0 0 192 0 0 192 0 0 192 0 0 192 0 0 192 0 0 192 0 0 145 0 0 145 0 0 145 0 0 145 0 0 145 0 0 145 0 0 145 0 0 145 0 0 145 0 0 145 0 0 125 0 0 125 0 0 125 0 0 125 0 0 125 0 0 125 0 0 125 0 0 125 0 0 125 0 0 125 0 0 138 0 0 138 0 0 138 0 0 138 0 0 138 0 0 138 0 0 138 0 0 138 0 0 138 0 0 138 0 0 102 0 0 102 0 0 102 0 0 102 0 0 102 0 0 102 0 0 102 0 0 102 0 0 102 0 0 102 0 0 128 0 0 128 0 0 128 0 0 128 0 0 128 0 0 128 0 0 128 0 0 128 0 0 128 0 0 128 0 0 144 0 0 144 0 0 144 0 0 144 0 0 144 0 0 144 0 0 144 0 0 144 0 0 144 0 0 144 0 0 128 0 0 128 0 0 128 0 0 128 0 0 128 0 0 128 0 0 128 0 0 128 0 0 128 0 0 128 0 0 146 0 0 146 0 0 146 0 0 146 0 0 146 0 0 146 0 0 146 0 0 146 0 0 146 0 0 146 0 0 145 0 0 145 0 0 145 0 0 145 0 0 145 0 0 145 0 0 145 0 0 145 0 0 145 0 0 145 0 0 0 0 0 0 0 0 0 0 0 0 0 0 0 0 0 0 0 0 0 0 0 0 0 0 0 0 0 0 0 0 0 0 243 0 0 243 0 0 243 0 0 243 0 0 243 0 0 243 0 0 243 0 0 243 0 0 243 0 0 243 0 0 243 0 0 243 0 0 243 0 0 243 0 0 243 0 0 243 0 0 243 0 0 243 0 0 243 0 0 243 0 0 243 0 0 243 0 0 243 0 0 243 0 0 243 0 0 243 0 0 243 0 0 243 0 0 243 0 0 243 
110 0 0 110 0 0 110 0 0 110 0 0 110 0 0 110 0 0 110 0 0 110 0 0 110 0 0 110 0 0 109 0 0 109 0 0 109 0 0 109 0 0 109 0 0 109 0 0 109 0 0 109 0 0 109 0 0 109 0 0 111 0 0 111 0 0 111 0 0 111 0 0 111 0 0 111 0 0 111 0 0 111 0 0 111 0 0 111 0 0 108 0 0 108 0 0 108 0 0 108 0 0 108 0 0 108 0 0 108 0 0 108 0 0 108 0 0 108 0 0 138 0 0 138 0 0 138 0 0 138 0 0 138 0 0 138 0 0 138 0 0 138 0 0 138 0 0 138 0 0 107 0 0 107 0 0 107 0 0 107 0 0 107 0 0 107 0 0 107 0 0 107 0 0 107 0 0 107 0 0 102 0 0 102 0 0 102 0 0 102 0 0 102 0 0 102 0 0 102 0 0 102 0 0 102 0 0 102 0 0 129 0 0 129 0 0 129 0 0 129 0 0 129 0 0 129 0 0 129 0 0 129 0 0 129 0 0 129 0 0 174 0 0 174 0 0 174 0 0 174 0 0 174 0 0 174 0 0 174 0 0 174 0 0 174 0 0 174 0 0 162 0 0 162 0 0 162 0 0 162 0 0 162 0 0 162 0 0 162 0 0 162 0 0 162 0 0 162 0 0 148 0 0 148 0 0 148 0 0 148 0 0 148 0 0 148 0 0 148 0 0 148 0 0 148 0 0 148 0 0 154 0 0 154 0 0 154 0 0 154 0 0 154 0 0 154 0 0 154 0 0 154 0 0 154 0 0 154 0 0 164 0 0 164 0 0 164 0 0 164 0 0 164 0 0 164 0 0 164 0 0 164 0 0 164 0 0 164 0 0 119 0 0 119 0 0 119 0 0 119 0 0 119 0 0 119 0 0 119 0 0 119 0 0 119 0 0 119 0 0 118 0 0 118 0 0 118 0 0 118 0 0 118 0 0 118 0 0 118 0 0 118 0 0 118 0 0 118 0 0 143 0 0 143 0 0 143 0 0 143 0 0 143 0 0 143 0 0 143 0 0 143 0 0 143 0 0 143 0 0 191 0 0 191 0 0 191 0 0 191 0 0 191 0 0 191 0 0 191 0 0 191 0 0 191 0 0 191 0 0 216 0 0 216 0 0 216 0 0 216 0 0 216 0 0 216 0 0 216 0 0 216 0 0 216 0 0 216 0 0 192 0 0 192 0 0 192 0 0 192 0 0 192 0 0 192 0 0 192 0 0 192 0 0 192 0 0 192 0 0 145 0 0 145 0 0 145 0 0 145 0 0 145 0 0 145 0 0 145 0 0 145 0 0 145 0 0 145 0 0 125 0 0 125 0 0 125 0 0 125 0 0 125 0 0 125 0 0 125 0 0 125 0 0 125 0 0 125 0 0 138 0 0 138 0 0 138 0 0 138 0 0 138 0 0 138 0 0 138 0 0 138 0 0 138 0 0 138 0 0 102 0 0 102 0 0 102 0 0 102 0 0 102 0 0 102 0 0 102 0 0 102 0 0 102 0 0 102 0 0 128 0 0 128 0 0 128 0 0 128 0 0 128 0 0 128 0 0 128 0 0 128 0 0 128 0 0 128 0 0 144 0 0 144 0 0 144 0 0 144 0 0 144 0 0 144 0 0 144 0 0 144 0 0 144 0 0 144 0 0 128 0 0 128 0 0 128 0 0 128 0 0 128 0 0 128 0 0 128 0 0 128 0 0 128 0 0 128 0 0 146 0 0 146 0 0 146 0 0 146 0 0 146 0 0 146 0 0 146 0 0 146 0 0 146 0 0 146 0 0 145 0 0 145 0 0 145 0 0 145 0 0 145 0 0 145 0 0 145 0 0 145 0 0 145 0 0 145 0 0 0 0 0 0 0 0 0 0 0 0 0 0 0 0 0 0 0 0 0 0 0 0 0 0 0 0 0 0 0 0 0 0 246 0 0 246 0 0 246 0 0 246 0 0 246 0 0 246 0 0 246 0 0 246 0 0 246 0 0 246 0 0 246 0 0 246 0 0 246 0 0 246 0 0 246 0 0 246 0 0 246 0 0 246 0 0 246 0 0 246 0 0 246 0 0 246 0 0 246 0 0 246 0 0 246 0 0 246 0 0 246 0 0 246 0 0 246 0 0 246 
110 0 0 110 0 0 110 0 0 110 0 0 110 0 0 110 0 0 110 0 0 110 0 0 110 0 0 110 0 0 109 0 0 109 0 0 109 0 0 109 0 0 109 0 0 109 0 0 109 0 0 109 0 0 109 0 0 109 0 0 111 0 0 111 0 0 111 0 0 111 0 0 111 0 0 111 0 0 111 0 0 111 0 0 111 0 0 111 0 0 108 0 0 108 0 0 108 0 0 108 0 0 108 0 0 108 0 0 108 0 0 108 0 0 108 0 0 108 0 0 138 0 0 138 0 0 138 0 0 138 0 0 138 0 0 138 0 0 138 0 0 138 0 0 138 0 0 138 0 0 107 0 0 107 0 0 107 0 0 107 0 0 107 0 0 107 0 0 107 0 0 107 0 0 107 0 0 107 0 0 102 0 0 102 0 0 102 0 0 102 0 0 102 0 0 102 0 0 102 0 0 102 0 0 102 0 0 102 0 0 129 0 0 129 0 0 129 0 0 129 0 0 129 0 0 129 0 0 129 0 0 129 0 0 129 0 0 129 0 0 174 0 0 174 0 0 174 0 0 174 0 0 174 0 0 174 0 0 174 0 0 174 0 0 174 0 0 174 0 0 162 0 0 162 0 0 162 0 0 162 0 0 162 0 0 162 0 0 162 0 0 162 0 0 162 0 0 162 0 0 148 0 0 148 0 0 148 0 0 148 0 0 148 0 0 148 0 0 148 0 0 148 0 0 148 0 0 148 0 0 154 0 0 154 0 0 154 0 0 154 0 0 154 0 0 154 0 0 154 0 0 154 0 0 154 0 0 154 0 0 164 0 0 164 0 0 164 0 0 164 0 0 164 0 0 164 0 0 164 0 0 164 0 0 164 0 0 164 0 0 119 0 0 119 0 0 119 0 0 119 0 0 119 0 0 119 0 0 119 0 0 119 0 0 119 0 0 119 0 0 118 0 0 118 0 0 118 0 0 118 0 0 118 0 0 118 0 0 118 0 0 118 0 0 118 0 0 118 0 0 143 0 0 143 0 0 143 0 0 143 0 0 143 0 0 143 0 0 143 0 0 143 0 0 143 0 0 143 0 0 191 0 0 191 0 0 191 0 0 191 0 0 191 0 0 191 0 0 191 0 0 191 0 0 191 0 0 191 0 0 216 0 0 216 0 0 216 0 0 216 0 0 216 0 0 216 0 0 216 0 0 216 0 0 216 0 0 216 0 0 192 0 0 192 0 0 192 0 0 192 0 0 192 0 0 192 0 0 192 0 0 192 0 0 192 0 0 192 0 0 145 0 0 145 0 0 145 0 0 145 0 0 145 0 0 145 0 0 145 0 0 145 0 0 145 0 0 145 0 0 125 0 0 125 0 0 125 0 0 125 0 0 125 0 0 125 0 0 125 0 0 125 0 0 125 0 0 125 0 0 138 0 0 138 0 0 138 0 0 138 0 0 138 0 0 138 0 0 138 0 0 138 0 0 138 0 0 138 0 0 102 0 0 102 0 0 102 0 0 102 0 0 102 0 0 102 0 0 102 0 0 102 0 0 102 0 0 102 0 0 128 0 0 128 0 0 128 0 0 128 0 0 128 0 0 128 0 0 128 0 0 128 0 0 128 0 0 128 0 0 144 0 0 144 0 0 144 0 0 144 0 0 144 0 0 144 0 0 144 0 0 144 0 0 144 0 0 144 0 0 128 0 0 128 0 0 128 0 0 128 0 0 128 0 0 128 0 0 128 0 0 128 0 0 128 0 0 128 0 0 146 0 0 146 0 0 146 0 0 146 0 0 146 0 0 146 0 0 146 0 0 146 0 0 146 0 0 146 0 0 145 0 0 145 0 0 145 0 0 145 0 0 145 0 0 145 0 0 145 0 0 145 0 0 145 0 0 145 0 0 0 0 0 0 0 0 0 0 0 0 0 0 0 0 0 0 0 0 0 0 0 0 0 0 0 0 0 0 0 0 0 0 250 0 0 250 0 0 250 0 0 250 0 0 250 0 0 250 0 0 250 0 0 250 0 0 250 0 0 250 0 0 250 0 0 250 0 0 250 0 0 250 0 0 250 0 0 250 0 0 250 0 0 250 0 0 250 0 0 250 0 0 250 0 0 250 0 0 250 0 0 250 0 0 250 0 0 250 0 0 250 0 0 250 0 0 250 0 0 250 
110 0 0 110 0 0 110 0 0 110 0 0 110 0 0 110 0 0 110 0 0 110 0 0 110 0 0 110 0 0 109 0 0 109 0 0 109 0 0 109 0 0 109 0 0 109 0 0 109 0 0 109 0 0 109 0 0 109 0 0 111 0 0 111 0 0 111 0 0 111 0 0 111 0 0 111 0 0 111 0 0 111 0 0 111 0 0 111 0 0 108 0 0 108 0 0 108 0 0 108 0 0 108 0 0 108 0 0 108 0 0 108 0 0 108 0 0 108 0 0 138 0 0 138 0 0 138 0 0 138 0 0 138 0 0 138 0 0 138 0 0 138 0 0 138 0 0 138 0 0 107 0 0 107 0 0 107 0 0 107 0 0 107 0 0 107 0 0 107 0 0 107 0 0 107 0 0 107 0 0 102 0 0 102 0 0 102 0 0 102 0 0 102 0 0 102 0 0 102 0 0 102 0 0 102 0 0 102 0 0 129 0 0 129 0 0 129 0 0 129 0 0 129 0 0 129 0 0 129 0 0 129 0 0 129 0 0 129 0 0 174 0 0 174 0 0 174 0 0 174 0 0 174 0 0 174 0 0 174 0 0 174 0 0 174 0 0 174 0 0 162 0 0 162 0 0 162 0 0 162 0 0 162 0 0 162 0 0 162 0 0 162 0 0 162 0 0 162 0 0 148 0 0 148 0 0 148 0 0 148 0 0 148 0 0 148 0 0 148 0 0 148 0 0 148 0 0 148 0 0 154 0 0 154 0 0 154 0 0 154 0 0 154 0 0 154 0 0 154 0 0 154 0 0 154 0 0 154 0 0 164 0 0 164 0 0 164 0 0 164 0 0 164 0 0 164 0 0 164 0 0 164 0 0 164 0 0 164 0 0 119 0 0 119 0 0 119 0 0 119 0 0 119 0 0 119 0 0 119 0 0 119 0 0 119 0 0 119 0 0 118 0 0 118 0 0 118 0 0 118 0 0 118 0 0 118 0 0 118 0 0 118 0 0 118 0 0 118 0 0 143 0 0 143 0 0 143 0 0 143 0 0 143 0 0 143 0 0 143 0 0 143 0 0 143 0 0 143 0 0 191 0 0 191 0 0 191 0 0 191 0 0 191 0 0 191 0 0 191 0 0 191 0 0 191 0 0 191 0 0 216 0 0 216 0 0 216 0 0 216 0 0 216 0 0 216 0 0 216 0 0 216 0 0 216 0 0 216 0 0 192 0 0 192 0 0 192 0 0 192 0 0 192 0 0 192 0 0 192 0 0 192 0 0 192 0 0 192 0 0 145 0 0 145 0 0 145 0 0 145 0 0 145 0 0 145 0 0 145 0 0 145 0 0 145 0 0 145 0 0 125 0 0 125 0 0 125 0 0 125 0 0 125 0 0 125 0 0 125 0 0 125 0 0 125 0 0 125 0 0 138 0 0 138 0 0 138 0 0 138 0 0 138 0 0 138 0 0 138 0 0 138 0 0 138 0 0 138 0 0 102 0 0 102 0 0 102 0 0 102 0 0 102 0 0 102 0 0 102 0 0 102 0 0 102 0 0 102 0 0 128 0 0 128 0 0 128 0 0 128 0 0 128 0 0 128 0 0 128 0 0 128 0 0 128 0 0 128 0 0 144 0 0 144 0 0 144 0 0 144 0 0 144 0 0 144 0 0 144 0 0 144 0 0 144 0 0 144 0 0 128 0 0 128 0 0 128 0 0 128 0 0 128 0 0 128 0 0 128 0 0 128 0 0 128 0 0 128 0 0 146 0 0 146 0 0 146 0 0 146 0 0 146 0 0 146 0 0 146 0 0 146 0 0 146 0 0 146 0 0 145 0 0 145 0 0 145 0 0 145 0 0 145 0 0 145 0 0 145 0 0 145 0 0 145 0 0 145 0 0 0 0 0 0 0 0 0 0 0 0 0 0 0 0 0 0 0 0 0 0 0 0 0 0 0 0 0 0 0 0 0 0 254 0 0 254 0 0 254 0 0 254 0 0 254 0 0 254 0 0 254 0 0 254 0 0 254 0 0 254 0 0 254 0 0 254 0 0 254 0 0 254 0 0 254 0 0 254 0 0 254 0 0 254 0 0 254 0 0 254 0 0 254 0 0 254 0 0 254 0 0 254 0 0 254 0 0 254 0 0 254 0 0 254 0 0 254 0 0 254 
143 0 0 143 0 0 143 0 0 143 0 0 143 0 0 143 0 0 143 0 0 143 0 0 143 0 0 143 0 0 111 0 0 111 0 0 111 0 0 111 0 0 111 0 0 111 0 0 111 0 0 111 0 0 111 0 0 111 0 0 108 0 0 108 0 0 108 0 0 108 0 0 108 0 0 108 0 0 108 0 0 108 0 0 108 0 0 108 0 0 114 0 0 114 0 0 114 0 0 114 0 0 114 0 0 114 0 0 114 0 0 114 0 0 114 0 0 114 0 0 143 0 0 143 0 0 143 0 0 143 0 0 143 0 0 143 0 0 143 0 0 143 0 0 143 0 0 143 0 0 189 0 0 189 0 0 189 0 0 189 0 0 189 0 0 189 0 0 189 0 0 189 0 0 189 0 0 189 0 0 218 0 0 218 0 0 218 0 0 218 0 0 218 0 0 218 0 0 218 0 0 218 0 0 218 0 0 218 0 0 206 0 0 206 0 0 206 0 0 206 0 0 206 0 0 206 0 0 206 0 0 206 0 0 206 0 0 206 0 0 189 0 0 189 0 0 189 0 0 189 0 0 189 0 0 189 0 0 189 0 0 189 0 0 189 0 0 189 0 0 152 0 0 152 0 0 152 0 0 152 0 0 152 0 0 152 0 0 152 0 0 152 0 0 152 0 0 152 0 0 163 0 0 163 0 0 163 0 0 163 0 0 163 0 0 163 0 0 163 0 0 163 0 0 163 0 0 163 0 0 102 0 0 102 0 0 102 0 0 102 0 0 102 0 0 102 0 0 102 0 0 102 0 0 102 0 0 102 0 0 77 0 0 77 0 0 77 0 0 77 0 0 77 0 0 77 0 0 77 0 0 77 0 0 77 0 0 77 0 0 49 0 0 49 0 0 49 0 0 49 0 0 49 0 0 49 0 0 49 0 0 49 0 0 49 0 0 49 0 0 114 0 0 114 0 0 114 0 0 114 0 0 114 0 0 114 0 0 114 0 0 114 0 0 114 0 0 114 0 0 141 0 0 141 0 0 141 0 0 141 0 0 141 0 0 141 0 0 141 0 0 141 0 0 141 0 0 141 0 0 183 0 0 183 0 0 183 0 0 183 0 0 183 0 0 183 0 0 183 0 0 183 0 0 183 0 0 183 0 0 187 0 0 187 0 0 187 0 0 187 0 0 187 0 0 187 0 0 187 0 0 187 0 0 187 0 0 187 0 0 206 0 0 206 0 0 206 0 0 206 0 0 206 0 0 206 0 0 206 0 0 206 0 0 206 0 0 206 0 0 171 0 0 171 0 0 171 0 0 171 0 0 171 0 0 171 0 0 171 0 0 171 0 0 171 0 0 171 0 0 149 0 0 149 0 0 149 0 0 149 0 0 149 0 0 149 0 0 149 0 0 149 0 0 149 0 0 149 0 0 134 0 0 134 0 0 134 0 0 134 0 0 134 0 0 134 0 0 134 0 0 134 0 0 134 0 0 134 0 0 76 0 0 76 0 0 76 0 0 76 0 0 76 0 0 76 0 0 76 0 0 76 0 0 76 0 0 76 0 0 88 0 0 88 0 0 88 0 0 88 0 0 88 0 0 88 0 0 88 0 0 88 0 0 88 0 0 88 0 0 131 0 0 131 0 0 131 0 0 131 0 0 131 0 0 131 0 0 131 0 0 131 0 0 131 0 0 131 0 0 136 0 0 136 0 0 136 0 0 136 0 0 136 0 0 136 0 0 136 0 0 136 0 0 136 0 0 136 0 0 116 0 0 116 0 0 116 0 0 116 0 0 116 0 0 116 0 0 116 0 0 116 0 0 116 0 0 116 0 0 138 0 0 138 0 0 138 0 0 138 0 0 138 0 0 138 0 0 138 0 0 138 0 0 138 0 0 138 0 0 0 0 0 0 0 0 0 0 0 0 0 0 0 0 0 0 0 0 0 0 0 0 0 0 0 0 0 0 0 0 0 2 255 0 2 255 0 2 255 0 2 255 0 2 255 0 2 255 0 2 255 0 2 255 0 2 255 0 2 255 0 2 255 0 2 255 0 2 255 0 2 255 0 2 255 0 2 255 0 2 255 0 2 255 0 2 255 0 2 255 0 2 255 0 2 255 0 2 255 0 2 255 0 2 255 0 2 255 0 2 255 0 2 255 0 2 255 0 2 255 
143 0 0 143 0 0 143 0 0 143 0 0 143 0 0 143 0 0 143 0 0 143 0 0 143 0 0 143 0 0 111 0 0 111 0 0 111 0 0 111 0 0 111 0 0 111 0 0 111 0 0 111 0 0 111 0 0 111 0 0 108 0 0 108 0 0 108 0 0 108 0 0 108 0 0 108 0 0 108 0 0 108 0 0 108 0 0 108 0 0 114 0 0 114 0 0 114 0 0 114 0 0 114 0 0 114 0 0 114 0 0 114 0 0 114 0 0 114 0 0 143 0 0 143 0 0 143 0 0 143 0 0 143 0 0 143 0 0 143 0 0 143 0 0 143 0 0 143 0 0 189 0 0 189 0 0 189 0 0 189 0 0 189 0 0 189 0 0 189 0 0 189 0 0 189 0 0 189 0 0 218 0 0 218 0 0 218 0 0 218 0 0 218 0 0 218 0 0 218 0 0 218 0 0 218 0 0 218 0 0 206 0 0 206 0 0 206 0 0 206 0 0 206 0 0 206 0 0 206 0 0 206 0 0 206 0 0 206 0 0 189 0 0 189 0 0 189 0 0 189 0 0 189 0 0 189 0 0 189 0 0 189 0 0 189 0 0 189 0 0 152 0 0 152 0 0 152 0 0 152 0 0 152 0 0 152 0 0 152 0 0 152 0 0 152 0 0 152 0 0 163 0 0 163 0 0 163 0 0 163 0 0 163 0 0 163 0 0 163 0 0 163 0 0 163 0 0 163 0 0 102 0 0 102 0 0 102 0 0 102 0 0 102 0 0 102 0 0 102 0 0 102 0 0 102 0 0 102 0 0 77 0 0 77 0 0 77 0 0 77 0 0 77 0 0 77 0 0 77 0 0 77 0 0 77 0 0 77 0 0 49 0 0 49 0 0 49 0 0 49 0 0 49 0 0 49 0 0 49 0 0 49 0 0 49 0 0 49 0 0 114 0 0 114 0 0 114 0 0 114 0 0 114 0 0 114 0 0 114 0 0 114 0 0 114 0 0 114 0 0 141 0 0 141 0 0 141 0 0 141 0 0 141 0 0 141 0 0 141 0 0 141 0 0 141 0 0 141 0 0 183 0 0 183 0 0 183 0 0 183 0 0 183 0 0 183 0 0 183 0 0 183 0 0 183 0 0 183 0 0 187 0 0 187 0 0 187 0 0 187 0 0 187 0 0 187 0 0 187 0 0 187 0 0 187 0 0 187 0 0 206 0 0 206 0 0 206 0 0 206 0 0 206 0 0 206 0 0 206 0 0 206 0 0 206 0 0 206 0 0 171 0 0 171 0 0 171 0 0 171 0 0 171 0 0 171 0 0 171 0 0 171 0 0 171 0 0 171 0 0 149 0 0 149 0 0 149 0 0 149 0 0 149 0 0 149 0 0 149 0 0 149 0 0 149 0 0 149 0 0 134 0 0 134 0 0 134 0 0 134 0 0 134 0 0 134 0 0 134 0 0 134 0 0 134 0 0 134 0 0 76 0 0 76 0 0 76 0 0 76 0 0 76 0 0 76 0 0 76 0 0 76 0 0 76 0 0 76 0 0 88 0 0 88 0 0 88 0 0 88 0 0 88 0 0 88 0 0 88 0 0 88 0 0 88 0 0 88 0 0 131 0 0 131 0 0 131 0 0 131 0 0 131 0 0 131 0 0 131 0 0 131 0 0 131 0 0 131 0 0 136 0 0 136 0 0 136 0 0 136 0 0 136 0 0 136 0 0 136 0 0 136 0 0 136 0 0 136 0 0 116 0 0 116 0 0 116 0 0 116 0 0 116 0 0 116 0 0 116 0 0 116 0 0 116 0 0 116 0 0 138 0 0 138 0 0 138 0 0 138 0 0 138 0 0 138 0 0 138 0 0 138 0 0 138 0 0 138 0 0 0 0 0 0 0 0 0 0 0 0 0 0 0 0 0 0 0 0 0 0 0 0 0 0 0 0 0 0 0 0 0 6 255 0 6 255 0 6 255 0 6 255 0 6 255 0 6 255 0 6 255 0 6 255 0 6 255 0 6 255 0 6 255 0 6 255 0 6 255 0 6 255 0 6 255 0 6 255 0 6 255 0 6 255 0 6 255 0 6 255 0 6 255 0 6 255 0 6 255 0 6 255 0 6 255 0 6 255 0 6 255 0 6 255 0 6 255 0 6 255 
143 0 0 143 0 0 143 0 0 143 0 0 143 0 0 143 0 0 143 0 0 143 0 0 143 0 0 143 0 0 111 0 0 111 0 0 111 0 0 111 0 0 111 0 0 111 0 0 111 0 0 111 0 0 111 0 0 111 0 0 108 0 0 108 0 0 108 0 0 108 0 0 108 0 0 108 0 0 108 0 0 108 0 0 108 0 0 108 0 0 114 0 0 114 0 0 114 0 0 114 0 0 114 0 0 114 0 0 114 0 0 114 0 0 114 0 0 114 0 0 143 0 0 143 0 0 143 0 0 143 0 0 143 0 0 143 0 0 143 0 0 143 0 0 143 0 0 143 0 0 189 0 0 189 0 0 189 0 0 189 0 0 189 0 0 189 0 0 189 0 0 189 0 0 189 0 0 189 0 0 218 0 0 218 0 0 218 0 0 218 0 0 218 0 0 218 0 0 218 0 0 218 0 0 218 0 0 218 0 0 206 0 0 206 0 0 206 0 0 206 0 0 206 0 0 206 0 0 206 0 0 206 0 0 206 0 0 206 0 0 189 0 0 189 0 0 189 0 0 189 0 0 189 0 0 189 0 0 189 0 0 189 0 0 189 0 0 189 0 0 152 0 0 152 0 0 152 0 0 152 0 0 152 0 0 152 0 0 152 0 0 152 0 0 152 0 0 152 0 0 163 0 0 163 0 0 163 0 0 163 0 0 163 0 0 163 0 0 163 0 0 163 0 0 163 0 0 163 0 0 102 0 0 102 0 0 102 0 0 102 0 0 102 0 0 102 0 0 102 0 0 102 0 0 102 0 0 102 0 0 77 0 0 77 0 0 77 0 0 77 0 0 77 0 0 77 0 0 77 0 0 77 0 0 77 0 0 77 0 0 49 0 0 49 0 0 49 0 0 49 0 0 49 0 0 49 0 0 49 0 0 49 0 0 49 0 0 49 0 0 114 0 0 114 0 0 114 0 0 114 0 0 114 0 0 114 0 0 114 0 0 114 0 0 114 0 0 114 0 0 141 0 0 141 0 0 141 0 0 141 0 0 141 0 0 141 0 0 141 0 0 141 0 0 141 0 0 141 0 0 183 0 0 183 0 0 183 0 0 183 0 0 183 0 0 183 0 0 183 0 0 183 0 0 183 0 0 183 0 0 187 0 0 187 0 0 187 0 0 187 0 0 187 0 0 187 0 0 187 0 0 187 0 0 187 0 0 187 0 0 206 0 0 206 0 0 206 0 0 206 0 0 206 0 0 206 0 0 206 0 0 206 0 0 206 0 0 206 0 0 171 0 0 171 0 0 171 0 0 171 0 0 171 0 0 171 0 0 171 0 0 171 0 0 171 0 0 171 0 0 149 0 0 149 0 0 149 0 0 149 0 0 149 0 0 149 0 0 149 0 0 149 0 0 149 0 0 149 0 0 134 0 0 134 0 0 134 0 0 134 0 0 134 0 0 134 0 0 134 0 0 134 0 0 134 0 0 134 0 0 76 0 0 76 0 0 76 0 0 76 0 0 76 0 0 76 0 0 76 0 0 76 0 0 76 0 0 76 0 0 88 0 0 88 0 0 88 0 0 88 0 0 88 0 0 88 0 0 88 0 0 88 0 0 88 0 0 88 0 0 131 0 0 131 0 0 131 0 0 131 0 0 131 0 0 131 0 0 131 0 0 131 0 0 131 0 0 131 0 0 136 0 0 136 0 0 136 0 0 136 0 0 136 0 0 136 0 0 136 0 0 136 0 0 136 0 0 136 0 0 116 0 0 116 0 0 116 0 0 116 0 0 116 0 0 116 0 0 116 0 0 116 0 0 116 0 0 116 0 0 138 0 0 138 0 0 138 0 0 138 0 0 138 0 0 138 0 0 138 0 0 138 0 0 138 0 0 138 0 0 0 0 0 0 0 0 0 0 0 0 0 0 0 0 0 0 0 0 0 0 0 0 0 0 0 0 0 0 0 0 0 10 255 0 10 255 0 10 255 0 10 255 0 10 255 0 10 255 0 10 255 0 10 255 0 10 255 0 10 255 0 10 255 0 10 255 0 10 255 0 10 255 0 10 255 0 10 255 0 10 255 0 10 255 0 10 255 0 10 255 0 10 255 0 10 255 0 10 255 0 10 255 0 10 255 0 10 255 0 10 255 0 10 255 0 10 255 0 10 255 
143 0 0 143 0 0 143 0 0 143 0 0 143 0 0 143 0 0 143 0 0 143 0 0 143 0 0 143 0 0 111 0 0 111 0 0 111 0 0 111 0 0 111 0 0 111 0 0 111 0 0 111 0 0 111 0 0 111 0 0 108 0 0 108 0 0 108 0 0 108 0 0 108 0 0 108 0 0 108 0 0 108 0 0 108 0 0 108 0 0 114 0 0 114 0 0 114 0 0 114 0 0 114 0 0 114 0 0 114 0 0 114 0 0 114 0 0 114 0 0 143 0 0 143 0 0 143 0 0 143 0 0 143 0 0 143 0 0 143 0 0 143 0 0 143 0 0 143 0 0 189 0 0 189 0 0 189 0 0 189 0 0 189 0 0 189 0 0 189 0 0 189 0 0 189 0 0 189 0 0 218 0 0 218 0 0 218 0 0 218 0 0 218 0 0 218 0 0 218 0 0 218 0 0 218 0 0 218 0 0 206 0 0 206 0 0 206 0 0 206 0 0 206 0 0 206 0 0 206 0 0 206 0 0 206 0 0 206 0 0 189 0 0 189 0 0 189 0 0 189 0 0 189 0 0 189 0 0 189 0 0 189 0 0 189 0 0 189 0 0 152 0 0 152 0 0 152 0 0 152 0 0 152 0 0 152 0 0 152 0 0 152 0 0 152 0 0 152 0 0 163 0 0 163 0 0 163 0 0 163 0 0 163 0 0 163 0 0 163 0 0 163 0 0 163 0 0 163 0 0 102 0 0 102 0 0 102 0 0 102 0 0 102 0 0 102 0 0 102 0 0 102 0 0 102 0 0 102 0 0 77 0 0 77 0 0 77 0 0 77 0 0 77 0 0 77 0 0 77 0 0 77 0 0 77 0 0 77 0 0 49 0 0 49 0 0 49 0 0 49 0 0 49 0 0 49 0 0 49 0 0 49 0 0 49 0 0 49 0 0 114 0 0 114 0 0 114 0 0 114 0 0 114 0 0 114 0 0 114 0 0 114 0 0 114 0 0 114 0 0 141 0 0 141 0 0 141 0 0 141 0 0 141 0 0 141 0 0 141 0 0 141 0 0 141 0 0 141 0 0 183 0 0 183 0 0 183 0 0 183 0 0 183 0 0 183 0 0 183 0 0 183 0 0 183 0 0 183 0 0 187 0 0 187 0 0 187 0 0 187 0 0 187 0 0 187 0 0 187 0 0 187 0 0 187 0 0 187 0 0 206 0 0 206 0 0 206 0 0 206 0 0 206 0 0 206 0 0 206 0 0 206 0 0 206 0 0 206 0 0 171 0 0 171 0 0 171 0 0 171 0 0 171 0 0 171 0 0 171 0 0 171 0 0 171 0 0 171 0 0 149 0 0 149 0 0 149 0 0 149 0 0 149 0 0 149 0 0 149 0 0 149 0 0 149 0 0 149 0 0 134 0 0 134 0 0 134 0 0 134 0 0 134 0 0 134 0 0 134 0 0 134 0 0 134 0 0 134 0 0 76 0 0 76 0 0 76 0 0 76 0 0 76 0 0 76 0 0 76 0 0 76 0 0 76 0 0 76 0 0 88 0 0 88 0 0 88 0 0 88 0 0 88 0 0 88 0 0 88 0 0 88 0 0 88 0 0 88 0 0 131 0 0 131 0 0 131 0 0 131 0 0 131 0 0 131 0 0 131 0 0 131 0 0 131 0 0 131 0 0 136 0 0 136 0 0 136 0 0 136 0 0 136 0 0 136 0 0 136 0 0 136 0 0 136 0 0 136 0 0 116 0 0 116 0 0 116 0 0 116 0 0 116 0 0 116 0 0 116 0 0 116 0 0 116 0 0 116 0 0 138 0 0 138 0 0 138 0 0 138 0 0 138 0 0 138 0 0 138 0 0 138 0 0 138 0 0 138 0 0 0 0 0 0 0 0 0 0 0 0 0 0 0 0 0 0 0 0 0 0 0 0 0 0 0 0 0 0 0 0 0 13 255 0 13 255 0 13 255 0 13 255 0 13 255 0 13 255 0 13 255 0 13 255 0 13 255 0 13 255 0 13 255 0 13 255 0 13 255 0 13 255 0 13 255 0 13 255 0 13 255 0 13 255 0 13 255 0 13 255 0 13 255 0 13 255 0 13 255 0 13 255 0 13 255 0 13 255 0 13 255 0 13 255 0 13 255 0 13 255 
143 0 0 143 0 0 143 0 0 143 0 0 143 0 0 143 0 0 143 0 0 143 0 0 143 0 0 143 0 0 111 0 0 111 0 0 111 0 0 111 0 0 111 0 0 111 0 0 111 0 0 111 0 0 111 0 0 111 0 0 108 0 0 108 0 0 108 0 0 108 0 0 108 0 0 108 0 0 108 0 0 108 0 0 108 0 0 108 0 0 114 0 0 114 0 0 114 0 0 114 0 0 114 0 0 114 0 0 114 0 0 114 0 0 114 0 0 114 0 0 143 0 0 143 0 0 143 0 0 143 0 0 143 0 0 143 0 0 143 0 0 143 0 0 143 0 0 143 0 0 189 0 0 189 0 0 189 0 0 189 0 0 189 0 0 189 0 0 189 0 0 189 0 0 189 0 0 189 0 0 218 0 0 218 0 0 218 0 0 218 0 0 218 0 0 218 0 0 218 0 0 218 0 0 218 0 0 218 0 0 206 0 0 206 0 0 206 0 0 206 0 0 206 0 0 206 0 0 206 0 0 206 0 0 206 0 0 206 0 0 189 0 0 189 0 0 189 0 0 189 0 0 189 0 0 189 0 0 189 0 0 189 0 0 189 0 0 189 0 0 152 0 0 152 0 0 152 0 0 152 0 0 152 0 0 152 0 0 152 0 0 152 0 0 152 0 0 152 0 0 163 0 0 163 0 0 163 0 0 163 0 0 163 0 0 163 0 0 163 0 0 163 0 0 163 0 0 163 0 0 102 0 0 102 0 0 102 0 0 102 0 0 102 0 0 102 0 0 102 0 0 102 0 0 102 0 0 102 0 0 77 0 0 77 0 0 77 0 0 77 0 0 77 0 0 77 0 0 77 0 0 77 0 0 77 0 0 77 0 0 49 0 0 49 0 0 49 0 0 49 0 0 49 0 0 49 0 0 49 0 0 49 0 0 49 0 0 49 0 0 114 0 0 114 0 0 114 0 0 114 0 0 114 0 0 114 0 0 114 0 0 114 0 0 114 0 0 114 0 0 141 0 0 141 0 0 141 0 0 141 0 0 141 0 0 141 0 0 141 0 0 141 0 0 141 0 0 141 0 0 183 0 0 183 0 0 183 0 0 183 0 0 183 0 0 183 0 0 183 0 0 183 0 0 183 0 0 183 0 0 187 0 0 187 0 0 187 0 0 187 0 0 187 0 0 187 0 0 187 0 0 187 0 0 187 0 0 187 0 0 206 0 0 206 0 0 206 0 0 206 0 0 206 0 0 206 0 0 206 0 0 206 0 0 206 0 0 206 0 0 171 0 0 171 0 0 171 0 0 171 0 0 171 0 0 171 0 0 171 0 0 171 0 0 171 0 0 171 0 0 149 0 0 149 0 0 149 0 0 149 0 0 149 0 0 149 0 0 149 0 0 149 0 0 149 0 0 149 0 0 134 0 0 134 0 0 134 0 0 134 0 0 134 0 0 134 0 0 134 0 0 134 0 0 134 0 0 134 0 0 76 0 0 76 0 0 76 0 0 76 0 0 76 0 0 76 0 0 76 0 0 76 0 0 76 0 0 76 0 0 88 0 0 88 0 0 88 0 0 88 0 0 88 0 0 88 0 0 88 0 0 88 0 0 88 0 0 88 0 0 131 0 0 131 0 0 131 0 0 131 0 0 131 0 0 131 0 0 131 0 0 131 0 0 131 0 0 131 0 0 136 0 0 136 0 0 136 0 0 136 0 0 136 0 0 136 0 0 136 0 0 136 0 0 136 0 0 136 0 0 116 0 0 116 0 0 116 0 0 116 0 0 116 0 0 116 0 0 116 0 0 116 0 0 116 0 0 116 0 0 138 0 0 138 0 0 138 0 0 138 0 0 138 0 0 138 0 0 138 0 0 138 0 0 138 0 0 138 0 0 0 0 0 0 0 0 0 0 0 0 0 0 0 0 0 0 0 0 0 0 0 0 0 0 0 0 0 0 0 0 0 17 255 0 17 255 0 17 255 0 17 255 0 17 255 0 17 255 0 17 255 0 17 255 0 17 255 0 17 255 0 17 255 0 17 255 0 17 255 0 17 255 0 17 255 0 17 255 0 17 255 0 17 255 0 17 255 0 17 255 0 17 255 0 17 255 0 17 255 0 17 255 0 17 255 0 17 255 0 17 255 0 17 255 0 17 255 0 17 255 
143 0 0 143 0 0 143 0 0 143 0 0 143 0 0 143 0 0 143 0 0 143 0 0 143 0 0 143 0 0 111 0 0 111 0 0 111 0 0 111 0 0 111 0 0 111 0 0 111 0 0 111 0 0 111 0 0 111 0 0 108 0 0 108 0 0 108 0 0 108 0 0 108 0 0 108 0 0 108 0 0 108 0 0 108 0 0 108 0 0 114 0 0 114 0 0 114 0 0 114 0 0 114 0 0 114 0 0 114 0 0 114 0 0 114 0 0 114 0 0 143 0 0 143 0 0 143 0 0 143 0 0 143 0 0 143 0 0 143 0 0 143 0 0 143 0 0 143 0 0 189 0 0 189 0 0 189 0 0 189 0 0 189 0 0 189 0 0 189 0 0 189 0 0 189 0 0 189 0 0 218 0 0 218 0 0 218 0 0 218 0 0 218 0 0 218 0 0 218 0 0 218 0 0 218 0 0 218 0 0 206 0 0 206 0 0 206 0 0 206 0 0 206 0 0 206 0 0 206 0 0 206 0 0 206 0 0 206 0 0 189 0 0 189 0 0 189 0 0 189 0 0 189 0 0 189 0 0 189 0 0 189 0 0 189 0 0 189 0 0 152 0 0 152 0 0 152 0 0 152 0 0 152 0 0 152 0 0 152 0 0 152 0 0 152 0 0 152 0 0 163 0 0 163 0 0 163 0 0 163 0 0 163 0 0 163 0 0 163 0 0 163 0 0 163 0 0 163 0 0 102 0 0 102 0 0 102 0 0 102 0 0 102 0 0 102 0 0 102 0 0 102 0 0 102 0 0 102 0 0 77 0 0 77 0 0 77 0 0 77 0 0 77 0 0 77 0 0 77 0 0 77 0 0 77 0 0 77 0 0 49 0 0 49 0 0 49 0 0 49 0 0 49 0 0 49 0 0 49 0 0 49 0 0 49 0 0 49 0 0 114 0 0 114 0 0 114 0 0 114 0 0 114 0 0 114 0 0 114 0 0 114 0 0 114 0 0 114 0 0 141 0 0 141 0 0 141 0 0 141 0 0 141 0 0 141 0 0 141 0 0 141 0 0 141 0 0 141 0 0 183 0 0 183 0 0 183 0 0 183 0 0 183 0 0 183 0 0 183 0 0 183 0 0 183 0 0 183 0 0 187 0 0 187 0 0 187 0 0 187 0 0 187 0 0 187 0 0 187 0 0 187 0 0 187 0 0 187 0 0 206 0 0 206 0 0 206 0 0 206 0 0 206 0 0 206 0 0 206 0 0 206 0 0 206 0 0 206 0 0 171 0 0 171 0 0 171 0 0 171 0 0 171 0 0 171 0 0 171 0 0 171 0 0 171 0 0 171 0 0 149 0 0 149 0 0 149 0 0 149 0 0 149 0 0 149 0 0 149 0 0 149 0 0 149 0 0 149 0 0 134 0 0 134 0 0 134 0 0 134 0 0 134 0 0 134 0 0 134 0 0 134 0 0 134 0 0 134 0 0 76 0 0 76 0 0 76 0 0 76 0 0 76 0 0 76 0 0 76 0 0 76 0 0 76 0 0 76 0 0 88 0 0 88 0 0 88 0 0 88 0 0 88 0 0 88 0 0 88 0 0 88 0 0 88 0 0 88 0 0 131 0 0 131 0 0 131 0 0 131 0 0 131 0 0 131 0 0 131 0 0 131 0 0 131 0 0 131 0 0 136 0 0 136 0 0 136 0 0 136 0 0 136 0 0 136 0 0 136 0 0 136 0 0 136 0 0 136 0 0 116 0 0 116 0 0 116 0 0 116 0 0 116 0 0 116 0 0 116 0 0 116 0 0 116 0 0 116 0 0 138 0 0 138 0 0 138 0 0 138 0 0 138 0 0 138 0 0 138 0 0 138 0 0 138 0 0 138 0 0 0 0 0 0 0 0 0 0 0 0 0 0 0 0 0 0 0 0 0 0 0 0 0 0 0 0 0 0 0 0 0 21 255 0 21 255 0 21 255 0 21 255 0 21 255 0 21 255 0 21 255 0 21 255 0 21 255 0 21 255 0 21 255 0 21 255 0 21 255 0 21 255 0 21 255 0 21 255 0 21 255 0 21 255 0 21 255 0 21 255 0 21 255 0 21 255 0 21 255 0 21 255 0 21 255 0 21 255 0 21 255 0 21 255 0 21 255 0 21 255 
143 0 0 143 0 0 143 0 0 143 0 0 143 0 0 143 0 0 143 0 0 143 0 0 143 0 0 143 0 0 111 0 0 111 0 0 111 0 0 111 0 0 111 0 0 111 0 0 111 0 0 111 0 0 111 0 0 111 0 0 108 0 0 108 0 0 108 0 0 108 0 0 108 0 0 108 0 0 108 0 0 108 0 0 108 0 0 108 0 0 114 0 0 114 0 0 114 0 0 114 0 0 114 0 0 114 0 0 114 0 0 114 0 0 114 0 0 114 0 0 143 0 0 143 0 0 143 0 0 143 0 0 143 0 0 143 0 0 143 0 0 143 0 0 143 0 0 143 0 0 189 0 0 189 0 0 189 0 0 189 0 0 189 0 0 189 0 0 189 0 0 189 0 0 189 0 0 189 0 0 218 0 0 218 0 0 218 0 0 218 0 0 218 0 0 218 0 0 218 0 0 218 0 0 218 0 0 218 0 0 206 0 0 206 0 0 206 0 0 206 0 0 206 0 0 206 0 0 206 0 0 206 0 0 206 0 0 206 0 0 189 0 0 189 0 0 189 0 0 189 0 0 189 0 0 189 0 0 189 0 0 189 0 0 189 0 0 189 0 0 152 0 0 152 0 0 152 0 0 152 0 0 152 0 0 152 0 0 152 0 0 152 0 0 152 0 0 152 0 0 163 0 0 163 0 0 163 0 0 163 0 0 163 0 0 163 0 0 163 0 0 163 0 0 163 0 0 163 0 0 102 0 0 102 0 0 102 0 0 102 0 0 102 0 0 102 0 0 102 0 0 102 0 0 102 0 0 102 0 0 77 0 0 77 0 0 77 0 0 77 0 0 77 0 0 77 0 0 77 0 0 77 0 0 77 0 0 77 0 0 49 0 0 49 0 0 49 0 0 49 0 0 49 0 0 49 0 0 49 0 0 49 0 0 49 0 0 49 0 0 114 0 0 114 0 0 114 0 0 114 0 0 114 0 0 114 0 0 114 0 0 114 0 0 114 0 0 114 0 0 141 0 0 141 0 0 141 0 0 141 0 0 141 0 0 141 0 0 141 0 0 141 0 0 141 0 0 141 0 0 183 0 0 183 0 0 183 0 0 183 0 0 183 0 0 183 0 0 183 0 0 183 0 0 183 0 0 183 0 0 187 0 0 187 0 0 187 0 0 187 0 0 187 0 0 187 0 0 187 0 0 187 0 0 187 0 0 187 0 0 206 0 0 206 0 0 206 0 0 206 0 0 206 0 0 206 0 0 206 0 0 206 0 0 206 0 0 206 0 0 171 0 0 171 0 0 171 0 0 171 0 0 171 0 0 171 0 0 171 0 0 171 0 0 171 0 0 171 0 0 149 0 0 149 0 0 149 0 0 149 0 0 149 0 0 149 0 0 149 0 0 149 0 0 149 0 0 149 0 0 134 0 0 134 0 0 134 0 0 134 0 0 134 0 0 134 0 0 134 0 0 134 0 0 134 0 0 134 0 0 76 0 0 76 0 0 76 0 0 76 0 0 76 0 0 76 0 0 76 0 0 76 0 0 76 0 0 76 0 0 88 0 0 88 0 0 88 0 0 88 0 0 88 0 0 88 0 0 88 0 0 88 0 0 88 0 0 88 0 0 131 0 0 131 0 0 131 0 0 131 0 0 131 0 0 131 0 0 131 0 0 131 0 0 131 0 0 131 0 0 136 0 0 136 0 0 136 0 0 136 0 0 136 0 0 136 0 0 136 0 0 136 0 0 136 0 0 136 0 0 116 0 0 116 0 0 116 0 0 116 0 0 116 0 0 116 0 0 116 0 0 116 0 0 116 0 0 116 0 0 138 0 0 138 0 0 138 0 0 138 0 0 138 0 0 138 0 0 138 0 0 138 0 0 138 0 0 138 0 0 0 0 0 0 0 0 0 0 0 0 0 0 0 0 0 0 0 0 0 0 0 0 0 0 0 0 0 0 0 0 0 24 255 0 24 255 0 24 255 0 24 255 0 24 255 0 24 255 0 24 255 0 24 255 0 24 255 0 24 255 0 24 255 0 24 255 0 24 255 0 24 255 0 24 255 0 24 255 0 24 255 0 24 255 0 24 255 0 24 255 0 24 255 0 24 255 0 24 255 0 24 255 0 24 255 0 24 255 0 24 255 0 24 255 0 24 255 0 24 255 
143 0 0 143 0 0 143 0 0 143 0 0 143 0 0 143 0 0 143 0 0 143 0 0 143 0 0 143 0 0 111 0 0 111 0 0 111 0 0 111 0 0 111 0 0 111 0 0 111 0 0 111 0 0 111 0 0 111 0 0 108 0 0 108 0 0 108 0 0 108 0 0 108 0 0 108 0 0 108 0 0 108 0 0 108 0 0 108 0 0 114 0 0 114 0 0 114 0 0 114 0 0 114 0 0 114 0 0 114 0 0 114 0 0 114 0 0 114 0 0 143 0 0 143 0 0 143 0 0 143 0 0 143 0 0 143 0 0 143 0 0 143 0 0 143 0 0 143 0 0 189 0 0 189 0 0 189 0 0 189 0 0 189 0 0 189 0 0 189 0 0 189 0 0 189 0 0 189 0 0 218 0 0 218 0 0 218 0 0 218 0 0 218 0 0 218 0 0 218 0 0 218 0 0 218 0 0 218 0 0 206 0 0 206 0 0 206 0 0 206 0 0 206 0 0 206 0 0 206 0 0 206 0 0 206 0 0 206 0 0 189 0 0 189 0 0 189 0 0 189 0 0 189 0 0 189 0 0 189 0 0 189 0 0 189 0 0 189 0 0 152 0 0 152 0 0 152 0 0 152 0 0 152 0 0 152 0 0 152 0 0 152 0 0 152 0 0 152 0 0 163 0 0 163 0 0 163 0 0 163 0 0 163 0 0 163 0 0 163 0 0 163 0 0 163 0 0 163 0 0 102 0 0 102 0 0 102 0 0 102 0 0 102 0 0 102 0 0 102 0 0 102 0 0 102 0 0 102 0 0 77 0 0 77 0 0 77 0 0 77 0 0 77 0 0 77 0 0 77 0 0 77 0 0 77 0 0 77 0 0 49 0 0 49 0 0 49 0 0 49 0 0 49 0 0 49 0 0 49 0 0 49 0 0 49 0 0 49 0 0 114 0 0 114 0 0 114 0 0 114 0 0 114 0 0 114 0 0 114 0 0 114 0 0 114 0 0 114 0 0 141 0 0 141 0 0 141 0 0 141 0 0 141 0 0 141 0 0 141 0 0 141 0 0 141 0 0 141 0 0 183 0 0 183 0 0 183 0 0 183 0 0 183 0 0 183 0 0 183 0 0 183 0 0 183 0 0 183 0 0 187 0 0 187 0 0 187 0 0 187 0 0 187 0 0 187 0 0 187 0 0 187 0 0 187 0 0 187 0 0 206 0 0 206 0 0 206 0 0 206 0 0 206 0 0 206 0 0 206 0 0 206 0 0 206 0 0 206 0 0 171 0 0 171 0 0 171 0 0 171 0 0 171 0 0 171 0 0 171 0 0 171 0 0 171 0 0 171 0 0 149 0 0 149 0 0 149 0 0 149 0 0 149 0 0 149 0 0 149 0 0 149 0 0 149 0 0 149 0 0 134 0 0 134 0 0 134 0 0 134 0 0 134 0 0 134 0 0 134 0 0 134 0 0 134 0 0 134 0 0 76 0 0 76 0 0 76 0 0 76 0 0 76 0 0 76 0 0 76 0 0 76 0 0 76 0 0 76 0 0 88 0 0 88 0 0 88 0 0 88 0 0 88 0 0 88 0 0 88 0 0 88 0 0 88 0 0 88 0 0 131 0 0 131 0 0 131 0 0 131 0 0 131 0 0 131 0 0 131 0 0 131 0 0 131 0 0 131 0 0 136 0 0 136 0 0 136 0 0 136 0 0 136 0 0 136 0 0 136 0 0 136 0 0 136 0 0 136 0 0 116 0 0 116 0 0 116 0 0 116 0 0 116 0 0 116 0 0 116 0 0 116 0 0 116 0 0 116 0 0 138 0 0 138 0 0 138 0 0 138 0 0 138 0 0 138 0 0 138 0 0 138 0 0 138 0 0 138 0 0 0 0 0 0 0 0 0 0 0 0 0 0 0 0 0 0 0 0 0 0 0 0 0 0 0 0 0 0 0 0 0 28 255 0 28 255 0 28 255 0 28 255 0 28 255 0 28 255 0 28 255 0 28 255 0 28 255 0 28 255 0 28 255 0 28 255 0 28 255 0 28 255 0 28 255 0 28 255 0 28 255 0 28 255 0 28 255 0 28 255 0 28 255 0 28 255 0 28 255 0 28 255 0 28 255 0 28 255 0 28 255 0 28 255 0 28 255 0 28 255 
143 0 0 143 0 0 143 0 0 143 0 0 143 0 0 143 0 0 143 0 0 143 0 0 143 0 0 143 0 0 111 0 0 111 0 0 111 0 0 111 0 0 111 0 0 111 0 0 111 0 0 111 0 0 111 0 0 111 0 0 108 0 0 108 0 0 108 0 0 108 0 0 108 0 0 108 0 0 108 0 0 108 0 0 108 0 0 108 0 0 114 0 0 114 0 0 114 0 0 114 0 0 114 0 0 114 0 0 114 0 0 114 0 0 114 0 0 114 0 0 143 0 0 143 0 0 143 0 0 143 0 0 143 0 0 143 0 0 143 0 0 143 0 0 143 0 0 143 0 0 189 0 0 189 0 0 189 0 0 189 0 0 189 0 0 189 0 0 189 0 0 189 0 0 189 0 0 189 0 0 218 0 0 218 0 0 218 0 0 218 0 0 218 0 0 218 0 0 218 0 0 218 0 0 218 0 0 218 0 0 206 0 0 206 0 0 206 0 0 206 0 0 206 0 0 206 0 0 206 0 0 206 0 0 206 0 0 206 0 0 189 0 0 189 0 0 189 0 0 189 0 0 189 0 0 189 0 0 189 0 0 189 0 0 189 0 0 189 0 0 152 0 0 152 0 0 152 0 0 152 0 0 152 0 0 152 0 0 152 0 0 152 0 0 152 0 0 152 0 0 163 0 0 163 0 0 163 0 0 163 0 0 163 0 0 163 0 0 163 0 0 163 0 0 163 0 0 163 0 0 102 0 0 102 0 0 102 0 0 102 0 0 102 0 0 102 0 0 102 0 0 102 0 0 102 0 0 102 0 0 77 0 0 77 0 0 77 0 0 77 0 0 77 0 0 77 0 0 77 0 0 77 0 0 77 0 0 77 0 0 49 0 0 49 0 0 49 0 0 49 0 0 49 0 0 49 0 0 49 0 0 49 0 0 49 0 0 49 0 0 114 0 0 114 0 0 114 0 0 114 0 0 114 0 0 114 0 0 114 0 0 114 0 0 114 0 0 114 0 0 141 0 0 141 0 0 141 0 0 141 0 0 141 0 0 141 0 0 141 0 0 141 0 0 141 0 0 141 0 0 183 0 0 183 0 0 183 0 0 183 0 0 183 0 0 183 0 0 183 0 0 183 0 0 183 0 0 183 0 0 187 0 0 187 0 0 187 0 0 187 0 0 187 0 0 187 0 0 187 0 0 187 0 0 187 0 0 187 0 0 206 0 0 206 0 0 206 0 0 206 0 0 206 0 0 206 0 0 206 0 0 206 0 0 206 0 0 206 0 0 171 0 0 171 0 0 171 0 0 171 0 0 171 0 0 171 0 0 171 0 0 171 0 0 171 0 0 171 0 0 149 0 0 149 0 0 149 0 0 149 0 0 149 0 0 149 0 0 149 0 0 149 0 0 149 0 0 149 0 0 134 0 0 134 0 0 134 0 0 134 0 0 134 0 0 134 0 0 134 0 0 134 0 0 134 0 0 134 0 0 76 0 0 76 0 0 76 0 0 76 0 0 76 0 0 76 0 0 76 0 0 76 0 0 76 0 0 76 0 0 88 0 0 88 0 0 88 0 0 88 0 0 88 0 0 88 0 0 88 0 0 88 0 0 88 0 0 88 0 0 131 0 0 131 0 0 131 0 0 131 0 0 131 0 0 131 0 0 131 0 0 131 0 0 131 0 0 131 0 0 136 0 0 136 0 0 136 0 0 136 0 0 136 0 0 136 0 0 136 0 0 136 0 0 136 0 0 136 0 0 116 0 0 116 0 0 116 0 0 116 0 0 116 0 0 116 0 0 116 0 0 116 0 0 116 0 0 116 0 0 138 0 0 138 0 0 138 0 0 138 0 0 138 0 0 138 0 0 138 0 0 138 0 0 138 0 0 138 0 0 0 0 0 0 0 0 0 0 0 0 0 0 0 0 0 0 0 0 0 0 0 0 0 0 0 0 0 0 0 0 0 31 255 0 31 255 0 31 255 0 31 255 0 31 255 0 31 255 0 31 255 0 31 255 0 31 255 0 31 255 0 31 255 0 31 255 0 31 255 0 31 255 0 31 255 0 31 255 0 31 255 0 31 255 0 31 255 0 31 255 0 31 255 0 31 255 0 31 255 0 31 255 0 31 255 0 31 255 0 31 255 0 31 255 0 31 255 0 31 255 
143 0 0 143 0 0 143 0 0 143 0 0 143 0 0 143 0 0 143 0 0 143 0 0 143 0 0 143 0 0 111 0 0 111 0 0 111 0 0 111 0 0 111 0 0 111 0 0 111 0 0 111 0 0 111 0 0 111 0 0 108 0 0 108 0 0 108 0 0 108 0 0 108 0 0 108 0 0 108 0 0 108 0 0 108 0 0 108 0 0 114 0 0 114 0 0 114 0 0 114 0 0 114 0 0 114 0 0 114 0 0 114 0 0 114 0 0 114 0 0 143 0 0 143 0 0 143 0 0 143 0 0 143 0 0 143 0 0 143 0 0 143 0 0 143 0 0 143 0 0 189 0 0 189 0 0 189 0 0 189 0 0 189 0 0 189 0 0 189 0 0 189 0 0 189 0 0 189 0 0 218 0 0 218 0 0 218 0 0 218 0 0 218 0 0 218 0 0 218 0 0 218 0 0 218 0 0 218 0 0 206 0 0 206 0 0 206 0 0 206 0 0 206 0 0 206 0 0 206 0 0 206 0 0 206 0 0 206 0 0 189 0 0 189 0 0 189 0 0 189 0 0 189 0 0 189 0 0 189 0 0 189 0 0 189 0 0 189 0 0 152 0 0 152 0 0 152 0 0 152 0 0 152 0 0 152 0 0 152 0 0 152 0 0 152 0 0 152 0 0 163 0 0 163 0 0 163 0 0 163 0 0 163 0 0 163 0 0 163 0 0 163 0 0 163 0 0 163 0 0 102 0 0 102 0 0 102 0 0 102 0 0 102 0 0 102 0 0 102 0 0 102 0 0 102 0 0 102 0 0 77 0 0 77 0 0 77 0 0 77 0 0 77 0 0 77 0 0 77 0 0 77 0 0 77 0 0 77 0 0 49 0 0 49 0 0 49 0 0 49 0 0 49 0 0 49 0 0 49 0 0 49 0 0 49 0 0 49 0 0 114 0 0 114 0 0 114 0 0 114 0 0 114 0 0 114 0 0 114 0 0 114 0 0 114 0 0 114 0 0 141 0 0 141 0 0 141 0 0 141 0 0 141 0 0 141 0 0 141 0 0 141 0 0 141 0 0 141 0 0 183 0 0 183 0 0 183 0 0 183 0 0 183 0 0 183 0 0 183 0 0 183 0 0 183 0 0 183 0 0 187 0 0 187 0 0 187 0 0 187 0 0 187 0 0 187 0 0 187 0 0 187 0 0 187 0 0 187 0 0 206 0 0 206 0 0 206 0 0 206 0 0 206 0 0 206 0 0 206 0 0 206 0 0 206 0 0 206 0 0 171 0 0 171 0 0 171 0 0 171 0 0 171 0 0 171 0 0 171 0 0 171 0 0 171 0 0 171 0 0 149 0 0 149 0 0 149 0 0 149 0 0 149 0 0 149 0 0 149 0 0 149 0 0 149 0 0 149 0 0 134 0 0 134 0 0 134 0 0 134 0 0 134 0 0 134 0 0 134 0 0 134 0 0 134 0 0 134 0 0 76 0 0 76 0 0 76 0 0 76 0 0 76 0 0 76 0 0 76 0 0 76 0 0 76 0 0 76 0 0 88 0 0 88 0 0 88 0 0 88 0 0 88 0 0 88 0 0 88 0 0 88 0 0 88 0 0 88 0 0 131 0 0 131 0 0 131 0 0 131 0 0 131 0 0 131 0 0 131 0 0 131 0 0 131 0 0 131 0 0 136 0 0 136 0 0 136 0 0 136 0 0 136 0 0 136 0 0 136 0 0 136 0 0 136 0 0 136 0 0 116 0 0 116 0 0 116 0 0 116 0 0 116 0 0 116 0 0 116 0 0 116 0 0 116 0 0 116 0 0 138 0 0 138 0 0 138 0 0 138 0 0 138 0 0 138 0 0 138 0 0 138 0 0 138 0 0 138 0 0 0 0 0 0 0 0 0 0 0 0 0 0 0 0 0 0 0 0 0 0 0 0 0 0 0 0 0 0 0 0 0 35 255 0 35 255 0 35 255 0 35 255 0 35 255 0 35 255 0 35 255 0 35 255 0 35 255 0 35 255 0 35 255 0 35 255 0 35 255 0 35 255 0 35 255 0 35 255 0 35 255 0 35 255 0 35 255 0 35 255 0 35 255 0 35 255 0 35 255 0 35 255 0 35 255 0 35 255 0 35 255 0 35 255 0 35 255 0 35 255 
112 0 0 112 0 0 112 0 0 112 0 0 112 0 0 112 0 0 112 0 0 112 0 0 112 0 0 112 0 0 145 0 0 145 0 0 145 0 0 145 0 0 145 0 0 145 0 0 145 0 0 145 0 0 145 0 0 145 0 0 144 0 0 144 0 0 144 0 0 144 0 0 144 0 0 144 0 0 144 0 0 144 0 0 144 0 0 144 0 0 140 0 0 140 0 0 140 0 0 140 0 0 140 0 0 140 0 0 140 0 0 140 0 0 140 0 0 140 0 0 142 0 0 142 0 0 142 0 0 142 0 0 142 0 0 142 0 0 142 0 0 142 0 0 142 0 0 142 0 0 208 0 0 208 0 0 208 0 0 208 0 0 208 0 0 208 0 0 208 0 0 208 0 0 208 0 0 208 0 0 255 6 0 255 6 0 255 6 0 255 6 0 255 6 0 255 6 0 255 6 0 255 6 0 255 6 0 255 6 0 246 0 0 246 0 0 246 0 0 246 0 0 246 0 0 246 0 0 246 0 0 246 0 0 246 0 0 246 0 0 203 0 0 203 0 0 203 0 0 203 0 0 203 0 0 203 0 0 203 0 0 203 0 0 203 0 0 203 0 0 161 0 0 161 0 0 161 0 0 161 0 0 161 0 0 161 0 0 161 0 0 161 0 0 161 0 0 161 0 0 102 0 0 102 0 0 102 0 0 102 0 0 102 0 0 102 0 0 102 0 0 102 0 0 102 0 0 102 0 0 24 0 0 24 0 0 24 0 0 24 0 0 24 0 0 24 0 0 24 0 0 24 0 0 24 0 0 24 0 0 0 0 35 0 0 35 0 0 35 0 0 35 0 0 35 0 0 35 0 0 35 0 0 35 0 0 35 0 0 35 6 0 0 6 0 0 6 0 0 6 0 0 6 0 0 6 0 0 6 0 0 6 0 0 6 0 0 6 0 0 89 0 0 89 0 0 89 0 0 89 0 0 89 0 0 89 0 0 89 0 0 89 0 0 89 0 0 89 0 0 159 0 0 159 0 0 159 0 0 159 0 0 159 0 0 159 0 0 159 0 0 159 0 0 159 0 0 159 0 0 205 0 0 205 0 0 205 0 0 205 0 0 205 0 0 205 0 0 205 0 0 205 0 0 205 0 0 205 0 0 237 0 0 237 0 0 237 0 0 237 0 0 237 0 0 237 0 0 237 0 0 237 0 0 237 0 0 237 0 0 192 0 0 192 0 0 192 0 0 192 0 0 192 0 0 192 0 0 192 0 0 192 0 0 192 0 0 192 0 0 146 0 0 146 0 0 146 0 0 146 0 0 146 0 0 146 0 0 146 0 0 146 0 0 146 0 0 146 0 0 143 0 0 143 0 0 143 0 0 143 0 0 143 0 0 143 0 0 143 0 0 143 0 0 143 0 0 143 0 0 114 0 0 114 0 0 114 0 0 114 0 0 114 0 0 114 0 0 114 0 0 114 0 0 114 0 0 114 0 0 120 0 0 120 0 0 120 0 0 120 0 0 120 0 0 120 0 0 120 0 0 120 0 0 120 0 0 120 0 0 114 0 0 114 0 0 114 0 0 114 0 0 114 0 0 114 0 0 114 0 0 114 0 0 114 0 0 114 0 0 124 0 0 124 0 0 124 0 0 124 0 0 124 0 0 124 0 0 124 0 0 124 0 0 124 0 0 124 0 0 131 0 0 131 0 0 131 0 0 131 0 0 131 0 0 131 0 0 131 0 0 131 0 0 131 0 0 131 0 0 109 0 0 109 0 0 109 0 0 109 0 0 109 0 0 109 0 0 109 0 0 109 0 0 109 0 0 109 0 0 128 0 0 128 0 0 128 0 0 128 0 0 128 0 0 128 0 0 128 0 0 128 0 0 128 0 0 128 0 0 0 0 0 0 0 0 0 0 0 0 0 0 0 0 0 0 0 0 0 0 0 0 0 0 0 0 0 0 0 0 0 39 255 0 39 255 0 39 255 0 39 255 0 39 255 0 39 255 0 39 255 0 39 255 0 39 255 0 39 255 0 39 255 0 39 255 0 39 255 0 39 255 0 39 255 0 39 255 0 39 255 0 39 255 0 39 255 0 39 255 0 39 255 0 39 255 0 39 255 0 39 255 0 39 255 0 39 255 0 39 255 0 39 255 0 39 255 0 39 255 
112 0 0 112 0 0 112 0 0 112 0 0 112 0 0 112 0 0 112 0 0 112 0 0 112 0 0 112 0 0 145 0 0 145 0 0 145 0 0 145 0 0 145 0 0 145 0 0 145 0 0 145 0 0 145 0 0 145 0 0 144 0 0 144 0 0 144 0 0 144 0 0 144 0 0 144 0 0 144 0 0 144 0 0 144 0 0 144 0 0 140 0 0 140 0 0 140 0 0 140 0 0 140 0 0 140 0 0 140 0 0 140 0 0 140 0 0 140 0 0 142 0 0 142 0 0 142 0 0 142 0 0 142 0 0 142 0 0 142 0 0 142 0 0 142 0 0 142 0 0 208 0 0 208 0 0 208 0 0 208 0 0 208 0 0 208 0 0 208 0 0 208 0 0 208 0 0 208 0 0 255 6 0 255 6 0 255 6 0 255 6 0 255 6 0 255 6 0 255 6 0 255 6 0 255 6 0 255 6 0 246 0 0 246 0 0 246 0 0 246 0 0 246 0 0 246 0 0 246 0 0 246 0 0 246 0 0 246 0 0 203 0 0 203 0 0 203 0 0 203 0 0 203 0 0 203 0 0 203 0 0 203 0 0 203 0 0 203 0 0 161 0 0 161 0 0 161 0 0 161 0 0 161 0 0 161 0 0 161 0 0 161 0 0 161 0 0 161 0 0 102 0 0 102 0 0 102 0 0 102 0 0 102 0 0 102 0 0 102 0 0 102 0 0 102 0 0 102 0 0 24 0 0 24 0 0 24 0 0 24 0 0 24 0 0 24 0 0 24 0 0 24 0 0 24 0 0 24 0 0 0 0 35 0 0 35 0 0 35 0 0 35 0 0 35 0 0 35 0 0 35 0 0 35 0 0 35 0 0 35 6 0 0 6 0 0 6 0 0 6 0 0 6 0 0 6 0 0 6 0 0 6 0 0 6 0 0 6 0 0 89 0 0 89 0 0 89 0 0 89 0 0 89 0 0 89 0 0 89 0 0 89 0 0 89 0 0 89 0 0 159 0 0 159 0 0 159 0 0 159 0 0 159 0 0 159 0 0 159 0 0 159 0 0 159 0 0 159 0 0 205 0 0 205 0 0 205 0 0 205 0 0 205 0 0 205 0 0 205 0 0 205 0 0 205 0 0 205 0 0 237 0 0 237 0 0 237 0 0 237 0 0 237 0 0 237 0 0 237 0 0 237 0 0 237 0 0 237 0 0 192 0 0 192 0 0 192 0 0 192 0 0 192 0 0 192 0 0 192 0 0 192 0 0 192 0 0 192 0 0 146 0 0 146 0 0 146 0 0 146 0 0 146 0 0 146 0 0 146 0 0 146 0 0 146 0 0 146 0 0 143 0 0 143 0 0 143 0 0 143 0 0 143 0 0 143 0 0 143 0 0 143 0 0 143 0 0 143 0 0 114 0 0 114 0 0 114 0 0 114 0 0 114 0 0 114 0 0 114 0 0 114 0 0 114 0 0 114 0 0 120 0 0 120 0 0 120 0 0 120 0 0 120 0 0 120 0 0 120 0 0 120 0 0 120 0 0 120 0 0 114 0 0 114 0 0 114 0 0 114 0 0 114 0 0 114 0 0 114 0 0 114 0 0 114 0 0 114 0 0 124 0 0 124 0 0 124 0 0 124 0 0 124 0 0 124 0 0 124 0 0 124 0 0 124 0 0 124 0 0 131 0 0 131 0 0 131 0 0 131 0 0 131 0 0 131 0 0 131 0 0 131 0 0 131 0 0 131 0 0 109 0 0 109 0 0 109 0 0 109 0 0 109 0 0 109 0 0 109 0 0 109 0 0 109 0 0 109 0 0 128 0 0 128 0 0 128 0 0 128 0 0 128 0 0 128 0 0 128 0 0 128 0 0 128 0 0 128 0 0 0 0 0 0 0 0 0 0 0 0 0 0 0 0 0 0 0 0 0 0 0 0 0 0 0 0 0 0 0 0 0 42 255 0 42 255 0 42 255 0 42 255 0 42 255 0 42 255 0 42 255 0 42 255 0 42 255 0 42 255 0 42 255 0 42 255 0 42 255 0 42 255 0 42 255 0 42 255 0 42 255 0 42 255 0 42 255 0 42 255 0 42 255 0 42 255 0 42 255 0 42 255 0 42 255 0 42 255 0 42 255 0 42 255 0 42 255 0 42 255 
112 0 0 112 0 0 112 0 0 112 0 0 112 0 0 112 0 0 112 0 0 112 0 0 112 0 0 112 0 0 145 0 0 145 0 0 145 0 0 145 0 0 145 0 0 145 0 0 145 0 0 145 0 0 145 0 0 145 0 0 144 0 0 144 0 0 144 0 0 144 0 0 144 0 0 144 0 0 144 0 0 144 0 0 144 0 0 144 0 0 140 0 0 140 0 0 140 0 0 140 0 0 140 0 0 140 0 0 140 0 0 140 0 0 140 0 0 140 0 0 142 0 0 142 0 0 142 0 0 142 0 0 142 0 0 142 0 0 142 0 0 142 0 0 142 0 0 142 0 0 208 0 0 208 0 0 208 0 0 208 0 0 208 0 0 208 0 0 208 0 0 208 0 0 208 0 0 208 0 0 255 6 0 255 6 0 255 6 0 255 6 0 255 6 0 255 6 0 255 6 0 255 6 0 255 6 0 255 6 0 246 0 0 246 0 0 246 0 0 246 0 0 246 0 0 246 0 0 246 0 0 246 0 0 246 0 0 246 0 0 203 0 0 203 0 0 203 0 0 203 0 0 203 0 0 203 0 0 203 0 0 203 0 0 203 0 0 203 0 0 161 0 0 161 0 0 161 0 0 161 0 0 161 0 0 161 0 0 161 0 0 161 0 0 161 0 0 161 0 0 102 0 0 102 0 0 102 0 0 102 0 0 102 0 0 102 0 0 102 0 0 102 0 0 102 0 0 102 0 0 24 0 0 24 0 0 24 0 0 24 0 0 24 0 0 24 0 0 24 0 0 24 0 0 24 0 0 24 0 0 0 0 35 0 0 35 0 0 35 0 0 35 0 0 35 0 0 35 0 0 35 0 0 35 0 0 35 0 0 35 6 0 0 6 0 0 6 0 0 6 0 0 6 0 0 6 0 0 6 0 0 6 0 0 6 0 0 6 0 0 89 0 0 89 0 0 89 0 0 89 0 0 89 0 0 89 0 0 89 0 0 89 0 0 89 0 0 89 0 0 159 0 0 159 0 0 159 0 0 159 0 0 159 0 0 159 0 0 159 0 0 159 0 0 159 0 0 159 0 0 205 0 0 205 0 0 205 0 0 205 0 0 205 0 0 205 0 0 205 0 0 205 0 0 205 0 0 205 0 0 237 0 0 237 0 0 237 0 0 237 0 0 237 0 0 237 0 0 237 0 0 237 0 0 237 0 0 237 0 0 192 0 0 192 0 0 192 0 0 192 0 0 192 0 0 192 0 0 192 0 0 192 0 0 192 0 0 192 0 0 146 0 0 146 0 0 146 0 0 146 0 0 146 0 0 146 0 0 146 0 0 146 0 0 146 0 0 146 0 0 143 0 0 143 0 0 143 0 0 143 0 0 143 0 0 143 0 0 143 0 0 143 0 0 143 0 0 143 0 0 114 0 0 114 0 0 114 0 0 114 0 0 114 0 0 114 0 0 114 0 0 114 0 0 114 0 0 114 0 0 120 0 0 120 0 0 120 0 0 120 0 0 120 0 0 120 0 0 120 0 0 120 0 0 120 0 0 120 0 0 114 0 0 114 0 0 114 0 0 114 0 0 114 0 0 114 0 0 114 0 0 114 0 0 114 0 0 114 0 0 124 0 0 124 0 0 124 0 0 124 0 0 124 0 0 124 0 0 124 0 0 124 0 0 124 0 0 124 0 0 131 0 0 131 0 0 131 0 0 131 0 0 131 0 0 131 0 0 131 0 0 131 0 0 131 0 0 131 0 0 109 0 0 109 0 0 109 0 0 109 0 0 109 0 0 109 0 0 109 0 0 109 0 0 109 0 0 109 0 0 128 0 0 128 0 0 128 0 0 128 0 0 128 0 0 128 0 0 128 0 0 128 0 0 128 0 0 128 0 0 0 0 0 0 0 0 0 0 0 0 0 0 0 0 0 0 0 0 0 0 0 0 0 0 0 0 0 0 0 0 0 46 255 0 46 255 0 46 255 0 46 255 0 46 255 0 46 255 0 46 255 0 46 255 0 46 255 0 46 255 0 46 255 0 46 255 0 46 255 0 46 255 0 46 255 0 46 255 0 46 255 0 46 255 0 46 255 0 46 255 0 46 255 0 46 255 0 46 255 0 46 255 0 46 255 0 46 255 0 46 255 0 46 255 0 46 255 0 46 255 
112 0 0 112 0 0 112 0 0 112 0 0 112 0 0 112 0 0 112 0 0 112 0 0 112 0 0 112 0 0 145 0 0 145 0 0 145 0 0 145 0 0 145 0 0 145 0 0 145 0 0 145 0 0 145 0 0 145 0 0 144 0 0 144 0 0 144 0 0 144 0 0 144 0 0 144 0 0 144 0 0 144 0 0 144 0 0 144 0 0 140 0 0 140 0 0 140 0 0 140 0 0 140 0 0 140 0 0 140 0 0 140 0 0 140 0 0 140 0 0 142 0 0 142 0 0 142 0 0 142 0 0 142 0 0 142 0 0 142 0 0 142 0 0 142 0 0 142 0 0 208 0 0 208 0 0 208 0 0 208 0 0 208 0 0 208 0 0 208 0 0 208 0 0 208 0 0 208 0 0 255 6 0 255 6 0 255 6 0 255 6 0 255 6 0 255 6 0 255 6 0 255 6 0 255 6 0 255 6 0 246 0 0 246 0 0 246 0 0 246 0 0 246 0 0 246 0 0 246 0 0 246 0 0 246 0 0 246 0 0 203 0 0 203 0 0 203 0 0 203 0 0 203 0 0 203 0 0 203 0 0 203 0 0 203 0 0 203 0 0 161 0 0 161 0 0 161 0 0 161 0 0 161 0 0 161 0 0 161 0 0 161 0 0 161 0 0 161 0 0 102 0 0 102 0 0 102 0 0 102 0 0 102 0 0 102 0 0 102 0 0 102 0 0 102 0 0 102 0 0 24 0 0 24 0 0 24 0 0 24 0 0 24 0 0 24 0 0 24 0 0 24 0 0 24 0 0 24 0 0 0 0 35 0 0 35 0 0 35 0 0 35 0 0 35 0 0 35 0 0 35 0 0 35 0 0 35 0 0 35 6 0 0 6 0 0 6 0 0 6 0 0 6 0 0 6 0 0 6 0 0 6 0 0 6 0 0 6 0 0 89 0 0 89 0 0 89 0 0 89 0 0 89 0 0 89 0 0 89 0 0 89 0 0 89 0 0 89 0 0 159 0 0 159 0 0 159 0 0 159 0 0 159 0 0 159 0 0 159 0 0 159 0 0 159 0 0 159 0 0 205 0 0 205 0 0 205 0 0 205 0 0 205 0 0 205 0 0 205 0 0 205 0 0 205 0 0 205 0 0 237 0 0 237 0 0 237 0 0 237 0 0 237 0 0 237 0 0 237 0 0 237 0 0 237 0 0 237 0 0 192 0 0 192 0 0 192 0 0 192 0 0 192 0 0 192 0 0 192 0 0 192 0 0 192 0 0 192 0 0 146 0 0 146 0 0 146 0 0 146 0 0 146 0 0 146 0 0 146 0 0 146 0 0 146 0 0 146 0 0 143 0 0 143 0 0 143 0 0 143 0 0 143 0 0 143 0 0 143 0 0 143 0 0 143 0 0 143 0 0 114 0 0 114 0 0 114 0 0 114 0 0 114 0 0 114 0 0 114 0 0 114 0 0 114 0 0 114 0 0 120 0 0 120 0 0 120 0 0 120 0 0 120 0 0 120 0 0 120 0 0 120 0 0 120 0 0 120 0 0 114 0 0 114 0 0 114 0 0 114 0 0 114 0 0 114 0 0 114 0 0 114 0 0 114 0 0 114 0 0 124 0 0 124 0 0 124 0 0 124 0 0 124 0 0 124 0 0 124 0 0 124 0 0 124 0 0 124 0 0 131 0 0 131 0 0 131 0 0 131 0 0 131 0 0 131 0 0 131 0 0 131 0 0 131 0 0 131 0 0 109 0 0 109 0 0 109 0 0 109 0 0 109 0 0 109 0 0 109 0 0 109 0 0 109 0 0 109 0 0 128 0 0 128 0 0 128 0 0 128 0 0 128 0 0 128 0 0 128 0 0 128 0 0 128 0 0 128 0 0 0 0 0 0 0 0 0 0 0 0 0 0 0 0 0 0 0 0 0 0 0 0 0 0 0 0 0 0 0 0 0 50 255 0 50 255 0 50 255 0 50 255 0 50 255 0 50 255 0 50 255 0 50 255 0 50 255 0 50 255 0 50 255 0 50 255 0 50 255 0 50 255 0 50 255 0 50 255 0 50 255 0 50 255 0 50 255 0 50 255 0 50 255 0 50 255 0 50 255 0 50 255 0 50 255 0 50 255 0 50 255 0 50 255 0 50 255 0 50 255 
112 0 0 112 0 0 112 0 0 112 0 0 112 0 0 112 0 0 112 0 0 112 0 0 112 0 0 112 0 0 145 0 0 145 0 0 145 0 0 145 0 0 145 0 0 145 0 0 145 0 0 145 0 0 145 0 0 145 0 0 144 0 0 144 0 0 144 0 0 144 0 0 144 0 0 144 0 0 144 0 0 144 0 0 144 0 0 144 0 0 140 0 0 140 0 0 140 0 0 140 0 0 140 0 0 140 0 0 140 0 0 140 0 0 140 0 0 140 0 0 142 0 0 142 0 0 142 0 0 142 0 0 142 0 0 142 0 0 142 0 0 142 0 0 142 0 0 142 0 0 208 0 0 208 0 0 208 0 0 208 0 0 208 0 0 208 0 0 208 0 0 208 0 0 208 0 0 208 0 0 255 6 0 255 6 0 255 6 0 255 6 0 255 6 0 255 6 0 255 6 0 255 6 0 255 6 0 255 6 0 246 0 0 246 0 0 246 0 0 246 0 0 246 0 0 246 0 0 246 0 0 246 0 0 246 0 0 246 0 0 203 0 0 203 0 0 203 0 0 203 0 0 203 0 0 203 0 0 203 0 0 203 0 0 203 0 0 203 0 0 161 0 0 161 0 0 161 0 0 161 0 0 161 0 0 161 0 0 161 0 0 161 0 0 161 0 0 161 0 0 102 0 0 102 0 0 102 0 0 102 0 0 102 0 0 102 0 0 102 0 0 102 0 0 102 0 0 102 0 0 24 0 0 24 0 0 24 0 0 24 0 0 24 0 0 24 0 0 24 0 0 24 0 0 24 0 0 24 0 0 0 0 35 0 0 35 0 0 35 0 0 35 0 0 35 0 0 35 0 0 35 0 0 35 0 0 35 0 0 35 6 0 0 6 0 0 6 0 0 6 0 0 6 0 0 6 0 0 6 0 0 6 0 0 6 0 0 6 0 0 89 0 0 89 0 0 89 0 0 89 0 0 89 0 0 89 0 0 89 0 0 89 0 0 89 0 0 89 0 0 159 0 0 159 0 0 159 0 0 159 0 0 159 0 0 159 0 0 159 0 0 159 0 0 159 0 0 159 0 0 205 0 0 205 0 0 205 0 0 205 0 0 205 0 0 205 0 0 205 0 0 205 0 0 205 0 0 205 0 0 237 0 0 237 0 0 237 0 0 237 0 0 237 0 0 237 0 0 237 0 0 237 0 0 237 0 0 237 0 0 192 0 0 192 0 0 192 0 0 192 0 0 192 0 0 192 0 0 192 0 0 192 0 0 192 0 0 192 0 0 146 0 0 146 0 0 146 0 0 146 0 0 146 0 0 146 0 0 146 0 0 146 0 0 146 0 0 146 0 0 143 0 0 143 0 0 143 0 0 143 0 0 143 0 0 143 0 0 143 0 0 143 0 0 143 0 0 143 0 0 114 0 0 114 0 0 114 0 0 114 0 0 114 0 0 114 0 0 114 0 0 114 0 0 114 0 0 114 0 0 120 0 0 120 0 0 120 0 0 120 0 0 120 0 0 120 0 0 120 0 0 120 0 0 120 0 0 120 0 0 114 0 0 114 0 0 114 0 0 114 0 0 114 0 0 114 0 0 114 0 0 114 0 0 114 0 0 114 0 0 124 0 0 124 0 0 124 0 0 124 0 0 124 0 0 124 0 0 124 0 0 124 0 0 124 0 0 124 0 0 131 0 0 131 0 0 131 0 0 131 0 0 131 0 0 131 0 0 131 0 0 131 0 0 131 0 0 131 0 0 109 0 0 109 0 0 109 0 0 109 0 0 109 0 0 109 0 0 109 0 0 109 0 0 109 0 0 109 0 0 128 0 0 128 0 0 128 0 0 128 0 0 128 0 0 128 0 0 128 0 0 128 0 0 128 0 0 128 0 0 0 0 0 0 0 0 0 0 0 0 0 0 0 0 0 0 0 0 0 0 0 0 0 0 0 0 0 0 0 0 0 53 255 0 53 255 0 53 255 0 53 255 0 53 255 0 53 255 0 53 255 0 53 255 0 53 255 0 53 255 0 53 255 0 53 255 0 53 255 0 53 255 0 53 255 0 53 255 0 53 255 0 53 255 0 53 255 0 53 255 0 53 255 0 53 255 0 53 255 0 53 255 0 53 255 0 53 255 0 53 255 0 53 255 0 53 255 0 53 255 
112 0 0 112 0 0 112 0 0 112 0 0 112 0 0 112 0 0 112 0 0 112 0 0 112 0 0 112 0 0 145 0 0 145 0 0 145 0 0 145 0 0 145 0 0 145 0 0 145 0 0 145 0 0 145 0 0 145 0 0 144 0 0 144 0 0 144 0 0 144 0 0 144 0 0 144 0 0 144 0 0 144 0 0 144 0 0 144 0 0 140 0 0 140 0 0 140 0 0 140 0 0 140 0 0 140 0 0 140 0 0 140 0 0 140 0 0 140 0 0 142 0 0 142 0 0 142 0 0 142 0 0 142 0 0 142 0 0 142 0 0 142 0 0 142 0 0 142 0 0 208 0 0 208 0 0 208 0 0 208 0 0 208 0 0 208 0 0 208 0 0 208 0 0 208 0 0 208 0 0 255 6 0 255 6 0 255 6 0 255 6 0 255 6 0 255 6 0 255 6 0 255 6 0 255 6 0 255 6 0 246 0 0 246 0 0 246 0 0 246 0 0 246 0 0 246 0 0 246 0 0 246 0 0 246 0 0 246 0 0 203 0 0 203 0 0 203 0 0 203 0 0 203 0 0 203 0 0 203 0 0 203 0 0 203 0 0 203 0 0 161 0 0 161 0 0 161 0 0 161 0 0 161 0 0 161 0 0 161 0 0 161 0 0 161 0 0 161 0 0 102 0 0 102 0 0 102 0 0 102 0 0 102 0 0 102 0 0 102 0 0 102 0 0 102 0 0 102 0 0 24 0 0 24 0 0 24 0 0 24 0 0 24 0 0 24 0 0 24 0 0 24 0 0 24 0 0 24 0 0 0 0 35 0 0 35 0 0 35 0 0 35 0 0 35 0 0 35 0 0 35 0 0 35 0 0 35 0 0 35 6 0 0 6 0 0 6 0 0 6 0 0 6 0 0 6 0 0 6 0 0 6 0 0 6 0 0 6 0 0 89 0 0 89 0 0 89 0 0 89 0 0 89 0 0 89 0 0 89 0 0 89 0 0 89 0 0 89 0 0 159 0 0 159 0 0 159 0 0 159 0 0 159 0 0 159 0 0 159 0 0 159 0 0 159 0 0 159 0 0 205 0 0 205 0 0 205 0 0 205 0 0 205 0 0 205 0 0 205 0 0 205 0 0 205 0 0 205 0 0 237 0 0 237 0 0 237 0 0 237 0 0 237 0 0 237 0 0 237 0 0 237 0 0 237 0 0 237 0 0 192 0 0 192 0 0 192 0 0 192 0 0 192 0 0 192 0 0 192 0 0 192 0 0 192 0 0 192 0 0 146 0 0 146 0 0 146 0 0 146 0 0 146 0 0 146 0 0 146 0 0 146 0 0 146 0 0 146 0 0 143 0 0 143 0 0 143 0 0 143 0 0 143 0 0 143 0 0 143 0 0 143 0 0 143 0 0 143 0 0 114 0 0 114 0 0 114 0 0 114 0 0 114 0 0 114 0 0 114 0 0 114 0 0 114 0 0 114 0 0 120 0 0 120 0 0 120 0 0 120 0 0 120 0 0 120 0 0 120 0 0 120 0 0 120 0 0 120 0 0 114 0 0 114 0 0 114 0 0 114 0 0 114 0 0 114 0 0 114 0 0 114 0 0 114 0 0 114 0 0 124 0 0 124 0 0 124 0 0 124 0 0 124 0 0 124 0 0 124 0 0 124 0 0 124 0 0 124 0 0 131 0 0 131 0 0 131 0 0 131 0 0 131 0 0 131 0 0 131 0 0 131 0 0 131 0 0 131 0 0 109 0 0 109 0 0 109 0 0 109 0 0 109 0 0 109 0 0 109 0 0 109 0 0 109 0 0 109 0 0 128 0 0 128 0 0 128 0 0 128 0 0 128 0 0 128 0 0 128 0 0 128 0 0 128 0 0 128 0 0 0 0 0 0 0 0 0 0 0 0 0 0 0 0 0 0 0 0 0 0 0 0 0 0 0 0 0 0 0 0 0 57 255 0 57 255 0 57 255 0 57 255 0 57 255 0 57 255 0 57 255 0 57 255 0 57 255 0 57 255 0 57 255 0 57 255 0 57 255 0 57 255 0 57 255 0 57 255 0 57 255 0 57 255 0 57 255 0 57 255 0 57 255 0 57 255 0 57 255 0 57 255 0 57 255 0 57 255 0 57 255 0 57 255 0 57 255 0 57 255 
112 0 0 112 0 0 112 0 0 112 0 0 112 0 0 112 0 0 112 0 0 112 0 0 112 0 0 112 0 0 145 0 0 145 0 0 145 0 0 145 0 0 145 0 0 145 0 0 145 0 0 145 0 0 145 0 0 145 0 0 144 0 0 144 0 0 144 0 0 144 0 0 144 0 0 144 0 0 144 0 0 144 0 0 144 0 0 144 0 0 140 0 0 140 0 0 140 0 0 140 0 0 140 0 0 140 0 0 140 0 0 140 0 0 140 0 0 140 0 0 142 0 0 142 0 0 142 0 0 142 0 0 142 0 0 142 0 0 142 0 0 142 0 0 142 0 0 142 0 0 208 0 0 208 0 0 208 0 0 208 0 0 208 0 0 208 0 0 208 0 0 208 0 0 208 0 0 208 0 0 255 6 0 255 6 0 255 6 0 255 6 0 255 6 0 255 6 0 255 6 0 255 6 0 255 6 0 255 6 0 246 0 0 246 0 0 246 0 0 246 0 0 246 0 0 246 0 0 246 0 0 246 0 0 246 0 0 246 0 0 203 0 0 203 0 0 203 0 0 203 0 0 203 0 0 203 0 0 203 0 0 203 0 0 203 0 0 203 0 0 161 0 0 161 0 0 161 0 0 161 0 0 161 0 0 161 0 0 161 0 0 161 0 0 161 0 0 161 0 0 102 0 0 102 0 0 102 0 0 102 0 0 102 0 0 102 0 0 102 0 0 102 0 0 102 0 0 102 0 0 24 0 0 24 0 0 24 0 0 24 0 0 24 0 0 24 0 0 24 0 0 24 0 0 24 0 0 24 0 0 0 0 35 0 0 35 0 0 35 0 0 35 0 0 35 0 0 35 0 0 35 0 0 35 0 0 35 0 0 35 6 0 0 6 0 0 6 0 0 6 0 0 6 0 0 6 0 0 6 0 0 6 0 0 6 0 0 6 0 0 89 0 0 89 0 0 89 0 0 89 0 0 89 0 0 89 0 0 89 0 0 89 0 0 89 0 0 89 0 0 159 0 0 159 0 0 159 0 0 159 0 0 159 0 0 159 0 0 159 0 0 159 0 0 159 0 0 159 0 0 205 0 0 205 0 0 205 0 0 205 0 0 205 0 0 205 0 0 205 0 0 205 0 0 205 0 0 205 0 0 237 0 0 237 0 0 237 0 0 237 0 0 237 0 0 237 0 0 237 0 0 237 0 0 237 0 0 237 0 0 192 0 0 192 0 0 192 0 0 192 0 0 192 0 0 192 0 0 192 0 0 192 0 0 192 0 0 192 0 0 146 0 0 146 0 0 146 0 0 146 0 0 146 0 0 146 0 0 146 0 0 146 0 0 146 0 0 146 0 0 143 0 0 143 0 0 143 0 0 143 0 0 143 0 0 143 0 0 143 0 0 143 0 0 143 0 0 143 0 0 114 0 0 114 0 0 114 0 0 114 0 0 114 0 0 114 0 0 114 0 0 114 0 0 114 0 0 114 0 0 120 0 0 120 0 0 120 0 0 120 0 0 120 0 0 120 0 0 120 0 0 120 0 0 120 0 0 120 0 0 114 0 0 114 0 0 114 0 0 114 0 0 114 0 0 114 0 0 114 0 0 114 0 0 114 0 0 114 0 0 124 0 0 124 0 0 124 0 0 124 0 0 124 0 0 124 0 0 124 0 0 124 0 0 124 0 0 124 0 0 131 0 0 131 0 0 131 0 0 131 0 0 131 0 0 131 0 0 131 0 0 131 0 0 131 0 0 131 0 0 109 0 0 109 0 0 109 0 0 109 0 0 109 0 0 109 0 0 109 0 0 109 0 0 109 0 0 109 0 0 128 0 0 128 0 0 128 0 0 128 0 0 128 0 0 128 0 0 128 0 0 128 0 0 128 0 0 128 0 0 0 0 0 0 0 0 0 0 0 0 0 0 0 0 0 0 0 0 0 0 0 0 0 0 0 0 0 0 0 0 0 61 255 0 61 255 0 61 255 0 61 255 0 61 255 0 61 255 0 61 255 0 61 255 0 61 255 0 61 255 0 61 255 0 61 255 0 61 255 0 61 255 0 61 255 0 61 255 0 61 255 0 61 255 0 61 255 0 61 255 0 61 255 0 61 255 0 61 255 0 61 255 0 61 255 0 61 255 0 61 255 0 61 255 0 61 255 0 61 255 
112 0 0 112 0 0 112 0 0 112 0 0 112 0 0 112 0 0 112 0 0 112 0 0 112 0 0 112 0 0 145 0 0 145 0 0 145 0 0 145 0 0 145 0 0 145 0 0 145 0 0 145 0 0 145 0 0 145 0 0 144 0 0 144 0 0 144 0 0 144 0 0 144 0 0 144 0 0 144 0 0 144 0 0 144 0 0 144 0 0 140 0 0 140 0 0 140 0 0 140 0 0 140 0 0 140 0 0 140 0 0 140 0 0 140 0 0 140 0 0 142 0 0 142 0 0 142 0 0 142 0 0 142 0 0 142 0 0 142 0 0 142 0 0 142 0 0 142 0 0 208 0 0 208 0 0 208 0 0 208 0 0 208 0 0 208 0 0 208 0 0 208 0 0 208 0 0 208 0 0 255 6 0 255 6 0 255 6 0 255 6 0 255 6 0 255 6 0 255 6 0 255 6 0 255 6 0 255 6 0 246 0 0 246 0 0 246 0 0 246 0 0 246 0 0 246 0 0 246 0 0 246 0 0 246 0 0 246 0 0 203 0 0 203 0 0 203 0 0 203 0 0 203 0 0 203 0 0 203 0 0 203 0 0 203 0 0 203 0 0 161 0 0 161 0 0 161 0 0 161 0 0 161 0 0 161 0 0 161 0 0 161 0 0 161 0 0 161 0 0 102 0 0 102 0 0 102 0 0 102 0 0 102 0 0 102 0 0 102 0 0 102 0 0 102 0 0 102 0 0 24 0 0 24 0 0 24 0 0 24 0 0 24 0 0 24 0 0 24 0 0 24 0 0 24 0 0 24 0 0 0 0 35 0 0 35 0 0 35 0 0 35 0 0 35 0 0 35 0 0 35 0 0 35 0 0 35 0 0 35 6 0 0 6 0 0 6 0 0 6 0 0 6 0 0 6 0 0 6 0 0 6 0 0 6 0 0 6 0 0 89 0 0 89 0 0 89 0 0 89 0 0 89 0 0 89 0 0 89 0 0 89 0 0 89 0 0 89 0 0 159 0 0 159 0 0 159 0 0 159 0 0 159 0 0 159 0 0 159 0 0 159 0 0 159 0 0 159 0 0 205 0 0 205 0 0 205 0 0 205 0 0 205 0 0 205 0 0 205 0 0 205 0 0 205 0 0 205 0 0 237 0 0 237 0 0 237 0 0 237 0 0 237 0 0 237 0 0 237 0 0 237 0 0 237 0 0 237 0 0 192 0 0 192 0 0 192 0 0 192 0 0 192 0 0 192 0 0 192 0 0 192 0 0 192 0 0 192 0 0 146 0 0 146 0 0 146 0 0 146 0 0 146 0 0 146 0 0 146 0 0 146 0 0 146 0 0 146 0 0 143 0 0 143 0 0 143 0 0 143 0 0 143 0 0 143 0 0 143 0 0 143 0 0 143 0 0 143 0 0 114 0 0 114 0 0 114 0 0 114 0 0 114 0 0 114 0 0 114 0 0 114 0 0 114 0 0 114 0 0 120 0 0 120 0 0 120 0 0 120 0 0 120 0 0 120 0 0 120 0 0 120 0 0 120 0 0 120 0 0 114 0 0 114 0 0 114 0 0 114 0 0 114 0 0 114 0 0 114 0 0 114 0 0 114 0 0 114 0 0 124 0 0 124 0 0 124 0 0 124 0 0 124 0 0 124 0 0 124 0 0 124 0 0 124 0 0 124 0 0 131 0 0 131 0 0 131 0 0 131 0 0 131 0 0 131 0 0 131 0 0 131 0 0 131 0 0 131 0 0 109 0 0 109 0 0 109 0 0 109 0 0 109 0 0 109 0 0 109 0 0 109 0 0 109 0 0 109 0 0 128 0 0 128 0 0 128 0 0 128 0 0 128 0 0 128 0 0 128 0 0 128 0 0 128 0 0 128 0 0 0 0 0 0 0 0 0 0 0 0 0 0 0 0 0 0 0 0 0 0 0 0 0 0 0 0 0 0 0 0 0 64 255 0 64 255 0 64 255 0 64 255 0 64 255 0 64 255 0 64 255 0 64 255 0 64 255 0 64 255 0 64 255 0 64 255 0 64 255 0 64 255 0 64 255 0 64 255 0 64 255 0 64 255 0 64 255 0 64 255 0 64 255 0 64 255 0 64 255 0 64 255 0 64 255 0 64 255 0 64 255 0 64 255 0 64 255 0 64 255 
112 0 0 112 0 0 112 0 0 112 0 0 112 0 0 112 0 0 112 0 0 112 0 0 112 0 0 112 0 0 145 0 0 145 0 0 145 0 0 145 0 0 145 0 0 145 0 0 145 0 0 145 0 0 145 0 0 145 0 0 144 0 0 144 0 0 144 0 0 144 0 0 144 0 0 144 0 0 144 0 0 144 0 0 144 0 0 144 0 0 140 0 0 140 0 0 140 0 0 140 0 0 140 0 0 140 0 0 140 0 0 140 0 0 140 0 0 140 0 0 142 0 0 142 0 0 142 0 0 142 0 0 142 0 0 142 0 0 142 0 0 142 0 0 142 0 0 142 0 0 208 0 0 208 0 0 208 0 0 208 0 0 208 0 0 208 0 0 208 0 0 208 0 0 208 0 0 208 0 0 255 6 0 255 6 0 255 6 0 255 6 0 255 6 0 255 6 0 255 6 0 255 6 0 255 6 0 255 6 0 246 0 0 246 0 0 246 0 0 246 0 0 246 0 0 246 0 0 246 0 0 246 0 0 246 0 0 246 0 0 203 0 0 203 0 0 203 0 0 203 0 0 203 0 0 203 0 0 203 0 0 203 0 0 203 0 0 203 0 0 161 0 0 161 0 0 161 0 0 161 0 0 161 0 0 161 0 0 161 0 0 161 0 0 161 0 0 161 0 0 102 0 0 102 0 0 102 0 0 102 0 0 102 0 0 102 0 0 102 0 0 102 0 0 102 0 0 102 0 0 24 0 0 24 0 0 24 0 0 24 0 0 24 0 0 24 0 0 24 0 0 24 0 0 24 0 0 24 0 0 0 0 35 0 0 35 0 0 35 0 0 35 0 0 35 0 0 35 0 0 35 0 0 35 0 0 35 0 0 35 6 0 0 6 0 0 6 0 0 6 0 0 6 0 0 6 0 0 6 0 0 6 0 0 6 0 0 6 0 0 89 0 0 89 0 0 89 0 0 89 0 0 89 0 0 89 0 0 89 0 0 89 0 0 89 0 0 89 0 0 159 0 0 159 0 0 159 0 0 159 0 0 159 0 0 159 0 0 159 0 0 159 0 0 159 0 0 159 0 0 205 0 0 205 0 0 205 0 0 205 0 0 205 0 0 205 0 0 205 0 0 205 0 0 205 0 0 205 0 0 237 0 0 237 0 0 237 0 0 237 0 0 237 0 0 237 0 0 237 0 0 237 0 0 237 0 0 237 0 0 192 0 0 192 0 0 192 0 0 192 0 0 192 0 0 192 0 0 192 0 0 192 0 0 192 0 0 192 0 0 146 0 0 146 0 0 146 0 0 146 0 0 146 0 0 146 0 0 146 0 0 146 0 0 146 0 0 146 0 0 143 0 0 143 0 0 143 0 0 143 0 0 143 0 0 143 0 0 143 0 0 143 0 0 143 0 0 143 0 0 114 0 0 114 0 0 114 0 0 114 0 0 114 0 0 114 0 0 114 0 0 114 0 0 114 0 0 114 0 0 120 0 0 120 0 0 120 0 0 120 0 0 120 0 0 120 0 0 120 0 0 120 0 0 120 0 0 120 0 0 114 0 0 114 0 0 114 0 0 114 0 0 114 0 0 114 0 0 114 0 0 114 0 0 114 0 0 114 0 0 124 0 0 124 0 0 124 0 0 124 0 0 124 0 0 124 0 0 124 0 0 124 0 0 124 0 0 124 0 0 131 0 0 131 0 0 131 0 0 131 0 0 131 0 0 131 0 0 131 0 0 131 0 0 131 0 0 131 0 0 109 0 0 109 0 0 109 0 0 109 0 0 109 0 0 109 0 0 109 0 0 109 0 0 109 0 0 109 0 0 128 0 0 128 0 0 128 0 0 128 0 0 128 0 0 128 0 0 128 0 0 128 0 0 128 0 0 128 0 0 0 0 0 0 0 0 0 0 0 0 0 0 0 0 0 0 0 0 0 0 0 0 0 0 0 0 0 0 0 0 0 68 255 0 68 255 0 68 255 0 68 255 0 68 255 0 68 255 0 68 255 0 68 255 0 68 255 0 68 255 0 68 255 0 68 255 0 68 255 0 68 255 0 68 255 0 68 255 0 68 255 0 68 255 0 68 255 0 68 255 0 68 255 0 68 255 0 68 255 0 68 255 0 68 255 0 68 255 0 68 255 0 68 255 0 68 255 0 68 255 
112 0 0 112 0 0 112 0 0 112 0 0 112 0 0 112 0 0 112 0 0 112 0 0 112 0 0 112 0 0 145 0 0 145 0 0 145 0 0 145 0 0 145 0 0 145 0 0 145 0 0 145 0 0 145 0 0 145 0 0 144 0 0 144 0 0 144 0 0 144 0 0 144 0 0 144 0 0 144 0 0 144 0 0 144 0 0 144 0 0 140 0 0 140 0 0 140 0 0 140 0 0 140 0 0 140 0 0 140 0 0 140 0 0 140 0 0 140 0 0 142 0 0 142 0 0 142 0 0 142 0 0 142 0 0 142 0 0 142 0 0 142 0 0 142 0 0 142 0 0 208 0 0 208 0 0 208 0 0 208 0 0 208 0 0 208 0 0 208 0 0 208 0 0 208 0 0 208 0 0 255 6 0 255 6 0 255 6 0 255 6 0 255 6 0 255 6 0 255 6 0 255 6 0 255 6 0 255 6 0 246 0 0 246 0 0 246 0 0 246 0 0 246 0 0 246 0 0 246 0 0 246 0 0 246 0 0 246 0 0 203 0 0 203 0 0 203 0 0 203 0 0 203 0 0 203 0 0 203 0 0 203 0 0 203 0 0 203 0 0 161 0 0 161 0 0 161 0 0 161 0 0 161 0 0 161 0 0 161 0 0 161 0 0 161 0 0 161 0 0 102 0 0 102 0 0 102 0 0 102 0 0 102 0 0 102 0 0 102 0 0 102 0 0 102 0 0 102 0 0 24 0 0 24 0 0 24 0 0 24 0 0 24 0 0 24 0 0 24 0 0 24 0 0 24 0 0 24 0 0 0 0 35 0 0 35 0 0 35 0 0 35 0 0 35 0 0 35 0 0 35 0 0 35 0 0 35 0 0 35 6 0 0 6 0 0 6 0 0 6 0 0 6 0 0 6 0 0 6 0 0 6 0 0 6 0 0 6 0 0 89 0 0 89 0 0 89 0 0 89 0 0 89 0 0 89 0 0 89 0 0 89 0 0 89 0 0 89 0 0 159 0 0 159 0 0 159 0 0 159 0 0 159 0 0 159 0 0 159 0 0 159 0 0 159 0 0 159 0 0 205 0 0 205 0 0 205 0 0 205 0 0 205 0 0 205 0 0 205 0 0 205 0 0 205 0 0 205 0 0 237 0 0 237 0 0 237 0 0 237 0 0 237 0 0 237 0 0 237 0 0 237 0 0 237 0 0 237 0 0 192 0 0 192 0 0 192 0 0 192 0 0 192 0 0 192 0 0 192 0 0 192 0 0 192 0 0 192 0 0 146 0 0 146 0 0 146 0 0 146 0 0 146 0 0 146 0 0 146 0 0 146 0 0 146 0 0 146 0 0 143 0 0 143 0 0 143 0 0 143 0 0 143 0 0 143 0 0 143 0 0 143 0 0 143 0 0 143 0 0 114 0 0 114 0 0 114 0 0 114 0 0 114 0 0 114 0 0 114 0 0 114 0 0 114 0 0 114 0 0 120 0 0 120 0 0 120 0 0 120 0 0 120 0 0 120 0 0 120 0 0 120 0 0 120 0 0 120 0 0 114 0 0 114 0 0 114 0 0 114 0 0 114 0 0 114 0 0 114 0 0 114 0 0 114 0 0 114 0 0 124 0 0 124 0 0 124 0 0 124 0 0 124 0 0 124 0 0 124 0 0 124 0 0 124 0 0 124 0 0 131 0 0 131 0 0 131 0 0 131 0 0 131 0 0 131 0 0 131 0 0 131 0 0 131 0 0 131 0 0 109 0 0 109 0 0 109 0 0 109 0 0 109 0 0 109 0 0 109 0 0 109 0 0 109 0 0 109 0 0 128 0 0 128 0 0 128 0 0 128 0 0 128 0 0 128 0 0 128 0 0 128 0 0 128 0 0 128 0 0 0 0 0 0 0 0 0 0 0 0 0 0 0 0 0 0 0 0 0 0 0 0 0 0 0 0 0 0 0 0 0 72 255 0 72 255 0 72 255 0 72 255 0 72 255 0 72 255 0 72 255 0 72 255 0 72 255 0 72 255 0 72 255 0 72 255 0 72 255 0 72 255 0 72 255 0 72 255 0 72 255 0 72 255 0 72 255 0 72 255 0 72 255 0 72 255 0 72 255 0 72 255 0 72 255 0 72 255 0 72 255 0 72 255 0 72 255 0 72 255 
109 0 0 109 0 0 109 0 0 109 0 0 109 0 0 109 0 0 109 0 0 109 0 0 109 0 0 109 0 0 109 0 0 109 0 0 109 0 0 109 0 0 109 0 0 109 0 0 109 0 0 109 0 0 109 0 0 109 0 0 116 0 0 116 0 0 116 0 0 116 0 0 116 0 0 116 0 0 116 0 0 116 0 0 116 0 0 116 0 0 111 0 0 111 0 0 111 0 0 111 0 0 111 0 0 111 0 0 111 0 0 111 0 0 111 0 0 111 0 0 158 0 0 158 0 0 158 0 0 158 0 0 158 0 0 158 0 0 158 0 0 158 0 0 158 0 0 158 0 0 192 0 0 192 0 0 192 0 0 192 0 0 192 0 0 192 0 0 192 0 0 192 0 0 192 0 0 192 0 0 246 0 0 246 0 0 246 0 0 246 0 0 246 0 0 246 0 0 246 0 0 246 0 0 246 0 0 246 0 0 185 0 0 185 0 0 185 0 0 185 0 0 185 0 0 185 0 0 185 0 0 185 0 0 185 0 0 185 0 0 163 0 0 163 0 0 163 0 0 163 0 0 163 0 0 163 0 0 163 0 0 163 0 0 163 0 0 163 0 0 136 0 0 136 0 0 136 0 0 136 0 0 136 0 0 136 0 0 136 0 0 136 0 0 136 0 0 136 0 0 73 0 0 73 0 0 73 0 0 73 0 0 73 0 0 73 0 0 73 0 0 73 0 0 73 0 0 73 0 0 18 0 0 18 0 0 18 0 0 18 0 0 18 0 0 18 0 0 18 0 0 18 0 0 18 0 0 18 0 0 33 0 0 33 0 0 33 0 0 33 0 0 33 0 0 33 0 0 33 0 0 33 0 0 33 0 0 33 0 0 46 0 0 46 0 0 46 0 0 46 0 0 46 0 0 46 0 0 46 0 0 46 0 0 46 0 0 46 0 0 64 0 0 64 0 0 64 0 0 64 0 0 64 0 0 64 0 0 64 0 0 64 0 0 64 0 0 64 0 0 146 0 0 146 0 0 146 0 0 146 0 0 146 0 0 146 0 0 146 0 0 146 0 0 146 0 0 146 0 0 172 0 0 172 0 0 172 0 0 172 0 0 172 0 0 172 0 0 172 0 0 172 0 0 172 0 0 172 0 0 213 0 0 213 0 0 213 0 0 213 0 0 213 0 0 213 0 0 213 0 0 213 0 0 213 0 0 213 0 0 160 0 0 160 0 0 160 0 0 160 0 0 160 0 0 160 0 0 160 0 0 160 0 0 160 0 0 160 0 0 156 0 0 156 0 0 156 0 0 156 0 0 156 0 0 156 0 0 156 0 0 156 0 0 156 0 0 156 0 0 107 0 0 107 0 0 107 0 0 107 0 0 107 0 0 107 0 0 107 0 0 107 0 0 107 0 0 107 0 0 91 0 0 91 0 0 91 0 0 91 0 0 91 0 0 91 0 0 91 0 0 91 0 0 91 0 0 91 0 0 136 0 0 136 0 0 136 0 0 136 0 0 136 0 0 136 0 0 136 0 0 136 0 0 136 0 0 136 0 0 131 0 0 131 0 0 131 0 0 131 0 0 131 0 0 131 0 0 131 0 0 131 0 0 131 0 0 131 0 0 145 0 0 145 0 0 145 0 0 145 0 0 145 0 0 145 0 0 145 0 0 145 0 0 145 0 0 145 0 0 124 0 0 124 0 0 124 0 0 124 0 0 124 0 0 124 0 0 124 0 0 124 0 0 124 0 0 124 0 0 138 0 0 138 0 0 138 0 0 138 0 0 138 0 0 138 0 0 138 0 0 138 0 0 138 0 0 138 0 0 125 0 0 125 0 0 125 0 0 125 0 0 125 0 0 125 0 0 125 0 0 125 0 0 125 0 0 125 0 0 0 0 0 0 0 0 0 0 0 0 0 0 0 0 0 0 0 0 0 0 0 0 0 0 0 0 0 0 0 0 0 75 255 0 75 255 0 75 255 0 75 255 0 75 255 0 75 255 0 75 255 0 75 255 0 75 255 0 75 255 0 75 255 0 75 255 0 75 255 0 75 255 0 75 255 0 75 255 0 75 255 0 75 255 0 75 255 0 75 255 0 75 255 0 75 255 0 75 255 0 75 255 0 75 255 0 75 255 0 75 255 0 75 255 0 75 255 0 75 255 
109 0 0 109 0 0 109 0 0 109 0 0 109 0 0 109 0 0 109 0 0 109 0 0 109 0 0 109 0 0 109 0 0 109 0 0 109 0 0 109 0 0 109 0 0 109 0 0 109 0 0 109 0 0 109 0 0 109 0 0 116 0 0 116 0 0 116 0 0 116 0 0 116 0 0 116 0 0 116 0 0 116 0 0 116 0 0 116 0 0 111 0 0 111 0 0 111 0 0 111 0 0 111 0 0 111 0 0 111 0 0 111 0 0 111 0 0 111 0 0 158 0 0 158 0 0 158 0 0 158 0 0 158 0 0 158 0 0 158 0 0 158 0 0 158 0 0 158 0 0 192 0 0 192 0 0 192 0 0 192 0 0 192 0 0 192 0 0 192 0 0 192 0 0 192 0 0 192 0 0 246 0 0 246 0 0 246 0 0 246 0 0 246 0 0 246 0 0 246 0 0 246 0 0 246 0 0 246 0 0 185 0 0 185 0 0 185 0 0 185 0 0 185 0 0 185 0 0 185 0 0 185 0 0 185 0 0 185 0 0 163 0 0 163 0 0 163 0 0 163 0 0 163 0 0 163 0 0 163 0 0 163 0 0 163 0 0 163 0 0 136 0 0 136 0 0 136 0 0 136 0 0 136 0 0 136 0 0 136 0 0 136 0 0 136 0 0 136 0 0 73 0 0 73 0 0 73 0 0 73 0 0 73 0 0 73 0 0 73 0 0 73 0 0 73 0 0 73 0 0 18 0 0 18 0 0 18 0 0 18 0 0 18 0 0 18 0 0 18 0 0 18 0 0 18 0 0 18 0 0 33 0 0 33 0 0 33 0 0 33 0 0 33 0 0 33 0 0 33 0 0 33 0 0 33 0 0 33 0 0 46 0 0 46 0 0 46 0 0 46 0 0 46 0 0 46 0 0 46 0 0 46 0 0 46 0 0 46 0 0 64 0 0 64 0 0 64 0 0 64 0 0 64 0 0 64 0 0 64 0 0 64 0 0 64 0 0 64 0 0 146 0 0 146 0 0 146 0 0 146 0 0 146 0 0 146 0 0 146 0 0 146 0 0 146 0 0 146 0 0 172 0 0 172 0 0 172 0 0 172 0 0 172 0 0 172 0 0 172 0 0 172 0 0 172 0 0 172 0 0 213 0 0 213 0 0 213 0 0 213 0 0 213 0 0 213 0 0 213 0 0 213 0 0 213 0 0 213 0 0 160 0 0 160 0 0 160 0 0 160 0 0 160 0 0 160 0 0 160 0 0 160 0 0 160 0 0 160 0 0 156 0 0 156 0 0 156 0 0 156 0 0 156 0 0 156 0 0 156 0 0 156 0 0 156 0 0 156 0 0 107 0 0 107 0 0 107 0 0 107 0 0 107 0 0 107 0 0 107 0 0 107 0 0 107 0 0 107 0 0 91 0 0 91 0 0 91 0 0 91 0 0 91 0 0 91 0 0 91 0 0 91 0 0 91 0 0 91 0 0 136 0 0 136 0 0 136 0 0 136 0 0 136 0 0 136 0 0 136 0 0 136 0 0 136 0 0 136 0 0 131 0 0 131 0 0 131 0 0 131 0 0 131 0 0 131 0 0 131 0 0 131 0 0 131 0 0 131 0 0 145 0 0 145 0 0 145 0 0 145 0 0 145 0 0 145 0 0 145 0 0 145 0 0 145 0 0 145 0 0 124 0 0 124 0 0 124 0 0 124 0 0 124 0 0 124 0 0 124 0 0 124 0 0 124 0 0 124 0 0 138 0 0 138 0 0 138 0 0 138 0 0 138 0 0 138 0 0 138 0 0 138 0 0 138 0 0 138 0 0 125 0 0 125 0 0 125 0 0 125 0 0 125 0 0 125 0 0 125 0 0 125 0 0 125 0 0 125 0 0 0 0 0 0 0 0 0 0 0 0 0 0 0 0 0 0 0 0 0 0 0 0 0 0 0 0 0 0 0 0 0 79 255 0 79 255 0 79 255 0 79 255 0 79 255 0 79 255 0 79 255 0 79 255 0 79 255 0 79 255 0 79 255 0 79 255 0 79 255 0 79 255 0 79 255 0 79 255 0 79 255 0 79 255 0 79 255 0 79 255 0 79 255 0 79 255 0 79 255 0 79 255 0 79 255 0 79 255 0 79 255 0 79 255 0 79 255 0 79 255 
109 0 0 109 0 0 109 0 0 109 0 0 109 0 0 109 0 0 109 0 0 109 0 0 109 0 0 109 0 0 109 0 0 109 0 0 109 0 0 109 0 0 109 0 0 109 0 0 109 0 0 109 0 0 109 0 0 109 0 0 116 0 0 116 0 0 116 0 0 116 0 0 116 0 0 116 0 0 116 0 0 116 0 0 116 0 0 116 0 0 111 0 0 111 0 0 111 0 0 111 0 0 111 0 0 111 0 0 111 0 0 111 0 0 111 0 0 111 0 0 158 0 0 158 0 0 158 0 0 158 0 0 158 0 0 158 0 0 158 0 0 158 0 0 158 0 0 158 0 0 192 0 0 192 0 0 192 0 0 192 0 0 192 0 0 192 0 0 192 0 0 192 0 0 192 0 0 192 0 0 246 0 0 246 0 0 246 0 0 246 0 0 246 0 0 246 0 0 246 0 0 246 0 0 246 0 0 246 0 0 185 0 0 185 0 0 185 0 0 185 0 0 185 0 0 185 0 0 185 0 0 185 0 0 185 0 0 185 0 0 163 0 0 163 0 0 163 0 0 163 0 0 163 0 0 163 0 0 163 0 0 163 0 0 163 0 0 163 0 0 136 0 0 136 0 0 136 0 0 136 0 0 136 0 0 136 0 0 136 0 0 136 0 0 136 0 0 136 0 0 73 0 0 73 0 0 73 0 0 73 0 0 73 0 0 73 0 0 73 0 0 73 0 0 73 0 0 73 0 0 18 0 0 18 0 0 18 0 0 18 0 0 18 0 0 18 0 0 18 0 0 18 0 0 18 0 0 18 0 0 33 0 0 33 0 0 33 0 0 33 0 0 33 0 0 33 0 0 33 0 0 33 0 0 33 0 0 33 0 0 46 0 0 46 0 0 46 0 0 46 0 0 46 0 0 46 0 0 46 0 0 46 0 0 46 0 0 46 0 0 64 0 0 64 0 0 64 0 0 64 0 0 64 0 0 64 0 0 64 0 0 64 0 0 64 0 0 64 0 0 146 0 0 146 0 0 146 0 0 146 0 0 146 0 0 146 0 0 146 0 0 146 0 0 146 0 0 146 0 0 172 0 0 172 0 0 172 0 0 172 0 0 172 0 0 172 0 0 172 0 0 172 0 0 172 0 0 172 0 0 213 0 0 213 0 0 213 0 0 213 0 0 213 0 0 213 0 0 213 0 0 213 0 0 213 0 0 213 0 0 160 0 0 160 0 0 160 0 0 160 0 0 160 0 0 160 0 0 160 0 0 160 0 0 160 0 0 160 0 0 156 0 0 156 0 0 156 0 0 156 0 0 156 0 0 156 0 0 156 0 0 156 0 0 156 0 0 156 0 0 107 0 0 107 0 0 107 0 0 107 0 0 107 0 0 107 0 0 107 0 0 107 0 0 107 0 0 107 0 0 91 0 0 91 0 0 91 0 0 91 0 0 91 0 0 91 0 0 91 0 0 91 0 0 91 0 0 91 0 0 136 0 0 136 0 0 136 0 0 136 0 0 136 0 0 136 0 0 136 0 0 136 0 0 136 0 0 136 0 0 131 0 0 131 0 0 131 0 0 131 0 0 131 0 0 131 0 0 131 0 0 131 0 0 131 0 0 131 0 0 145 0 0 145 0 0 145 0 0 145 0 0 145 0 0 145 0 0 145 0 0 145 0 0 145 0 0 145 0 0 124 0 0 124 0 0 124 0 0 124 0 0 124 0 0 124 0 0 124 0 0 124 0 0 124 0 0 124 0 0 138 0 0 138 0 0 138 0 0 138 0 0 138 0 0 138 0 0 138 0 0 138 0 0 138 0 0 138 0 0 125 0 0 125 0 0 125 0 0 125 0 0 125 0 0 125 0 0 125 0 0 125 0 0 125 0 0 125 0 0 0 0 0 0 0 0 0 0 0 0 0 0 0 0 0 0 0 0 0 0 0 0 0 0 0 0 0 0 0 0 0 83 255 0 83 255 0 83 255 0 83 255 0 83 255 0 83 255 0 83 255 0 83 255 0 83 255 0 83 255 0 83 255 0 83 255 0 83 255 0 83 255 0 83 255 0 83 255 0 83 255 0 83 255 0 83 255 0 83 255 0 83 255 0 83 255 0 83 255 0 83 255 0 83 255 0 83 255 0 83 255 0 83 255 0 83 255 0 83 255 
109 0 0 109 0 0 109 0 0 109 0 0 109 0 0 109 0 0 109 0 0 109 0 0 109 0 0 109 0 0 109 0 0 109 0 0 109 0 0 109 0 0 109 0 0 109 0 0 109 0 0 109 0 0 109 0 0 109 0 0 116 0 0 116 0 0 116 0 0 116 0 0 116 0 0 116 0 0 116 0 0 116 0 0 116 0 0 116 0 0 111 0 0 111 0 0 111 0 0 111 0 0 111 0 0 111 0 0 111 0 0 111 0 0 111 0 0 111 0 0 158 0 0 158 0 0 158 0 0 158 0 0 158 0 0 158 0 0 158 0 0 158 0 0 158 0 0 158 0 0 192 0 0 192 0 0 192 0 0 192 0 0 192 0 0 192 0 0 192 0 0 192 0 0 192 0 0 192 0 0 246 0 0 246 0 0 246 0 0 246 0 0 246 0 0 246 0 0 246 0 0 246 0 0 246 0 0 246 0 0 185 0 0 185 0 0 185 0 0 185 0 0 185 0 0 185 0 0 185 0 0 185 0 0 185 0 0 185 0 0 163 0 0 163 0 0 163 0 0 163 0 0 163 0 0 163 0 0 163 0 0 163 0 0 163 0 0 163 0 0 136 0 0 136 0 0 136 0 0 136 0 0 136 0 0 136 0 0 136 0 0 136 0 0 136 0 0 136 0 0 73 0 0 73 0 0 73 0 0 73 0 0 73 0 0 73 0 0 73 0 0 73 0 0 73 0 0 73 0 0 18 0 0 18 0 0 18 0 0 18 0 0 18 0 0 18 0 0 18 0 0 18 0 0 18 0 0 18 0 0 33 0 0 33 0 0 33 0 0 33 0 0 33 0 0 33 0 0 33 0 0 33 0 0 33 0 0 33 0 0 46 0 0 46 0 0 46 0 0 46 0 0 46 0 0 46 0 0 46 0 0 46 0 0 46 0 0 46 0 0 64 0 0 64 0 0 64 0 0 64 0 0 64 0 0 64 0 0 64 0 0 64 0 0 64 0 0 64 0 0 146 0 0 146 0 0 146 0 0 146 0 0 146 0 0 146 0 0 146 0 0 146 0 0 146 0 0 146 0 0 172 0 0 172 0 0 172 0 0 172 0 0 172 0 0 172 0 0 172 0 0 172 0 0 172 0 0 172 0 0 213 0 0 213 0 0 213 0 0 213 0 0 213 0 0 213 0 0 213 0 0 213 0 0 213 0 0 213 0 0 160 0 0 160 0 0 160 0 0 160 0 0 160 0 0 160 0 0 160 0 0 160 0 0 160 0 0 160 0 0 156 0 0 156 0 0 156 0 0 156 0 0 156 0 0 156 0 0 156 0 0 156 0 0 156 0 0 156 0 0 107 0 0 107 0 0 107 0 0 107 0 0 107 0 0 107 0 0 107 0 0 107 0 0 107 0 0 107 0 0 91 0 0 91 0 0 91 0 0 91 0 0 91 0 0 91 0 0 91 0 0 91 0 0 91 0 0 91 0 0 136 0 0 136 0 0 136 0 0 136 0 0 136 0 0 136 0 0 136 0 0 136 0 0 136 0 0 136 0 0 131 0 0 131 0 0 131 0 0 131 0 0 131 0 0 131 0 0 131 0 0 131 0 0 131 0 0 131 0 0 145 0 0 145 0 0 145 0 0 145 0 0 145 0 0 145 0 0 145 0 0 145 0 0 145 0 0 145 0 0 124 0 0 124 0 0 124 0 0 124 0 0 124 0 0 124 0 0 124 0 0 124 0 0 124 0 0 124 0 0 138 0 0 138 0 0 138 0 0 138 0 0 138 0 0 138 0 0 138 0 0 138 0 0 138 0 0 138 0 0 125 0 0 125 0 0 125 0 0 125 0 0 125 0 0 125 0 0 125 0 0 125 0 0 125 0 0 125 0 0 0 0 0 0 0 0 0 0 0 0 0 0 0 0 0 0 0 0 0 0 0 0 0 0 0 0 0 0 0 0 0 86 255 0 86 255 0 86 255 0 86 255 0 86 255 0 86 255 0 86 255 0 86 255 0 86 255 0 86 255 0 86 255 0 86 255 0 86 255 0 86 255 0 86 255 0 86 255 0 86 255 0 86 255 0 86 255 0 86 255 0 86 255 0 86 255 0 86 255 0 86 255 0 86 255 0 86 255 0 86 255 0 86 255 0 86 255 0 86 255 
109 0 0 109 0 0 109 0 0 109 0 0 109 0 0 109 0 0 109 0 0 109 0 0 109 0 0 109 0 0 109 0 0 109 0 0 109 0 0 109 0 0 109 0 0 109 0 0 109 0 0 109 0 0 109 0 0 109 0 0 116 0 0 116 0 0 116 0 0 116 0 0 116 0 0 116 0 0 116 0 0 116 0 0 116 0 0 116 0 0 111 0 0 111 0 0 111 0 0 111 0 0 111 0 0 111 0 0 111 0 0 111 0 0 111 0 0 111 0 0 158 0 0 158 0 0 158 0 0 158 0 0 158 0 0 158 0 0 158 0 0 158 0 0 158 0 0 158 0 0 192 0 0 192 0 0 192 0 0 192 0 0 192 0 0 192 0 0 192 0 0 192 0 0 192 0 0 192 0 0 246 0 0 246 0 0 246 0 0 246 0 0 246 0 0 246 0 0 246 0 0 246 0 0 246 0 0 246 0 0 185 0 0 185 0 0 185 0 0 185 0 0 185 0 0 185 0 0 185 0 0 185 0 0 185 0 0 185 0 0 163 0 0 163 0 0 163 0 0 163 0 0 163 0 0 163 0 0 163 0 0 163 0 0 163 0 0 163 0 0 136 0 0 136 0 0 136 0 0 136 0 0 136 0 0 136 0 0 136 0 0 136 0 0 136 0 0 136 0 0 73 0 0 73 0 0 73 0 0 73 0 0 73 0 0 73 0 0 73 0 0 73 0 0 73 0 0 73 0 0 18 0 0 18 0 0 18 0 0 18 0 0 18 0 0 18 0 0 18 0 0 18 0 0 18 0 0 18 0 0 33 0 0 33 0 0 33 0 0 33 0 0 33 0 0 33 0 0 33 0 0 33 0 0 33 0 0 33 0 0 46 0 0 46 0 0 46 0 0 46 0 0 46 0 0 46 0 0 46 0 0 46 0 0 46 0 0 46 0 0 64 0 0 64 0 0 64 0 0 64 0 0 64 0 0 64 0 0 64 0 0 64 0 0 64 0 0 64 0 0 146 0 0 146 0 0 146 0 0 146 0 0 146 0 0 146 0 0 146 0 0 146 0 0 146 0 0 146 0 0 172 0 0 172 0 0 172 0 0 172 0 0 172 0 0 172 0 0 172 0 0 172 0 0 172 0 0 172 0 0 213 0 0 213 0 0 213 0 0 213 0 0 213 0 0 213 0 0 213 0 0 213 0 0 213 0 0 213 0 0 160 0 0 160 0 0 160 0 0 160 0 0 160 0 0 160 0 0 160 0 0 160 0 0 160 0 0 160 0 0 156 0 0 156 0 0 156 0 0 156 0 0 156 0 0 156 0 0 156 0 0 156 0 0 156 0 0 156 0 0 107 0 0 107 0 0 107 0 0 107 0 0 107 0 0 107 0 0 107 0 0 107 0 0 107 0 0 107 0 0 91 0 0 91 0 0 91 0 0 91 0 0 91 0 0 91 0 0 91 0 0 91 0 0 91 0 0 91 0 0 136 0 0 136 0 0 136 0 0 136 0 0 136 0 0 136 0 0 136 0 0 136 0 0 136 0 0 136 0 0 131 0 0 131 0 0 131 0 0 131 0 0 131 0 0 131 0 0 131 0 0 131 0 0 131 0 0 131 0 0 145 0 0 145 0 0 145 0 0 145 0 0 145 0 0 145 0 0 145 0 0 145 0 0 145 0 0 145 0 0 124 0 0 124 0 0 124 0 0 124 0 0 124 0 0 124 0 0 124 0 0 124 0 0 124 0 0 124 0 0 138 0 0 138 0 0 138 0 0 138 0 0 138 0 0 138 0 0 138 0 0 138 0 0 138 0 0 138 0 0 125 0 0 125 0 0 125 0 0 125 0 0 125 0 0 125 0 0 125 0 0 125 0 0 125 0 0 125 0 0 0 0 0 0 0 0 0 0 0 0 0 0 0 0 0 0 0 0 0 0 0 0 0 0 0 0 0 0 0 0 0 90 255 0 90 255 0 90 255 0 90 255 0 90 255 0 90 255 0 90 255 0 90 255 0 90 255 0 90 255 0 90 255 0 90 255 0 90 255 0 90 255 0 90 255 0 90 255 0 90 255 0 90 255 0 90 255 0 90 255 0 90 255 0 90 255 0 90 255 0 90 255 0 90 255 0 90 255 0 90 255 0 90 255 0 90 255 0 90 255 
109 0 0 109 0 0 109 0 0 109 0 0 109 0 0 109 0 0 109 0 0 109 0 0 109 0 0 109 0 0 109 0 0 109 0 0 109 0 0 109 0 0 109 0 0 109 0 0 109 0 0 109 0 0 109 0 0 109 0 0 116 0 0 116 0 0 116 0 0 116 0 0 116 0 0 116 0 0 116 0 0 116 0 0 116 0 0 116 0 0 111 0 0 111 0 0 111 0 0 111 0 0 111 0 0 111 0 0 111 0 0 111 0 0 111 0 0 111 0 0 158 0 0 158 0 0 158 0 0 158 0 0 158 0 0 158 0 0 158 0 0 158 0 0 158 0 0 158 0 0 192 0 0 192 0 0 192 0 0 192 0 0 192 0 0 192 0 0 192 0 0 192 0 0 192 0 0 192 0 0 246 0 0 246 0 0 246 0 0 246 0 0 246 0 0 246 0 0 246 0 0 246 0 0 246 0 0 246 0 0 185 0 0 185 0 0 185 0 0 185 0 0 185 0 0 185 0 0 185 0 0 185 0 0 185 0 0 185 0 0 163 0 0 163 0 0 163 0 0 163 0 0 163 0 0 163 0 0 163 0 0 163 0 0 163 0 0 163 0 0 136 0 0 136 0 0 136 0 0 136 0 0 136 0 0 136 0 0 136 0 0 136 0 0 136 0 0 136 0 0 73 0 0 73 0 0 73 0 0 73 0 0 73 0 0 73 0 0 73 0 0 73 0 0 73 0 0 73 0 0 18 0 0 18 0 0 18 0 0 18 0 0 18 0 0 18 0 0 18 0 0 18 0 0 18 0 0 18 0 0 33 0 0 33 0 0 33 0 0 33 0 0 33 0 0 33 0 0 33 0 0 33 0 0 33 0 0 33 0 0 46 0 0 46 0 0 46 0 0 46 0 0 46 0 0 46 0 0 46 0 0 46 0 0 46 0 0 46 0 0 64 0 0 64 0 0 64 0 0 64 0 0 64 0 0 64 0 0 64 0 0 64 0 0 64 0 0 64 0 0 146 0 0 146 0 0 146 0 0 146 0 0 146 0 0 146 0 0 146 0 0 146 0 0 146 0 0 146 0 0 172 0 0 172 0 0 172 0 0 172 0 0 172 0 0 172 0 0 172 0 0 172 0 0 172 0 0 172 0 0 213 0 0 213 0 0 213 0 0 213 0 0 213 0 0 213 0 0 213 0 0 213 0 0 213 0 0 213 0 0 160 0 0 160 0 0 160 0 0 160 0 0 160 0 0 160 0 0 160 0 0 160 0 0 160 0 0 160 0 0 156 0 0 156 0 0 156 0 0 156 0 0 156 0 0 156 0 0 156 0 0 156 0 0 156 0 0 156 0 0 107 0 0 107 0 0 107 0 0 107 0 0 107 0 0 107 0 0 107 0 0 107 0 0 107 0 0 107 0 0 91 0 0 91 0 0 91 0 0 91 0 0 91 0 0 91 0 0 91 0 0 91 0 0 91 0 0 91 0 0 136 0 0 136 0 0 136 0 0 136 0 0 136 0 0 136 0 0 136 0 0 136 0 0 136 0 0 136 0 0 131 0 0 131 0 0 131 0 0 131 0 0 131 0 0 131 0 0 131 0 0 131 0 0 131 0 0 131 0 0 145 0 0 145 0 0 145 0 0 145 0 0 145 0 0 145 0 0 145 0 0 145 0 0 145 0 0 145 0 0 124 0 0 124 0 0 124 0 0 124 0 0 124 0 0 124 0 0 124 0 0 124 0 0 124 0 0 124 0 0 138 0 0 138 0 0 138 0 0 138 0 0 138 0 0 138 0 0 138 0 0 138 0 0 138 0 0 138 0 0 125 0 0 125 0 0 125 0 0 125 0 0 125 0 0 125 0 0 125 0 0 125 0 0 125 0 0 125 0 0 0 0 0 0 0 0 0 0 0 0 0 0 0 0 0 0 0 0 0 0 0 0 0 0 0 0 0 0 0 0 0 94 255 0 94 255 0 94 255 0 94 255 0 94 255 0 94 255 0 94 255 0 94 255 0 94 255 0 94 255 0 94 255 0 94 255 0 94 255 0 94 255 0 94 255 0 94 255 0 94 255 0 94 255 0 94 255 0 94 255 0 94 255 0 94 255 0 94 255 0 94 255 0 94 255 0 94 255 0 94 255 0 94 255 0 94 255 0 94 255 
109 0 0 109 0 0 109 0 0 109 0 0 109 0 0 109 0 0 109 0 0 109 0 0 109 0 0 109 0 0 109 0 0 109 0 0 109 0 0 109 0 0 109 0 0 109 0 0 109 0 0 109 0 0 109 0 0 109 0 0 116 0 0 116 0 0 116 0 0 116 0 0 116 0 0 116 0 0 116 0 0 116 0 0 116 0 0 116 0 0 111 0 0 111 0 0 111 0 0 111 0 0 111 0 0 111 0 0 111 0 0 111 0 0 111 0 0 111 0 0 158 0 0 158 0 0 158 0 0 158 0 0 158 0 0 158 0 0 158 0 0 158 0 0 158 0 0 158 0 0 192 0 0 192 0 0 192 0 0 192 0 0 192 0 0 192 0 0 192 0 0 192 0 0 192 0 0 192 0 0 246 0 0 246 0 0 246 0 0 246 0 0 246 0 0 246 0 0 246 0 0 246 0 0 246 0 0 246 0 0 185 0 0 185 0 0 185 0 0 185 0 0 185 0 0 185 0 0 185 0 0 185 0 0 185 0 0 185 0 0 163 0 0 163 0 0 163 0 0 163 0 0 163 0 0 163 0 0 163 0 0 163 0 0 163 0 0 163 0 0 136 0 0 136 0 0 136 0 0 136 0 0 136 0 0 136 0 0 136 0 0 136 0 0 136 0 0 136 0 0 73 0 0 73 0 0 73 0 0 73 0 0 73 0 0 73 0 0 73 0 0 73 0 0 73 0 0 73 0 0 18 0 0 18 0 0 18 0 0 18 0 0 18 0 0 18 0 0 18 0 0 18 0 0 18 0 0 18 0 0 33 0 0 33 0 0 33 0 0 33 0 0 33 0 0 33 0 0 33 0 0 33 0 0 33 0 0 33 0 0 46 0 0 46 0 0 46 0 0 46 0 0 46 0 0 46 0 0 46 0 0 46 0 0 46 0 0 46 0 0 64 0 0 64 0 0 64 0 0 64 0 0 64 0 0 64 0 0 64 0 0 64 0 0 64 0 0 64 0 0 146 0 0 146 0 0 146 0 0 146 0 0 146 0 0 146 0 0 146 0 0 146 0 0 146 0 0 146 0 0 172 0 0 172 0 0 172 0 0 172 0 0 172 0 0 172 0 0 172 0 0 172 0 0 172 0 0 172 0 0 213 0 0 213 0 0 213 0 0 213 0 0 213 0 0 213 0 0 213 0 0 213 0 0 213 0 0 213 0 0 160 0 0 160 0 0 160 0 0 160 0 0 160 0 0 160 0 0 160 0 0 160 0 0 160 0 0 160 0 0 156 0 0 156 0 0 156 0 0 156 0 0 156 0 0 156 0 0 156 0 0 156 0 0 156 0 0 156 0 0 107 0 0 107 0 0 107 0 0 107 0 0 107 0 0 107 0 0 107 0 0 107 0 0 107 0 0 107 0 0 91 0 0 91 0 0 91 0 0 91 0 0 91 0 0 91 0 0 91 0 0 91 0 0 91 0 0 91 0 0 136 0 0 136 0 0 136 0 0 136 0 0 136 0 0 136 0 0 136 0 0 136 0 0 136 0 0 136 0 0 131 0 0 131 0 0 131 0 0 131 0 0 131 0 0 131 0 0 131 0 0 131 0 0 131 0 0 131 0 0 145 0 0 145 0 0 145 0 0 145 0 0 145 0 0 145 0 0 145 0 0 145 0 0 145 0 0 145 0 0 124 0 0 124 0 0 124 0 0 124 0 0 124 0 0 124 0 0 124 0 0 124 0 0 124 0 0 124 0 0 138 0 0 138 0 0 138 0 0 138 0 0 138 0 0 138 0 0 138 0 0 138 0 0 138 0 0 138 0 0 125 0 0 125 0 0 125 0 0 125 0 0 125 0 0 125 0 0 125 0 0 125 0 0 125 0 0 125 0 0 0 0 0 0 0 0 0 0 0 0 0 0 0 0 0 0 0 0 0 0 0 0 0 0 0 0 0 0 0 0 0 97 255 0 97 255 0 97 255 0 97 255 0 97 255 0 97 255 0 97 255 0 97 255 0 97 255 0 97 255 0 97 255 0 97 255 0 97 255 0 97 255 0 97 255 0 97 255 0 97 255 0 97 255 0 97 255 0 97 255 0 97 255 0 97 255 0 97 255 0 97 255 0 97 255 0 97 255 0 97 255 0 97 255 0 97 255 0 97 255 
109 0 0 109 0 0 109 0 0 109 0 0 109 0 0 109 0 0 109 0 0 109 0 0 109 0 0 109 0 0 109 0 0 109 0 0 109 0 0 109 0 0 109 0 0 109 0 0 109 0 0 109 0 0 109 0 0 109 0 0 116 0 0 116 0 0 116 0 0 116 0 0 116 0 0 116 0 0 116 0 0 116 0 0 116 0 0 116 0 0 111 0 0 111 0 0 111 0 0 111 0 0 111 0 0 111 0 0 111 0 0 111 0 0 111 0 0 111 0 0 158 0 0 158 0 0 158 0 0 158 0 0 158 0 0 158 0 0 158 0 0 158 0 0 158 0 0 158 0 0 192 0 0 192 0 0 192 0 0 192 0 0 192 0 0 192 0 0 192 0 0 192 0 0 192 0 0 192 0 0 246 0 0 246 0 0 246 0 0 246 0 0 246 0 0 246 0 0 246 0 0 246 0 0 246 0 0 246 0 0 185 0 0 185 0 0 185 0 0 185 0 0 185 0 0 185 0 0 185 0 0 185 0 0 185 0 0 185 0 0 163 0 0 163 0 0 163 0 0 163 0 0 163 0 0 163 0 0 163 0 0 163 0 0 163 0 0 163 0 0 136 0 0 136 0 0 136 0 0 136 0 0 136 0 0 136 0 0 136 0 0 136 0 0 136 0 0 136 0 0 73 0 0 73 0 0 73 0 0 73 0 0 73 0 0 73 0 0 73 0 0 73 0 0 73 0 0 73 0 0 18 0 0 18 0 0 18 0 0 18 0 0 18 0 0 18 0 0 18 0 0 18 0 0 18 0 0 18 0 0 33 0 0 33 0 0 33 0 0 33 0 0 33 0 0 33 0 0 33 0 0 33 0 0 33 0 0 33 0 0 46 0 0 46 0 0 46 0 0 46 0 0 46 0 0 46 0 0 46 0 0 46 0 0 46 0 0 46 0 0 64 0 0 64 0 0 64 0 0 64 0 0 64 0 0 64 0 0 64 0 0 64 0 0 64 0 0 64 0 0 146 0 0 146 0 0 146 0 0 146 0 0 146 0 0 146 0 0 146 0 0 146 0 0 146 0 0 146 0 0 172 0 0 172 0 0 172 0 0 172 0 0 172 0 0 172 0 0 172 0 0 172 0 0 172 0 0 172 0 0 213 0 0 213 0 0 213 0 0 213 0 0 213 0 0 213 0 0 213 0 0 213 0 0 213 0 0 213 0 0 160 0 0 160 0 0 160 0 0 160 0 0 160 0 0 160 0 0 160 0 0 160 0 0 160 0 0 160 0 0 156 0 0 156 0 0 156 0 0 156 0 0 156 0 0 156 0 0 156 0 0 156 0 0 156 0 0 156 0 0 107 0 0 107 0 0 107 0 0 107 0 0 107 0 0 107 0 0 107 0 0 107 0 0 107 0 0 107 0 0 91 0 0 91 0 0 91 0 0 91 0 0 91 0 0 91 0 0 91 0 0 91 0 0 91 0 0 91 0 0 136 0 0 136 0 0 136 0 0 136 0 0 136 0 0 136 0 0 136 0 0 136 0 0 136 0 0 136 0 0 131 0 0 131 0 0 131 0 0 131 0 0 131 0 0 131 0 0 131 0 0 131 0 0 131 0 0 131 0 0 145 0 0 145 0 0 145 0 0 145 0 0 145 0 0 145 0 0 145 0 0 145 0 0 145 0 0 145 0 0 124 0 0 124 0 0 124 0 0 124 0 0 124 0 0 124 0 0 124 0 0 124 0 0 124 0 0 124 0 0 138 0 0 138 0 0 138 0 0 138 0 0 138 0 0 138 0 0 138 0 0 138 0 0 138 0 0 138 0 0 125 0 0 125 0 0 125 0 0 125 0 0 125 0 0 125 0 0 125 0 0 125 0 0 125 0 0 125 0 0 0 0 0 0 0 0 0 0 0 0 0 0 0 0 0 0 0 0 0 0 0 0 0 0 0 0 0 0 0 0 0 101 255 0 101 255 0 101 255 0 101 255 0 101 255 0 101 255 0 101 255 0 101 255 0 101 255 0 101 255 0 101 255 0 101 255 0 101 255 0 101 255 0 101 255 0 101 255 0 101 255 0 101 255 0 101 255 0 101 255 0 101 255 0 101 255 0 101 255 0 101 255 0 101 255 0 101 255 0 101 255 0 101 255 0 101 255 0 101 255 
109 0 0 109 0 0 109 0 0 109 0 0 109 0 0 109 0 0 109 0 0 109 0 0 109 0 0 109 0 0 109 0 0 109 0 0 109 0 0 109 0 0 109 0 0 109 0 0 109 0 0 109 0 0 109 0 0 109 0 0 116 0 0 116 0 0 116 0 0 116 0 0 116 0 0 116 0 0 116 0 0 116 0 0 116 0 0 116 0 0 111 0 0 111 0 0 111 0 0 111 0 0 111 0 0 111 0 0 111 0 0 111 0 0 111 0 0 111 0 0 158 0 0 158 0 0 158 0 0 158 0 0 158 0 0 158 0 0 158 0 0 158 0 0 158 0 0 158 0 0 192 0 0 192 0 0 192 0 0 192 0 0 192 0 0 192 0 0 192 0 0 192 0 0 192 0 0 192 0 0 246 0 0 246 0 0 246 0 0 246 0 0 246 0 0 246 0 0 246 0 0 246 0 0 246 0 0 246 0 0 185 0 0 185 0 0 185 0 0 185 0 0 185 0 0 185 0 0 185 0 0 185 0 0 185 0 0 185 0 0 163 0 0 163 0 0 163 0 0 163 0 0 163 0 0 163 0 0 163 0 0 163 0 0 163 0 0 163 0 0 136 0 0 136 0 0 136 0 0 136 0 0 136 0 0 136 0 0 136 0 0 136 0 0 136 0 0 136 0 0 73 0 0 73 0 0 73 0 0 73 0 0 73 0 0 73 0 0 73 0 0 73 0 0 73 0 0 73 0 0 18 0 0 18 0 0 18 0 0 18 0 0 18 0 0 18 0 0 18 0 0 18 0 0 18 0 0 18 0 0 33 0 0 33 0 0 33 0 0 33 0 0 33 0 0 33 0 0 33 0 0 33 0 0 33 0 0 33 0 0 46 0 0 46 0 0 46 0 0 46 0 0 46 0 0 46 0 0 46 0 0 46 0 0 46 0 0 46 0 0 64 0 0 64 0 0 64 0 0 64 0 0 64 0 0 64 0 0 64 0 0 64 0 0 64 0 0 64 0 0 146 0 0 146 0 0 146 0 0 146 0 0 146 0 0 146 0 0 146 0 0 146 0 0 146 0 0 146 0 0 172 0 0 172 0 0 172 0 0 172 0 0 172 0 0 172 0 0 172 0 0 172 0 0 172 0 0 172 0 0 213 0 0 213 0 0 213 0 0 213 0 0 213 0 0 213 0 0 213 0 0 213 0 0 213 0 0 213 0 0 160 0 0 160 0 0 160 0 0 160 0 0 160 0 0 160 0 0 160 0 0 160 0 0 160 0 0 160 0 0 156 0 0 156 0 0 156 0 0 156 0 0 156 0 0 156 0 0 156 0 0 156 0 0 156 0 0 156 0 0 107 0 0 107 0 0 107 0 0 107 0 0 107 0 0 107 0 0 107 0 0 107 0 0 107 0 0 107 0 0 91 0 0 91 0 0 91 0 0 91 0 0 91 0 0 91 0 0 91 0 0 91 0 0 91 0 0 91 0 0 136 0 0 136 0 0 136 0 0 136 0 0 136 0 0 136 0 0 136 0 0 136 0 0 136 0 0 136 0 0 131 0 0 131 0 0 131 0 0 131 0 0 131 0 0 131 0 0 131 0 0 131 0 0 131 0 0 131 0 0 145 0 0 145 0 0 145 0 0 145 0 0 145 0 0 145 0 0 145 0 0 145 0 0 145 0 0 145 0 0 124 0 0 124 0 0 124 0 0 124 0 0 124 0 0 124 0 0 124 0 0 124 0 0 124 0 0 124 0 0 138 0 0 138 0 0 138 0 0 138 0 0 138 0 0 138 0 0 138 0 0 138 0 0 138 0 0 138 0 0 125 0 0 125 0 0 125 0 0 125 0 0 125 0 0 125 0 0 125 0 0 125 0 0 125 0 0 125 0 0 0 0 0 0 0 0 0 0 0 0 0 0 0 0 0 0 0 0 0 0 0 0 0 0 0 0 0 0 0 0 0 105 255 0 105 255 0 105 255 0 105 255 0 105 255 0 105 255 0 105 255 0 105 255 0 105 255 0 105 255 0 105 255 0 105 255 0 105 255 0 105 255 0 105 255 0 105 255 0 105 255 0 105 255 0 105 255 0 105 255 0 105 255 0 105 255 0 105 255 0 105 255 0 105 255 0 105 255 0 105 255 0 105 255 0 105 255 0 105 255 
109 0 0 109 0 0 109 0 0 109 0 0 109 0 0 109 0 0 109 0 0 109 0 0 109 0 0 109 0 0 109 0 0 109 0 0 109 0 0 109 0 0 109 0 0 109 0 0 109 0 0 109 0 0 109 0 0 109 0 0 116 0 0 116 0 0 116 0 0 116 0 0 116 0 0 116 0 0 116 0 0 116 0 0 116 0 0 116 0 0 111 0 0 111 0 0 111 0 0 111 0 0 111 0 0 111 0 0 111 0 0 111 0 0 111 0 0 111 0 0 158 0 0 158 0 0 158 0 0 158 0 0 158 0 0 158 0 0 158 0 0 158 0 0 158 0 0 158 0 0 192 0 0 192 0 0 192 0 0 192 0 0 192 0 0 192 0 0 192 0 0 192 0 0 192 0 0 192 0 0 246 0 0 246 0 0 246 0 0 246 0 0 246 0 0 246 0 0 246 0 0 246 0 0 246 0 0 246 0 0 185 0 0 185 0 0 185 0 0 185 0 0 185 0 0 185 0 0 185 0 0 185 0 0 185 0 0 185 0 0 163 0 0 163 0 0 163 0 0 163 0 0 163 0 0 163 0 0 163 0 0 163 0 0 163 0 0 163 0 0 136 0 0 136 0 0 136 0 0 136 0 0 136 0 0 136 0 0 136 0 0 136 0 0 136 0 0 136 0 0 73 0 0 73 0 0 73 0 0 73 0 0 73 0 0 73 0 0 73 0 0 73 0 0 73 0 0 73 0 0 18 0 0 18 0 0 18 0 0 18 0 0 18 0 0 18 0 0 18 0 0 18 0 0 18 0 0 18 0 0 33 0 0 33 0 0 33 0 0 33 0 0 33 0 0 33 0 0 33 0 0 33 0 0 33 0 0 33 0 0 46 0 0 46 0 0 46 0 0 46 0 0 46 0 0 46 0 0 46 0 0 46 0 0 46 0 0 46 0 0 64 0 0 64 0 0 64 0 0 64 0 0 64 0 0 64 0 0 64 0 0 64 0 0 64 0 0 64 0 0 146 0 0 146 0 0 146 0 0 146 0 0 146 0 0 146 0 0 146 0 0 146 0 0 146 0 0 146 0 0 172 0 0 172 0 0 172 0 0 172 0 0 172 0 0 172 0 0 172 0 0 172 0 0 172 0 0 172 0 0 213 0 0 213 0 0 213 0 0 213 0 0 213 0 0 213 0 0 213 0 0 213 0 0 213 0 0 213 0 0 160 0 0 160 0 0 160 0 0 160 0 0 160 0 0 160 0 0 160 0 0 160 0 0 160 0 0 160 0 0 156 0 0 156 0 0 156 0 0 156 0 0 156 0 0 156 0 0 156 0 0 156 0 0 156 0 0 156 0 0 107 0 0 107 0 0 107 0 0 107 0 0 107 0 0 107 0 0 107 0 0 107 0 0 107 0 0 107 0 0 91 0 0 91 0 0 91 0 0 91 0 0 91 0 0 91 0 0 91 0 0 91 0 0 91 0 0 91 0 0 136 0 0 136 0 0 136 0 0 136 0 0 136 0 0 136 0 0 136 0 0 136 0 0 136 0 0 136 0 0 131 0 0 131 0 0 131 0 0 131 0 0 131 0 0 131 0 0 131 0 0 131 0 0 131 0 0 131 0 0 145 0 0 145 0 0 145 0 0 145 0 0 145 0 0 145 0 0 145 0 0 145 0 0 145 0 0 145 0 0 124 0 0 124 0 0 124 0 0 124 0 0 124 0 0 124 0 0 124 0 0 124 0 0 124 0 0 124 0 0 138 0 0 138 0 0 138 0 0 138 0 0 138 0 0 138 0 0 138 0 0 138 0 0 138 0 0 138 0 0 125 0 0 125 0 0 125 0 0 125 0 0 125 0 0 125 0 0 125 0 0 125 0 0 125 0 0 125 0 0 0 0 0 0 0 0 0 0 0 0 0 0 0 0 0 0 0 0 0 0 0 0 0 0 0 0 0 0 0 0 0 108 255 0 108 255 0 108 255 0 108 255 0 108 255 0 108 255 0 108 255 0 108 255 0 108 255 0 108 255 0 108 255 0 108 255 0 108 255 0 108 255 0 108 255 0 108 255 0 108 255 0 108 255 0 108 255 0 108 255 0 108 255 0 108 255 0 108 255 0 108 255 0 108 255 0 108 255 0 108 255 0 108 255 0 108 255 0 108 255 
145 0 0 145 0 0 145 0 0 145 0 0 145 0 0 145 0 0 145 0 0 145 0 0 145 0 0 145 0 0 116 0 0 116 0 0 116 0 0 116 0 0 116 0 0 116 0 0 116 0 0 116 0 0 116 0 0 116 0 0 116 0 0 116 0 0 116 0 0 116 0 0 116 0 0 116 0 0 116 0 0 116 0 0 116 0 0 116 0 0 147 0 0 147 0 0 147 0 0 147 0 0 147 0 0 147 0 0 147 0 0 147 0 0 147 0 0 147 0 0 129 0 0 129 0 0 129 0 0 129 0 0 129 0 0 129 0 0 129 0 0 129 0 0 129 0 0 129 0 0 156 0 0 156 0 0 156 0 0 156 0 0 156 0 0 156 0 0 156 0 0 156 0 0 156 0 0 156 0 0 161 0 0 161 0 0 161 0 0 161 0 0 161 0 0 161 0 0 161 0 0 161 0 0 161 0 0 161 0 0 101 0 0 101 0 0 101 0 0 101 0 0 101 0 0 101 0 0 101 0 0 101 0 0 101 0 0 101 0 0 64 0 0 64 0 0 64 0 0 64 0 0 64 0 0 64 0 0 64 0 0 64 0 0 64 0 0 64 0 0 51 0 0 51 0 0 51 0 0 51 0 0 51 0 0 51 0 0 51 0 0 51 0 0 51 0 0 51 0 0 14 0 0 14 0 0 14 0 0 14 0 0 14 0 0 14 0 0 14 0 0 14 0 0 14 0 0 14 0 0 27 0 0 27 0 0 27 0 0 27 0 0 27 0 0 27 0 0 27 0 0 27 0 0 27 0 0 27 0 0 3 0 0 3 0 0 3 0 0 3 0 0 3 0 0 3 0 0 3 0 0 3 0 0 3 0 0 3 0 0 6 0 0 6 0 0 6 0 0 6 0 0 6 0 0 6 0 0 6 0 0 6 0 0 6 0 0 6 0 0 34 0 0 34 0 0 34 0 0 34 0 0 34 0 0 34 0 0 34 0 0 34 0 0 34 0 0 34 0 0 30 0 0 30 0 0 30 0 0 30 0 0 30 0 0 30 0 0 30 0 0 30 0 0 30 0 0 30 0 0 62 0 0 62 0 0 62 0 0 62 0 0 62 0 0 62 0 0 62 0 0 62 0 0 62 0 0 62 0 0 126 0 0 126 0 0 126 0 0 126 0 0 126 0 0 126 0 0 126 0 0 126 0 0 126 0 0 126 0 0 131 0 0 131 0 0 131 0 0 131 0 0 131 0 0 131 0 0 131 0 0 131 0 0 131 0 0 131 0 0 145 0 0 145 0 0 145 0 0 145 0 0 145 0 0 145 0 0 145 0 0 145 0 0 145 0 0 145 0 0 141 0 0 141 0 0 141 0 0 141 0 0 141 0 0 141 0 0 141 0 0 141 0 0 141 0 0 141 0 0 105 0 0 105 0 0 105 0 0 105 0 0 105 0 0 105 0 0 105 0 0 105 0 0 105 0 0 105 0 0 102 0 0 102 0 0 102 0 0 102 0 0 102 0 0 102 0 0 102 0 0 102 0 0 102 0 0 102 0 0 137 0 0 137 0 0 137 0 0 137 0 0 137 0 0 137 0 0 137 0 0 137 0 0 137 0 0 137 0 0 153 0 0 153 0 0 153 0 0 153 0 0 153 0 0 153 0 0 153 0 0 153 0 0 153 0 0 153 0 0 126 0 0 126 0 0 126 0 0 126 0 0 126 0 0 126 0 0 126 0 0 126 0 0 126 0 0 126 0 0 125 0 0 125 0 0 125 0 0 125 0 0 125 0 0 125 0 0 125 0 0 125 0 0 125 0 0 125 0 0 136 0 0 136 0 0 136 0 0 136 0 0 136 0 0 136 0 0 136 0 0 136 0 0 136 0 0 136 0 0 0 0 0 0 0 0 0 0 0 0 0 0 0 0 0 0 0 0 0 0 0 0 0 0 0 0 0 0 0 0 0 112 255 0 112 255 0 112 255 0 112 255 0 112 255 0 112 255 0 112 255 0 112 255 0 112 255 0 112 255 0 112 255 0 112 255 0 112 255 0 112 255 0 112 255 0 112 255 0 112 255 0 112 255 0 112 255 0 112 255 0 112 255 0 112 255 0 112 255 0 112 255 0 112 255 0 112 255 0 112 255 0 112 255 0 112 255 0 112 255 
145 0 0 145 0 0 145 0 0 145 0 0 145 0 0 145 0 0 145 0 0 145 0 0 145 0 0 145 0 0 116 0 0 116 0 0 116 0 0 116 0 0 116 0 0 116 0 0 116 0 0 116 0 0 116 0 0 116 0 0 116 0 0 116 0 0 116 0 0 116 0 0 116 0 0 116 0 0 116 0 0 116 0 0 116 0 0 116 0 0 147 0 0 147 0 0 147 0 0 147 0 0 147 0 0 147 0 0 147 0 0 147 0 0 147 0 0 147 0 0 129 0 0 129 0 0 129 0 0 129 0 0 129 0 0 129 0 0 129 0 0 129 0 0 129 0 0 129 0 0 156 0 0 156 0 0 156 0 0 156 0 0 156 0 0 156 0 0 156 0 0 156 0 0 156 0 0 156 0 0 161 0 0 161 0 0 161 0 0 161 0 0 161 0 0 161 0 0 161 0 0 161 0 0 161 0 0 161 0 0 101 0 0 101 0 0 101 0 0 101 0 0 101 0 0 101 0 0 101 0 0 101 0 0 101 0 0 101 0 0 64 0 0 64 0 0 64 0 0 64 0 0 64 0 0 64 0 0 64 0 0 64 0 0 64 0 0 64 0 0 51 0 0 51 0 0 51 0 0 51 0 0 51 0 0 51 0 0 51 0 0 51 0 0 51 0 0 51 0 0 14 0 0 14 0 0 14 0 0 14 0 0 14 0 0 14 0 0 14 0 0 14 0 0 14 0 0 14 0 0 27 0 0 27 0 0 27 0 0 27 0 0 27 0 0 27 0 0 27 0 0 27 0 0 27 0 0 27 0 0 3 0 0 3 0 0 3 0 0 3 0 0 3 0 0 3 0 0 3 0 0 3 0 0 3 0 0 3 0 0 6 0 0 6 0 0 6 0 0 6 0 0 6 0 0 6 0 0 6 0 0 6 0 0 6 0 0 6 0 0 34 0 0 34 0 0 34 0 0 34 0 0 34 0 0 34 0 0 34 0 0 34 0 0 34 0 0 34 0 0 30 0 0 30 0 0 30 0 0 30 0 0 30 0 0 30 0 0 30 0 0 30 0 0 30 0 0 30 0 0 62 0 0 62 0 0 62 0 0 62 0 0 62 0 0 62 0 0 62 0 0 62 0 0 62 0 0 62 0 0 126 0 0 126 0 0 126 0 0 126 0 0 126 0 0 126 0 0 126 0 0 126 0 0 126 0 0 126 0 0 131 0 0 131 0 0 131 0 0 131 0 0 131 0 0 131 0 0 131 0 0 131 0 0 131 0 0 131 0 0 145 0 0 145 0 0 145 0 0 145 0 0 145 0 0 145 0 0 145 0 0 145 0 0 145 0 0 145 0 0 141 0 0 141 0 0 141 0 0 141 0 0 141 0 0 141 0 0 141 0 0 141 0 0 141 0 0 141 0 0 105 0 0 105 0 0 105 0 0 105 0 0 105 0 0 105 0 0 105 0 0 105 0 0 105 0 0 105 0 0 102 0 0 102 0 0 102 0 0 102 0 0 102 0 0 102 0 0 102 0 0 102 0 0 102 0 0 102 0 0 137 0 0 137 0 0 137 0 0 137 0 0 137 0 0 137 0 0 137 0 0 137 0 0 137 0 0 137 0 0 153 0 0 153 0 0 153 0 0 153 0 0 153 0 0 153 0 0 153 0 0 153 0 0 153 0 0 153 0 0 126 0 0 126 0 0 126 0 0 126 0 0 126 0 0 126 0 0 126 0 0 126 0 0 126 0 0 126 0 0 125 0 0 125 0 0 125 0 0 125 0 0 125 0 0 125 0 0 125 0 0 125 0 0 125 0 0 125 0 0 136 0 0 136 0 0 136 0 0 136 0 0 136 0 0 136 0 0 136 0 0 136 0 0 136 0 0 136 0 0 0 0 0 0 0 0 0 0 0 0 0 0 0 0 0 0 0 0 0 0 0 0 0 0 0 0 0 0 0 0 0 116 255 0 116 255 0 116 255 0 116 255 0 116 255 0 116 255 0 116 255 0 116 255 0 116 255 0 116 255 0 116 255 0 116 255 0 116 255 0 116 255 0 116 255 0 116 255 0 116 255 0 116 255 0 116 255 0 116 255 0 116 255 0 116 255 0 116 255 0 116 255 0 116 255 0 116 255 0 116 255 0 116 255 0 116 255 0 116 255 
145 0 0 145 0 0 145 0 0 145 0 0 145 0 0 145 0 0 145 0 0 145 0 0 145 0 0 145 0 0 116 0 0 116 0 0 116 0 0 116 0 0 116 0 0 116 0 0 116 0 0 116 0 0 116 0 0 116 0 0 116 0 0 116 0 0 116 0 0 116 0 0 116 0 0 116 0 0 116 0 0 116 0 0 116 0 0 116 0 0 147 0 0 147 0 0 147 0 0 147 0 0 147 0 0 147 0 0 147 0 0 147 0 0 147 0 0 147 0 0 129 0 0 129 0 0 129 0 0 129 0 0 129 0 0 129 0 0 129 0 0 129 0 0 129 0 0 129 0 0 156 0 0 156 0 0 156 0 0 156 0 0 156 0 0 156 0 0 156 0 0 156 0 0 156 0 0 156 0 0 161 0 0 161 0 0 161 0 0 161 0 0 161 0 0 161 0 0 161 0 0 161 0 0 161 0 0 161 0 0 101 0 0 101 0 0 101 0 0 101 0 0 101 0 0 101 0 0 101 0 0 101 0 0 101 0 0 101 0 0 64 0 0 64 0 0 64 0 0 64 0 0 64 0 0 64 0 0 64 0 0 64 0 0 64 0 0 64 0 0 51 0 0 51 0 0 51 0 0 51 0 0 51 0 0 51 0 0 51 0 0 51 0 0 51 0 0 51 0 0 14 0 0 14 0 0 14 0 0 14 0 0 14 0 0 14 0 0 14 0 0 14 0 0 14 0 0 14 0 0 27 0 0 27 0 0 27 0 0 27 0 0 27 0 0 27 0 0 27 0 0 27 0 0 27 0 0 27 0 0 3 0 0 3 0 0 3 0 0 3 0 0 3 0 0 3 0 0 3 0 0 3 0 0 3 0 0 3 0 0 6 0 0 6 0 0 6 0 0 6 0 0 6 0 0 6 0 0 6 0 0 6 0 0 6 0 0 6 0 0 34 0 0 34 0 0 34 0 0 34 0 0 34 0 0 34 0 0 34 0 0 34 0 0 34 0 0 34 0 0 30 0 0 30 0 0 30 0 0 30 0 0 30 0 0 30 0 0 30 0 0 30 0 0 30 0 0 30 0 0 62 0 0 62 0 0 62 0 0 62 0 0 62 0 0 62 0 0 62 0 0 62 0 0 62 0 0 62 0 0 126 0 0 126 0 0 126 0 0 126 0 0 126 0 0 126 0 0 126 0 0 126 0 0 126 0 0 126 0 0 131 0 0 131 0 0 131 0 0 131 0 0 131 0 0 131 0 0 131 0 0 131 0 0 131 0 0 131 0 0 145 0 0 145 0 0 145 0 0 145 0 0 145 0 0 145 0 0 145 0 0 145 0 0 145 0 0 145 0 0 141 0 0 141 0 0 141 0 0 141 0 0 141 0 0 141 0 0 141 0 0 141 0 0 141 0 0 141 0 0 105 0 0 105 0 0 105 0 0 105 0 0 105 0 0 105 0 0 105 0 0 105 0 0 105 0 0 105 0 0 102 0 0 102 0 0 102 0 0 102 0 0 102 0 0 102 0 0 102 0 0 102 0 0 102 0 0 102 0 0 137 0 0 137 0 0 137 0 0 137 0 0 137 0 0 137 0 0 137 0 0 137 0 0 137 0 0 137 0 0 153 0 0 153 0 0 153 0 0 153 0 0 153 0 0 153 0 0 153 0 0 153 0 0 153 0 0 153 0 0 126 0 0 126 0 0 126 0 0 126 0 0 126 0 0 126 0 0 126 0 0 126 0 0 126 0 0 126 0 0 125 0 0 125 0 0 125 0 0 125 0 0 125 0 0 125 0 0 125 0 0 125 0 0 125 0 0 125 0 0 136 0 0 136 0 0 136 0 0 136 0 0 136 0 0 136 0 0 136 0 0 136 0 0 136 0 0 136 0 0 0 0 0 0 0 0 0 0 0 0 0 0 0 0 0 0 0 0 0 0 0 0 0 0 0 0 0 0 0 0 0 119 255 0 119 255 0 119 255 0 119 255 0 119 255 0 119 255 0 119 255 0 119 255 0 119 255 0 119 255 0 119 255 0 119 255 0 119 255 0 119 255 0 119 255 0 119 255 0 119 255 0 119 255 0 119 255 0 119 255 0 119 255 0 119 255 0 119 255 0 119 255 0 119 255 0 119 255 0 119 255 0 119 255 0 119 255 0 119 255 
145 0 0 145 0 0 145 0 0 145 0 0 145 0 0 145 0 0 145 0 0 145 0 0 145 0 0 145 0 0 116 0 0 116 0 0 116 0 0 116 0 0 116 0 0 116 0 0 116 0 0 116 0 0 116 0 0 116 0 0 116 0 0 116 0 0 116 0 0 116 0 0 116 0 0 116 0 0 116 0 0 116 0 0 116 0 0 116 0 0 147 0 0 147 0 0 147 0 0 147 0 0 147 0 0 147 0 0 147 0 0 147 0 0 147 0 0 147 0 0 129 0 0 129 0 0 129 0 0 129 0 0 129 0 0 129 0 0 129 0 0 129 0 0 129 0 0 129 0 0 156 0 0 156 0 0 156 0 0 156 0 0 156 0 0 156 0 0 156 0 0 156 0 0 156 0 0 156 0 0 161 0 0 161 0 0 161 0 0 161 0 0 161 0 0 161 0 0 161 0 0 161 0 0 161 0 0 161 0 0 101 0 0 101 0 0 101 0 0 101 0 0 101 0 0 101 0 0 101 0 0 101 0 0 101 0 0 101 0 0 64 0 0 64 0 0 64 0 0 64 0 0 64 0 0 64 0 0 64 0 0 64 0 0 64 0 0 64 0 0 51 0 0 51 0 0 51 0 0 51 0 0 51 0 0 51 0 0 51 0 0 51 0 0 51 0 0 51 0 0 14 0 0 14 0 0 14 0 0 14 0 0 14 0 0 14 0 0 14 0 0 14 0 0 14 0 0 14 0 0 27 0 0 27 0 0 27 0 0 27 0 0 27 0 0 27 0 0 27 0 0 27 0 0 27 0 0 27 0 0 3 0 0 3 0 0 3 0 0 3 0 0 3 0 0 3 0 0 3 0 0 3 0 0 3 0 0 3 0 0 6 0 0 6 0 0 6 0 0 6 0 0 6 0 0 6 0 0 6 0 0 6 0 0 6 0 0 6 0 0 34 0 0 34 0 0 34 0 0 34 0 0 34 0 0 34 0 0 34 0 0 34 0 0 34 0 0 34 0 0 30 0 0 30 0 0 30 0 0 30 0 0 30 0 0 30 0 0 30 0 0 30 0 0 30 0 0 30 0 0 62 0 0 62 0 0 62 0 0 62 0 0 62 0 0 62 0 0 62 0 0 62 0 0 62 0 0 62 0 0 126 0 0 126 0 0 126 0 0 126 0 0 126 0 0 126 0 0 126 0 0 126 0 0 126 0 0 126 0 0 131 0 0 131 0 0 131 0 0 131 0 0 131 0 0 131 0 0 131 0 0 131 0 0 131 0 0 131 0 0 145 0 0 145 0 0 145 0 0 145 0 0 145 0 0 145 0 0 145 0 0 145 0 0 145 0 0 145 0 0 141 0 0 141 0 0 141 0 0 141 0 0 141 0 0 141 0 0 141 0 0 141 0 0 141 0 0 141 0 0 105 0 0 105 0 0 105 0 0 105 0 0 105 0 0 105 0 0 105 0 0 105 0 0 105 0 0 105 0 0 102 0 0 102 0 0 102 0 0 102 0 0 102 0 0 102 0 0 102 0 0 102 0 0 102 0 0 102 0 0 137 0 0 137 0 0 137 0 0 137 0 0 137 0 0 137 0 0 137 0 0 137 0 0 137 0 0 137 0 0 153 0 0 153 0 0 153 0 0 153 0 0 153 0 0 153 0 0 153 0 0 153 0 0 153 0 0 153 0 0 126 0 0 126 0 0 126 0 0 126 0 0 126 0 0 126 0 0 126 0 0 126 0 0 126 0 0 126 0 0 125 0 0 125 0 0 125 0 0 125 0 0 125 0 0 125 0 0 125 0 0 125 0 0 125 0 0 125 0 0 136 0 0 136 0 0 136 0 0 136 0 0 136 0 0 136 0 0 136 0 0 136 0 0 136 0 0 136 0 0 0 0 0 0 0 0 0 0 0 0 0 0 0 0 0 0 0 0 0 0 0 0 0 0 0 0 0 0 0 0 0 123 255 0 123 255 0 123 255 0 123 255 0 123 255 0 123 255 0 123 255 0 123 255 0 123 255 0 123 255 0 123 255 0 123 255 0 123 255 0 123 255 0 123 255 0 123 255 0 123 255 0 123 255 0 123 255 0 123 255 0 123 255 0 123 255 0 123 255 0 123 255 0 123 255 0 123 255 0 123 255 0 123 255 0 123 255 0 123 255 
145 0 0 145 0 0 145 0 0 145 0 0 145 0 0 145 0 0 145 0 0 145 0 0 145 0 0 145 0 0 116 0 0 116 0 0 116 0 0 116 0 0 116 0 0 116 0 0 116 0 0 116 0 0 116 0 0 116 0 0 116 0 0 116 0 0 116 0 0 116 0 0 116 0 0 116 0 0 116 0 0 116 0 0 116 0 0 116 0 0 147 0 0 147 0 0 147 0 0 147 0 0 147 0 0 147 0 0 147 0 0 147 0 0 147 0 0 147 0 0 129 0 0 129 0 0 129 0 0 129 0 0 129 0 0 129 0 0 129 0 0 129 0 0 129 0 0 129 0 0 156 0 0 156 0 0 156 0 0 156 0 0 156 0 0 156 0 0 156 0 0 156 0 0 156 0 0 156 0 0 161 0 0 161 0 0 161 0 0 161 0 0 161 0 0 161 0 0 161 0 0 161 0 0 161 0 0 161 0 0 101 0 0 101 0 0 101 0 0 101 0 0 101 0 0 101 0 0 101 0 0 101 0 0 101 0 0 101 0 0 64 0 0 64 0 0 64 0 0 64 0 0 64 0 0 64 0 0 64 0 0 64 0 0 64 0 0 64 0 0 51 0 0 51 0 0 51 0 0 51 0 0 51 0 0 51 0 0 51 0 0 51 0 0 51 0 0 51 0 0 14 0 0 14 0 0 14 0 0 14 0 0 14 0 0 14 0 0 14 0 0 14 0 0 14 0 0 14 0 0 27 0 0 27 0 0 27 0 0 27 0 0 27 0 0 27 0 0 27 0 0 27 0 0 27 0 0 27 0 0 3 0 0 3 0 0 3 0 0 3 0 0 3 0 0 3 0 0 3 0 0 3 0 0 3 0 0 3 0 0 6 0 0 6 0 0 6 0 0 6 0 0 6 0 0 6 0 0 6 0 0 6 0 0 6 0 0 6 0 0 34 0 0 34 0 0 34 0 0 34 0 0 34 0 0 34 0 0 34 0 0 34 0 0 34 0 0 34 0 0 30 0 0 30 0 0 30 0 0 30 0 0 30 0 0 30 0 0 30 0 0 30 0 0 30 0 0 30 0 0 62 0 0 62 0 0 62 0 0 62 0 0 62 0 0 62 0 0 62 0 0 62 0 0 62 0 0 62 0 0 126 0 0 126 0 0 126 0 0 126 0 0 126 0 0 126 0 0 126 0 0 126 0 0 126 0 0 126 0 0 131 0 0 131 0 0 131 0 0 131 0 0 131 0 0 131 0 0 131 0 0 131 0 0 131 0 0 131 0 0 145 0 0 145 0 0 145 0 0 145 0 0 145 0 0 145 0 0 145 0 0 145 0 0 145 0 0 145 0 0 141 0 0 141 0 0 141 0 0 141 0 0 141 0 0 141 0 0 141 0 0 141 0 0 141 0 0 141 0 0 105 0 0 105 0 0 105 0 0 105 0 0 105 0 0 105 0 0 105 0 0 105 0 0 105 0 0 105 0 0 102 0 0 102 0 0 102 0 0 102 0 0 102 0 0 102 0 0 102 0 0 102 0 0 102 0 0 102 0 0 137 0 0 137 0 0 137 0 0 137 0 0 137 0 0 137 0 0 137 0 0 137 0 0 137 0 0 137 0 0 153 0 0 153 0 0 153 0 0 153 0 0 153 0 0 153 0 0 153 0 0 153 0 0 153 0 0 153 0 0 126 0 0 126 0 0 126 0 0 126 0 0 126 0 0 126 0 0 126 0 0 126 0 0 126 0 0 126 0 0 125 0 0 125 0 0 125 0 0 125 0 0 125 0 0 125 0 0 125 0 0 125 0 0 125 0 0 125 0 0 136 0 0 136 0 0 136 0 0 136 0 0 136 0 0 136 0 0 136 0 0 136 0 0 136 0 0 136 0 0 0 0 0 0 0 0 0 0 0 0 0 0 0 0 0 0 0 0 0 0 0 0 0 0 0 0 0 0 0 0 0 127 255 0 127 255 0 127 255 0 127 255 0 127 255 0 127 255 0 127 255 0 127 255 0 127 255 0 127 255 0 127 255 0 127 255 0 127 255 0 127 255 0 127 255 0 127 255 0 127 255 0 127 255 0 127 255 0 127 255 0 127 255 0 127 255 0 127 255 0 127 255 0 127 255 0 127 255 0 127 255 0 127 255 0 127 255 0 127 255 
145 0 0 145 0 0 145 0 0 145 0 0 145 0 0 145 0 0 145 0 0 145 0 0 145 0 0 145 0 0 116 0 0 116 0 0 116 0 0 116 0 0 116 0 0 116 0 0 116 0 0 116 0 0 116 0 0 116 0 0 116 0 0 116 0 0 116 0 0 116 0 0 116 0 0 116 0 0 116 0 0 116 0 0 116 0 0 116 0 0 147 0 0 147 0 0 147 0 0 147 0 0 147 0 0 147 0 0 147 0 0 147 0 0 147 0 0 147 0 0 129 0 0 129 0 0 129 0 0 129 0 0 129 0 0 129 0 0 129 0 0 129 0 0 129 0 0 129 0 0 156 0 0 156 0 0 156 0 0 156 0 0 156 0 0 156 0 0 156 0 0 156 0 0 156 0 0 156 0 0 161 0 0 161 0 0 161 0 0 161 0 0 161 0 0 161 0 0 161 0 0 161 0 0 161 0 0 161 0 0 101 0 0 101 0 0 101 0 0 101 0 0 101 0 0 101 0 0 101 0 0 101 0 0 101 0 0 101 0 0 64 0 0 64 0 0 64 0 0 64 0 0 64 0 0 64 0 0 64 0 0 64 0 0 64 0 0 64 0 0 51 0 0 51 0 0 51 0 0 51 0 0 51 0 0 51 0 0 51 0 0 51 0 0 51 0 0 51 0 0 14 0 0 14 0 0 14 0 0 14 0 0 14 0 0 14 0 0 14 0 0 14 0 0 14 0 0 14 0 0 27 0 0 27 0 0 27 0 0 27 0 0 27 0 0 27 0 0 27 0 0 27 0 0 27 0 0 27 0 0 3 0 0 3 0 0 3 0 0 3 0 0 3 0 0 3 0 0 3 0 0 3 0 0 3 0 0 3 0 0 6 0 0 6 0 0 6 0 0 6 0 0 6 0 0 6 0 0 6 0 0 6 0 0 6 0 0 6 0 0 34 0 0 34 0 0 34 0 0 34 0 0 34 0 0 34 0 0 34 0 0 34 0 0 34 0 0 34 0 0 30 0 0 30 0 0 30 0 0 30 0 0 30 0 0 30 0 0 30 0 0 30 0 0 30 0 0 30 0 0 62 0 0 62 0 0 62 0 0 62 0 0 62 0 0 62 0 0 62 0 0 62 0 0 62 0 0 62 0 0 126 0 0 126 0 0 126 0 0 126 0 0 126 0 0 126 0 0 126 0 0 126 0 0 126 0 0 126 0 0 131 0 0 131 0 0 131 0 0 131 0 0 131 0 0 131 0 0 131 0 0 131 0 0 131 0 0 131 0 0 145 0 0 145 0 0 145 0 0 145 0 0 145 0 0 145 0 0 145 0 0 145 0 0 145 0 0 145 0 0 141 0 0 141 0 0 141 0 0 141 0 0 141 0 0 141 0 0 141 0 0 141 0 0 141 0 0 141 0 0 105 0 0 105 0 0 105 0 0 105 0 0 105 0 0 105 0 0 105 0 0 105 0 0 105 0 0 105 0 0 102 0 0 102 0 0 102 0 0 102 0 0 102 0 0 102 0 0 102 0 0 102 0 0 102 0 0 102 0 0 137 0 0 137 0 0 137 0 0 137 0 0 137 0 0 137 0 0 137 0 0 137 0 0 137 0 0 137 0 0 153 0 0 153 0 0 153 0 0 153 0 0 153 0 0 153 0 0 153 0 0 153 0 0 153 0 0 153 0 0 126 0 0 126 0 0 126 0 0 126 0 0 126 0 0 126 0 0 126 0 0 126 0 0 126 0 0 126 0 0 125 0 0 125 0 0 125 0 0 125 0 0 125 0 0 125 0 0 125 0 0 125 0 0 125 0 0 125 0 0 136 0 0 136 0 0 136 0 0 136 0 0 136 0 0 136 0 0 136 0 0 136 0 0 136 0 0 136 0 0 0 0 0 0 0 0 0 0 0 0 0 0 0 0 0 0 0 0 0 0 0 0 0 0 0 0 0 0 0 0 0 130 255 0 130 255 0 130 255 0 130 255 0 130 255 0 130 255 0 130 255 0 130 255 0 130 255 0 130 255 0 130 255 0 130 255 0 130 255 0 130 255 0 130 255 0 130 255 0 130 255 0 130 255 0 130 255 0 130 255 0 130 255 0 130 255 0 130 255 0 130 255 0 130 255 0 130 255 0 130 255 0 130 255 0 130 255 0 130 255 
145 0 0 145 0 0 145 0 0 145 0 0 145 0 0 145 0 0 145 0 0 145 0 0 145 0 0 145 0 0 116 0 0 116 0 0 116 0 0 116 0 0 116 0 0 116 0 0 116 0 0 116 0 0 116 0 0 116 0 0 116 0 0 116 0 0 116 0 0 116 0 0 116 0 0 116 0 0 116 0 0 116 0 0 116 0 0 116 0 0 147 0 0 147 0 0 147 0 0 147 0 0 147 0 0 147 0 0 147 0 0 147 0 0 147 0 0 147 0 0 129 0 0 129 0 0 129 0 0 129 0 0 129 0 0 129 0 0 129 0 0 129 0 0 129 0 0 129 0 0 156 0 0 156 0 0 156 0 0 156 0 0 156 0 0 156 0 0 156 0 0 156 0 0 156 0 0 156 0 0 161 0 0 161 0 0 161 0 0 161 0 0 161 0 0 161 0 0 161 0 0 161 0 0 161 0 0 161 0 0 101 0 0 101 0 0 101 0 0 101 0 0 101 0 0 101 0 0 101 0 0 101 0 0 101 0 0 101 0 0 64 0 0 64 0 0 64 0 0 64 0 0 64 0 0 64 0 0 64 0 0 64 0 0 64 0 0 64 0 0 51 0 0 51 0 0 51 0 0 51 0 0 51 0 0 51 0 0 51 0 0 51 0 0 51 0 0 51 0 0 14 0 0 14 0 0 14 0 0 14 0 0 14 0 0 14 0 0 14 0 0 14 0 0 14 0 0 14 0 0 27 0 0 27 0 0 27 0 0 27 0 0 27 0 0 27 0 0 27 0 0 27 0 0 27 0 0 27 0 0 3 0 0 3 0 0 3 0 0 3 0 0 3 0 0 3 0 0 3 0 0 3 0 0 3 0 0 3 0 0 6 0 0 6 0 0 6 0 0 6 0 0 6 0 0 6 0 0 6 0 0 6 0 0 6 0 0 6 0 0 34 0 0 34 0 0 34 0 0 34 0 0 34 0 0 34 0 0 34 0 0 34 0 0 34 0 0 34 0 0 30 0 0 30 0 0 30 0 0 30 0 0 30 0 0 30 0 0 30 0 0 30 0 0 30 0 0 30 0 0 62 0 0 62 0 0 62 0 0 62 0 0 62 0 0 62 0 0 62 0 0 62 0 0 62 0 0 62 0 0 126 0 0 126 0 0 126 0 0 126 0 0 126 0 0 126 0 0 126 0 0 126 0 0 126 0 0 126 0 0 131 0 0 131 0 0 131 0 0 131 0 0 131 0 0 131 0 0 131 0 0 131 0 0 131 0 0 131 0 0 145 0 0 145 0 0 145 0 0 145 0 0 145 0 0 145 0 0 145 0 0 145 0 0 145 0 0 145 0 0 141 0 0 141 0 0 141 0 0 141 0 0 141 0 0 141 0 0 141 0 0 141 0 0 141 0 0 141 0 0 105 0 0 105 0 0 105 0 0 105 0 0 105 0 0 105 0 0 105 0 0 105 0 0 105 0 0 105 0 0 102 0 0 102 0 0 102 0 0 102 0 0 102 0 0 102 0 0 102 0 0 102 0 0 102 0 0 102 0 0 137 0 0 137 0 0 137 0 0 137 0 0 137 0 0 137 0 0 137 0 0 137 0 0 137 0 0 137 0 0 153 0 0 153 0 0 153 0 0 153 0 0 153 0 0 153 0 0 153 0 0 153 0 0 153 0 0 153 0 0 126 0 0 126 0 0 126 0 0 126 0 0 126 0 0 126 0 0 126 0 0 126 0 0 126 0 0 126 0 0 125 0 0 125 0 0 125 0 0 125 0 0 125 0 0 125 0 0 125 0 0 125 0 0 125 0 0 125 0 0 136 0 0 136 0 0 136 0 0 136 0 0 136 0 0 136 0 0 136 0 0 136 0 0 136 0 0 136 0 0 0 0 0 0 0 0 0 0 0 0 0 0 0 0 0 0 0 0 0 0 0 0 0 0 0 0 0 0 0 0 0 134 255 0 134 255 0 134 255 0 134 255 0 134 255 0 134 255 0 134 255 0 134 255 0 134 255 0 134 255 0 134 255 0 134 255 0 134 255 0 134 255 0 134 255 0 134 255 0 134 255 0 134 255 0 134 255 0 134 255 0 134 255 0 134 255 0 134 255 0 134 255 0 134 255 0 134 255 0 134 255 0 134 255 0 134 255 0 134 255 
145 0 0 145 0 0 145 0 0 145 0 0 145 0 0 145 0 0 145 0 0 145 0 0 145 0 0 145 0 0 116 0 0 116 0 0 116 0 0 116 0 0 116 0 0 116 0 0 116 0 0 116 0 0 116 0 0 116 0 0 116 0 0 116 0 0 116 0 0 116 0 0 116 0 0 116 0 0 116 0 0 116 0 0 116 0 0 116 0 0 147 0 0 147 0 0 147 0 0 147 0 0 147 0 0 147 0 0 147 0 0 147 0 0 147 0 0 147 0 0 129 0 0 129 0 0 129 0 0 129 0 0 129 0 0 129 0 0 129 0 0 129 0 0 129 0 0 129 0 0 156 0 0 156 0 0 156 0 0 156 0 0 156 0 0 156 0 0 156 0 0 156 0 0 156 0 0 156 0 0 161 0 0 161 0 0 161 0 0 161 0 0 161 0 0 161 0 0 161 0 0 161 0 0 161 0 0 161 0 0 101 0 0 101 0 0 101 0 0 101 0 0 101 0 0 101 0 0 101 0 0 101 0 0 101 0 0 101 0 0 64 0 0 64 0 0 64 0 0 64 0 0 64 0 0 64 0 0 64 0 0 64 0 0 64 0 0 64 0 0 51 0 0 51 0 0 51 0 0 51 0 0 51 0 0 51 0 0 51 0 0 51 0 0 51 0 0 51 0 0 14 0 0 14 0 0 14 0 0 14 0 0 14 0 0 14 0 0 14 0 0 14 0 0 14 0 0 14 0 0 27 0 0 27 0 0 27 0 0 27 0 0 27 0 0 27 0 0 27 0 0 27 0 0 27 0 0 27 0 0 3 0 0 3 0 0 3 0 0 3 0 0 3 0 0 3 0 0 3 0 0 3 0 0 3 0 0 3 0 0 6 0 0 6 0 0 6 0 0 6 0 0 6 0 0 6 0 0 6 0 0 6 0 0 6 0 0 6 0 0 34 0 0 34 0 0 34 0 0 34 0 0 34 0 0 34 0 0 34 0 0 34 0 0 34 0 0 34 0 0 30 0 0 30 0 0 30 0 0 30 0 0 30 0 0 30 0 0 30 0 0 30 0 0 30 0 0 30 0 0 62 0 0 62 0 0 62 0 0 62 0 0 62 0 0 62 0 0 62 0 0 62 0 0 62 0 0 62 0 0 126 0 0 126 0 0 126 0 0 126 0 0 126 0 0 126 0 0 126 0 0 126 0 0 126 0 0 126 0 0 131 0 0 131 0 0 131 0 0 131 0 0 131 0 0 131 0 0 131 0 0 131 0 0 131 0 0 131 0 0 145 0 0 145 0 0 145 0 0 145 0 0 145 0 0 145 0 0 145 0 0 145 0 0 145 0 0 145 0 0 141 0 0 141 0 0 141 0 0 141 0 0 141 0 0 141 0 0 141 0 0 141 0 0 141 0 0 141 0 0 105 0 0 105 0 0 105 0 0 105 0 0 105 0 0 105 0 0 105 0 0 105 0 0 105 0 0 105 0 0 102 0 0 102 0 0 102 0 0 102 0 0 102 0 0 102 0 0 102 0 0 102 0 0 102 0 0 102 0 0 137 0 0 137 0 0 137 0 0 137 0 0 137 0 0 137 0 0 137 0 0 137 0 0 137 0 0 137 0 0 153 0 0 153 0 0 153 0 0 153 0 0 153 0 0 153 0 0 153 0 0 153 0 0 153 0 0 153 0 0 126 0 0 126 0 0 126 0 0 126 0 0 126 0 0 126 0 0 126 0 0 126 0 0 126 0 0 126 0 0 125 0 0 125 0 0 125 0 0 125 0 0 125 0 0 125 0 0 125 0 0 125 0 0 125 0 0 125 0 0 136 0 0 136 0 0 136 0 0 136 0 0 136 0 0 136 0 0 136 0 0 136 0 0 136 0 0 136 0 0 0 0 0 0 0 0 0 0 0 0 0 0 0 0 0 0 0 0 0 0 0 0 0 0 0 0 0 0 0 0 0 138 255 0 138 255 0 138 255 0 138 255 0 138 255 0 138 255 0 138 255 0 138 255 0 138 255 0 138 255 0 138 255 0 138 255 0 138 255 0 138 255 0 138 255 0 138 255 0 138 255 0 138 255 0 138 255 0 138 255 0 138 255 0 138 255 0 138 255 0 138 255 0 138 255 0 138 255 0 138 255 0 138 255 0 138 255 0 138 255 
145 0 0 145 0 0 145 0 0 145 0 0 145 0 0 145 0 0 145 0 0 145 0 0 145 0 0 145 0 0 116 0 0 116 0 0 116 0 0 116 0 0 116 0 0 116 0 0 116 0 0 116 0 0 116 0 0 116 0 0 116 0 0 116 0 0 116 0 0 116 0 0 116 0 0 116 0 0 116 0 0 116 0 0 116 0 0 116 0 0 147 0 0 147 0 0 147 0 0 147 0 0 147 0 0 147 0 0 147 0 0 147 0 0 147 0 0 147 0 0 129 0 0 129 0 0 129 0 0 129 0 0 129 0 0 129 0 0 129 0 0 129 0 0 129 0 0 129 0 0 156 0 0 156 0 0 156 0 0 156 0 0 156 0 0 156 0 0 156 0 0 156 0 0 156 0 0 156 0 0 161 0 0 161 0 0 161 0 0 161 0 0 161 0 0 161 0 0 161 0 0 161 0 0 161 0 0 161 0 0 101 0 0 101 0 0 101 0 0 101 0 0 101 0 0 101 0 0 101 0 0 101 0 0 101 0 0 101 0 0 64 0 0 64 0 0 64 0 0 64 0 0 64 0 0 64 0 0 64 0 0 64 0 0 64 0 0 64 0 0 51 0 0 51 0 0 51 0 0 51 0 0 51 0 0 51 0 0 51 0 0 51 0 0 51 0 0 51 0 0 14 0 0 14 0 0 14 0 0 14 0 0 14 0 0 14 0 0 14 0 0 14 0 0 14 0 0 14 0 0 27 0 0 27 0 0 27 0 0 27 0 0 27 0 0 27 0 0 27 0 0 27 0 0 27 0 0 27 0 0 3 0 0 3 0 0 3 0 0 3 0 0 3 0 0 3 0 0 3 0 0 3 0 0 3 0 0 3 0 0 6 0 0 6 0 0 6 0 0 6 0 0 6 0 0 6 0 0 6 0 0 6 0 0 6 0 0 6 0 0 34 0 0 34 0 0 34 0 0 34 0 0 34 0 0 34 0 0 34 0 0 34 0 0 34 0 0 34 0 0 30 0 0 30 0 0 30 0 0 30 0 0 30 0 0 30 0 0 30 0 0 30 0 0 30 0 0 30 0 0 62 0 0 62 0 0 62 0 0 62 0 0 62 0 0 62 0 0 62 0 0 62 0 0 62 0 0 62 0 0 126 0 0 126 0 0 126 0 0 126 0 0 126 0 0 126 0 0 126 0 0 126 0 0 126 0 0 126 0 0 131 0 0 131 0 0 131 0 0 131 0 0 131 0 0 131 0 0 131 0 0 131 0 0 131 0 0 131 0 0 145 0 0 145 0 0 145 0 0 145 0 0 145 0 0 145 0 0 145 0 0 145 0 0 145 0 0 145 0 0 141 0 0 141 0 0 141 0 0 141 0 0 141 0 0 141 0 0 141 0 0 141 0 0 141 0 0 141 0 0 105 0 0 105 0 0 105 0 0 105 0 0 105 0 0 105 0 0 105 0 0 105 0 0 105 0 0 105 0 0 102 0 0 102 0 0 102 0 0 102 0 0 102 0 0 102 0 0 102 0 0 102 0 0 102 0 0 102 0 0 137 0 0 137 0 0 137 0 0 137 0 0 137 0 0 137 0 0 137 0 0 137 0 0 137 0 0 137 0 0 153 0 0 153 0 0 153 0 0 153 0 0 153 0 0 153 0 0 153 0 0 153 0 0 153 0 0 153 0 0 126 0 0 126 0 0 126 0 0 126 0 0 126 0 0 126 0 0 126 0 0 126 0 0 126 0 0 126 0 0 125 0 0 125 0 0 125 0 0 125 0 0 125 0 0 125 0 0 125 0 0 125 0 0 125 0 0 125 0 0 136 0 0 136 0 0 136 0 0 136 0 0 136 0 0 136 0 0 136 0 0 136 0 0 136 0 0 136 0 0 0 0 0 0 0 0 0 0 0 0 0 0 0 0 0 0 0 0 0 0 0 0 0 0 0 0 0 0 0 0 0 141 255 0 141 255 0 141 255 0 141 255 0 141 255 0 141 255 0 141 255 0 141 255 0 141 255 0 141 255 0 141 255 0 141 255 0 141 255 0 141 255 0 141 255 0 141 255 0 141 255 0 141 255 0 141 255 0 141 255 0 141 255 0 141 255 0 141 255 0 141 255 0 141 255 0 141 255 0 141 255 0 141 255 0 141 255 0 141 255 
145 0 0 145 0 0 145 0 0 145 0 0 145 0 0 145 0 0 145 0 0 145 0 0 145 0 0 145 0 0 116 0 0 116 0 0 116 0 0 116 0 0 116 0 0 116 0 0 116 0 0 116 0 0 116 0 0 116 0 0 116 0 0 116 0 0 116 0 0 116 0 0 116 0 0 116 0 0 116 0 0 116 0 0 116 0 0 116 0 0 147 0 0 147 0 0 147 0 0 147 0 0 147 0 0 147 0 0 147 0 0 147 0 0 147 0 0 147 0 0 129 0 0 129 0 0 129 0 0 129 0 0 129 0 0 129 0 0 129 0 0 129 0 0 129 0 0 129 0 0 156 0 0 156 0 0 156 0 0 156 0 0 156 0 0 156 0 0 156 0 0 156 0 0 156 0 0 156 0 0 161 0 0 161 0 0 161 0 0 161 0 0 161 0 0 161 0 0 161 0 0 161 0 0 161 0 0 161 0 0 101 0 0 101 0 0 101 0 0 101 0 0 101 0 0 101 0 0 101 0 0 101 0 0 101 0 0 101 0 0 64 0 0 64 0 0 64 0 0 64 0 0 64 0 0 64 0 0 64 0 0 64 0 0 64 0 0 64 0 0 51 0 0 51 0 0 51 0 0 51 0 0 51 0 0 51 0 0 51 0 0 51 0 0 51 0 0 51 0 0 14 0 0 14 0 0 14 0 0 14 0 0 14 0 0 14 0 0 14 0 0 14 0 0 14 0 0 14 0 0 27 0 0 27 0 0 27 0 0 27 0 0 27 0 0 27 0 0 27 0 0 27 0 0 27 0 0 27 0 0 3 0 0 3 0 0 3 0 0 3 0 0 3 0 0 3 0 0 3 0 0 3 0 0 3 0 0 3 0 0 6 0 0 6 0 0 6 0 0 6 0 0 6 0 0 6 0 0 6 0 0 6 0 0 6 0 0 6 0 0 34 0 0 34 0 0 34 0 0 34 0 0 34 0 0 34 0 0 34 0 0 34 0 0 34 0 0 34 0 0 30 0 0 30 0 0 30 0 0 30 0 0 30 0 0 30 0 0 30 0 0 30 0 0 30 0 0 30 0 0 62 0 0 62 0 0 62 0 0 62 0 0 62 0 0 62 0 0 62 0 0 62 0 0 62 0 0 62 0 0 126 0 0 126 0 0 126 0 0 126 0 0 126 0 0 126 0 0 126 0 0 126 0 0 126 0 0 126 0 0 131 0 0 131 0 0 131 0 0 131 0 0 131 0 0 131 0 0 131 0 0 131 0 0 131 0 0 131 0 0 145 0 0 145 0 0 145 0 0 145 0 0 145 0 0 145 0 0 145 0 0 145 0 0 145 0 0 145 0 0 141 0 0 141 0 0 141 0 0 141 0 0 141 0 0 141 0 0 141 0 0 141 0 0 141 0 0 141 0 0 105 0 0 105 0 0 105 0 0 105 0 0 105 0 0 105 0 0 105 0 0 105 0 0 105 0 0 105 0 0 102 0 0 102 0 0 102 0 0 102 0 0 102 0 0 102 0 0 102 0 0 102 0 0 102 0 0 102 0 0 137 0 0 137 0 0 137 0 0 137 0 0 137 0 0 137 0 0 137 0 0 137 0 0 137 0 0 137 0 0 153 0 0 153 0 0 153 0 0 153 0 0 153 0 0 153 0 0 153 0 0 153 0 0 153 0 0 153 0 0 126 0 0 126 0 0 126 0 0 126 0 0 126 0 0 126 0 0 126 0 0 126 0 0 126 0 0 126 0 0 125 0 0 125 0 0 125 0 0 125 0 0 125 0 0 125 0 0 125 0 0 125 0 0 125 0 0 125 0 0 136 0 0 136 0 0 136 0 0 136 0 0 136 0 0 136 0 0 136 0 0 136 0 0 136 0 0 136 0 0 0 0 0 0 0 0 0 0 0 0 0 0 0 0 0 0 0 0 0 0 0 0 0 0 0 0 0 0 0 0 0 145 255 0 145 255 0 145 255 0 145 255 0 145 255 0 145 255 0 145 255 0 145 255 0 145 255 0 145 255 0 145 255 0 145 255 0 145 255 0 145 255 0 145 255 0 145 255 0 145 255 0 145 255 0 145 255 0 145 255 0 145 255 0 145 255 0 145 255 0 145 255 0 145 255 0 145 255 0 145 255 0 145 255 0 145 255 0 145 255 
145 0 0 145 0 0 145 0 0 145 0 0 145 0 0 145 0 0 145 0 0 145 0 0 145 0 0 145 0 0 139 0 0 139 0 0 139 0 0 139 0 0 139 0 0 139 0 0 139 0 0 139 0 0 139 0 0 139 0 0 140 0 0 140 0 0 140 0 0 140 0 0 140 0 0 140 0 0 140 0 0 140 0 0 140 0 0 140 0 0 112 0 0 112 0 0 112 0 0 112 0 0 112 0 0 112 0 0 112 0 0 112 0 0 112 0 0 112 0 0 108 0 0 108 0 0 108 0 0 108 0 0 108 0 0 108 0 0 108 0 0 108 0 0 108 0 0 108 0 0 123 0 0 123 0 0 123 0 0 123 0 0 123 0 0 123 0 0 123 0 0 123 0 0 123 0 0 123 0 0 111 0 0 111 0 0 111 0 0 111 0 0 111 0 0 111 0 0 111 0 0 111 0 0 111 0 0 111 0 0 121 0 0 121 0 0 121 0 0 121 0 0 121 0 0 121 0 0 121 0 0 121 0 0 121 0 0 121 0 0 112 0 0 112 0 0 112 0 0 112 0 0 112 0 0 112 0 0 112 0 0 112 0 0 112 0 0 112 0 0 75 0 0 75 0 0 75 0 0 75 0 0 75 0 0 75 0 0 75 0 0 75 0 0 75 0 0 75 0 0 52 0 0 52 0 0 52 0 0 52 0 0 52 0 0 52 0 0 52 0 0 52 0 0 52 0 0 52 0 0 58 0 0 58 0 0 58 0 0 58 0 0 58 0 0 58 0 0 58 0 0 58 0 0 58 0 0 58 0 0 58 0 0 58 0 0 58 0 0 58 0 0 58 0 0 58 0 0 58 0 0 58 0 0 58 0 0 58 0 0 49 0 0 49 0 0 49 0 0 49 0 0 49 0 0 49 0 0 49 0 0 49 0 0 49 0 0 49 0 0 72 0 0 72 0 0 72 0 0 72 0 0 72 0 0 72 0 0 72 0 0 72 0 0 72 0 0 72 0 0 35 0 0 35 0 0 35 0 0 35 0 0 35 0 0 35 0 0 35 0 0 35 0 0 35 0 0 35 0 0 70 0 0 70 0 0 70 0 0 70 0 0 70 0 0 70 0 0 70 0 0 70 0 0 70 0 0 70 0 0 96 0 0 96 0 0 96 0 0 96 0 0 96 0 0 96 0 0 96 0 0 96 0 0 96 0 0 96 0 0 102 0 0 102 0 0 102 0 0 102 0 0 102 0 0 102 0 0 102 0 0 102 0 0 102 0 0 102 0 0 106 0 0 106 0 0 106 0 0 106 0 0 106 0 0 106 0 0 106 0 0 106 0 0 106 0 0 106 0 0 148 0 0 148 0 0 148 0 0 148 0 0 148 0 0 148 0 0 148 0 0 148 0 0 148 0 0 148 0 0 127 0 0 127 0 0 127 0 0 127 0 0 127 0 0 127 0 0 127 0 0 127 0 0 127 0 0 127 0 0 130 0 0 130 0 0 130 0 0 130 0 0 130 0 0 130 0 0 130 0 0 130 0 0 130 0 0 130 0 0 135 0 0 135 0 0 135 0 0 135 0 0 135 0 0 135 0 0 135 0 0 135 0 0 135 0 0 135 0 0 111 0 0 111 0 0 111 0 0 111 0 0 111 0 0 111 0 0 111 0 0 111 0 0 111 0 0 111 0 0 142 0 0 142 0 0 142 0 0 142 0 0 142 0 0 142 0 0 142 0 0 142 0 0 142 0 0 142 0 0 114 0 0 114 0 0 114 0 0 114 0 0 114 0 0 114 0 0 114 0 0 114 0 0 114 0 0 114 0 0 120 0 0 120 0 0 120 0 0 120 0 0 120 0 0 120 0 0 120 0 0 120 0 0 120 0 0 120 0 0 0 0 0 0 0 0 0 0 0 0 0 0 0 0 0 0 0 0 0 0 0 0 0 0 0 0 0 0 0 0 0 148 255 0 148 255 0 148 255 0 148 255 0 148 255 0 148 255 0 148 255 0 148 255 0 148 255 0 148 255 0 148 255 0 148 255 0 148 255 0 148 255 0 148 255 0 148 255 0 148 255 0 148 255 0 148 255 0 148 255 0 148 255 0 148 255 0 148 255 0 148 255 0 148 255 0 148 255 0 148 255 0 148 255 0 148 255 0 148 255 
145 0 0 145 0 0 145 0 0 145 0 0 145 0 0 145 0 0 145 0 0 145 0 0 145 0 0 145 0 0 139 0 0 139 0 0 139 0 0 139 0 0 139 0 0 139 0 0 139 0 0 139 0 0 139 0 0 139 0 0 140 0 0 140 0 0 140 0 0 140 0 0 140 0 0 140 0 0 140 0 0 140 0 0 140 0 0 140 0 0 112 0 0 112 0 0 112 0 0 112 0 0 112 0 0 112 0 0 112 0 0 112 0 0 112 0 0 112 0 0 108 0 0 108 0 0 108 0 0 108 0 0 108 0 0 108 0 0 108 0 0 108 0 0 108 0 0 108 0 0 123 0 0 123 0 0 123 0 0 123 0 0 123 0 0 123 0 0 123 0 0 123 0 0 123 0 0 123 0 0 111 0 0 111 0 0 111 0 0 111 0 0 111 0 0 111 0 0 111 0 0 111 0 0 111 0 0 111 0 0 121 0 0 121 0 0 121 0 0 121 0 0 121 0 0 121 0 0 121 0 0 121 0 0 121 0 0 121 0 0 112 0 0 112 0 0 112 0 0 112 0 0 112 0 0 112 0 0 112 0 0 112 0 0 112 0 0 112 0 0 75 0 0 75 0 0 75 0 0 75 0 0 75 0 0 75 0 0 75 0 0 75 0 0 75 0 0 75 0 0 52 0 0 52 0 0 52 0 0 52 0 0 52 0 0 52 0 0 52 0 0 52 0 0 52 0 0 52 0 0 58 0 0 58 0 0 58 0 0 58 0 0 58 0 0 58 0 0 58 0 0 58 0 0 58 0 0 58 0 0 58 0 0 58 0 0 58 0 0 58 0 0 58 0 0 58 0 0 58 0 0 58 0 0 58 0 0 58 0 0 49 0 0 49 0 0 49 0 0 49 0 0 49 0 0 49 0 0 49 0 0 49 0 0 49 0 0 49 0 0 72 0 0 72 0 0 72 0 0 72 0 0 72 0 0 72 0 0 72 0 0 72 0 0 72 0 0 72 0 0 35 0 0 35 0 0 35 0 0 35 0 0 35 0 0 35 0 0 35 0 0 35 0 0 35 0 0 35 0 0 70 0 0 70 0 0 70 0 0 70 0 0 70 0 0 70 0 0 70 0 0 70 0 0 70 0 0 70 0 0 96 0 0 96 0 0 96 0 0 96 0 0 96 0 0 96 0 0 96 0 0 96 0 0 96 0 0 96 0 0 102 0 0 102 0 0 102 0 0 102 0 0 102 0 0 102 0 0 102 0 0 102 0 0 102 0 0 102 0 0 106 0 0 106 0 0 106 0 0 106 0 0 106 0 0 106 0 0 106 0 0 106 0 0 106 0 0 106 0 0 148 0 0 148 0 0 148 0 0 148 0 0 148 0 0 148 0 0 148 0 0 148 0 0 148 0 0 148 0 0 127 0 0 127 0 0 127 0 0 127 0 0 127 0 0 127 0 0 127 0 0 127 0 0 127 0 0 127 0 0 130 0 0 130 0 0 130 0 0 130 0 0 130 0 0 130 0 0 130 0 0 130 0 0 130 0 0 130 0 0 135 0 0 135 0 0 135 0 0 135 0 0 135 0 0 135 0 0 135 0 0 135 0 0 135 0 0 135 0 0 111 0 0 111 0 0 111 0 0 111 0 0 111 0 0 111 0 0 111 0 0 111 0 0 111 0 0 111 0 0 142 0 0 142 0 0 142 0 0 142 0 0 142 0 0 142 0 0 142 0 0 142 0 0 142 0 0 142 0 0 114 0 0 114 0 0 114 0 0 114 0 0 114 0 0 114 0 0 114 0 0 114 0 0 114 0 0 114 0 0 120 0 0 120 0 0 120 0 0 120 0 0 120 0 0 120 0 0 120 0 0 120 0 0 120 0 0 120 0 0 0 0 0 0 0 0 0 0 0 0 0 0 0 0 0 0 0 0 0 0 0 0 0 0 0 0 0 0 0 0 0 152 255 0 152 255 0 152 255 0 152 255 0 152 255 0 152 255 0 152 255 0 152 255 0 152 255 0 152 255 0 152 255 0 152 255 0 152 255 0 152 255 0 152 255 0 152 255 0 152 255 0 152 255 0 152 255 0 152 255 0 152 255 0 152 255 0 152 255 0 152 255 0 152 255 0 152 255 0 152 255 0 152 255 0 152 255 0 152 255 
145 0 0 145 0 0 145 0 0 145 0 0 145 0 0 145 0 0 145 0 0 145 0 0 145 0 0 145 0 0 139 0 0 139 0 0 139 0 0 139 0 0 139 0 0 139 0 0 139 0 0 139 0 0 139 0 0 139 0 0 140 0 0 140 0 0 140 0 0 140 0 0 140 0 0 140 0 0 140 0 0 140 0 0 140 0 0 140 0 0 112 0 0 112 0 0 112 0 0 112 0 0 112 0 0 112 0 0 112 0 0 112 0 0 112 0 0 112 0 0 108 0 0 108 0 0 108 0 0 108 0 0 108 0 0 108 0 0 108 0 0 108 0 0 108 0 0 108 0 0 123 0 0 123 0 0 123 0 0 123 0 0 123 0 0 123 0 0 123 0 0 123 0 0 123 0 0 123 0 0 111 0 0 111 0 0 111 0 0 111 0 0 111 0 0 111 0 0 111 0 0 111 0 0 111 0 0 111 0 0 121 0 0 121 0 0 121 0 0 121 0 0 121 0 0 121 0 0 121 0 0 121 0 0 121 0 0 121 0 0 112 0 0 112 0 0 112 0 0 112 0 0 112 0 0 112 0 0 112 0 0 112 0 0 112 0 0 112 0 0 75 0 0 75 0 0 75 0 0 75 0 0 75 0 0 75 0 0 75 0 0 75 0 0 75 0 0 75 0 0 52 0 0 52 0 0 52 0 0 52 0 0 52 0 0 52 0 0 52 0 0 52 0 0 52 0 0 52 0 0 58 0 0 58 0 0 58 0 0 58 0 0 58 0 0 58 0 0 58 0 0 58 0 0 58 0 0 58 0 0 58 0 0 58 0 0 58 0 0 58 0 0 58 0 0 58 0 0 58 0 0 58 0 0 58 0 0 58 0 0 49 0 0 49 0 0 49 0 0 49 0 0 49 0 0 49 0 0 49 0 0 49 0 0 49 0 0 49 0 0 72 0 0 72 0 0 72 0 0 72 0 0 72 0 0 72 0 0 72 0 0 72 0 0 72 0 0 72 0 0 35 0 0 35 0 0 35 0 0 35 0 0 35 0 0 35 0 0 35 0 0 35 0 0 35 0 0 35 0 0 70 0 0 70 0 0 70 0 0 70 0 0 70 0 0 70 0 0 70 0 0 70 0 0 70 0 0 70 0 0 96 0 0 96 0 0 96 0 0 96 0 0 96 0 0 96 0 0 96 0 0 96 0 0 96 0 0 96 0 0 102 0 0 102 0 0 102 0 0 102 0 0 102 0 0 102 0 0 102 0 0 102 0 0 102 0 0 102 0 0 106 0 0 106 0 0 106 0 0 106 0 0 106 0 0 106 0 0 106 0 0 106 0 0 106 0 0 106 0 0 148 0 0 148 0 0 148 0 0 148 0 0 148 0 0 148 0 0 148 0 0 148 0 0 148 0 0 148 0 0 127 0 0 127 0 0 127 0 0 127 0 0 127 0 0 127 0 0 127 0 0 127 0 0 127 0 0 127 0 0 130 0 0 130 0 0 130 0 0 130 0 0 130 0 0 130 0 0 130 0 0 130 0 0 130 0 0 130 0 0 135 0 0 135 0 0 135 0 0 135 0 0 135 0 0 135 0 0 135 0 0 135 0 0 135 0 0 135 0 0 111 0 0 111 0 0 111 0 0 111 0 0 111 0 0 111 0 0 111 0 0 111 0 0 111 0 0 111 0 0 142 0 0 142 0 0 142 0 0 142 0 0 142 0 0 142 0 0 142 0 0 142 0 0 142 0 0 142 0 0 114 0 0 114 0 0 114 0 0 114 0 0 114 0 0 114 0 0 114 0 0 114 0 0 114 0 0 114 0 0 120 0 0 120 0 0 120 0 0 120 0 0 120 0 0 120 0 0 120 0 0 120 0 0 120 0 0 120 0 0 0 0 0 0 0 0 0 0 0 0 0 0 0 0 0 0 0 0 0 0 0 0 0 0 0 0 0 0 0 0 0 156 255 0 156 255 0 156 255 0 156 255 0 156 255 0 156 255 0 156 255 0 156 255 0 156 255 0 156 255 0 156 255 0 156 255 0 156 255 0 156 255 0 156 255 0 156 255 0 156 255 0 156 255 0 156 255 0 156 255 0 156 255 0 156 255 0 156 255 0 156 255 0 156 255 0 156 255 0 156 255 0 156 255 0 156 255 0 156 255 
145 0 0 145 0 0 145 0 0 145 0 0 145 0 0 145 0 0 145 0 0 145 0 0 145 0 0 145 0 0 139 0 0 139 0 0 139 0 0 139 0 0 139 0 0 139 0 0 139 0 0 139 0 0 139 0 0 139 0 0 140 0 0 140 0 0 140 0 0 140 0 0 140 0 0 140 0 0 140 0 0 140 0 0 140 0 0 140 0 0 112 0 0 112 0 0 112 0 0 112 0 0 112 0 0 112 0 0 112 0 0 112 0 0 112 0 0 112 0 0 108 0 0 108 0 0 108 0 0 108 0 0 108 0 0 108 0 0 108 0 0 108 0 0 108 0 0 108 0 0 123 0 0 123 0 0 123 0 0 123 0 0 123 0 0 123 0 0 123 0 0 123 0 0 123 0 0 123 0 0 111 0 0 111 0 0 111 0 0 111 0 0 111 0 0 111 0 0 111 0 0 111 0 0 111 0 0 111 0 0 121 0 0 121 0 0 121 0 0 121 0 0 121 0 0 121 0 0 121 0 0 121 0 0 121 0 0 121 0 0 112 0 0 112 0 0 112 0 0 112 0 0 112 0 0 112 0 0 112 0 0 112 0 0 112 0 0 112 0 0 75 0 0 75 0 0 75 0 0 75 0 0 75 0 0 75 0 0 75 0 0 75 0 0 75 0 0 75 0 0 52 0 0 52 0 0 52 0 0 52 0 0 52 0 0 52 0 0 52 0 0 52 0 0 52 0 0 52 0 0 58 0 0 58 0 0 58 0 0 58 0 0 58 0 0 58 0 0 58 0 0 58 0 0 58 0 0 58 0 0 58 0 0 58 0 0 58 0 0 58 0 0 58 0 0 58 0 0 58 0 0 58 0 0 58 0 0 58 0 0 49 0 0 49 0 0 49 0 0 49 0 0 49 0 0 49 0 0 49 0 0 49 0 0 49 0 0 49 0 0 72 0 0 72 0 0 72 0 0 72 0 0 72 0 0 72 0 0 72 0 0 72 0 0 72 0 0 72 0 0 35 0 0 35 0 0 35 0 0 35 0 0 35 0 0 35 0 0 35 0 0 35 0 0 35 0 0 35 0 0 70 0 0 70 0 0 70 0 0 70 0 0 70 0 0 70 0 0 70 0 0 70 0 0 70 0 0 70 0 0 96 0 0 96 0 0 96 0 0 96 0 0 96 0 0 96 0 0 96 0 0 96 0 0 96 0 0 96 0 0 102 0 0 102 0 0 102 0 0 102 0 0 102 0 0 102 0 0 102 0 0 102 0 0 102 0 0 102 0 0 106 0 0 106 0 0 106 0 0 106 0 0 106 0 0 106 0 0 106 0 0 106 0 0 106 0 0 106 0 0 148 0 0 148 0 0 148 0 0 148 0 0 148 0 0 148 0 0 148 0 0 148 0 0 148 0 0 148 0 0 127 0 0 127 0 0 127 0 0 127 0 0 127 0 0 127 0 0 127 0 0 127 0 0 127 0 0 127 0 0 130 0 0 130 0 0 130 0 0 130 0 0 130 0 0 130 0 0 130 0 0 130 0 0 130 0 0 130 0 0 135 0 0 135 0 0 135 0 0 135 0 0 135 0 0 135 0 0 135 0 0 135 0 0 135 0 0 135 0 0 111 0 0 111 0 0 111 0 0 111 0 0 111 0 0 111 0 0 111 0 0 111 0 0 111 0 0 111 0 0 142 0 0 142 0 0 142 0 0 142 0 0 142 0 0 142 0 0 142 0 0 142 0 0 142 0 0 142 0 0 114 0 0 114 0 0 114 0 0 114 0 0 114 0 0 114 0 0 114 0 0 114 0 0 114 0 0 114 0 0 120 0 0 120 0 0 120 0 0 120 0 0 120 0 0 120 0 0 120 0 0 120 0 0 120 0 0 120 0 0 0 0 0 0 0 0 0 0 0 0 0 0 0 0 0 0 0 0 0 0 0 0 0 0 0 0 0 0 0 0 0 159 255 0 159 255 0 159 255 0 159 255 0 159 255 0 159 255 0 159 255 0 159 255 0 159 255 0 159 255 0 159 255 0 159 255 0 159 255 0 159 255 0 159 255 0 159 255 0 159 255 0 159 255 0 159 255 0 159 255 0 159 255 0 159 255 0 159 255 0 159 255 0 159 255 0 159 255 0 159 255 0 159 255 0 159 255 0 159 255 
145 0 0 145 0 0 145 0 0 145 0 0 145 0 0 145 0 0 145 0 0 145 0 0 145 0 0 145 0 0 139 0 0 139 0 0 139 0 0 139 0 0 139 0 0 139 0 0 139 0 0 139 0 0 139 0 0 139 0 0 140 0 0 140 0 0 140 0 0 140 0 0 140 0 0 140 0 0 140 0 0 140 0 0 140 0 0 140 0 0 112 0 0 112 0 0 112 0 0 112 0 0 112 0 0 112 0 0 112 0 0 112 0 0 112 0 0 112 0 0 108 0 0 108 0 0 108 0 0 108 0 0 108 0 0 108 0 0 108 0 0 108 0 0 108 0 0 108 0 0 123 0 0 123 0 0 123 0 0 123 0 0 123 0 0 123 0 0 123 0 0 123 0 0 123 0 0 123 0 0 111 0 0 111 0 0 111 0 0 111 0 0 111 0 0 111 0 0 111 0 0 111 0 0 111 0 0 111 0 0 121 0 0 121 0 0 121 0 0 121 0 0 121 0 0 121 0 0 121 0 0 121 0 0 121 0 0 121 0 0 112 0 0 112 0 0 112 0 0 112 0 0 112 0 0 112 0 0 112 0 0 112 0 0 112 0 0 112 0 0 75 0 0 75 0 0 75 0 0 75 0 0 75 0 0 75 0 0 75 0 0 75 0 0 75 0 0 75 0 0 52 0 0 52 0 0 52 0 0 52 0 0 52 0 0 52 0 0 52 0 0 52 0 0 52 0 0 52 0 0 58 0 0 58 0 0 58 0 0 58 0 0 58 0 0 58 0 0 58 0 0 58 0 0 58 0 0 58 0 0 58 0 0 58 0 0 58 0 0 58 0 0 58 0 0 58 0 0 58 0 0 58 0 0 58 0 0 58 0 0 49 0 0 49 0 0 49 0 0 49 0 0 49 0 0 49 0 0 49 0 0 49 0 0 49 0 0 49 0 0 72 0 0 72 0 0 72 0 0 72 0 0 72 0 0 72 0 0 72 0 0 72 0 0 72 0 0 72 0 0 35 0 0 35 0 0 35 0 0 35 0 0 35 0 0 35 0 0 35 0 0 35 0 0 35 0 0 35 0 0 70 0 0 70 0 0 70 0 0 70 0 0 70 0 0 70 0 0 70 0 0 70 0 0 70 0 0 70 0 0 96 0 0 96 0 0 96 0 0 96 0 0 96 0 0 96 0 0 96 0 0 96 0 0 96 0 0 96 0 0 102 0 0 102 0 0 102 0 0 102 0 0 102 0 0 102 0 0 102 0 0 102 0 0 102 0 0 102 0 0 106 0 0 106 0 0 106 0 0 106 0 0 106 0 0 106 0 0 106 0 0 106 0 0 106 0 0 106 0 0 148 0 0 148 0 0 148 0 0 148 0 0 148 0 0 148 0 0 148 0 0 148 0 0 148 0 0 148 0 0 127 0 0 127 0 0 127 0 0 127 0 0 127 0 0 127 0 0 127 0 0 127 0 0 127 0 0 127 0 0 130 0 0 130 0 0 130 0 0 130 0 0 130 0 0 130 0 0 130 0 0 130 0 0 130 0 0 130 0 0 135 0 0 135 0 0 135 0 0 135 0 0 135 0 0 135 0 0 135 0 0 135 0 0 135 0 0 135 0 0 111 0 0 111 0 0 111 0 0 111 0 0 111 0 0 111 0 0 111 0 0 111 0 0 111 0 0 111 0 0 142 0 0 142 0 0 142 0 0 142 0 0 142 0 0 142 0 0 142 0 0 142 0 0 142 0 0 142 0 0 114 0 0 114 0 0 114 0 0 114 0 0 114 0 0 114 0 0 114 0 0 114 0 0 114 0 0 114 0 0 120 0 0 120 0 0 120 0 0 120 0 0 120 0 0 120 0 0 120 0 0 120 0 0 120 0 0 120 0 0 0 0 0 0 0 0 0 0 0 0 0 0 0 0 0 0 0 0 0 0 0 0 0 0 0 0 0 0 0 0 0 163 255 0 163 255 0 163 255 0 163 255 0 163 255 0 163 255 0 163 255 0 163 255 0 163 255 0 163 255 0 163 255 0 163 255 0 163 255 0 163 255 0 163 255 0 163 255 0 163 255 0 163 255 0 163 255 0 163 255 0 163 255 0 163 255 0 163 255 0 163 255 0 163 255 0 163 255 0 163 255 0 163 255 0 163 255 0 163 255 
145 0 0 145 0 0 145 0 0 145 0 0 145 0 0 145 0 0 145 0 0 145 0 0 145 0 0 145 0 0 139 0 0 139 0 0 139 0 0 139 0 0 139 0 0 139 0 0 139 0 0 139 0 0 139 0 0 139 0 0 140 0 0 140 0 0 140 0 0 140 0 0 140 0 0 140 0 0 140 0 0 140 0 0 140 0 0 140 0 0 112 0 0 112 0 0 112 0 0 112 0 0 112 0 0 112 0 0 112 0 0 112 0 0 112 0 0 112 0 0 108 0 0 108 0 0 108 0 0 108 0 0 108 0 0 108 0 0 108 0 0 108 0 0 108 0 0 108 0 0 123 0 0 123 0 0 123 0 0 123 0 0 123 0 0 123 0 0 123 0 0 123 0 0 123 0 0 123 0 0 111 0 0 111 0 0 111 0 0 111 0 0 111 0 0 111 0 0 111 0 0 111 0 0 111 0 0 111 0 0 121 0 0 121 0 0 121 0 0 121 0 0 121 0 0 121 0 0 121 0 0 121 0 0 121 0 0 121 0 0 112 0 0 112 0 0 112 0 0 112 0 0 112 0 0 112 0 0 112 0 0 112 0 0 112 0 0 112 0 0 75 0 0 75 0 0 75 0 0 75 0 0 75 0 0 75 0 0 75 0 0 75 0 0 75 0 0 75 0 0 52 0 0 52 0 0 52 0 0 52 0 0 52 0 0 52 0 0 52 0 0 52 0 0 52 0 0 52 0 0 58 0 0 58 0 0 58 0 0 58 0 0 58 0 0 58 0 0 58 0 0 58 0 0 58 0 0 58 0 0 58 0 0 58 0 0 58 0 0 58 0 0 58 0 0 58 0 0 58 0 0 58 0 0 58 0 0 58 0 0 49 0 0 49 0 0 49 0 0 49 0 0 49 0 0 49 0 0 49 0 0 49 0 0 49 0 0 49 0 0 72 0 0 72 0 0 72 0 0 72 0 0 72 0 0 72 0 0 72 0 0 72 0 0 72 0 0 72 0 0 35 0 0 35 0 0 35 0 0 35 0 0 35 0 0 35 0 0 35 0 0 35 0 0 35 0 0 35 0 0 70 0 0 70 0 0 70 0 0 70 0 0 70 0 0 70 0 0 70 0 0 70 0 0 70 0 0 70 0 0 96 0 0 96 0 0 96 0 0 96 0 0 96 0 0 96 0 0 96 0 0 96 0 0 96 0 0 96 0 0 102 0 0 102 0 0 102 0 0 102 0 0 102 0 0 102 0 0 102 0 0 102 0 0 102 0 0 102 0 0 106 0 0 106 0 0 106 0 0 106 0 0 106 0 0 106 0 0 106 0 0 106 0 0 106 0 0 106 0 0 148 0 0 148 0 0 148 0 0 148 0 0 148 0 0 148 0 0 148 0 0 148 0 0 148 0 0 148 0 0 127 0 0 127 0 0 127 0 0 127 0 0 127 0 0 127 0 0 127 0 0 127 0 0 127 0 0 127 0 0 130 0 0 130 0 0 130 0 0 130 0 0 130 0 0 130 0 0 130 0 0 130 0 0 130 0 0 130 0 0 135 0 0 135 0 0 135 0 0 135 0 0 135 0 0 135 0 0 135 0 0 135 0 0 135 0 0 135 0 0 111 0 0 111 0 0 111 0 0 111 0 0 111 0 0 111 0 0 111 0 0 111 0 0 111 0 0 111 0 0 142 0 0 142 0 0 142 0 0 142 0 0 142 0 0 142 0 0 142 0 0 142 0 0 142 0 0 142 0 0 114 0 0 114 0 0 114 0 0 114 0 0 114 0 0 114 0 0 114 0 0 114 0 0 114 0 0 114 0 0 120 0 0 120 0 0 120 0 0 120 0 0 120 0 0 120 0 0 120 0 0 120 0 0 120 0 0 120 0 0 0 0 0 0 0 0 0 0 0 0 0 0 0 0 0 0 0 0 0 0 0 0 0 0 0 0 0 0 0 0 0 167 255 0 167 255 0 167 255 0 167 255 0 167 255 0 167 255 0 167 255 0 167 255 0 167 255 0 167 255 0 167 255 0 167 255 0 167 255 0 167 255 0 167 255 0 167 255 0 167 255 0 167 255 0 167 255 0 167 255 0 167 255 0 167 255 0 167 255 0 167 255 0 167 255 0 167 255 0 167 255 0 167 255 0 167 255 0 167 255 
145 0 0 145 0 0 145 0 0 145 0 0 145 0 0 145 0 0 145 0 0 145 0 0 145 0 0 145 0 0 139 0 0 139 0 0 139 0 0 139 0 0 139 0 0 139 0 0 139 0 0 139 0 0 139 0 0 139 0 0 140 0 0 140 0 0 140 0 0 140 0 0 140 0 0 140 0 0 140 0 0 140 0 0 140 0 0 140 0 0 112 0 0 112 0 0 112 0 0 112 0 0 112 0 0 112 0 0 112 0 0 112 0 0 112 0 0 112 0 0 108 0 0 108 0 0 108 0 0 108 0 0 108 0 0 108 0 0 108 0 0 108 0 0 108 0 0 108 0 0 123 0 0 123 0 0 123 0 0 123 0 0 123 0 0 123 0 0 123 0 0 123 0 0 123 0 0 123 0 0 111 0 0 111 0 0 111 0 0 111 0 0 111 0 0 111 0 0 111 0 0 111 0 0 111 0 0 111 0 0 121 0 0 121 0 0 121 0 0 121 0 0 121 0 0 121 0 0 121 0 0 121 0 0 121 0 0 121 0 0 112 0 0 112 0 0 112 0 0 112 0 0 112 0 0 112 0 0 112 0 0 112 0 0 112 0 0 112 0 0 75 0 0 75 0 0 75 0 0 75 0 0 75 0 0 75 0 0 75 0 0 75 0 0 75 0 0 75 0 0 52 0 0 52 0 0 52 0 0 52 0 0 52 0 0 52 0 0 52 0 0 52 0 0 52 0 0 52 0 0 58 0 0 58 0 0 58 0 0 58 0 0 58 0 0 58 0 0 58 0 0 58 0 0 58 0 0 58 0 0 58 0 0 58 0 0 58 0 0 58 0 0 58 0 0 58 0 0 58 0 0 58 0 0 58 0 0 58 0 0 49 0 0 49 0 0 49 0 0 49 0 0 49 0 0 49 0 0 49 0 0 49 0 0 49 0 0 49 0 0 72 0 0 72 0 0 72 0 0 72 0 0 72 0 0 72 0 0 72 0 0 72 0 0 72 0 0 72 0 0 35 0 0 35 0 0 35 0 0 35 0 0 35 0 0 35 0 0 35 0 0 35 0 0 35 0 0 35 0 0 70 0 0 70 0 0 70 0 0 70 0 0 70 0 0 70 0 0 70 0 0 70 0 0 70 0 0 70 0 0 96 0 0 96 0 0 96 0 0 96 0 0 96 0 0 96 0 0 96 0 0 96 0 0 96 0 0 96 0 0 102 0 0 102 0 0 102 0 0 102 0 0 102 0 0 102 0 0 102 0 0 102 0 0 102 0 0 102 0 0 106 0 0 106 0 0 106 0 0 106 0 0 106 0 0 106 0 0 106 0 0 106 0 0 106 0 0 106 0 0 148 0 0 148 0 0 148 0 0 148 0 0 148 0 0 148 0 0 148 0 0 148 0 0 148 0 0 148 0 0 127 0 0 127 0 0 127 0 0 127 0 0 127 0 0 127 0 0 127 0 0 127 0 0 127 0 0 127 0 0 130 0 0 130 0 0 130 0 0 130 0 0 130 0 0 130 0 0 130 0 0 130 0 0 130 0 0 130 0 0 135 0 0 135 0 0 135 0 0 135 0 0 135 0 0 135 0 0 135 0 0 135 0 0 135 0 0 135 0 0 111 0 0 111 0 0 111 0 0 111 0 0 111 0 0 111 0 0 111 0 0 111 0 0 111 0 0 111 0 0 142 0 0 142 0 0 142 0 0 142 0 0 142 0 0 142 0 0 142 0 0 142 0 0 142 0 0 142 0 0 114 0 0 114 0 0 114 0 0 114 0 0 114 0 0 114 0 0 114 0 0 114 0 0 114 0 0 114 0 0 120 0 0 120 0 0 120 0 0 120 0 0 120 0 0 120 0 0 120 0 0 120 0 0 120 0 0 120 0 0 0 0 0 0 0 0 0 0 0 0 0 0 0 0 0 0 0 0 0 0 0 0 0 0 0 0 0 0 0 0 0 170 255 0 170 255 0 170 255 0 170 255 0 170 255 0 170 255 0 170 255 0 170 255 0 170 255 0 170 255 0 170 255 0 170 255 0 170 255 0 170 255 0 170 255 0 170 255 0 170 255 0 170 255 0 170 255 0 170 255 0 170 255 0 170 255 0 170 255 0 170 255 0 170 255 0 170 255 0 170 255 0 170 255 0 170 255 0 170 255 
145 0 0 145 0 0 145 0 0 145 0 0 145 0 0 145 0 0 145 0 0 145 0 0 145 0 0 145 0 0 139 0 0 139 0 0 139 0 0 139 0 0 139 0 0 139 0 0 139 0 0 139 0 0 139 0 0 139 0 0 140 0 0 140 0 0 140 0 0 140 0 0 140 0 0 140 0 0 140 0 0 140 0 0 140 0 0 140 0 0 112 0 0 112 0 0 112 0 0 112 0 0 112 0 0 112 0 0 112 0 0 112 0 0 112 0 0 112 0 0 108 0 0 108 0 0 108 0 0 108 0 0 108 0 0 108 0 0 108 0 0 108 0 0 108 0 0 108 0 0 123 0 0 123 0 0 123 0 0 123 0 0 123 0 0 123 0 0 123 0 0 123 0 0 123 0 0 123 0 0 111 0 0 111 0 0 111 0 0 111 0 0 111 0 0 111 0 0 111 0 0 111 0 0 111 0 0 111 0 0 121 0 0 121 0 0 121 0 0 121 0 0 121 0 0 121 0 0 121 0 0 121 0 0 121 0 0 121 0 0 112 0 0 112 0 0 112 0 0 112 0 0 112 0 0 112 0 0 112 0 0 112 0 0 112 0 0 112 0 0 75 0 0 75 0 0 75 0 0 75 0 0 75 0 0 75 0 0 75 0 0 75 0 0 75 0 0 75 0 0 52 0 0 52 0 0 52 0 0 52 0 0 52 0 0 52 0 0 52 0 0 52 0 0 52 0 0 52 0 0 58 0 0 58 0 0 58 0 0 58 0 0 58 0 0 58 0 0 58 0 0 58 0 0 58 0 0 58 0 0 58 0 0 58 0 0 58 0 0 58 0 0 58 0 0 58 0 0 58 0 0 58 0 0 58 0 0 58 0 0 49 0 0 49 0 0 49 0 0 49 0 0 49 0 0 49 0 0 49 0 0 49 0 0 49 0 0 49 0 0 72 0 0 72 0 0 72 0 0 72 0 0 72 0 0 72 0 0 72 0 0 72 0 0 72 0 0 72 0 0 35 0 0 35 0 0 35 0 0 35 0 0 35 0 0 35 0 0 35 0 0 35 0 0 35 0 0 35 0 0 70 0 0 70 0 0 70 0 0 70 0 0 70 0 0 70 0 0 70 0 0 70 0 0 70 0 0 70 0 0 96 0 0 96 0 0 96 0 0 96 0 0 96 0 0 96 0 0 96 0 0 96 0 0 96 0 0 96 0 0 102 0 0 102 0 0 102 0 0 102 0 0 102 0 0 102 0 0 102 0 0 102 0 0 102 0 0 102 0 0 106 0 0 106 0 0 106 0 0 106 0 0 106 0 0 106 0 0 106 0 0 106 0 0 106 0 0 106 0 0 148 0 0 148 0 0 148 0 0 148 0 0 148 0 0 148 0 0 148 0 0 148 0 0 148 0 0 148 0 0 127 0 0 127 0 0 127 0 0 127 0 0 127 0 0 127 0 0 127 0 0 127 0 0 127 0 0 127 0 0 130 0 0 130 0 0 130 0 0 130 0 0 130 0 0 130 0 0 130 0 0 130 0 0 130 0 0 130 0 0 135 0 0 135 0 0 135 0 0 135 0 0 135 0 0 135 0 0 135 0 0 135 0 0 135 0 0 135 0 0 111 0 0 111 0 0 111 0 0 111 0 0 111 0 0 111 0 0 111 0 0 111 0 0 111 0 0 111 0 0 142 0 0 142 0 0 142 0 0 142 0 0 142 0 0 142 0 0 142 0 0 142 0 0 142 0 0 142 0 0 114 0 0 114 0 0 114 0 0 114 0 0 114 0 0 114 0 0 114 0 0 114 0 0 114 0 0 114 0 0 120 0 0 120 0 0 120 0 0 120 0 0 120 0 0 120 0 0 120 0 0 120 0 0 120 0 0 120 0 0 0 0 0 0 0 0 0 0 0 0 0 0 0 0 0 0 0 0 0 0 0 0 0 0 0 0 0 0 0 0 0 174 255 0 174 255 0 174 255 0 174 255 0 174 255 0 174 255 0 174 255 0 174 255 0 174 255 0 174 255 0 174 255 0 174 255 0 174 255 0 174 255 0 174 255 0 174 255 0 174 255 0 174 255 0 174 255 0 174 255 0 174 255 0 174 255 0 174 255 0 174 255 0 174 255 0 174 255 0 174 255 0 174 255 0 174 255 0 174 255 
145 0 0 145 0 0 145 0 0 145 0 0 145 0 0 145 0 0 145 0 0 145 0 0 145 0 0 145 0 0 139 0 0 139 0 0 139 0 0 139 0 0 139 0 0 139 0 0 139 0 0 139 0 0 139 0 0 139 0 0 140 0 0 140 0 0 140 0 0 140 0 0 140 0 0 140 0 0 140 0 0 140 0 0 140 0 0 140 0 0 112 0 0 112 0 0 112 0 0 112 0 0 112 0 0 112 0 0 112 0 0 112 0 0 112 0 0 112 0 0 108 0 0 108 0 0 108 0 0 108 0 0 108 0 0 108 0 0 108 0 0 108 0 0 108 0 0 108 0 0 123 0 0 123 0 0 123 0 0 123 0 0 123 0 0 123 0 0 123 0 0 123 0 0 123 0 0 123 0 0 111 0 0 111 0 0 111 0 0 111 0 0 111 0 0 111 0 0 111 0 0 111 0 0 111 0 0 111 0 0 121 0 0 121 0 0 121 0 0 121 0 0 121 0 0 121 0 0 121 0 0 121 0 0 121 0 0 121 0 0 112 0 0 112 0 0 112 0 0 112 0 0 112 0 0 112 0 0 112 0 0 112 0 0 112 0 0 112 0 0 75 0 0 75 0 0 75 0 0 75 0 0 75 0 0 75 0 0 75 0 0 75 0 0 75 0 0 75 0 0 52 0 0 52 0 0 52 0 0 52 0 0 52 0 0 52 0 0 52 0 0 52 0 0 52 0 0 52 0 0 58 0 0 58 0 0 58 0 0 58 0 0 58 0 0 58 0 0 58 0 0 58 0 0 58 0 0 58 0 0 58 0 0 58 0 0 58 0 0 58 0 0 58 0 0 58 0 0 58 0 0 58 0 0 58 0 0 58 0 0 49 0 0 49 0 0 49 0 0 49 0 0 49 0 0 49 0 0 49 0 0 49 0 0 49 0 0 49 0 0 72 0 0 72 0 0 72 0 0 72 0 0 72 0 0 72 0 0 72 0 0 72 0 0 72 0 0 72 0 0 35 0 0 35 0 0 35 0 0 35 0 0 35 0 0 35 0 0 35 0 0 35 0 0 35 0 0 35 0 0 70 0 0 70 0 0 70 0 0 70 0 0 70 0 0 70 0 0 70 0 0 70 0 0 70 0 0 70 0 0 96 0 0 96 0 0 96 0 0 96 0 0 96 0 0 96 0 0 96 0 0 96 0 0 96 0 0 96 0 0 102 0 0 102 0 0 102 0 0 102 0 0 102 0 0 102 0 0 102 0 0 102 0 0 102 0 0 102 0 0 106 0 0 106 0 0 106 0 0 106 0 0 106 0 0 106 0 0 106 0 0 106 0 0 106 0 0 106 0 0 148 0 0 148 0 0 148 0 0 148 0 0 148 0 0 148 0 0 148 0 0 148 0 0 148 0 0 148 0 0 127 0 0 127 0 0 127 0 0 127 0 0 127 0 0 127 0 0 127 0 0 127 0 0 127 0 0 127 0 0 130 0 0 130 0 0 130 0 0 130 0 0 130 0 0 130 0 0 130 0 0 130 0 0 130 0 0 130 0 0 135 0 0 135 0 0 135 0 0 135 0 0 135 0 0 135 0 0 135 0 0 135 0 0 135 0 0 135 0 0 111 0 0 111 0 0 111 0 0 111 0 0 111 0 0 111 0 0 111 0 0 111 0 0 111 0 0 111 0 0 142 0 0 142 0 0 142 0 0 142 0 0 142 0 0 142 0 0 142 0 0 142 0 0 142 0 0 142 0 0 114 0 0 114 0 0 114 0 0 114 0 0 114 0 0 114 0 0 114 0 0 114 0 0 114 0 0 114 0 0 120 0 0 120 0 0 120 0 0 120 0 0 120 0 0 120 0 0 120 0 0 120 0 0 120 0 0 120 0 0 0 0 0 0 0 0 0 0 0 0 0 0 0 0 0 0 0 0 0 0 0 0 0 0 0 0 0 0 0 0 0 178 255 0 178 255 0 178 255 0 178 255 0 178 255 0 178 255 0 178 255 0 178 255 0 178 255 0 178 255 0 178 255 0 178 255 0 178 255 0 178 255 0 178 255 0 178 255 0 178 255 0 178 255 0 178 255 0 178 255 0 178 255 0 178 255 0 178 255 0 178 255 0 178 255 0 178 255 0 178 255 0 178 255 0 178 255 0 178 255 
145 0 0 145 0 0 145 0 0 145 0 0 145 0 0 145 0 0 145 0 0 145 0 0 145 0 0 145 0 0 139 0 0 139 0 0 139 0 0 139 0 0 139 0 0 139 0 0 139 0 0 139 0 0 139 0 0 139 0 0 140 0 0 140 0 0 140 0 0 140 0 0 140 0 0 140 0 0 140 0 0 140 0 0 140 0 0 140 0 0 112 0 0 112 0 0 112 0 0 112 0 0 112 0 0 112 0 0 112 0 0 112 0 0 112 0 0 112 0 0 108 0 0 108 0 0 108 0 0 108 0 0 108 0 0 108 0 0 108 0 0 108 0 0 108 0 0 108 0 0 123 0 0 123 0 0 123 0 0 123 0 0 123 0 0 123 0 0 123 0 0 123 0 0 123 0 0 123 0 0 111 0 0 111 0 0 111 0 0 111 0 0 111 0 0 111 0 0 111 0 0 111 0 0 111 0 0 111 0 0 121 0 0 121 0 0 121 0 0 121 0 0 121 0 0 121 0 0 121 0 0 121 0 0 121 0 0 121 0 0 112 0 0 112 0 0 112 0 0 112 0 0 112 0 0 112 0 0 112 0 0 112 0 0 112 0 0 112 0 0 75 0 0 75 0 0 75 0 0 75 0 0 75 0 0 75 0 0 75 0 0 75 0 0 75 0 0 75 0 0 52 0 0 52 0 0 52 0 0 52 0 0 52 0 0 52 0 0 52 0 0 52 0 0 52 0 0 52 0 0 58 0 0 58 0 0 58 0 0 58 0 0 58 0 0 58 0 0 58 0 0 58 0 0 58 0 0 58 0 0 58 0 0 58 0 0 58 0 0 58 0 0 58 0 0 58 0 0 58 0 0 58 0 0 58 0 0 58 0 0 49 0 0 49 0 0 49 0 0 49 0 0 49 0 0 49 0 0 49 0 0 49 0 0 49 0 0 49 0 0 72 0 0 72 0 0 72 0 0 72 0 0 72 0 0 72 0 0 72 0 0 72 0 0 72 0 0 72 0 0 35 0 0 35 0 0 35 0 0 35 0 0 35 0 0 35 0 0 35 0 0 35 0 0 35 0 0 35 0 0 70 0 0 70 0 0 70 0 0 70 0 0 70 0 0 70 0 0 70 0 0 70 0 0 70 0 0 70 0 0 96 0 0 96 0 0 96 0 0 96 0 0 96 0 0 96 0 0 96 0 0 96 0 0 96 0 0 96 0 0 102 0 0 102 0 0 102 0 0 102 0 0 102 0 0 102 0 0 102 0 0 102 0 0 102 0 0 102 0 0 106 0 0 106 0 0 106 0 0 106 0 0 106 0 0 106 0 0 106 0 0 106 0 0 106 0 0 106 0 0 148 0 0 148 0 0 148 0 0 148 0 0 148 0 0 148 0 0 148 0 0 148 0 0 148 0 0 148 0 0 127 0 0 127 0 0 127 0 0 127 0 0 127 0 0 127 0 0 127 0 0 127 0 0 127 0 0 127 0 0 130 0 0 130 0 0 130 0 0 130 0 0 130 0 0 130 0 0 130 0 0 130 0 0 130 0 0 130 0 0 135 0 0 135 0 0 135 0 0 135 0 0 135 0 0 135 0 0 135 0 0 135 0 0 135 0 0 135 0 0 111 0 0 111 0 0 111 0 0 111 0 0 111 0 0 111 0 0 111 0 0 111 0 0 111 0 0 111 0 0 142 0 0 142 0 0 142 0 0 142 0 0 142 0 0 142 0 0 142 0 0 142 0 0 142 0 0 142 0 0 114 0 0 114 0 0 114 0 0 114 0 0 114 0 0 114 0 0 114 0 0 114 0 0 114 0 0 114 0 0 120 0 0 120 0 0 120 0 0 120 0 0 120 0 0 120 0 0 120 0 0 120 0 0 120 0 0 120 0 0 0 0 0 0 0 0 0 0 0 0 0 0 0 0 0 0 0 0 0 0 0 0 0 0 0 0 0 0 0 0 0 181 255 0 181 255 0 181 255 0 181 255 0 181 255 0 181 255 0 181 255 0 181 255 0 181 255 0 181 255 0 181 255 0 181 255 0 181 255 0 181 255 0 181 255 0 181 255 0 181 255 0 181 255 0 181 255 0 181 255 0 181 255 0 181 255 0 181 255 0 181 255 0 181 255 0 181 255 0 181 255 0 181 255 0 181 255 0 181 255 
136 0 0 136 0 0 136 0 0 136 0 0 136 0 0 136 0 0 136 0 0 136 0 0 136 0 0 136 0 0 145 0 0 145 0 0 145 0 0 145 0 0 145 0 0 145 0 0 145 0 0 145 0 0 145 0 0 145 0 0 155 0 0 155 0 0 155 0 0 155 0 0 155 0 0 155 0 0 155 0 0 155 0 0 155 0 0 155 0 0 127 0 0 127 0 0 127 0 0 127 0 0 127 0 0 127 0 0 127 0 0 127 0 0 127 0 0 127 0 0 128 0 0 128 0 0 128 0 0 128 0 0 128 0 0 128 0 0 128 0 0 128 0 0 128 0 0 128 0 0 145 0 0 145 0 0 145 0 0 145 0 0 145 0 0 145 0 0 145 0 0 145 0 0 145 0 0 145 0 0 135 0 0 135 0 0 135 0 0 135 0 0 135 0 0 135 0 0 135 0 0 135 0 0 135 0 0 135 0 0 120 0 0 120 0 0 120 0 0 120 0 0 120 0 0 120 0 0 120 0 0 120 0 0 120 0 0 120 0 0 111 0 0 111 0 0 111 0 0 111 0 0 111 0 0 111 0 0 111 0 0 111 0 0 111 0 0 111 0 0 146 0 0 146 0 0 146 0 0 146 0 0 146 0 0 146 0 0 146 0 0 146 0 0 146 0 0 146 0 0 130 0 0 130 0 0 130 0 0 130 0 0 130 0 0 130 0 0 130 0 0 130 0 0 130 0 0 130 0 0 132 0 0 132 0 0 132 0 0 132 0 0 132 0 0 132 0 0 132 0 0 132 0 0 132 0 0 132 0 0 107 0 0 107 0 0 107 0 0 107 0 0 107 0 0 107 0 0 107 0 0 107 0 0 107 0 0 107 0 0 102 0 0 102 0 0 102 0 0 102 0 0 102 0 0 102 0 0 102 0 0 102 0 0 102 0 0 102 0 0 123 0 0 123 0 0 123 0 0 123 0 0 123 0 0 123 0 0 123 0 0 123 0 0 123 0 0 123 0 0 97 0 0 97 0 0 97 0 0 97 0 0 97 0 0 97 0 0 97 0 0 97 0 0 97 0 0 97 0 0 138 0 0 138 0 0 138 0 0 138 0 0 138 0 0 138 0 0 138 0 0 138 0 0 138 0 0 138 0 0 125 0 0 125 0 0 125 0 0 125 0 0 125 0 0 125 0 0 125 0 0 125 0 0 125 0 0 125 0 0 140 0 0 140 0 0 140 0 0 140 0 0 140 0 0 140 0 0 140 0 0 140 0 0 140 0 0 140 0 0 138 0 0 138 0 0 138 0 0 138 0 0 138 0 0 138 0 0 138 0 0 138 0 0 138 0 0 138 0 0 129 0 0 129 0 0 129 0 0 129 0 0 129 0 0 129 0 0 129 0 0 129 0 0 129 0 0 129 0 0 133 0 0 133 0 0 133 0 0 133 0 0 133 0 0 133 0 0 133 0 0 133 0 0 133 0 0 133 0 0 145 0 0 145 0 0 145 0 0 145 0 0 145 0 0 145 0 0 145 0 0 145 0 0 145 0 0 145 0 0 113 0 0 113 0 0 113 0 0 113 0 0 113 0 0 113 0 0 113 0 0 113 0 0 113 0 0 113 0 0 129 0 0 129 0 0 129 0 0 129 0 0 129 0 0 129 0 0 129 0 0 129 0 0 129 0 0 129 0 0 147 0 0 147 0 0 147 0 0 147 0 0 147 0 0 147 0 0 147 0 0 147 0 0 147 0 0 147 0 0 155 0 0 155 0 0 155 0 0 155 0 0 155 0 0 155 0 0 155 0 0 155 0 0 155 0 0 155 0 0 153 0 0 153 0 0 153 0 0 153 0 0 153 0 0 153 0 0 153 0 0 153 0 0 153 0 0 153 0 0 0 0 0 0 0 0 0 0 0 0 0 0 0 0 0 0 0 0 0 0 0 0 0 0 0 0 0 0 0 0 0 185 255 0 185 255 0 185 255 0 185 255 0 185 255 0 185 255 0 185 255 0 185 255 0 185 255 0 185 255 0 185 255 0 185 255 0 185 255 0 185 255 0 185 255 0 185 255 0 185 255 0 185 255 0 185 255 0 185 255 0 185 255 0 185 255 0 185 255 0 185 255 0 185 255 0 185 255 0 185 255 0 185 255 0 185 255 0 185 255 
136 0 0 136 0 0 136 0 0 136 0 0 136 0 0 136 0 0 136 0 0 136 0 0 136 0 0 136 0 0 145 0 0 145 0 0 145 0 0 145 0 0 145 0 0 145 0 0 145 0 0 145 0 0 145 0 0 145 0 0 155 0 0 155 0 0 155 0 0 155 0 0 155 0 0 155 0 0 155 0 0 155 0 0 155 0 0 155 0 0 127 0 0 127 0 0 127 0 0 127 0 0 127 0 0 127 0 0 127 0 0 127 0 0 127 0 0 127 0 0 128 0 0 128 0 0 128 0 0 128 0 0 128 0 0 128 0 0 128 0 0 128 0 0 128 0 0 128 0 0 145 0 0 145 0 0 145 0 0 145 0 0 145 0 0 145 0 0 145 0 0 145 0 0 145 0 0 145 0 0 135 0 0 135 0 0 135 0 0 135 0 0 135 0 0 135 0 0 135 0 0 135 0 0 135 0 0 135 0 0 120 0 0 120 0 0 120 0 0 120 0 0 120 0 0 120 0 0 120 0 0 120 0 0 120 0 0 120 0 0 111 0 0 111 0 0 111 0 0 111 0 0 111 0 0 111 0 0 111 0 0 111 0 0 111 0 0 111 0 0 146 0 0 146 0 0 146 0 0 146 0 0 146 0 0 146 0 0 146 0 0 146 0 0 146 0 0 146 0 0 130 0 0 130 0 0 130 0 0 130 0 0 130 0 0 130 0 0 130 0 0 130 0 0 130 0 0 130 0 0 132 0 0 132 0 0 132 0 0 132 0 0 132 0 0 132 0 0 132 0 0 132 0 0 132 0 0 132 0 0 107 0 0 107 0 0 107 0 0 107 0 0 107 0 0 107 0 0 107 0 0 107 0 0 107 0 0 107 0 0 102 0 0 102 0 0 102 0 0 102 0 0 102 0 0 102 0 0 102 0 0 102 0 0 102 0 0 102 0 0 123 0 0 123 0 0 123 0 0 123 0 0 123 0 0 123 0 0 123 0 0 123 0 0 123 0 0 123 0 0 97 0 0 97 0 0 97 0 0 97 0 0 97 0 0 97 0 0 97 0 0 97 0 0 97 0 0 97 0 0 138 0 0 138 0 0 138 0 0 138 0 0 138 0 0 138 0 0 138 0 0 138 0 0 138 0 0 138 0 0 125 0 0 125 0 0 125 0 0 125 0 0 125 0 0 125 0 0 125 0 0 125 0 0 125 0 0 125 0 0 140 0 0 140 0 0 140 0 0 140 0 0 140 0 0 140 0 0 140 0 0 140 0 0 140 0 0 140 0 0 138 0 0 138 0 0 138 0 0 138 0 0 138 0 0 138 0 0 138 0 0 138 0 0 138 0 0 138 0 0 129 0 0 129 0 0 129 0 0 129 0 0 129 0 0 129 0 0 129 0 0 129 0 0 129 0 0 129 0 0 133 0 0 133 0 0 133 0 0 133 0 0 133 0 0 133 0 0 133 0 0 133 0 0 133 0 0 133 0 0 145 0 0 145 0 0 145 0 0 145 0 0 145 0 0 145 0 0 145 0 0 145 0 0 145 0 0 145 0 0 113 0 0 113 0 0 113 0 0 113 0 0 113 0 0 113 0 0 113 0 0 113 0 0 113 0 0 113 0 0 129 0 0 129 0 0 129 0 0 129 0 0 129 0 0 129 0 0 129 0 0 129 0 0 129 0 0 129 0 0 147 0 0 147 0 0 147 0 0 147 0 0 147 0 0 147 0 0 147 0 0 147 0 0 147 0 0 147 0 0 155 0 0 155 0 0 155 0 0 155 0 0 155 0 0 155 0 0 155 0 0 155 0 0 155 0 0 155 0 0 153 0 0 153 0 0 153 0 0 153 0 0 153 0 0 153 0 0 153 0 0 153 0 0 153 0 0 153 0 0 0 0 0 0 0 0 0 0 0 0 0 0 0 0 0 0 0 0 0 0 0 0 0 0 0 0 0 0 0 0 0 189 255 0 189 255 0 189 255 0 189 255 0 189 255 0 189 255 0 189 255 0 189 255 0 189 255 0 189 255 0 189 255 0 189 255 0 189 255 0 189 255 0 189 255 0 189 255 0 189 255 0 189 255 0 189 255 0 189 255 0 189 255 0 189 255 0 189 255 0 189 255 0 189 255 0 189 255 0 189 255 0 189 255 0 189 255 0 189 255 
136 0 0 136 0 0 136 0 0 136 0 0 136 0 0 136 0 0 136 0 0 136 0 0 136 0 0 136 0 0 145 0 0 145 0 0 145 0 0 145 0 0 145 0 0 145 0 0 145 0 0 145 0 0 145 0 0 145 0 0 155 0 0 155 0 0 155 0 0 155 0 0 155 0 0 155 0 0 155 0 0 155 0 0 155 0 0 155 0 0 127 0 0 127 0 0 127 0 0 127 0 0 127 0 0 127 0 0 127 0 0 127 0 0 127 0 0 127 0 0 128 0 0 128 0 0 128 0 0 128 0 0 128 0 0 128 0 0 128 0 0 128 0 0 128 0 0 128 0 0 145 0 0 145 0 0 145 0 0 145 0 0 145 0 0 145 0 0 145 0 0 145 0 0 145 0 0 145 0 0 135 0 0 135 0 0 135 0 0 135 0 0 135 0 0 135 0 0 135 0 0 135 0 0 135 0 0 135 0 0 120 0 0 120 0 0 120 0 0 120 0 0 120 0 0 120 0 0 120 0 0 120 0 0 120 0 0 120 0 0 111 0 0 111 0 0 111 0 0 111 0 0 111 0 0 111 0 0 111 0 0 111 0 0 111 0 0 111 0 0 146 0 0 146 0 0 146 0 0 146 0 0 146 0 0 146 0 0 146 0 0 146 0 0 146 0 0 146 0 0 130 0 0 130 0 0 130 0 0 130 0 0 130 0 0 130 0 0 130 0 0 130 0 0 130 0 0 130 0 0 132 0 0 132 0 0 132 0 0 132 0 0 132 0 0 132 0 0 132 0 0 132 0 0 132 0 0 132 0 0 107 0 0 107 0 0 107 0 0 107 0 0 107 0 0 107 0 0 107 0 0 107 0 0 107 0 0 107 0 0 102 0 0 102 0 0 102 0 0 102 0 0 102 0 0 102 0 0 102 0 0 102 0 0 102 0 0 102 0 0 123 0 0 123 0 0 123 0 0 123 0 0 123 0 0 123 0 0 123 0 0 123 0 0 123 0 0 123 0 0 97 0 0 97 0 0 97 0 0 97 0 0 97 0 0 97 0 0 97 0 0 97 0 0 97 0 0 97 0 0 138 0 0 138 0 0 138 0 0 138 0 0 138 0 0 138 0 0 138 0 0 138 0 0 138 0 0 138 0 0 125 0 0 125 0 0 125 0 0 125 0 0 125 0 0 125 0 0 125 0 0 125 0 0 125 0 0 125 0 0 140 0 0 140 0 0 140 0 0 140 0 0 140 0 0 140 0 0 140 0 0 140 0 0 140 0 0 140 0 0 138 0 0 138 0 0 138 0 0 138 0 0 138 0 0 138 0 0 138 0 0 138 0 0 138 0 0 138 0 0 129 0 0 129 0 0 129 0 0 129 0 0 129 0 0 129 0 0 129 0 0 129 0 0 129 0 0 129 0 0 133 0 0 133 0 0 133 0 0 133 0 0 133 0 0 133 0 0 133 0 0 133 0 0 133 0 0 133 0 0 145 0 0 145 0 0 145 0 0 145 0 0 145 0 0 145 0 0 145 0 0 145 0 0 145 0 0 145 0 0 113 0 0 113 0 0 113 0 0 113 0 0 113 0 0 113 0 0 113 0 0 113 0 0 113 0 0 113 0 0 129 0 0 129 0 0 129 0 0 129 0 0 129 0 0 129 0 0 129 0 0 129 0 0 129 0 0 129 0 0 147 0 0 147 0 0 147 0 0 147 0 0 147 0 0 147 0 0 147 0 0 147 0 0 147 0 0 147 0 0 155 0 0 155 0 0 155 0 0 155 0 0 155 0 0 155 0 0 155 0 0 155 0 0 155 0 0 155 0 0 153 0 0 153 0 0 153 0 0 153 0 0 153 0 0 153 0 0 153 0 0 153 0 0 153 0 0 153 0 0 0 0 0 0 0 0 0 0 0 0 0 0 0 0 0 0 0 0 0 0 0 0 0 0 0 0 0 0 0 0 0 192 255 0 192 255 0 192 255 0 192 255 0 192 255 0 192 255 0 192 255 0 192 255 0 192 255 0 192 255 0 192 255 0 192 255 0 192 255 0 192 255 0 192 255 0 192 255 0 192 255 0 192 255 0 192 255 0 192 255 0 192 255 0 192 255 0 192 255 0 192 255 0 192 255 0 192 255 0 192 255 0 192 255 0 192 255 0 192 255 
136 0 0 136 0 0 136 0 0 136 0 0 136 0 0 136 0 0 136 0 0 136 0 0 136 0 0 136 0 0 145 0 0 145 0 0 145 0 0 145 0 0 145 0 0 145 0 0 145 0 0 145 0 0 145 0 0 145 0 0 155 0 0 155 0 0 155 0 0 155 0 0 155 0 0 155 0 0 155 0 0 155 0 0 155 0 0 155 0 0 127 0 0 127 0 0 127 0 0 127 0 0 127 0 0 127 0 0 127 0 0 127 0 0 127 0 0 127 0 0 128 0 0 128 0 0 128 0 0 128 0 0 128 0 0 128 0 0 128 0 0 128 0 0 128 0 0 128 0 0 145 0 0 145 0 0 145 0 0 145 0 0 145 0 0 145 0 0 145 0 0 145 0 0 145 0 0 145 0 0 135 0 0 135 0 0 135 0 0 135 0 0 135 0 0 135 0 0 135 0 0 135 0 0 135 0 0 135 0 0 120 0 0 120 0 0 120 0 0 120 0 0 120 0 0 120 0 0 120 0 0 120 0 0 120 0 0 120 0 0 111 0 0 111 0 0 111 0 0 111 0 0 111 0 0 111 0 0 111 0 0 111 0 0 111 0 0 111 0 0 146 0 0 146 0 0 146 0 0 146 0 0 146 0 0 146 0 0 146 0 0 146 0 0 146 0 0 146 0 0 130 0 0 130 0 0 130 0 0 130 0 0 130 0 0 130 0 0 130 0 0 130 0 0 130 0 0 130 0 0 132 0 0 132 0 0 132 0 0 132 0 0 132 0 0 132 0 0 132 0 0 132 0 0 132 0 0 132 0 0 107 0 0 107 0 0 107 0 0 107 0 0 107 0 0 107 0 0 107 0 0 107 0 0 107 0 0 107 0 0 102 0 0 102 0 0 102 0 0 102 0 0 102 0 0 102 0 0 102 0 0 102 0 0 102 0 0 102 0 0 123 0 0 123 0 0 123 0 0 123 0 0 123 0 0 123 0 0 123 0 0 123 0 0 123 0 0 123 0 0 97 0 0 97 0 0 97 0 0 97 0 0 97 0 0 97 0 0 97 0 0 97 0 0 97 0 0 97 0 0 138 0 0 138 0 0 138 0 0 138 0 0 138 0 0 138 0 0 138 0 0 138 0 0 138 0 0 138 0 0 125 0 0 125 0 0 125 0 0 125 0 0 125 0 0 125 0 0 125 0 0 125 0 0 125 0 0 125 0 0 140 0 0 140 0 0 140 0 0 140 0 0 140 0 0 140 0 0 140 0 0 140 0 0 140 0 0 140 0 0 138 0 0 138 0 0 138 0 0 138 0 0 138 0 0 138 0 0 138 0 0 138 0 0 138 0 0 138 0 0 129 0 0 129 0 0 129 0 0 129 0 0 129 0 0 129 0 0 129 0 0 129 0 0 129 0 0 129 0 0 133 0 0 133 0 0 133 0 0 133 0 0 133 0 0 133 0 0 133 0 0 133 0 0 133 0 0 133 0 0 145 0 0 145 0 0 145 0 0 145 0 0 145 0 0 145 0 0 145 0 0 145 0 0 145 0 0 145 0 0 113 0 0 113 0 0 113 0 0 113 0 0 113 0 0 113 0 0 113 0 0 113 0 0 113 0 0 113 0 0 129 0 0 129 0 0 129 0 0 129 0 0 129 0 0 129 0 0 129 0 0 129 0 0 129 0 0 129 0 0 147 0 0 147 0 0 147 0 0 147 0 0 147 0 0 147 0 0 147 0 0 147 0 0 147 0 0 147 0 0 155 0 0 155 0 0 155 0 0 155 0 0 155 0 0 155 0 0 155 0 0 155 0 0 155 0 0 155 0 0 153 0 0 153 0 0 153 0 0 153 0 0 153 0 0 153 0 0 153 0 0 153 0 0 153 0 0 153 0 0 0 0 0 0 0 0 0 0 0 0 0 0 0 0 0 0 0 0 0 0 0 0 0 0 0 0 0 0 0 0 0 196 255 0 196 255 0 196 255 0 196 255 0 196 255 0 196 255 0 196 255 0 196 255 0 196 255 0 196 255 0 196 255 0 196 255 0 196 255 0 196 255 0 196 255 0 196 255 0 196 255 0 196 255 0 196 255 0 196 255 0 196 255 0 196 255 0 196 255 0 196 255 0 196 255 0 196 255 0 196 255 0 196 255 0 196 255 0 196 255 
136 0 0 136 0 0 136 0 0 136 0 0 136 0 0 136 0 0 136 0 0 136 0 0 136 0 0 136 0 0 145 0 0 145 0 0 145 0 0 145 0 0 145 0 0 145 0 0 145 0 0 145 0 0 145 0 0 145 0 0 155 0 0 155 0 0 155 0 0 155 0 0 155 0 0 155 0 0 155 0 0 155 0 0 155 0 0 155 0 0 127 0 0 127 0 0 127 0 0 127 0 0 127 0 0 127 0 0 127 0 0 127 0 0 127 0 0 127 0 0 128 0 0 128 0 0 128 0 0 128 0 0 128 0 0 128 0 0 128 0 0 128 0 0 128 0 0 128 0 0 145 0 0 145 0 0 145 0 0 145 0 0 145 0 0 145 0 0 145 0 0 145 0 0 145 0 0 145 0 0 135 0 0 135 0 0 135 0 0 135 0 0 135 0 0 135 0 0 135 0 0 135 0 0 135 0 0 135 0 0 120 0 0 120 0 0 120 0 0 120 0 0 120 0 0 120 0 0 120 0 0 120 0 0 120 0 0 120 0 0 111 0 0 111 0 0 111 0 0 111 0 0 111 0 0 111 0 0 111 0 0 111 0 0 111 0 0 111 0 0 146 0 0 146 0 0 146 0 0 146 0 0 146 0 0 146 0 0 146 0 0 146 0 0 146 0 0 146 0 0 130 0 0 130 0 0 130 0 0 130 0 0 130 0 0 130 0 0 130 0 0 130 0 0 130 0 0 130 0 0 132 0 0 132 0 0 132 0 0 132 0 0 132 0 0 132 0 0 132 0 0 132 0 0 132 0 0 132 0 0 107 0 0 107 0 0 107 0 0 107 0 0 107 0 0 107 0 0 107 0 0 107 0 0 107 0 0 107 0 0 102 0 0 102 0 0 102 0 0 102 0 0 102 0 0 102 0 0 102 0 0 102 0 0 102 0 0 102 0 0 123 0 0 123 0 0 123 0 0 123 0 0 123 0 0 123 0 0 123 0 0 123 0 0 123 0 0 123 0 0 97 0 0 97 0 0 97 0 0 97 0 0 97 0 0 97 0 0 97 0 0 97 0 0 97 0 0 97 0 0 138 0 0 138 0 0 138 0 0 138 0 0 138 0 0 138 0 0 138 0 0 138 0 0 138 0 0 138 0 0 125 0 0 125 0 0 125 0 0 125 0 0 125 0 0 125 0 0 125 0 0 125 0 0 125 0 0 125 0 0 140 0 0 140 0 0 140 0 0 140 0 0 140 0 0 140 0 0 140 0 0 140 0 0 140 0 0 140 0 0 138 0 0 138 0 0 138 0 0 138 0 0 138 0 0 138 0 0 138 0 0 138 0 0 138 0 0 138 0 0 129 0 0 129 0 0 129 0 0 129 0 0 129 0 0 129 0 0 129 0 0 129 0 0 129 0 0 129 0 0 133 0 0 133 0 0 133 0 0 133 0 0 133 0 0 133 0 0 133 0 0 133 0 0 133 0 0 133 0 0 145 0 0 145 0 0 145 0 0 145 0 0 145 0 0 145 0 0 145 0 0 145 0 0 145 0 0 145 0 0 113 0 0 113 0 0 113 0 0 113 0 0 113 0 0 113 0 0 113 0 0 113 0 0 113 0 0 113 0 0 129 0 0 129 0 0 129 0 0 129 0 0 129 0 0 129 0 0 129 0 0 129 0 0 129 0 0 129 0 0 147 0 0 147 0 0 147 0 0 147 0 0 147 0 0 147 0 0 147 0 0 147 0 0 147 0 0 147 0 0 155 0 0 155 0 0 155 0 0 155 0 0 155 0 0 155 0 0 155 0 0 155 0 0 155 0 0 155 0 0 153 0 0 153 0 0 153 0 0 153 0 0 153 0 0 153 0 0 153 0 0 153 0 0 153 0 0 153 0 0 0 0 0 0 0 0 0 0 0 0 0 0 0 0 0 0 0 0 0 0 0 0 0 0 0 0 0 0 0 0 0 200 255 0 200 255 0 200 255 0 200 255 0 200 255 0 200 255 0 200 255 0 200 255 0 200 255 0 200 255 0 200 255 0 200 255 0 200 255 0 200 255 0 200 255 0 200 255 0 200 255 0 200 255 0 200 255 0 200 255 0 200 255 0 200 255 0 200 255 0 200 255 0 200 255 0 200 255 0 200 255 0 200 255 0 200 255 0 200 255 
136 0 0 136 0 0 136 0 0 136 0 0 136 0 0 136 0 0 136 0 0 136 0 0 136 0 0 136 0 0 145 0 0 145 0 0 145 0 0 145 0 0 145 0 0 145 0 0 145 0 0 145 0 0 145 0 0 145 0 0 155 0 0 155 0 0 155 0 0 155 0 0 155 0 0 155 0 0 155 0 0 155 0 0 155 0 0 155 0 0 127 0 0 127 0 0 127 0 0 127 0 0 127 0 0 127 0 0 127 0 0 127 0 0 127 0 0 127 0 0 128 0 0 128 0 0 128 0 0 128 0 0 128 0 0 128 0 0 128 0 0 128 0 0 128 0 0 128 0 0 145 0 0 145 0 0 145 0 0 145 0 0 145 0 0 145 0 0 145 0 0 145 0 0 145 0 0 145 0 0 135 0 0 135 0 0 135 0 0 135 0 0 135 0 0 135 0 0 135 0 0 135 0 0 135 0 0 135 0 0 120 0 0 120 0 0 120 0 0 120 0 0 120 0 0 120 0 0 120 0 0 120 0 0 120 0 0 120 0 0 111 0 0 111 0 0 111 0 0 111 0 0 111 0 0 111 0 0 111 0 0 111 0 0 111 0 0 111 0 0 146 0 0 146 0 0 146 0 0 146 0 0 146 0 0 146 0 0 146 0 0 146 0 0 146 0 0 146 0 0 130 0 0 130 0 0 130 0 0 130 0 0 130 0 0 130 0 0 130 0 0 130 0 0 130 0 0 130 0 0 132 0 0 132 0 0 132 0 0 132 0 0 132 0 0 132 0 0 132 0 0 132 0 0 132 0 0 132 0 0 107 0 0 107 0 0 107 0 0 107 0 0 107 0 0 107 0 0 107 0 0 107 0 0 107 0 0 107 0 0 102 0 0 102 0 0 102 0 0 102 0 0 102 0 0 102 0 0 102 0 0 102 0 0 102 0 0 102 0 0 123 0 0 123 0 0 123 0 0 123 0 0 123 0 0 123 0 0 123 0 0 123 0 0 123 0 0 123 0 0 97 0 0 97 0 0 97 0 0 97 0 0 97 0 0 97 0 0 97 0 0 97 0 0 97 0 0 97 0 0 138 0 0 138 0 0 138 0 0 138 0 0 138 0 0 138 0 0 138 0 0 138 0 0 138 0 0 138 0 0 125 0 0 125 0 0 125 0 0 125 0 0 125 0 0 125 0 0 125 0 0 125 0 0 125 0 0 125 0 0 140 0 0 140 0 0 140 0 0 140 0 0 140 0 0 140 0 0 140 0 0 140 0 0 140 0 0 140 0 0 138 0 0 138 0 0 138 0 0 138 0 0 138 0 0 138 0 0 138 0 0 138 0 0 138 0 0 138 0 0 129 0 0 129 0 0 129 0 0 129 0 0 129 0 0 129 0 0 129 0 0 129 0 0 129 0 0 129 0 0 133 0 0 133 0 0 133 0 0 133 0 0 133 0 0 133 0 0 133 0 0 133 0 0 133 0 0 133 0 0 145 0 0 145 0 0 145 0 0 145 0 0 145 0 0 145 0 0 145 0 0 145 0 0 145 0 0 145 0 0 113 0 0 113 0 0 113 0 0 113 0 0 113 0 0 113 0 0 113 0 0 113 0 0 113 0 0 113 0 0 129 0 0 129 0 0 129 0 0 129 0 0 129 0 0 129 0 0 129 0 0 129 0 0 129 0 0 129 0 0 147 0 0 147 0 0 147 0 0 147 0 0 147 0 0 147 0 0 147 0 0 147 0 0 147 0 0 147 0 0 155 0 0 155 0 0 155 0 0 155 0 0 155 0 0 155 0 0 155 0 0 155 0 0 155 0 0 155 0 0 153 0 0 153 0 0 153 0 0 153 0 0 153 0 0 153 0 0 153 0 0 153 0 0 153 0 0 153 0 0 0 0 0 0 0 0 0 0 0 0 0 0 0 0 0 0 0 0 0 0 0 0 0 0 0 0 0 0 0 0 0 203 255 0 203 255 0 203 255 0 203 255 0 203 255 0 203 255 0 203 255 0 203 255 0 203 255 0 203 255 0 203 255 0 203 255 0 203 255 0 203 255 0 203 255 0 203 255 0 203 255 0 203 255 0 203 255 0 203 255 0 203 255 0 203 255 0 203 255 0 203 255 0 203 255 0 203 255 0 203 255 0 203 255 0 203 255 0 203 255 
136 0 0 136 0 0 136 0 0 136 0 0 136 0 0 136 0 0 136 0 0 136 0 0 136 0 0 136 0 0 145 0 0 145 0 0 145 0 0 145 0 0 145 0 0 145 0 0 145 0 0 145 0 0 145 0 0 145 0 0 155 0 0 155 0 0 155 0 0 155 0 0 155 0 0 155 0 0 155 0 0 155 0 0 155 0 0 155 0 0 127 0 0 127 0 0 127 0 0 127 0 0 127 0 0 127 0 0 127 0 0 127 0 0 127 0 0 127 0 0 128 0 0 128 0 0 128 0 0 128 0 0 128 0 0 128 0 0 128 0 0 128 0 0 128 0 0 128 0 0 145 0 0 145 0 0 145 0 0 145 0 0 145 0 0 145 0 0 145 0 0 145 0 0 145 0 0 145 0 0 135 0 0 135 0 0 135 0 0 135 0 0 135 0 0 135 0 0 135 0 0 135 0 0 135 0 0 135 0 0 120 0 0 120 0 0 120 0 0 120 0 0 120 0 0 120 0 0 120 0 0 120 0 0 120 0 0 120 0 0 111 0 0 111 0 0 111 0 0 111 0 0 111 0 0 111 0 0 111 0 0 111 0 0 111 0 0 111 0 0 146 0 0 146 0 0 146 0 0 146 0 0 146 0 0 146 0 0 146 0 0 146 0 0 146 0 0 146 0 0 130 0 0 130 0 0 130 0 0 130 0 0 130 0 0 130 0 0 130 0 0 130 0 0 130 0 0 130 0 0 132 0 0 132 0 0 132 0 0 132 0 0 132 0 0 132 0 0 132 0 0 132 0 0 132 0 0 132 0 0 107 0 0 107 0 0 107 0 0 107 0 0 107 0 0 107 0 0 107 0 0 107 0 0 107 0 0 107 0 0 102 0 0 102 0 0 102 0 0 102 0 0 102 0 0 102 0 0 102 0 0 102 0 0 102 0 0 102 0 0 123 0 0 123 0 0 123 0 0 123 0 0 123 0 0 123 0 0 123 0 0 123 0 0 123 0 0 123 0 0 97 0 0 97 0 0 97 0 0 97 0 0 97 0 0 97 0 0 97 0 0 97 0 0 97 0 0 97 0 0 138 0 0 138 0 0 138 0 0 138 0 0 138 0 0 138 0 0 138 0 0 138 0 0 138 0 0 138 0 0 125 0 0 125 0 0 125 0 0 125 0 0 125 0 0 125 0 0 125 0 0 125 0 0 125 0 0 125 0 0 140 0 0 140 0 0 140 0 0 140 0 0 140 0 0 140 0 0 140 0 0 140 0 0 140 0 0 140 0 0 138 0 0 138 0 0 138 0 0 138 0 0 138 0 0 138 0 0 138 0 0 138 0 0 138 0 0 138 0 0 129 0 0 129 0 0 129 0 0 129 0 0 129 0 0 129 0 0 129 0 0 129 0 0 129 0 0 129 0 0 133 0 0 133 0 0 133 0 0 133 0 0 133 0 0 133 0 0 133 0 0 133 0 0 133 0 0 133 0 0 145 0 0 145 0 0 145 0 0 145 0 0 145 0 0 145 0 0 145 0 0 145 0 0 145 0 0 145 0 0 113 0 0 113 0 0 113 0 0 113 0 0 113 0 0 113 0 0 113 0 0 113 0 0 113 0 0 113 0 0 129 0 0 129 0 0 129 0 0 129 0 0 129 0 0 129 0 0 129 0 0 129 0 0 129 0 0 129 0 0 147 0 0 147 0 0 147 0 0 147 0 0 147 0 0 147 0 0 147 0 0 147 0 0 147 0 0 147 0 0 155 0 0 155 0 0 155 0 0 155 0 0 155 0 0 155 0 0 155 0 0 155 0 0 155 0 0 155 0 0 153 0 0 153 0 0 153 0 0 153 0 0 153 0 0 153 0 0 153 0 0 153 0 0 153 0 0 153 0 0 0 0 0 0 0 0 0 0 0 0 0 0 0 0 0 0 0 0 0 0 0 0 0 0 0 0 0 0 0 0 0 207 255 0 207 255 0 207 255 0 207 255 0 207 255 0 207 255 0 207 255 0 207 255 0 207 255 0 207 255 0 207 255 0 207 255 0 207 255 0 207 255 0 207 255 0 207 255 0 207 255 0 207 255 0 207 255 0 207 255 0 207 255 0 207 255 0 207 255 0 207 255 0 207 255 0 207 255 0 207 255 0 207 255 0 207 255 0 207 255 
136 0 0 136 0 0 136 0 0 136 0 0 136 0 0 136 0 0 136 0 0 136 0 0 136 0 0 136 0 0 145 0 0 145 0 0 145 0 0 145 0 0 145 0 0 145 0 0 145 0 0 145 0 0 145 0 0 145 0 0 155 0 0 155 0 0 155 0 0 155 0 0 155 0 0 155 0 0 155 0 0 155 0 0 155 0 0 155 0 0 127 0 0 127 0 0 127 0 0 127 0 0 127 0 0 127 0 0 127 0 0 127 0 0 127 0 0 127 0 0 128 0 0 128 0 0 128 0 0 128 0 0 128 0 0 128 0 0 128 0 0 128 0 0 128 0 0 128 0 0 145 0 0 145 0 0 145 0 0 145 0 0 145 0 0 145 0 0 145 0 0 145 0 0 145 0 0 145 0 0 135 0 0 135 0 0 135 0 0 135 0 0 135 0 0 135 0 0 135 0 0 135 0 0 135 0 0 135 0 0 120 0 0 120 0 0 120 0 0 120 0 0 120 0 0 120 0 0 120 0 0 120 0 0 120 0 0 120 0 0 111 0 0 111 0 0 111 0 0 111 0 0 111 0 0 111 0 0 111 0 0 111 0 0 111 0 0 111 0 0 146 0 0 146 0 0 146 0 0 146 0 0 146 0 0 146 0 0 146 0 0 146 0 0 146 0 0 146 0 0 130 0 0 130 0 0 130 0 0 130 0 0 130 0 0 130 0 0 130 0 0 130 0 0 130 0 0 130 0 0 132 0 0 132 0 0 132 0 0 132 0 0 132 0 0 132 0 0 132 0 0 132 0 0 132 0 0 132 0 0 107 0 0 107 0 0 107 0 0 107 0 0 107 0 0 107 0 0 107 0 0 107 0 0 107 0 0 107 0 0 102 0 0 102 0 0 102 0 0 102 0 0 102 0 0 102 0 0 102 0 0 102 0 0 102 0 0 102 0 0 123 0 0 123 0 0 123 0 0 123 0 0 123 0 0 123 0 0 123 0 0 123 0 0 123 0 0 123 0 0 97 0 0 97 0 0 97 0 0 97 0 0 97 0 0 97 0 0 97 0 0 97 0 0 97 0 0 97 0 0 138 0 0 138 0 0 138 0 0 138 0 0 138 0 0 138 0 0 138 0 0 138 0 0 138 0 0 138 0 0 125 0 0 125 0 0 125 0 0 125 0 0 125 0 0 125 0 0 125 0 0 125 0 0 125 0 0 125 0 0 140 0 0 140 0 0 140 0 0 140 0 0 140 0 0 140 0 0 140 0 0 140 0 0 140 0 0 140 0 0 138 0 0 138 0 0 138 0 0 138 0 0 138 0 0 138 0 0 138 0 0 138 0 0 138 0 0 138 0 0 129 0 0 129 0 0 129 0 0 129 0 0 129 0 0 129 0 0 129 0 0 129 0 0 129 0 0 129 0 0 133 0 0 133 0 0 133 0 0 133 0 0 133 0 0 133 0 0 133 0 0 133 0 0 133 0 0 133 0 0 145 0 0 145 0 0 145 0 0 145 0 0 145 0 0 145 0 0 145 0 0 145 0 0 145 0 0 145 0 0 113 0 0 113 0 0 113 0 0 113 0 0 113 0 0 113 0 0 113 0 0 113 0 0 113 0 0 113 0 0 129 0 0 129 0 0 129 0 0 129 0 0 129 0 0 129 0 0 129 0 0 129 0 0 129 0 0 129 0 0 147 0 0 147 0 0 147 0 0 147 0 0 147 0 0 147 0 0 147 0 0 147 0 0 147 0 0 147 0 0 155 0 0 155 0 0 155 0 0 155 0 0 155 0 0 155 0 0 155 0 0 155 0 0 155 0 0 155 0 0 153 0 0 153 0 0 153 0 0 153 0 0 153 0 0 153 0 0 153 0 0 153 0 0 153 0 0 153 0 0 0 0 0 0 0 0 0 0 0 0 0 0 0 0 0 0 0 0 0 0 0 0 0 0 0 0 0 0 0 0 0 211 255 0 211 255 0 211 255 0 211 255 0 211 255 0 211 255 0 211 255 0 211 255 0 211 255 0 211 255 0 211 255 0 211 255 0 211 255 0 211 255 0 211 255 0 211 255 0 211 255 0 211 255 0 211 255 0 211 255 0 211 255 0 211 255 0 211 255 0 211 255 0 211 255 0 211 255 0 211 255 0 211 255 0 211 255 0 211 255 
136 0 0 136 0 0 136 0 0 136 0 0 136 0 0 136 0 0 136 0 0 136 0 0 136 0 0 136 0 0 145 0 0 145 0 0 145 0 0 145 0 0 145 0 0 145 0 0 145 0 0 145 0 0 145 0 0 145 0 0 155 0 0 155 0 0 155 0 0 155 0 0 155 0 0 155 0 0 155 0 0 155 0 0 155 0 0 155 0 0 127 0 0 127 0 0 127 0 0 127 0 0 127 0 0 127 0 0 127 0 0 127 0 0 127 0 0 127 0 0 128 0 0 128 0 0 128 0 0 128 0 0 128 0 0 128 0 0 128 0 0 128 0 0 128 0 0 128 0 0 145 0 0 145 0 0 145 0 0 145 0 0 145 0 0 145 0 0 145 0 0 145 0 0 145 0 0 145 0 0 135 0 0 135 0 0 135 0 0 135 0 0 135 0 0 135 0 0 135 0 0 135 0 0 135 0 0 135 0 0 120 0 0 120 0 0 120 0 0 120 0 0 120 0 0 120 0 0 120 0 0 120 0 0 120 0 0 120 0 0 111 0 0 111 0 0 111 0 0 111 0 0 111 0 0 111 0 0 111 0 0 111 0 0 111 0 0 111 0 0 146 0 0 146 0 0 146 0 0 146 0 0 146 0 0 146 0 0 146 0 0 146 0 0 146 0 0 146 0 0 130 0 0 130 0 0 130 0 0 130 0 0 130 0 0 130 0 0 130 0 0 130 0 0 130 0 0 130 0 0 132 0 0 132 0 0 132 0 0 132 0 0 132 0 0 132 0 0 132 0 0 132 0 0 132 0 0 132 0 0 107 0 0 107 0 0 107 0 0 107 0 0 107 0 0 107 0 0 107 0 0 107 0 0 107 0 0 107 0 0 102 0 0 102 0 0 102 0 0 102 0 0 102 0 0 102 0 0 102 0 0 102 0 0 102 0 0 102 0 0 123 0 0 123 0 0 123 0 0 123 0 0 123 0 0 123 0 0 123 0 0 123 0 0 123 0 0 123 0 0 97 0 0 97 0 0 97 0 0 97 0 0 97 0 0 97 0 0 97 0 0 97 0 0 97 0 0 97 0 0 138 0 0 138 0 0 138 0 0 138 0 0 138 0 0 138 0 0 138 0 0 138 0 0 138 0 0 138 0 0 125 0 0 125 0 0 125 0 0 125 0 0 125 0 0 125 0 0 125 0 0 125 0 0 125 0 0 125 0 0 140 0 0 140 0 0 140 0 0 140 0 0 140 0 0 140 0 0 140 0 0 140 0 0 140 0 0 140 0 0 138 0 0 138 0 0 138 0 0 138 0 0 138 0 0 138 0 0 138 0 0 138 0 0 138 0 0 138 0 0 129 0 0 129 0 0 129 0 0 129 0 0 129 0 0 129 0 0 129 0 0 129 0 0 129 0 0 129 0 0 133 0 0 133 0 0 133 0 0 133 0 0 133 0 0 133 0 0 133 0 0 133 0 0 133 0 0 133 0 0 145 0 0 145 0 0 145 0 0 145 0 0 145 0 0 145 0 0 145 0 0 145 0 0 145 0 0 145 0 0 113 0 0 113 0 0 113 0 0 113 0 0 113 0 0 113 0 0 113 0 0 113 0 0 113 0 0 113 0 0 129 0 0 129 0 0 129 0 0 129 0 0 129 0 0 129 0 0 129 0 0 129 0 0 129 0 0 129 0 0 147 0 0 147 0 0 147 0 0 147 0 0 147 0 0 147 0 0 147 0 0 147 0 0 147 0 0 147 0 0 155 0 0 155 0 0 155 0 0 155 0 0 155 0 0 155 0 0 155 0 0 155 0 0 155 0 0 155 0 0 153 0 0 153 0 0 153 0 0 153 0 0 153 0 0 153 0 0 153 0 0 153 0 0 153 0 0 153 0 0 0 0 0 0 0 0 0 0 0 0 0 0 0 0 0 0 0 0 0 0 0 0 0 0 0 0 0 0 0 0 0 214 255 0 214 255 0 214 255 0 214 255 0 214 255 0 214 255 0 214 255 0 214 255 0 214 255 0 214 255 0 214 255 0 214 255 0 214 255 0 214 255 0 214 255 0 214 255 0 214 255 0 214 255 0 214 255 0 214 255 0 214 255 0 214 255 0 214 255 0 214 255 0 214 255 0 214 255 0 214 255 0 214 255 0 214 255 0 214 255 
136 0 0 136 0 0 136 0 0 136 0 0 136 0 0 136 0 0 136 0 0 136 0 0 136 0 0 136 0 0 145 0 0 145 0 0 145 0 0 145 0 0 145 0 0 145 0 0 145 0 0 145 0 0 145 0 0 145 0 0 155 0 0 155 0 0 155 0 0 155 0 0 155 0 0 155 0 0 155 0 0 155 0 0 155 0 0 155 0 0 127 0 0 127 0 0 127 0 0 127 0 0 127 0 0 127 0 0 127 0 0 127 0 0 127 0 0 127 0 0 128 0 0 128 0 0 128 0 0 128 0 0 128 0 0 128 0 0 128 0 0 128 0 0 128 0 0 128 0 0 145 0 0 145 0 0 145 0 0 145 0 0 145 0 0 145 0 0 145 0 0 145 0 0 145 0 0 145 0 0 135 0 0 135 0 0 135 0 0 135 0 0 135 0 0 135 0 0 135 0 0 135 0 0 135 0 0 135 0 0 120 0 0 120 0 0 120 0 0 120 0 0 120 0 0 120 0 0 120 0 0 120 0 0 120 0 0 120 0 0 111 0 0 111 0 0 111 0 0 111 0 0 111 0 0 111 0 0 111 0 0 111 0 0 111 0 0 111 0 0 146 0 0 146 0 0 146 0 0 146 0 0 146 0 0 146 0 0 146 0 0 146 0 0 146 0 0 146 0 0 130 0 0 130 0 0 130 0 0 130 0 0 130 0 0 130 0 0 130 0 0 130 0 0 130 0 0 130 0 0 132 0 0 132 0 0 132 0 0 132 0 0 132 0 0 132 0 0 132 0 0 132 0 0 132 0 0 132 0 0 107 0 0 107 0 0 107 0 0 107 0 0 107 0 0 107 0 0 107 0 0 107 0 0 107 0 0 107 0 0 102 0 0 102 0 0 102 0 0 102 0 0 102 0 0 102 0 0 102 0 0 102 0 0 102 0 0 102 0 0 123 0 0 123 0 0 123 0 0 123 0 0 123 0 0 123 0 0 123 0 0 123 0 0 123 0 0 123 0 0 97 0 0 97 0 0 97 0 0 97 0 0 97 0 0 97 0 0 97 0 0 97 0 0 97 0 0 97 0 0 138 0 0 138 0 0 138 0 0 138 0 0 138 0 0 138 0 0 138 0 0 138 0 0 138 0 0 138 0 0 125 0 0 125 0 0 125 0 0 125 0 0 125 0 0 125 0 0 125 0 0 125 0 0 125 0 0 125 0 0 140 0 0 140 0 0 140 0 0 140 0 0 140 0 0 140 0 0 140 0 0 140 0 0 140 0 0 140 0 0 138 0 0 138 0 0 138 0 0 138 0 0 138 0 0 138 0 0 138 0 0 138 0 0 138 0 0 138 0 0 129 0 0 129 0 0 129 0 0 129 0 0 129 0 0 129 0 0 129 0 0 129 0 0 129 0 0 129 0 0 133 0 0 133 0 0 133 0 0 133 0 0 133 0 0 133 0 0 133 0 0 133 0 0 133 0 0 133 0 0 145 0 0 145 0 0 145 0 0 145 0 0 145 0 0 145 0 0 145 0 0 145 0 0 145 0 0 145 0 0 113 0 0 113 0 0 113 0 0 113 0 0 113 0 0 113 0 0 113 0 0 113 0 0 113 0 0 113 0 0 129 0 0 129 0 0 129 0 0 129 0 0 129 0 0 129 0 0 129 0 0 129 0 0 129 0 0 129 0 0 147 0 0 147 0 0 147 0 0 147 0 0 147 0 0 147 0 0 147 0 0 147 0 0 147 0 0 147 0 0 155 0 0 155 0 0 155 0 0 155 0 0 155 0 0 155 0 0 155 0 0 155 0 0 155 0 0 155 0 0 153 0 0 153 0 0 153 0 0 153 0 0 153 0 0 153 0 0 153 0 0 153 0 0 153 0 0 153 0 0 0 0 0 0 0 0 0 0 0 0 0 0 0 0 0 0 0 0 0 0 0 0 0 0 0 0 0 0 0 0 0 218 255 0 218 255 0 218 255 0 218 255 0 218 255 0 218 255 0 218 255 0 218 255 0 218 255 0 218 255 0 218 255 0 218 255 0 218 255 0 218 255 0 218 255 0 218 255 0 218 255 0 218 255 0 218 255 0 218 255 0 218 255 0 218 255 0 218 255 0 218 255 0 218 255 0 218 255 0 218 255 0 218 255 0 218 255 0 218 255 
114 0 0 114 0 0 114 0 0 114 0 0 114 0 0 114 0 0 114 0 0 114 0 0 114 0 0 114 0 0 153 0 0 153 0 0 153 0 0 153 0 0 153 0 0 153 0 0 153 0 0 153 0 0 153 0 0 153 0 0 128 0 0 128 0 0 128 0 0 128 0 0 128 0 0 128 0 0 128 0 0 128 0 0 128 0 0 128 0 0 126 0 0 126 0 0 126 0 0 126 0 0 126 0 0 126 0 0 126 0 0 126 0 0 126 0 0 126 0 0 119 0 0 119 0 0 119 0 0 119 0 0 119 0 0 119 0 0 119 0 0 119 0 0 119 0 0 119 0 0 115 0 0 115 0 0 115 0 0 115 0 0 115 0 0 115 0 0 115 0 0 115 0 0 115 0 0 115 0 0 143 0 0 143 0 0 143 0 0 143 0 0 143 0 0 143 0 0 143 0 0 143 0 0 143 0 0 143 0 0 148 0 0 148 0 0 148 0 0 148 0 0 148 0 0 148 0 0 148 0 0 148 0 0 148 0 0 148 0 0 112 0 0 112 0 0 112 0 0 112 0 0 112 0 0 112 0 0 112 0 0 112 0 0 112 0 0 112 0 0 118 0 0 118 0 0 118 0 0 118 0 0 118 0 0 118 0 0 118 0 0 118 0 0 118 0 0 118 0 0 132 0 0 132 0 0 132 0 0 132 0 0 132 0 0 132 0 0 132 0 0 132 0 0 132 0 0 132 0 0 124 0 0 124 0 0 124 0 0 124 0 0 124 0 0 124 0 0 124 0 0 124 0 0 124 0 0 124 0 0 148 0 0 148 0 0 148 0 0 148 0 0 148 0 0 148 0 0 148 0 0 148 0 0 148 0 0 148 0 0 134 0 0 134 0 0 134 0 0 134 0 0 134 0 0 134 0 0 134 0 0 134 0 0 134 0 0 134 0 0 112 0 0 112 0 0 112 0 0 112 0 0 112 0 0 112 0 0 112 0 0 112 0 0 112 0 0 112 0 0 149 0 0 149 0 0 149 0 0 149 0 0 149 0 0 149 0 0 149 0 0 149 0 0 149 0 0 149 0 0 123 0 0 123 0 0 123 0 0 123 0 0 123 0 0 123 0 0 123 0 0 123 0 0 123 0 0 123 0 0 135 0 0 135 0 0 135 0 0 135 0 0 135 0 0 135 0 0 135 0 0 135 0 0 135 0 0 135 0 0 120 0 0 120 0 0 120 0 0 120 0 0 120 0 0 120 0 0 120 0 0 120 0 0 120 0 0 120 0 0 132 0 0 132 0 0 132 0 0 132 0 0 132 0 0 132 0 0 132 0 0 132 0 0 132 0 0 132 0 0 130 0 0 130 0 0 130 0 0 130 0 0 130 0 0 130 0 0 130 0 0 130 0 0 130 0 0 130 0 0 117 0 0 117 0 0 117 0 0 117 0 0 117 0 0 117 0 0 117 0 0 117 0 0 117 0 0 117 0 0 150 0 0 150 0 0 150 0 0 150 0 0 150 0 0 150 0 0 150 0 0 150 0 0 150 0 0 150 0 0 110 0 0 110 0 0 110 0 0 110 0 0 110 0 0 110 0 0 110 0 0 110 0 0 110 0 0 110 0 0 133 0 0 133 0 0 133 0 0 133 0 0 133 0 0 133 0 0 133 0 0 133 0 0 133 0 0 133 0 0 132 0 0 132 0 0 132 0 0 132 0 0 132 0 0 132 0 0 132 0 0 132 0 0 132 0 0 132 0 0 132 0 0 132 0 0 132 0 0 132 0 0 132 0 0 132 0 0 132 0 0 132 0 0 132 0 0 132 0 0 143 0 0 143 0 0 143 0 0 143 0 0 143 0 0 143 0 0 143 0 0 143 0 0 143 0 0 143 0 0 0 0 0 0 0 0 0 0 0 0 0 0 0 0 0 0 0 0 0 0 0 0 0 0 0 0 0 0 0 0 0 222 255 0 222 255 0 222 255 0 222 255 0 222 255 0 222 255 0 222 255 0 222 255 0 222 255 0 222 255 0 222 255 0 222 255 0 222 255 0 222 255 0 222 255 0 222 255 0 222 255 0 222 255 0 222 255 0 222 255 0 222 255 0 222 255 0 222 255 0 222 255 0 222 255 0 222 255 0 222 255 0 222 255 0 222 255 0 222 255 
114 0 0 114 0 0 114 0 0 114 0 0 114 0 0 114 0 0 114 0 0 114 0 0 114 0 0 114 0 0 153 0 0 153 0 0 153 0 0 153 0 0 153 0 0 153 0 0 153 0 0 153 0 0 153 0 0 153 0 0 128 0 0 128 0 0 128 0 0 128 0 0 128 0 0 128 0 0 128 0 0 128 0 0 128 0 0 128 0 0 126 0 0 126 0 0 126 0 0 126 0 0 126 0 0 126 0 0 126 0 0 126 0 0 126 0 0 126 0 0 119 0 0 119 0 0 119 0 0 119 0 0 119 0 0 119 0 0 119 0 0 119 0 0 119 0 0 119 0 0 115 0 0 115 0 0 115 0 0 115 0 0 115 0 0 115 0 0 115 0 0 115 0 0 115 0 0 115 0 0 143 0 0 143 0 0 143 0 0 143 0 0 143 0 0 143 0 0 143 0 0 143 0 0 143 0 0 143 0 0 148 0 0 148 0 0 148 0 0 148 0 0 148 0 0 148 0 0 148 0 0 148 0 0 148 0 0 148 0 0 112 0 0 112 0 0 112 0 0 112 0 0 112 0 0 112 0 0 112 0 0 112 0 0 112 0 0 112 0 0 118 0 0 118 0 0 118 0 0 118 0 0 118 0 0 118 0 0 118 0 0 118 0 0 118 0 0 118 0 0 132 0 0 132 0 0 132 0 0 132 0 0 132 0 0 132 0 0 132 0 0 132 0 0 132 0 0 132 0 0 124 0 0 124 0 0 124 0 0 124 0 0 124 0 0 124 0 0 124 0 0 124 0 0 124 0 0 124 0 0 148 0 0 148 0 0 148 0 0 148 0 0 148 0 0 148 0 0 148 0 0 148 0 0 148 0 0 148 0 0 134 0 0 134 0 0 134 0 0 134 0 0 134 0 0 134 0 0 134 0 0 134 0 0 134 0 0 134 0 0 112 0 0 112 0 0 112 0 0 112 0 0 112 0 0 112 0 0 112 0 0 112 0 0 112 0 0 112 0 0 149 0 0 149 0 0 149 0 0 149 0 0 149 0 0 149 0 0 149 0 0 149 0 0 149 0 0 149 0 0 123 0 0 123 0 0 123 0 0 123 0 0 123 0 0 123 0 0 123 0 0 123 0 0 123 0 0 123 0 0 135 0 0 135 0 0 135 0 0 135 0 0 135 0 0 135 0 0 135 0 0 135 0 0 135 0 0 135 0 0 120 0 0 120 0 0 120 0 0 120 0 0 120 0 0 120 0 0 120 0 0 120 0 0 120 0 0 120 0 0 132 0 0 132 0 0 132 0 0 132 0 0 132 0 0 132 0 0 132 0 0 132 0 0 132 0 0 132 0 0 130 0 0 130 0 0 130 0 0 130 0 0 130 0 0 130 0 0 130 0 0 130 0 0 130 0 0 130 0 0 117 0 0 117 0 0 117 0 0 117 0 0 117 0 0 117 0 0 117 0 0 117 0 0 117 0 0 117 0 0 150 0 0 150 0 0 150 0 0 150 0 0 150 0 0 150 0 0 150 0 0 150 0 0 150 0 0 150 0 0 110 0 0 110 0 0 110 0 0 110 0 0 110 0 0 110 0 0 110 0 0 110 0 0 110 0 0 110 0 0 133 0 0 133 0 0 133 0 0 133 0 0 133 0 0 133 0 0 133 0 0 133 0 0 133 0 0 133 0 0 132 0 0 132 0 0 132 0 0 132 0 0 132 0 0 132 0 0 132 0 0 132 0 0 132 0 0 132 0 0 132 0 0 132 0 0 132 0 0 132 0 0 132 0 0 132 0 0 132 0 0 132 0 0 132 0 0 132 0 0 143 0 0 143 0 0 143 0 0 143 0 0 143 0 0 143 0 0 143 0 0 143 0 0 143 0 0 143 0 0 0 0 0 0 0 0 0 0 0 0 0 0 0 0 0 0 0 0 0 0 0 0 0 0 0 0 0 0 0 0 0 225 255 0 225 255 0 225 255 0 225 255 0 225 255 0 225 255 0 225 255 0 225 255 0 225 255 0 225 255 0 225 255 0 225 255 0 225 255 0 225 255 0 225 255 0 225 255 0 225 255 0 225 255 0 225 255 0 225 255 0 225 255 0 225 255 0 225 255 0 225 255 0 225 255 0 225 255 0 225 255 0 225 255 0 225 255 0 225 255 
114 0 0 114 0 0 114 0 0 114 0 0 114 0 0 114 0 0 114 0 0 114 0 0 114 0 0 114 0 0 153 0 0 153 0 0 153 0 0 153 0 0 153 0 0 153 0 0 153 0 0 153 0 0 153 0 0 153 0 0 128 0 0 128 0 0 128 0 0 128 0 0 128 0 0 128 0 0 128 0 0 128 0 0 128 0 0 128 0 0 126 0 0 126 0 0 126 0 0 126 0 0 126 0 0 126 0 0 126 0 0 126 0 0 126 0 0 126 0 0 119 0 0 119 0 0 119 0 0 119 0 0 119 0 0 119 0 0 119 0 0 119 0 0 119 0 0 119 0 0 115 0 0 115 0 0 115 0 0 115 0 0 115 0 0 115 0 0 115 0 0 115 0 0 115 0 0 115 0 0 143 0 0 143 0 0 143 0 0 143 0 0 143 0 0 143 0 0 143 0 0 143 0 0 143 0 0 143 0 0 148 0 0 148 0 0 148 0 0 148 0 0 148 0 0 148 0 0 148 0 0 148 0 0 148 0 0 148 0 0 112 0 0 112 0 0 112 0 0 112 0 0 112 0 0 112 0 0 112 0 0 112 0 0 112 0 0 112 0 0 118 0 0 118 0 0 118 0 0 118 0 0 118 0 0 118 0 0 118 0 0 118 0 0 118 0 0 118 0 0 132 0 0 132 0 0 132 0 0 132 0 0 132 0 0 132 0 0 132 0 0 132 0 0 132 0 0 132 0 0 124 0 0 124 0 0 124 0 0 124 0 0 124 0 0 124 0 0 124 0 0 124 0 0 124 0 0 124 0 0 148 0 0 148 0 0 148 0 0 148 0 0 148 0 0 148 0 0 148 0 0 148 0 0 148 0 0 148 0 0 134 0 0 134 0 0 134 0 0 134 0 0 134 0 0 134 0 0 134 0 0 134 0 0 134 0 0 134 0 0 112 0 0 112 0 0 112 0 0 112 0 0 112 0 0 112 0 0 112 0 0 112 0 0 112 0 0 112 0 0 149 0 0 149 0 0 149 0 0 149 0 0 149 0 0 149 0 0 149 0 0 149 0 0 149 0 0 149 0 0 123 0 0 123 0 0 123 0 0 123 0 0 123 0 0 123 0 0 123 0 0 123 0 0 123 0 0 123 0 0 135 0 0 135 0 0 135 0 0 135 0 0 135 0 0 135 0 0 135 0 0 135 0 0 135 0 0 135 0 0 120 0 0 120 0 0 120 0 0 120 0 0 120 0 0 120 0 0 120 0 0 120 0 0 120 0 0 120 0 0 132 0 0 132 0 0 132 0 0 132 0 0 132 0 0 132 0 0 132 0 0 132 0 0 132 0 0 132 0 0 130 0 0 130 0 0 130 0 0 130 0 0 130 0 0 130 0 0 130 0 0 130 0 0 130 0 0 130 0 0 117 0 0 117 0 0 117 0 0 117 0 0 117 0 0 117 0 0 117 0 0 117 0 0 117 0 0 117 0 0 150 0 0 150 0 0 150 0 0 150 0 0 150 0 0 150 0 0 150 0 0 150 0 0 150 0 0 150 0 0 110 0 0 110 0 0 110 0 0 110 0 0 110 0 0 110 0 0 110 0 0 110 0 0 110 0 0 110 0 0 133 0 0 133 0 0 133 0 0 133 0 0 133 0 0 133 0 0 133 0 0 133 0 0 133 0 0 133 0 0 132 0 0 132 0 0 132 0 0 132 0 0 132 0 0 132 0 0 132 0 0 132 0 0 132 0 0 132 0 0 132 0 0 132 0 0 132 0 0 132 0 0 132 0 0 132 0 0 132 0 0 132 0 0 132 0 0 132 0 0 143 0 0 143 0 0 143 0 0 143 0 0 143 0 0 143 0 0 143 0 0 143 0 0 143 0 0 143 0 0 0 0 0 0 0 0 0 0 0 0 0 0 0 0 0 0 0 0 0 0 0 0 0 0 0 0 0 0 0 0 0 229 255 0 229 255 0 229 255 0 229 255 0 229 255 0 229 255 0 229 255 0 229 255 0 229 255 0 229 255 0 229 255 0 229 255 0 229 255 0 229 255 0 229 255 0 229 255 0 229 255 0 229 255 0 229 255 0 229 255 0 229 255 0 229 255 0 229 255 0 229 255 0 229 255 0 229 255 0 229 255 0 229 255 0 229 255 0 229 255 
114 0 0 114 0 0 114 0 0 114 0 0 114 0 0 114 0 0 114 0 0 114 0 0 114 0 0 114 0 0 153 0 0 153 0 0 153 0 0 153 0 0 153 0 0 153 0 0 153 0 0 153 0 0 153 0 0 153 0 0 128 0 0 128 0 0 128 0 0 128 0 0 128 0 0 128 0 0 128 0 0 128 0 0 128 0 0 128 0 0 126 0 0 126 0 0 126 0 0 126 0 0 126 0 0 126 0 0 126 0 0 126 0 0 126 0 0 126 0 0 119 0 0 119 0 0 119 0 0 119 0 0 119 0 0 119 0 0 119 0 0 119 0 0 119 0 0 119 0 0 115 0 0 115 0 0 115 0 0 115 0 0 115 0 0 115 0 0 115 0 0 115 0 0 115 0 0 115 0 0 143 0 0 143 0 0 143 0 0 143 0 0 143 0 0 143 0 0 143 0 0 143 0 0 143 0 0 143 0 0 148 0 0 148 0 0 148 0 0 148 0 0 148 0 0 148 0 0 148 0 0 148 0 0 148 0 0 148 0 0 112 0 0 112 0 0 112 0 0 112 0 0 112 0 0 112 0 0 112 0 0 112 0 0 112 0 0 112 0 0 118 0 0 118 0 0 118 0 0 118 0 0 118 0 0 118 0 0 118 0 0 118 0 0 118 0 0 118 0 0 132 0 0 132 0 0 132 0 0 132 0 0 132 0 0 132 0 0 132 0 0 132 0 0 132 0 0 132 0 0 124 0 0 124 0 0 124 0 0 124 0 0 124 0 0 124 0 0 124 0 0 124 0 0 124 0 0 124 0 0 148 0 0 148 0 0 148 0 0 148 0 0 148 0 0 148 0 0 148 0 0 148 0 0 148 0 0 148 0 0 134 0 0 134 0 0 134 0 0 134 0 0 134 0 0 134 0 0 134 0 0 134 0 0 134 0 0 134 0 0 112 0 0 112 0 0 112 0 0 112 0 0 112 0 0 112 0 0 112 0 0 112 0 0 112 0 0 112 0 0 149 0 0 149 0 0 149 0 0 149 0 0 149 0 0 149 0 0 149 0 0 149 0 0 149 0 0 149 0 0 123 0 0 123 0 0 123 0 0 123 0 0 123 0 0 123 0 0 123 0 0 123 0 0 123 0 0 123 0 0 135 0 0 135 0 0 135 0 0 135 0 0 135 0 0 135 0 0 135 0 0 135 0 0 135 0 0 135 0 0 120 0 0 120 0 0 120 0 0 120 0 0 120 0 0 120 0 0 120 0 0 120 0 0 120 0 0 120 0 0 132 0 0 132 0 0 132 0 0 132 0 0 132 0 0 132 0 0 132 0 0 132 0 0 132 0 0 132 0 0 130 0 0 130 0 0 130 0 0 130 0 0 130 0 0 130 0 0 130 0 0 130 0 0 130 0 0 130 0 0 117 0 0 117 0 0 117 0 0 117 0 0 117 0 0 117 0 0 117 0 0 117 0 0 117 0 0 117 0 0 150 0 0 150 0 0 150 0 0 150 0 0 150 0 0 150 0 0 150 0 0 150 0 0 150 0 0 150 0 0 110 0 0 110 0 0 110 0 0 110 0 0 110 0 0 110 0 0 110 0 0 110 0 0 110 0 0 110 0 0 133 0 0 133 0 0 133 0 0 133 0 0 133 0 0 133 0 0 133 0 0 133 0 0 133 0 0 133 0 0 132 0 0 132 0 0 132 0 0 132 0 0 132 0 0 132 0 0 132 0 0 132 0 0 132 0 0 132 0 0 132 0 0 132 0 0 132 0 0 132 0 0 132 0 0 132 0 0 132 0 0 132 0 0 132 0 0 132 0 0 143 0 0 143 0 0 143 0 0 143 0 0 143 0 0 143 0 0 143 0 0 143 0 0 143 0 0 143 0 0 0 0 0 0 0 0 0 0 0 0 0 0 0 0 0 0 0 0 0 0 0 0 0 0 0 0 0 0 0 0 0 233 255 0 233 255 0 233 255 0 233 255 0 233 255 0 233 255 0 233 255 0 233 255 0 233 255 0 233 255 0 233 255 0 233 255 0 233 255 0 233 255 0 233 255 0 233 255 0 233 255 0 233 255 0 233 255 0 233 255 0 233 255 0 233 255 0 233 255 0 233 255 0 233 255 0 233 255 0 233 255 0 233 255 0 233 255 0 233 255 
114 0 0 114 0 0 114 0 0 114 0 0 114 0 0 114 0 0 114 0 0 114 0 0 114 0 0 114 0 0 153 0 0 153 0 0 153 0 0 153 0 0 153 0 0 153 0 0 153 0 0 153 0 0 153 0 0 153 0 0 128 0 0 128 0 0 128 0 0 128 0 0 128 0 0 128 0 0 128 0 0 128 0 0 128 0 0 128 0 0 126 0 0 126 0 0 126 0 0 126 0 0 126 0 0 126 0 0 126 0 0 126 0 0 126 0 0 126 0 0 119 0 0 119 0 0 119 0 0 119 0 0 119 0 0 119 0 0 119 0 0 119 0 0 119 0 0 119 0 0 115 0 0 115 0 0 115 0 0 115 0 0 115 0 0 115 0 0 115 0 0 115 0 0 115 0 0 115 0 0 143 0 0 143 0 0 143 0 0 143 0 0 143 0 0 143 0 0 143 0 0 143 0 0 143 0 0 143 0 0 148 0 0 148 0 0 148 0 0 148 0 0 148 0 0 148 0 0 148 0 0 148 0 0 148 0 0 148 0 0 112 0 0 112 0 0 112 0 0 112 0 0 112 0 0 112 0 0 112 0 0 112 0 0 112 0 0 112 0 0 118 0 0 118 0 0 118 0 0 118 0 0 118 0 0 118 0 0 118 0 0 118 0 0 118 0 0 118 0 0 132 0 0 132 0 0 132 0 0 132 0 0 132 0 0 132 0 0 132 0 0 132 0 0 132 0 0 132 0 0 124 0 0 124 0 0 124 0 0 124 0 0 124 0 0 124 0 0 124 0 0 124 0 0 124 0 0 124 0 0 148 0 0 148 0 0 148 0 0 148 0 0 148 0 0 148 0 0 148 0 0 148 0 0 148 0 0 148 0 0 134 0 0 134 0 0 134 0 0 134 0 0 134 0 0 134 0 0 134 0 0 134 0 0 134 0 0 134 0 0 112 0 0 112 0 0 112 0 0 112 0 0 112 0 0 112 0 0 112 0 0 112 0 0 112 0 0 112 0 0 149 0 0 149 0 0 149 0 0 149 0 0 149 0 0 149 0 0 149 0 0 149 0 0 149 0 0 149 0 0 123 0 0 123 0 0 123 0 0 123 0 0 123 0 0 123 0 0 123 0 0 123 0 0 123 0 0 123 0 0 135 0 0 135 0 0 135 0 0 135 0 0 135 0 0 135 0 0 135 0 0 135 0 0 135 0 0 135 0 0 120 0 0 120 0 0 120 0 0 120 0 0 120 0 0 120 0 0 120 0 0 120 0 0 120 0 0 120 0 0 132 0 0 132 0 0 132 0 0 132 0 0 132 0 0 132 0 0 132 0 0 132 0 0 132 0 0 132 0 0 130 0 0 130 0 0 130 0 0 130 0 0 130 0 0 130 0 0 130 0 0 130 0 0 130 0 0 130 0 0 117 0 0 117 0 0 117 0 0 117 0 0 117 0 0 117 0 0 117 0 0 117 0 0 117 0 0 117 0 0 150 0 0 150 0 0 150 0 0 150 0 0 150 0 0 150 0 0 150 0 0 150 0 0 150 0 0 150 0 0 110 0 0 110 0 0 110 0 0 110 0 0 110 0 0 110 0 0 110 0 0 110 0 0 110 0 0 110 0 0 133 0 0 133 0 0 133 0 0 133 0 0 133 0 0 133 0 0 133 0 0 133 0 0 133 0 0 133 0 0 132 0 0 132 0 0 132 0 0 132 0 0 132 0 0 132 0 0 132 0 0 132 0 0 132 0 0 132 0 0 132 0 0 132 0 0 132 0 0 132 0 0 132 0 0 132 0 0 132 0 0 132 0 0 132 0 0 132 0 0 143 0 0 143 0 0 143 0 0 143 0 0 143 0 0 143 0 0 143 0 0 143 0 0 143 0 0 143 0 0 0 0 0 0 0 0 0 0 0 0 0 0 0 0 0 0 0 0 0 0 0 0 0 0 0 0 0 0 0 0 0 236 255 0 236 255 0 236 255 0 236 255 0 236 255 0 236 255 0 236 255 0 236 255 0 236 255 0 236 255 0 236 255 0 236 255 0 236 255 0 236 255 0 236 255 0 236 255 0 236 255 0 236 255 0 236 255 0 236 255 0 236 255 0 236 255 0 236 255 0 236 255 0 236 255 0 236 255 0 236 255 0 236 255 0 236 255 0 236 255 
114 0 0 114 0 0 114 0 0 114 0 0 114 0 0 114 0 0 114 0 0 114 0 0 114 0 0 114 0 0 153 0 0 153 0 0 153 0 0 153 0 0 153 0 0 153 0 0 153 0 0 153 0 0 153 0 0 153 0 0 128 0 0 128 0 0 128 0 0 128 0 0 128 0 0 128 0 0 128 0 0 128 0 0 128 0 0 128 0 0 126 0 0 126 0 0 126 0 0 126 0 0 126 0 0 126 0 0 126 0 0 126 0 0 126 0 0 126 0 0 119 0 0 119 0 0 119 0 0 119 0 0 119 0 0 119 0 0 119 0 0 119 0 0 119 0 0 119 0 0 115 0 0 115 0 0 115 0 0 115 0 0 115 0 0 115 0 0 115 0 0 115 0 0 115 0 0 115 0 0 143 0 0 143 0 0 143 0 0 143 0 0 143 0 0 143 0 0 143 0 0 143 0 0 143 0 0 143 0 0 148 0 0 148 0 0 148 0 0 148 0 0 148 0 0 148 0 0 148 0 0 148 0 0 148 0 0 148 0 0 112 0 0 112 0 0 112 0 0 112 0 0 112 0 0 112 0 0 112 0 0 112 0 0 112 0 0 112 0 0 118 0 0 118 0 0 118 0 0 118 0 0 118 0 0 118 0 0 118 0 0 118 0 0 118 0 0 118 0 0 132 0 0 132 0 0 132 0 0 132 0 0 132 0 0 132 0 0 132 0 0 132 0 0 132 0 0 132 0 0 124 0 0 124 0 0 124 0 0 124 0 0 124 0 0 124 0 0 124 0 0 124 0 0 124 0 0 124 0 0 148 0 0 148 0 0 148 0 0 148 0 0 148 0 0 148 0 0 148 0 0 148 0 0 148 0 0 148 0 0 134 0 0 134 0 0 134 0 0 134 0 0 134 0 0 134 0 0 134 0 0 134 0 0 134 0 0 134 0 0 112 0 0 112 0 0 112 0 0 112 0 0 112 0 0 112 0 0 112 0 0 112 0 0 112 0 0 112 0 0 149 0 0 149 0 0 149 0 0 149 0 0 149 0 0 149 0 0 149 0 0 149 0 0 149 0 0 149 0 0 123 0 0 123 0 0 123 0 0 123 0 0 123 0 0 123 0 0 123 0 0 123 0 0 123 0 0 123 0 0 135 0 0 135 0 0 135 0 0 135 0 0 135 0 0 135 0 0 135 0 0 135 0 0 135 0 0 135 0 0 120 0 0 120 0 0 120 0 0 120 0 0 120 0 0 120 0 0 120 0 0 120 0 0 120 0 0 120 0 0 132 0 0 132 0 0 132 0 0 132 0 0 132 0 0 132 0 0 132 0 0 132 0 0 132 0 0 132 0 0 130 0 0 130 0 0 130 0 0 130 0 0 130 0 0 130 0 0 130 0 0 130 0 0 130 0 0 130 0 0 117 0 0 117 0 0 117 0 0 117 0 0 117 0 0 117 0 0 117 0 0 117 0 0 117 0 0 117 0 0 150 0 0 150 0 0 150 0 0 150 0 0 150 0 0 150 0 0 150 0 0 150 0 0 150 0 0 150 0 0 110 0 0 110 0 0 110 0 0 110 0 0 110 0 0 110 0 0 110 0 0 110 0 0 110 0 0 110 0 0 133 0 0 133 0 0 133 0 0 133 0 0 133 0 0 133 0 0 133 0 0 133 0 0 133 0 0 133 0 0 132 0 0 132 0 0 132 0 0 132 0 0 132 0 0 132 0 0 132 0 0 132 0 0 132 0 0 132 0 0 132 0 0 132 0 0 132 0 0 132 0 0 132 0 0 132 0 0 132 0 0 132 0 0 132 0 0 132 0 0 143 0 0 143 0 0 143 0 0 143 0 0 143 0 0 143 0 0 143 0 0 143 0 0 143 0 0 143 0 0 0 0 0 0 0 0 0 0 0 0 0 0 0 0 0 0 0 0 0 0 0 0 0 0 0 0 0 0 0 0 0 240 255 0 240 255 0 240 255 0 240 255 0 240 255 0 240 255 0 240 255 0 240 255 0 240 255 0 240 255 0 240 255 0 240 255 0 240 255 0 240 255 0 240 255 0 240 255 0 240 255 0 240 255 0 240 255 0 240 255 0 240 255 0 240 255 0 240 255 0 240 255 0 240 255 0 240 255 0 240 255 0 240 255 0 240 255 0 240 255 
114 0 0 114 0 0 114 0 0 114 0 0 114 0 0 114 0 0 114 0 0 114 0 0 114 0 0 114 0 0 153 0 0 153 0 0 153 0 0 153 0 0 153 0 0 153 0 0 153 0 0 153 0 0 153 0 0 153 0 0 128 0 0 128 0 0 128 0 0 128 0 0 128 0 0 128 0 0 128 0 0 128 0 0 128 0 0 128 0 0 126 0 0 126 0 0 126 0 0 126 0 0 126 0 0 126 0 0 126 0 0 126 0 0 126 0 0 126 0 0 119 0 0 119 0 0 119 0 0 119 0 0 119 0 0 119 0 0 119 0 0 119 0 0 119 0 0 119 0 0 115 0 0 115 0 0 115 0 0 115 0 0 115 0 0 115 0 0 115 0 0 115 0 0 115 0 0 115 0 0 143 0 0 143 0 0 143 0 0 143 0 0 143 0 0 143 0 0 143 0 0 143 0 0 143 0 0 143 0 0 148 0 0 148 0 0 148 0 0 148 0 0 148 0 0 148 0 0 148 0 0 148 0 0 148 0 0 148 0 0 112 0 0 112 0 0 112 0 0 112 0 0 112 0 0 112 0 0 112 0 0 112 0 0 112 0 0 112 0 0 118 0 0 118 0 0 118 0 0 118 0 0 118 0 0 118 0 0 118 0 0 118 0 0 118 0 0 118 0 0 132 0 0 132 0 0 132 0 0 132 0 0 132 0 0 132 0 0 132 0 0 132 0 0 132 0 0 132 0 0 124 0 0 124 0 0 124 0 0 124 0 0 124 0 0 124 0 0 124 0 0 124 0 0 124 0 0 124 0 0 148 0 0 148 0 0 148 0 0 148 0 0 148 0 0 148 0 0 148 0 0 148 0 0 148 0 0 148 0 0 134 0 0 134 0 0 134 0 0 134 0 0 134 0 0 134 0 0 134 0 0 134 0 0 134 0 0 134 0 0 112 0 0 112 0 0 112 0 0 112 0 0 112 0 0 112 0 0 112 0 0 112 0 0 112 0 0 112 0 0 149 0 0 149 0 0 149 0 0 149 0 0 149 0 0 149 0 0 149 0 0 149 0 0 149 0 0 149 0 0 123 0 0 123 0 0 123 0 0 123 0 0 123 0 0 123 0 0 123 0 0 123 0 0 123 0 0 123 0 0 135 0 0 135 0 0 135 0 0 135 0 0 135 0 0 135 0 0 135 0 0 135 0 0 135 0 0 135 0 0 120 0 0 120 0 0 120 0 0 120 0 0 120 0 0 120 0 0 120 0 0 120 0 0 120 0 0 120 0 0 132 0 0 132 0 0 132 0 0 132 0 0 132 0 0 132 0 0 132 0 0 132 0 0 132 0 0 132 0 0 130 0 0 130 0 0 130 0 0 130 0 0 130 0 0 130 0 0 130 0 0 130 0 0 130 0 0 130 0 0 117 0 0 117 0 0 117 0 0 117 0 0 117 0 0 117 0 0 117 0 0 117 0 0 117 0 0 117 0 0 150 0 0 150 0 0 150 0 0 150 0 0 150 0 0 150 0 0 150 0 0 150 0 0 150 0 0 150 0 0 110 0 0 110 0 0 110 0 0 110 0 0 110 0 0 110 0 0 110 0 0 110 0 0 110 0 0 110 0 0 133 0 0 133 0 0 133 0 0 133 0 0 133 0 0 133 0 0 133 0 0 133 0 0 133 0 0 133 0 0 132 0 0 132 0 0 132 0 0 132 0 0 132 0 0 132 0 0 132 0 0 132 0 0 132 0 0 132 0 0 132 0 0 132 0 0 132 0 0 132 0 0 132 0 0 132 0 0 132 0 0 132 0 0 132 0 0 132 0 0 143 0 0 143 0 0 143 0 0 143 0 0 143 0 0 143 0 0 143 0 0 143 0 0 143 0 0 143 0 0 0 0 0 0 0 0 0 0 0 0 0 0 0 0 0 0 0 0 0 0 0 0 0 0 0 0 0 0 0 0 0 244 255 0 244 255 0 244 255 0 244 255 0 244 255 0 244 255 0 244 255 0 244 255 0 244 255 0 244 255 0 244 255 0 244 255 0 244 255 0 244 255 0 244 255 0 244 255 0 244 255 0 244 255 0 244 255 0 244 255 0 244 255 0 244 255 0 244 255 0 244 255 0 244 255 0 244 255 0 244 255 0 244 255 0 244 255 0 244 255 
114 0 0 114 0 0 114 0 0 114 0 0 114 0 0 114 0 0 114 0 0 114 0 0 114 0 0 114 0 0 153 0 0 153 0 0 153 0 0 153 0 0 153 0 0 153 0 0 153 0 0 153 0 0 153 0 0 153 0 0 128 0 0 128 0 0 128 0 0 128 0 0 128 0 0 128 0 0 128 0 0 128 0 0 128 0 0 128 0 0 126 0 0 126 0 0 126 0 0 126 0 0 126 0 0 126 0 0 126 0 0 126 0 0 126 0 0 126 0 0 119 0 0 119 0 0 119 0 0 119 0 0 119 0 0 119 0 0 119 0 0 119 0 0 119 0 0 119 0 0 115 0 0 115 0 0 115 0 0 115 0 0 115 0 0 115 0 0 115 0 0 115 0 0 115 0 0 115 0 0 143 0 0 143 0 0 143 0 0 143 0 0 143 0 0 143 0 0 143 0 0 143 0 0 143 0 0 143 0 0 148 0 0 148 0 0 148 0 0 148 0 0 148 0 0 148 0 0 148 0 0 148 0 0 148 0 0 148 0 0 112 0 0 112 0 0 112 0 0 112 0 0 112 0 0 112 0 0 112 0 0 112 0 0 112 0 0 112 0 0 118 0 0 118 0 0 118 0 0 118 0 0 118 0 0 118 0 0 118 0 0 118 0 0 118 0 0 118 0 0 132 0 0 132 0 0 132 0 0 132 0 0 132 0 0 132 0 0 132 0 0 132 0 0 132 0 0 132 0 0 124 0 0 124 0 0 124 0 0 124 0 0 124 0 0 124 0 0 124 0 0 124 0 0 124 0 0 124 0 0 148 0 0 148 0 0 148 0 0 148 0 0 148 0 0 148 0 0 148 0 0 148 0 0 148 0 0 148 0 0 134 0 0 134 0 0 134 0 0 134 0 0 134 0 0 134 0 0 134 0 0 134 0 0 134 0 0 134 0 0 112 0 0 112 0 0 112 0 0 112 0 0 112 0 0 112 0 0 112 0 0 112 0 0 112 0 0 112 0 0 149 0 0 149 0 0 149 0 0 149 0 0 149 0 0 149 0 0 149 0 0 149 0 0 149 0 0 149 0 0 123 0 0 123 0 0 123 0 0 123 0 0 123 0 0 123 0 0 123 0 0 123 0 0 123 0 0 123 0 0 135 0 0 135 0 0 135 0 0 135 0 0 135 0 0 135 0 0 135 0 0 135 0 0 135 0 0 135 0 0 120 0 0 120 0 0 120 0 0 120 0 0 120 0 0 120 0 0 120 0 0 120 0 0 120 0 0 120 0 0 132 0 0 132 0 0 132 0 0 132 0 0 132 0 0 132 0 0 132 0 0 132 0 0 132 0 0 132 0 0 130 0 0 130 0 0 130 0 0 130 0 0 130 0 0 130 0 0 130 0 0 130 0 0 130 0 0 130 0 0 117 0 0 117 0 0 117 0 0 117 0 0 117 0 0 117 0 0 117 0 0 117 0 0 117 0 0 117 0 0 150 0 0 150 0 0 150 0 0 150 0 0 150 0 0 150 0 0 150 0 0 150 0 0 150 0 0 150 0 0 110 0 0 110 0 0 110 0 0 110 0 0 110 0 0 110 0 0 110 0 0 110 0 0 110 0 0 110 0 0 133 0 0 133 0 0 133 0 0 133 0 0 133 0 0 133 0 0 133 0 0 133 0 0 133 0 0 133 0 0 132 0 0 132 0 0 132 0 0 132 0 0 132 0 0 132 0 0 132 0 0 132 0 0 132 0 0 132 0 0 132 0 0 132 0 0 132 0 0 132 0 0 132 0 0 132 0 0 132 0 0 132 0 0 132 0 0 132 0 0 143 0 0 143 0 0 143 0 0 143 0 0 143 0 0 143 0 0 143 0 0 143 0 0 143 0 0 143 0 0 0 0 0 0 0 0 0 0 0 0 0 0 0 0 0 0 0 0 0 0 0 0 0 0 0 0 0 0 0 0 0 247 255 0 247 255 0 247 255 0 247 255 0 247 255 0 247 255 0 247 255 0 247 255 0 247 255 0 247 255 0 247 255 0 247 255 0 247 255 0 247 255 0 247 255 0 247 255 0 247 255 0 247 255 0 247 255 0 247 255 0 247 255 0 247 255 0 247 255 0 247 255 0 247 255 0 247 255 0 247 255 0 247 255 0 247 255 0 247 255 
114 0 0 114 0 0 114 0 0 114 0 0 114 0 0 114 0 0 114 0 0 114 0 0 114 0 0 114 0 0 153 0 0 153 0 0 153 0 0 153 0 0 153 0 0 153 0 0 153 0 0 153 0 0 153 0 0 153 0 0 128 0 0 128 0 0 128 0 0 128 0 0 128 0 0 128 0 0 128 0 0 128 0 0 128 0 0 128 0 0 126 0 0 126 0 0 126 0 0 126 0 0 126 0 0 126 0 0 126 0 0 126 0 0 126 0 0 126 0 0 119 0 0 119 0 0 119 0 0 119 0 0 119 0 0 119 0 0 119 0 0 119 0 0 119 0 0 119 0 0 115 0 0 115 0 0 115 0 0 115 0 0 115 0 0 115 0 0 115 0 0 115 0 0 115 0 0 115 0 0 143 0 0 143 0 0 143 0 0 143 0 0 143 0 0 143 0 0 143 0 0 143 0 0 143 0 0 143 0 0 148 0 0 148 0 0 148 0 0 148 0 0 148 0 0 148 0 0 148 0 0 148 0 0 148 0 0 148 0 0 112 0 0 112 0 0 112 0 0 112 0 0 112 0 0 112 0 0 112 0 0 112 0 0 112 0 0 112 0 0 118 0 0 118 0 0 118 0 0 118 0 0 118 0 0 118 0 0 118 0 0 118 0 0 118 0 0 118 0 0 132 0 0 132 0 0 132 0 0 132 0 0 132 0 0 132 0 0 132 0 0 132 0 0 132 0 0 132 0 0 124 0 0 124 0 0 124 0 0 124 0 0 124 0 0 124 0 0 124 0 0 124 0 0 124 0 0 124 0 0 148 0 0 148 0 0 148 0 0 148 0 0 148 0 0 148 0 0 148 0 0 148 0 0 148 0 0 148 0 0 134 0 0 134 0 0 134 0 0 134 0 0 134 0 0 134 0 0 134 0 0 134 0 0 134 0 0 134 0 0 112 0 0 112 0 0 112 0 0 112 0 0 112 0 0 112 0 0 112 0 0 112 0 0 112 0 0 112 0 0 149 0 0 149 0 0 149 0 0 149 0 0 149 0 0 149 0 0 149 0 0 149 0 0 149 0 0 149 0 0 123 0 0 123 0 0 123 0 0 123 0 0 123 0 0 123 0 0 123 0 0 123 0 0 123 0 0 123 0 0 135 0 0 135 0 0 135 0 0 135 0 0 135 0 0 135 0 0 135 0 0 135 0 0 135 0 0 135 0 0 120 0 0 120 0 0 120 0 0 120 0 0 120 0 0 120 0 0 120 0 0 120 0 0 120 0 0 120 0 0 132 0 0 132 0 0 132 0 0 132 0 0 132 0 0 132 0 0 132 0 0 132 0 0 132 0 0 132 0 0 130 0 0 130 0 0 130 0 0 130 0 0 130 0 0 130 0 0 130 0 0 130 0 0 130 0 0 130 0 0 117 0 0 117 0 0 117 0 0 117 0 0 117 0 0 117 0 0 117 0 0 117 0 0 117 0 0 117 0 0 150 0 0 150 0 0 150 0 0 150 0 0 150 0 0 150 0 0 150 0 0 150 0 0 150 0 0 150 0 0 110 0 0 110 0 0 110 0 0 110 0 0 110 0 0 110 0 0 110 0 0 110 0 0 110 0 0 110 0 0 133 0 0 133 0 0 133 0 0 133 0 0 133 0 0 133 0 0 133 0 0 133 0 0 133 0 0 133 0 0 132 0 0 132 0 0 132 0 0 132 0 0 132 0 0 132 0 0 132 0 0 132 0 0 132 0 0 132 0 0 132 0 0 132 0 0 132 0 0 132 0 0 132 0 0 132 0 0 132 0 0 132 0 0 132 0 0 132 0 0 143 0 0 143 0 0 143 0 0 143 0 0 143 0 0 143 0 0 143 0 0 143 0 0 143 0 0 143 0 0 0 0 0 0 0 0 0 0 0 0 0 0 0 0 0 0 0 0 0 0 0 0 0 0 0 0 0 0 0 0 0 251 255 0 251 255 0 251 255 0 251 255 0 251 255 0 251 255 0 251 255 0 251 255 0 251 255 0 251 255 0 251 255 0 251 255 0 251 255 0 251 255 0 251 255 0 251 255 0 251 255 0 251 255 0 251 255 0 251 255 0 251 255 0 251 255 0 251 255 0 251 255 0 251 255 0 251 255 0 251 255 0 251 255 0 251 255 0 251 255 
114 0 0 114 0 0 114 0 0 114 0 0 114 0 0 114 0 0 114 0 0 114 0 0 114 0 0 114 0 0 153 0 0 153 0 0 153 0 0 153 0 0 153 0 0 153 0 0 153 0 0 153 0 0 153 0 0 153 0 0 128 0 0 128 0 0 128 0 0 128 0 0 128 0 0 128 0 0 128 0 0 128 0 0 128 0 0 128 0 0 126 0 0 126 0 0 126 0 0 126 0 0 126 0 0 126 0 0 126 0 0 126 0 0 126 0 0 126 0 0 119 0 0 119 0 0 119 0 0 119 0 0 119 0 0 119 0 0 119 0 0 119 0 0 119 0 0 119 0 0 115 0 0 115 0 0 115 0 0 115 0 0 115 0 0 115 0 0 115 0 0 115 0 0 115 0 0 115 0 0 143 0 0 143 0 0 143 0 0 143 0 0 143 0 0 143 0 0 143 0 0 143 0 0 143 0 0 143 0 0 148 0 0 148 0 0 148 0 0 148 0 0 148 0 0 148 0 0 148 0 0 148 0 0 148 0 0 148 0 0 112 0 0 112 0 0 112 0 0 112 0 0 112 0 0 112 0 0 112 0 0 112 0 0 112 0 0 112 0 0 118 0 0 118 0 0 118 0 0 118 0 0 118 0 0 118 0 0 118 0 0 118 0 0 118 0 0 118 0 0 132 0 0 132 0 0 132 0 0 132 0 0 132 0 0 132 0 0 132 0 0 132 0 0 132 0 0 132 0 0 124 0 0 124 0 0 124 0 0 124 0 0 124 0 0 124 0 0 124 0 0 124 0 0 124 0 0 124 0 0 148 0 0 148 0 0 148 0 0 148 0 0 148 0 0 148 0 0 148 0 0 148 0 0 148 0 0 148 0 0 134 0 0 134 0 0 134 0 0 134 0 0 134 0 0 134 0 0 134 0 0 134 0 0 134 0 0 134 0 0 112 0 0 112 0 0 112 0 0 112 0 0 112 0 0 112 0 0 112 0 0 112 0 0 112 0 0 112 0 0 149 0 0 149 0 0 149 0 0 149 0 0 149 0 0 149 0 0 149 0 0 149 0 0 149 0 0 149 0 0 123 0 0 123 0 0 123 0 0 123 0 0 123 0 0 123 0 0 123 0 0 123 0 0 123 0 0 123 0 0 135 0 0 135 0 0 135 0 0 135 0 0 135 0 0 135 0 0 135 0 0 135 0 0 135 0 0 135 0 0 120 0 0 120 0 0 120 0 0 120 0 0 120 0 0 120 0 0 120 0 0 120 0 0 120 0 0 120 0 0 132 0 0 132 0 0 132 0 0 132 0 0 132 0 0 132 0 0 132 0 0 132 0 0 132 0 0 132 0 0 130 0 0 130 0 0 130 0 0 130 0 0 130 0 0 130 0 0 130 0 0 130 0 0 130 0 0 130 0 0 117 0 0 117 0 0 117 0 0 117 0 0 117 0 0 117 0 0 117 0 0 117 0 0 117 0 0 117 0 0 150 0 0 150 0 0 150 0 0 150 0 0 150 0 0 150 0 0 150 0 0 150 0 0 150 0 0 150 0 0 110 0 0 110 0 0 110 0 0 110 0 0 110 0 0 110 0 0 110 0 0 110 0 0 110 0 0 110 0 0 133 0 0 133 0 0 133 0 0 133 0 0 133 0 0 133 0 0 133 0 0 133 0 0 133 0 0 133 0 0 132 0 0 132 0 0 132 0 0 132 0 0 132 0 0 132 0 0 132 0 0 132 0 0 132 0 0 132 0 0 132 0 0 132 0 0 132 0 0 132 0 0 132 0 0 132 0 0 132 0 0 132 0 0 132 0 0 132 0 0 143 0 0 143 0 0 143 0 0 143 0 0 143 0 0 143 0 0 143 0 0 143 0 0 143 0 0 143 0 0 0 0 0 0 0 0 0 0 0 0 0 0 0 0 0 0 0 0 0 0 0 0 0 0 0 0 0 0 0 0 0 255 255 0 255 255 0 255 255 0 255 255 0 255 255 0 255 255 0 255 255 0 255 255 0 255 255 0 255 255 0 255 255 0 255 255 0 255 255 0 255 255 0 255 255 0 255 255 0 255 255 0 255 255 0 255 255 0 255 255 0 255 255 0 255 255 0 255 255 0 255 255 0 255 255 0 255 255 0 255 255 0 255 255 0 255 255 0 255 255 
0 0 0 0 0 0 0 0 0 0 0 0 0 0 0 0 0 0 0 0 0 0 0 0 0 0 0 0 0 0 0 0 0 0 0 0 0 0 0 0 0 0 0 0 0 0 0 0 0 0 0 0 0 0 0 0 0 0 0 0 0 0 0 0 0 0 0 0 0 0 0 0 0 0 0 0 0 0 0 0 0 0 0 0 0 0 0 0 0 0 0 0 0 0 0 0 0 0 0 0 0 0 0 0 0 0 0 0 0 0 0 0 0 0 0 0 0 0 0 0 0 0 0 0 0 0 0 0 0 0 0 0 0 0 0 0 0 0 0 0 0 0 0 0 0 0 0 0 0 0 0 0 0 0 0 0 0 0 0 0 0 0 0 0 0 0 0 0 0 0 0 0 0 0 0 0 0 0 0 0 0 0 0 0 0 0 0 0 0 0 0 0 0 0 0 0 0 0 0 0 0 0 0 0 0 0 0 0 0 0 0 0 0 0 0 0 0 0 0 0 0 0 0 0 0 0 0 0 0 0 0 0 0 0 0 0 0 0 0 0 0 0 0 0 0 0 0 0 0 0 0 0 0 0 0 0 0 0 0 0 0 0 0 0 0 0 0 0 0 0 0 0 0 0 0 0 0 0 0 0 0 0 0 0 0 0 0 0 0 0 0 0 0 0 0 0 0 0 0 0 0 0 0 0 0 0 0 0 0 0 0 0 0 0 0 0 0 0 0 0 0 0 0 0 0 0 0 0 0 0 0 0 0 0 0 0 0 0 0 0 0 0 0 0 0 0 0 0 0 0 0 0 0 0 0 0 0 0 0 0 0 0 0 0 0 0 0 0 0 0 0 0 0 0 0 0 0 0 0 0 0 0 0 0 0 0 0 0 0 0 0 0 0 0 0 0 0 0 0 0 0 0 0 0 0 0 0 0 0 0 0 0 0 0 0 0 0 0 0 0 0 0 0 0 0 0 0 0 0 0 0 0 0 0 0 0 0 0 0 0 0 0 0 0 0 0 0 0 0 0 0 0 0 0 0 0 0 0 0 0 0 0 0 0 0 0 0 0 0 0 0 0 0 0 0 0 0 0 0 0 0 0 0 0 0 0 0 0 0 0 0 0 0 0 0 0 0 0 0 0 0 0 0 0 0 0 0 0 0 0 0 0 0 0 0 0 0 0 0 0 0 0 0 0 0 0 0 0 0 0 0 0 0 0 0 0 0 0 0 0 0 0 0 0 0 0 0 0 0 0 0 0 0 0 0 0 0 0 0 0 0 0 0 0 0 0 0 0 0 0 0 0 0 0 0 0 0 0 0 0 0 0 0 0 0 0 0 0 0 0 0 0 0 0 0 0 0 0 0 0 0 0 0 0 0 0 0 0 0 0 0 0 0 0 0 0 0 0 0 0 0 0 0 0 0 0 0 0 0 0 0 0 0 0 0 0 0 0 0 0 0 0 0 0 0 0 0 0 0 0 0 0 0 0 0 0 0 0 0 0 0 0 0 0 0 0 0 0 0 0 0 0 0 0 0 0 0 0 0 0 0 0 0 0 0 0 0 0 0 0 0 0 0 0 0 0 0 0 0 0 0 0 0 0 0 0 0 0 0 0 0 0 0 0 0 0 0 0 0 0 0 0 0 0 0 0 0 0 0 0 0 0 0 0 0 0 0 0 0 0 0 0 0 0 0 0 0 0 0 0 0 0 0 0 0 0 0 0 0 0 0 0 0 0 0 0 0 0 0 0 0 0 0 0 0 0 0 0 0 0 0 0 0 0 0 0 0 0 0 0 0 0 0 0 0 0 0 0 0 0 0 0 0 0 0 0 0 0 0 0 0 0 0 0 0 0 0 0 0 0 0 0 0 0 0 0 0 0 0 0 0 0 0 0 0 0 0 0 0 0 0 0 0 0 0 0 0 0 0 0 0 0 0 0 0 0 0 0 0 0 0 0 0 0 0 0 0 0 0 0 0 0 0 0 0 0 0 0 0 0 0 0 0 0 0 0 0 0 0 0 0 0 0 0 0 0 0 0 0 0 0 0 0 0 0 0 0 0 0 0 0 0 0 0 0 0 0 0 0 0 0 0 0 0 0 0 0 0 0 0 0 0 0 0 0 0 0 0 0 0 0 0 0 0 0 0 0 0 0 0 0 0 0 0 0 0 0 0 0 0 
0 0 0 0 0 0 0 0 0 0 0 0 0 0 0 0 0 0 0 0 0 0 0 0 0 0 0 0 0 0 0 0 0 0 0 0 0 0 0 0 0 0 0 0 0 0 0 0 0 0 0 0 0 0 0 0 0 0 0 0 0 0 0 0 0 0 0 0 0 0 0 0 0 0 0 0 0 0 0 0 0 0 0 0 0 0 0 0 0 0 0 0 0 0 0 0 0 0 0 0 0 0 0 0 0 0 0 0 0 0 0 0 0 0 0 0 0 0 0 0 0 0 0 0 0 0 0 0 0 0 0 0 0 0 0 0 0 0 0 0 0 0 0 0 0 0 0 0 0 0 0 0 0 0 0 0 0 0 0 0 0 0 0 0 0 0 0 0 0 0 0 0 0 0 0 0 0 0 0 0 0 0 0 0 0 0 0 0 0 0 0 0 0 0 0 0 0 0 0 0 0 0 0 0 0 0 0 0 0 0 0 0 0 0 0 0 0 0 0 0 0 0 0 0 0 0 0 0 0 0 0 0 0 0 0 0 0 0 0 0 0 0 0 0 0 0 0 0 0 0 0 0 0 0 0 0 0 0 0 0 0 0 0 0 0 0 0 0 0 0 0 0 0 0 0 0 0 0 0 0 0 0 0 0 0 0 0 0 0 0 0 0 0 0 0 0 0 0 0 0 0 0 0 0 0 0 0 0 0 0 0 0 0 0 0 0 0 0 0 0 0 0 0 0 0 0 0 0 0 0 0 0 0 0 0 0 0 0 0 0 0 0 0 0 0 0 0 0 0 0 0 0 0 0 0 0 0 0 0 0 0 0 0 0 0 0 0 0 0 0 0 0 0 0 0 0 0 0 0 0 0 0 0 0 0 0 0 0 0 0 0 0 0 0 0 0 0 0 0 0 0 0 0 0 0 0 0 0 0 0 0 0 0 0 0 0 0 0 0 0 0 0 0 0 0 0 0 0 0 0 0 0 0 0 0 0 0 0 0 0 0 0 0 0 0 0 0 0 0 0 0 0 0 0 0 0 0 0 0 0 0 0 0 0 0 0 0 0 0 0 0 0 0 0 0 0 0 0 0 0 0 0 0 0 0 0 0 0 0 0 0 0 0 0 0 0 0 0 0 0 0 0 0 0 0 0 0 0 0 0 0 0 0 0 0 0 0 0 0 0 0 0 0 0 0 0 0 0 0 0 0 0 0 0 0 0 0 0 0 0 0 0 0 0 0 0 0 0 0 0 0 0 0 0 0 0 0 0 0 0 0 0 0 0 0 0 0 0 0 0 0 0 0 0 0 0 0 0 0 0 0 0 0 0 0 0 0 0 0 0 0 0 0 0 0 0 0 0 0 0 0 0 0 0 0 0 0 0 0 0 0 0 0 0 0 0 0 0 0 0 0 0 0 0 0 0 0 0 0 0 0 0 0 0 0 0 0 0 0 0 0 0 0 0 0 0 0 0 0 0 0 0 0 0 0 0 0 0 0 0 0 0 0 0 0 0 0 0 0 0 0 0 0 0 0 0 0 0 0 0 0 0 0 0 0 0 0 0 0 0 0 0 0 0 0 0 0 0 0 0 0 0 0 0 0 0 0 0 0 0 0 0 0 0 0 0 0 0 0 0 0 0 0 0 0 0 0 0 0 0 0 0 0 0 0 0 0 0 0 0 0 0 0 0 0 0 0 0 0 0 0 0 0 0 0 0 0 0 0 0 0 0 0 0 0 0 0 0 0 0 0 0 0 0 0 0 0 0 0 0 0 0 0 0 0 0 0 0 0 0 0 0 0 0 0 0 0 0 0 0 0 0 0 0 0 0 0 0 0 0 0 0 0 0 0 0 0 0 0 0 0 0 0 0 0 0 0 0 0 0 0 0 0 0 0 0 0 0 0 0 0 0 0 0 0 0 0 0 0 0 0 0 0 0 0 0 0 0 0 0 0 0 0 0 0 0 0 0 0 0 0 0 0 0 0 0 0 0 0 0 0 0 0 0 0 0 0 0 0 0 0 0 0 0 0 0 0 0 0 0 0 0 0 0 0 0 0 0 0 0 0 0 0 0 0 0 0 0 0 0 0 0 0 0 0 0 0 0 0 0 0 0 0 0 0 0 0 0 0 0 0 0 0 0 0 0 0 0 0 0 0 0 0 0 0 0 0 0 0 0 
0 0 0 0 0 0 0 0 0 0 0 0 0 0 0 0 0 0 0 0 0 0 0 0 0 0 0 0 0 0 0 0 0 0 0 0 0 0 0 0 0 0 0 0 0 0 0 0 0 0 0 0 0 0 0 0 0 0 0 0 0 0 0 0 0 0 0 0 0 0 0 0 0 0 0 0 0 0 0 0 0 0 0 0 0 0 0 0 0 0 0 0 0 0 0 0 0 0 0 0 0 0 0 0 0 0 0 0 0 0 0 0 0 0 0 0 0 0 0 0 0 0 0 0 0 0 0 0 0 0 0 0 0 0 0 0 0 0 0 0 0 0 0 0 0 0 0 0 0 0 0 0 0 0 0 0 0 0 0 0 0 0 0 0 0 0 0 0 0 0 0 0 0 0 0 0 0 0 0 0 0 0 0 0 0 0 0 0 0 0 0 0 0 0 0 0 0 0 0 0 0 0 0 0 0 0 0 0 0 0 0 0 0 0 0 0 0 0 0 0 0 0 0 0 0 0 0 0 0 0 0 0 0 0 0 0 0 0 0 0 0 0 0 0 0 0 0 0 0 0 0 0 0 0 0 0 0 0 0 0 0 0 0 0 0 0 0 0 0 0 0 0 0 0 0 0 0 0 0 0 0 0 0 0 0 0 0 0 0 0 0 0 0 0 0 0 0 0 0 0 0 0 0 0 0 0 0 0 0 0 0 0 0 0 0 0 0 0 0 0 0 0 0 0 0 0 0 0 0 0 0 0 0 0 0 0 0 0 0 0 0 0 0 0 0 0 0 0 0 0 0 0 0 0 0 0 0 0 0 0 0 0 0 0 0 0 0 0 0 0 0 0 0 0 0 0 0 0 0 0 0 0 0 0 0 0 0 0 0 0 0 0 0 0 0 0 0 0 0 0 0 0 0 0 0 0 0 0 0 0 0 0 0 0 0 0 0 0 0 0 0 0 0 0 0 0 0 0 0 0 0 0 0 0 0 0 0 0 0 0 0 0 0 0 0 0 0 0 0 0 0 0 0 0 0 0 0 0 0 0 0 0 0 0 0 0 0 0 0 0 0 0 0 0 0 0 0 0 0 0 0 0 0 0 0 0 0 0 0 0 0 0 0 0 0 0 0 0 0 0 0 0 0 0 0 0 0 0 0 0 0 0 0 0 0 0 0 0 0 0 0 0 0 0 0 0 0 0 0 0 0 0 0 0 0 0 0 0 0 0 0 0 0 0 0 0 0 0 0 0 0 0 0 0 0 0 0 0 0 0 0 0 0 0 0 0 0 0 0 0 0 0 0 0 0 0 0 0 0 0 0 0 0 0 0 0 0 0 0 0 0 0 0 0 0 0 0 0 0 0 0 0 0 0 0 0 0 0 0 0 0 0 0 0 0 0 0 0 0 0 0 0 0 0 0 0 0 0 0 0 0 0 0 0 0 0 0 0 0 0 0 0 0 0 0 0 0 0 0 0 0 0 0 0 0 0 0 0 0 0 0 0 0 0 0 0 0 0 0 0 0 0 0 0 0 0 0 0 0 0 0 0 0 0 0 0 0 0 0 0 0 0 0 0 0 0 0 0 0 0 0 0 0 0 0 0 0 0 0 0 0 0 0 0 0 0 0 0 0 0 0 0 0 0 0 0 0 0 0 0 0 0 0 0 0 0 0 0 0 0 0 0 0 0 0 0 0 0 0 0 0 0 0 0 0 0 0 0 0 0 0 0 0 0 0 0 0 0 0 0 0 0 0 0 0 0 0 0 0 0 0 0 0 0 0 0 0 0 0 0 0 0 0 0 0 0 0 0 0 0 0 0 0 0 0 0 0 0 0 0 0 0 0 0 0 0 0 0 0 0 0 0 0 0 0 0 0 0 0 0 0 0 0 0 0 0 0 0 0 0 0 0 0 0 0 0 0 0 0 0 0 0 0 0 0 0 0 0 0 0 0 0 0 0 0 0 0 0 0 0 0 0 0 0 0 0 0 0 0 0 0 0 0 0 0 0 0 0 0 0 0 0 0 0 0 0 0 0 0 0 0 0 0 0 0 0 0 0 0 0 0 0 0 0 0 0 0 0 0 0 0 0 0 0 0 0 0 0 0 0 0 0 0 0 0 0 0 0 0 0 0 0 0 0 0 0 0 0 0 0 0 0 0 0 0 0 0 0 0 0 
0 0 0 0 0 0 0 0 0 0 0 0 0 0 0 0 0 0 0 0 0 0 0 0 0 0 0 0 0 0 0 0 0 0 0 0 0 0 0 0 0 0 0 0 0 0 0 0 0 0 0 0 0 0 0 0 0 0 0 0 0 0 0 0 0 0 0 0 0 0 0 0 0 0 0 0 0 0 0 0 0 0 0 0 0 0 0 0 0 0 0 0 0 0 0 0 0 0 0 0 0 0 0 0 0 0 0 0 0 0 0 0 0 0 0 0 0 0 0 0 0 0 0 0 0 0 0 0 0 0 0 0 0 0 0 0 0 0 0 0 0 0 0 0 0 0 0 0 0 0 0 0 0 0 0 0 0 0 0 0 0 0 0 0 0 0 0 0 0 0 0 0 0 0 0 0 0 0 0 0 0 0 0 0 0 0 0 0 0 0 0 0 0 0 0 0 0 0 0 0 0 0 0 0 0 0 0 0 0 0 0 0 0 0 0 0 0 0 0 0 0 0 0 0 0 0 0 0 0 0 0 0 0 0 0 0 0 0 0 0 0 0 0 0 0 0 0 0 0 0 0 0 0 0 0 0 0 0 0 0 0 0 0 0 0 0 0 0 0 0 0 0 0 0 0 0 0 0 0 0 0 0 0 0 0 0 0 0 0 0 0 0 0 0 0 0 0 0 0 0 0 0 0 0 0 0 0 0 0 0 0 0 0 0 0 0 0 0 0 0 0 0 0 0 0 0 0 0 0 0 0 0 0 0 0 0 0 0 0 0 0 0 0 0 0 0 0 0 0 0 0 0 0 0 0 0 0 0 0 0 0 0 0 0 0 0 0 0 0 0 0 0 0 0 0 0 0 0 0 0 0 0 0 0 0 0 0 0 0 0 0 0 0 0 0 0 0 0 0 0 0 0 0 0 0 0 0 0 0 0 0 0 0 0 0 0 0 0 0 0 0 0 0 0 0 0 0 0 0 0 0 0 0 0 0 0 0 0 0 0 0 0 0 0 0 0 0 0 0 0 0 0 0 0 0 0 0 0 0 0 0 0 0 0 0 0 0 0 0 0 0 0 0 0 0 0 0 0 0 0 0 0 0 0 0 0 0 0 0 0 0 0 0 0 0 0 0 0 0 0 0 0 0 0 0 0 0 0 0 0 0 0 0 0 0 0 0 0 0 0 0 0 0 0 0 0 0 0 0 0 0 0 0 0 0 0 0 0 0 0 0 0 0 0 0 0 0 0 0 0 0 0 0 0 0 0 0 0 0 0 0 0 0 0 0 0 0 0 0 0 0 0 0 0 0 0 0 0 0 0 0 0 0 0 0 0 0 0 0 0 0 0 0 0 0 0 0 0 0 0 0 0 0 0 0 0 0 0 0 0 0 0 0 0 0 0 0 0 0 0 0 0 0 0 0 0 0 0 0 0 0 0 0 0 0 0 0 0 0 0 0 0 0 0 0 0 0 0 0 0 0 0 0 0 0 0 0 0 0 0 0 0 0 0 0 0 0 0 0 0 0 0 0 0 0 0 0 0 0 0 0 0 0 0 0 0 0 0 0 0 0 0 0 0 0 0 0 0 0 0 0 0 0 0 0 0 0 0 0 0 0 0 0 0 0 0 0 0 0 0 0 0 0 0 0 0 0 0 0 0 0 0 0 0 0 0 0 0 0 0 0 0 0 0 0 0 0 0 0 0 0 0 0 0 0 0 0 0 0 0 0 0 0 0 0 0 0 0 0 0 0 0 0 0 0 0 0 0 0 0 0 0 0 0 0 0 0 0 0 0 0 0 0 0 0 0 0 0 0 0 0 0 0 0 0 0 0 0 0 0 0 0 0 0 0 0 0 0 0 0 0 0 0 0 0 0 0 0 0 0 0 0 0 0 0 0 0 0 0 0 0 0 0 0 0 0 0 0 0 0 0 0 0 0 0 0 0 0 0 0 0 0 0 0 0 0 0 0 0 0 0 0 0 0 0 0 0 0 0 0 0 0 0 0 0 0 0 0 0 0 0 0 0 0 0 0 0 0 0 0 0 0 0 0 0 0 0 0 0 0 0 0 0 0 0 0 0 0 0 0 0 0 0 0 0 0 0 0 0 0 0 0 0 0 0 0 0 0 0 0 0 0 0 0 0 0 0 0 0 0 0 0 0 0 0 0 0 0 0 0 
0 0 0 0 0 0 0 0 0 0 0 0 0 0 0 0 0 0 0 0 0 0 0 0 0 0 0 0 0 0 0 0 0 0 0 0 0 0 0 0 0 0 0 0 0 0 0 0 0 0 0 0 0 0 0 0 0 0 0 0 0 0 0 0 0 0 0 0 0 0 0 0 0 0 0 0 0 0 0 0 0 0 0 0 0 0 0 0 0 0 0 0 0 0 0 0 0 0 0 0 0 0 0 0 0 0 0 0 0 0 0 0 0 0 0 0 0 0 0 0 0 0 0 0 0 0 0 0 0 0 0 0 0 0 0 0 0 0 0 0 0 0 0 0 0 0 0 0 0 0 0 0 0 0 0 0 0 0 0 0 0 0 0 0 0 0 0 0 0 0 0 0 0 0 0 0 0 0 0 0 0 0 0 0 0 0 0 0 0 0 0 0 0 0 0 0 0 0 0 0 0 0 0 0 0 0 0 0 0 0 0 0 0 0 0 0 0 0 0 0 0 0 0 0 0 0 0 0 0 0 0 0 0 0 0 0 0 0 0 0 0 0 0 0 0 0 0 0 0 0 0 0 0 0 0 0 0 0 0 0 0 0 0 0 0 0 0 0 0 0 0 0 0 0 0 0 0 0 0 0 0 0 0 0 0 0 0 0 0 0 0 0 0 0 0 0 0 0 0 0 0 0 0 0 0 0 0 0 0 0 0 0 0 0 0 0 0 0 0 0 0 0 0 0 0 0 0 0 0 0 0 0 0 0 0 0 0 0 0 0 0 0 0 0 0 0 0 0 0 0 0 0 0 0 0 0 0 0 0 0 0 0 0 0 0 0 0 0 0 0 0 0 0 0 0 0 0 0 0 0 0 0 0 0 0 0 0 0 0 0 0 0 0 0 0 0 0 0 0 0 0 0 0 0 0 0 0 0 0 0 0 0 0 0 0 0 0 0 0 0 0 0 0 0 0 0 0 0 0 0 0 0 0 0 0 0 0 0 0 0 0 0 0 0 0 0 0 0 0 0 0 0 0 0 0 0 0 0 0 0 0 0 0 0 0 0 0 0 0 0 0 0 0 0 0 0 0 0 0 0 0 0 0 0 0 0 0 0 0 0 0 0 0 0 0 0 0 0 0 0 0 0 0 0 0 0 0 0 0 0 0 0 0 0 0 0 0 0 0 0 0 0 0 0 0 0 0 0 0 0 0 0 0 0 0 0 0 0 0 0 0 0 0 0 0 0 0 0 0 0 0 0 0 0 0 0 0 0 0 0 0 0 0 0 0 0 0 0 0 0 0 0 0 0 0 0 0 0 0 0 0 0 0 0 0 0 0 0 0 0 0 0 0 0 0 0 0 0 0 0 0 0 0 0 0 0 0 0 0 0 0 0 0 0 0 0 0 0 0 0 0 0 0 0 0 0 0 0 0 0 0 0 0 0 0 0 0 0 0 0 0 0 0 0 0 0 0 0 0 0 0 0 0 0 0 0 0 0 0 0 0 0 0 0 0 0 0 0 0 0 0 0 0 0 0 0 0 0 0 0 0 0 0 0 0 0 0 0 0 0 0 0 0 0 0 0 0 0 0 0 0 0 0 0 0 0 0 0 0 0 0 0 0 0 0 0 0 0 0 0 0 0 0 0 0 0 0 0 0 0 0 0 0 0 0 0 0 0 0 0 0 0 0 0 0 0 0 0 0 0 0 0 0 0 0 0 0 0 0 0 0 0 0 0 0 0 0 0 0 0 0 0 0 0 0 0 0 0 0 0 0 0 0 0 0 0 0 0 0 0 0 0 0 0 0 0 0 0 0 0 0 0 0 0 0 0 0 0 0 0 0 0 0 0 0 0 0 0 0 0 0 0 0 0 0 0 0 0 0 0 0 0 0 0 0 0 0 0 0 0 0 0 0 0 0 0 0 0 0 0 0 0 0 0 0 0 0 0 0 0 0 0 0 0 0 0 0 0 0 0 0 0 0 0 0 0 0 0 0 0 0 0 0 0 0 0 0 0 0 0 0 0 0 0 0 0 0 0 0 0 0 0 0 0 0 0 0 0 0 0 0 0 0 0 0 0 0 0 0 0 0 0 0 0 0 0 0 0 0 0 0 0 0 0 0 0 0 0 0 0 0 0 0 0 0 0 0 0 0 0 0 0 0 0 0 0 0 0 0 0 
0 0 0 0 0 0 0 0 0 0 0 0 0 0 0 0 0 0 0 0 0 0 0 0 0 0 0 0 0 0 0 0 0 0 0 0 0 0 0 0 0 0 0 0 0 0 0 0 0 0 0 0 0 0 0 0 0 0 0 0 0 0 0 0 0 0 0 0 0 0 0 0 0 0 0 0 0 0 0 0 0 0 0 0 0 0 0 0 0 0 0 0 0 0 0 0 0 0 0 0 0 0 0 0 0 0 0 0 0 0 0 0 0 0 0 0 0 0 0 0 0 0 0 0 0 0 0 0 0 0 0 0 0 0 0 0 0 0 0 0 0 0 0 0 0 0 0 0 0 0 0 0 0 0 0 0 0 0 0 0 0 0 0 0 0 0 0 0 0 0 0 0 0 0 0 0 0 0 0 0 0 0 0 0 0 0 0 0 0 0 0 0 0 0 0 0 0 0 0 0 0 0 0 0 0 0 0 0 0 0 0 0 0 0 0 0 0 0 0 0 0 0 0 0 0 0 0 0 0 0 0 0 0 0 0 0 0 0 0 0 0 0 0 0 0 0 0 0 0 0 0 0 0 0 0 0 0 0 0 0 0 0 0 0 0 0 0 0 0 0 0 0 0 0 0 0 0 0 0 0 0 0 0 0 0 0 0 0 0 0 0 0 0 0 0 0 0 0 0 0 0 0 0 0 0 0 0 0 0 0 0 0 0 0 0 0 0 0 0 0 0 0 0 0 0 0 0 0 0 0 0 0 0 0 0 0 0 0 0 0 0 0 0 0 0 0 0 0 0 0 0 0 0 0 0 0 0 0 0 0 0 0 0 0 0 0 0 0 0 0 0 0 0 0 0 0 0 0 0 0 0 0 0 0 0 0 0 0 0 0 0 0 0 0 0 0 0 0 0 0 0 0 0 0 0 0 0 0 0 0 0 0 0 0 0 0 0 0 0 0 0 0 0 0 0 0 0 0 0 0 0 0 0 0 0 0 0 0 0 0 0 0 0 0 0 0 0 0 0 0 0 0 0 0 0 0 0 0 0 0 0 0 0 0 0 0 0 0 0 0 0 0 0 0 0 0 0 0 0 0 0 0 0 0 0 0 0 0 0 0 0 0 0 0 0 0 0 0 0 0 0 0 0 0 0 0 0 0 0 0 0 0 0 0 0 0 0 0 0 0 0 0 0 0 0 0 0 0 0 0 0 0 0 0 0 0 0 0 0 0 0 0 0 0 0 0 0 0 0 0 0 0 0 0 0 0 0 0 0 0 0 0 0 0 0 0 0 0 0 0 0 0 0 0 0 0 0 0 0 0 0 0 0 0 0 0 0 0 0 0 0 0 0 0 0 0 0 0 0 0 0 0 0 0 0 0 0 0 0 0 0 0 0 0 0 0 0 0 0 0 0 0 0 0 0 0 0 0 0 0 0 0 0 0 0 0 0 0 0 0 0 0 0 0 0 0 0 0 0 0 0 0 0 0 0 0 0 0 0 0 0 0 0 0 0 0 0 0 0 0 0 0 0 0 0 0 0 0 0 0 0 0 0 0 0 0 0 0 0 0 0 0 0 0 0 0 0 0 0 0 0 0 0 0 0 0 0 0 0 0 0 0 0 0 0 0 0 0 0 0 0 0 0 0 0 0 0 0 0 0 0 0 0 0 0 0 0 0 0 0 0 0 0 0 0 0 0 0 0 0 0 0 0 0 0 0 0 0 0 0 0 0 0 0 0 0 0 0 0 0 0 0 0 0 0 0 0 0 0 0 0 0 0 0 0 0 0 0 0 0 0 0 0 0 0 0 0 0 0 0 0 0 0 0 0 0 0 0 0 0 0 0 0 0 0 0 0 0 0 0 0 0 0 0 0 0 0 0 0 0 0 0 0 0 0 0 0 0 0 0 0 0 0 0 0 0 0 0 0 0 0 0 0 0 0 0 0 0 0 0 0 0 0 0 0 0 0 0 0 0 0 0 0 0 0 0 0 0 0 0 0 0 0 0 0 0 0 0 0 0 0 0 0 0 0 0 0 0 0 0 0 0 0 0 0 0 0 0 0 0 0 0 0 0 0 0 0 0 0 0 0 0 0 0 0 0 0 0 0 0 0 0 0 0 0 0 0 0 0 0 0 0 0 0 0 0 0 0 0 0 0 0 0 0 0 0 0 0 0 0 
0 0 0 0 0 0 0 0 0 0 0 0 0 0 0 0 0 0 0 0 0 0 0 0 0 0 0 0 0 0 0 0 0 0 0 0 0 0 0 0 0 0 0 0 0 0 0 0 0 0 0 0 0 0 0 0 0 0 0 0 0 0 0 0 0 0 0 0 0 0 0 0 0 0 0 0 0 0 0 0 0 0 0 0 0 0 0 0 0 0 0 0 0 0 0 0 0 0 0 0 0 0 0 0 0 0 0 0 0 0 0 0 0 0 0 0 0 0 0 0 0 0 0 0 0 0 0 0 0 0 0 0 0 0 0 0 0 0 0 0 0 0 0 0 0 0 0 0 0 0 0 0 0 0 0 0 0 0 0 0 0 0 0 0 0 0 0 0 0 0 0 0 0 0 0 0 0 0 0 0 0 0 0 0 0 0 0 0 0 0 0 0 0 0 0 0 0 0 0 0 0 0 0 0 0 0 0 0 0 0 0 0 0 0 0 0 0 0 0 0 0 0 0 0 0 0 0 0 0 0 0 0 0 0 0 0 0 0 0 0 0 0 0 0 0 0 0 0 0 0 0 0 0 0 0 0 0 0 0 0 0 0 0 0 0 0 0 0 0 0 0 0 0 0 0 0 0 0 0 0 0 0 0 0 0 0 0 0 0 0 0 0 0 0 0 0 0 0 0 0 0 0 0 0 0 0 0 0 0 0 0 0 0 0 0 0 0 0 0 0 0 0 0 0 0 0 0 0 0 0 0 0 0 0 0 0 0 0 0 0 0 0 0 0 0 0 0 0 0 0 0 0 0 0 0 0 0 0 0 0 0 0 0 0 0 0 0 0 0 0 0 0 0 0 0 0 0 0 0 0 0 0 0 0 0 0 0 0 0 0 0 0 0 0 0 0 0 0 0 0 0 0 0 0 0 0 0 0 0 0 0 0 0 0 0 0 0 0 0 0 0 0 0 0 0 0 0 0 0 0 0 0 0 0 0 0 0 0 0 0 0 0 0 0 0 0 0 0 0 0 0 0 0 0 0 0 0 0 0 0 0 0 0 0 0 0 0 0 0 0 0 0 0 0 0 0 0 0 0 0 0 0 0 0 0 0 0 0 0 0 0 0 0 0 0 0 0 0 0 0 0 0 0 0 0 0 0 0 0 0 0 0 0 0 0 0 0 0 0 0 0 0 0 0 0 0 0 0 0 0 0 0 0 0 0 0 0 0 0 0 0 0 0 0 0 0 0 0 0 0 0 0 0 0 0 0 0 0 0 0 0 0 0 0 0 0 0 0 0 0 0 0 0 0 0 0 0 0 0 0 0 0 0 0 0 0 0 0 0 0 0 0 0 0 0 0 0 0 0 0 0 0 0 0 0 0 0 0 0 0 0 0 0 0 0 0 0 0 0 0 0 0 0 0 0 0 0 0 0 0 0 0 0 0 0 0 0 0 0 0 0 0 0 0 0 0 0 0 0 0 0 0 0 0 0 0 0 0 0 0 0 0 0 0 0 0 0 0 0 0 0 0 0 0 0 0 0 0 0 0 0 0 0 0 0 0 0 0 0 0 0 0 0 0 0 0 0 0 0 0 0 0 0 0 0 0 0 0 0 0 0 0 0 0 0 0 0 0 0 0 0 0 0 0 0 0 0 0 0 0 0 0 0 0 0 0 0 0 0 0 0 0 0 0 0 0 0 0 0 0 0 0 0 0 0 0 0 0 0 0 0 0 0 0 0 0 0 0 0 0 0 0 0 0 0 0 0 0 0 0 0 0 0 0 0 0 0 0 0 0 0 0 0 0 0 0 0 0 0 0 0 0 0 0 0 0 0 0 0 0 0 0 0 0 0 0 0 0 0 0 0 0 0 0 0 0 0 0 0 0 0 0 0 0 0 0 0 0 0 0 0 0 0 0 0 0 0 0 0 0 0 0 0 0 0 0 0 0 0 0 0 0 0 0 0 0 0 0 0 0 0 0 0 0 0 0 0 0 0 0 0 0 0 0 0 0 0 0 0 0 0 0 0 0 0 0 0 0 0 0 0 0 0 0 0 0 0 0 0 0 0 0 0 0 0 0 0 0 0 0 0 0 0 0 0 0 0 0 0 0 0 0 0 0 0 0 0 0 0 0 0 0 0 0 0 0 0 0 0 0 0 0 0 0 0 0 0 0 0 0 
0 0 0 0 0 0 0 0 0 0 0 0 0 0 0 0 0 0 0 0 0 0 0 0 0 0 0 0 0 0 0 0 0 0 0 0 0 0 0 0 0 0 0 0 0 0 0 0 0 0 0 0 0 0 0 0 0 0 0 0 0 0 0 0 0 0 0 0 0 0 0 0 0 0 0 0 0 0 0 0 0 0 0 0 0 0 0 0 0 0 0 0 0 0 0 0 0 0 0 0 0 0 0 0 0 0 0 0 0 0 0 0 0 0 0 0 0 0 0 0 0 0 0 0 0 0 0 0 0 0 0 0 0 0 0 0 0 0 0 0 0 0 0 0 0 0 0 0 0 0 0 0 0 0 0 0 0 0 0 0 0 0 0 0 0 0 0 0 0 0 0 0 0 0 0 0 0 0 0 0 0 0 0 0 0 0 0 0 0 0 0 0 0 0 0 0 0 0 0 0 0 0 0 0 0 0 0 0 0 0 0 0 0 0 0 0 0 0 0 0 0 0 0 0 0 0 0 0 0 0 0 0 0 0 0 0 0 0 0 0 0 0 0 0 0 0 0 0 0 0 0 0 0 0 0 0 0 0 0 0 0 0 0 0 0 0 0 0 0 0 0 0 0 0 0 0 0 0 0 0 0 0 0 0 0 0 0 0 0 0 0 0 0 0 0 0 0 0 0 0 0 0 0 0 0 0 0 0 0 0 0 0 0 0 0 0 0 0 0 0 0 0 0 0 0 0 0 0 0 0 0 0 0 0 0 0 0 0 0 0 0 0 0 0 0 0 0 0 0 0 0 0 0 0 0 0 0 0 0 0 0 0 0 0 0 0 0 0 0 0 0 0 0 0 0 0 0 0 0 0 0 0 0 0 0 0 0 0 0 0 0 0 0 0 0 0 0 0 0 0 0 0 0 0 0 0 0 0 0 0 0 0 0 0 0 0 0 0 0 0 0 0 0 0 0 0 0 0 0 0 0 0 0 0 0 0 0 0 0 0 0 0 0 0 0 0 0 0 0 0 0 0 0 0 0 0 0 0 0 0 0 0 0 0 0 0 0 0 0 0 0 0 0 0 0 0 0 0 0 0 0 0 0 0 0 0 0 0 0 0 0 0 0 0 0 0 0 0 0 0 0 0 0 0 0 0 0 0 0 0 0 0 0 0 0 0 0 0 0 0 0 0 0 0 0 0 0 0 0 0 0 0 0 0 0 0 0 0 0 0 0 0 0 0 0 0 0 0 0 0 0 0 0 0 0 0 0 0 0 0 0 0 0 0 0 0 0 0 0 0 0 0 0 0 0 0 0 0 0 0 0 0 0 0 0 0 0 0 0 0 0 0 0 0 0 0 0 0 0 0 0 0 0 0 0 0 0 0 0 0 0 0 0 0 0 0 0 0 0 0 0 0 0 0 0 0 0 0 0 0 0 0 0 0 0 0 0 0 0 0 0 0 0 0 0 0 0 0 0 0 0 0 0 0 0 0 0 0 0 0 0 0 0 0 0 0 0 0 0 0 0 0 0 0 0 0 0 0 0 0 0 0 0 0 0 0 0 0 0 0 0 0 0 0 0 0 0 0 0 0 0 0 0 0 0 0 0 0 0 0 0 0 0 0 0 0 0 0 0 0 0 0 0 0 0 0 0 0 0 0 0 0 0 0 0 0 0 0 0 0 0 0 0 0 0 0 0 0 0 0 0 0 0 0 0 0 0 0 0 0 0 0 0 0 0 0 0 0 0 0 0 0 0 0 0 0 0 0 0 0 0 0 0 0 0 0 0 0 0 0 0 0 0 0 0 0 0 0 0 0 0 0 0 0 0 0 0 0 0 0 0 0 0 0 0 0 0 0 0 0 0 0 0 0 0 0 0 0 0 0 0 0 0 0 0 0 0 0 0 0 0 0 0 0 0 0 0 0 0 0 0 0 0 0 0 0 0 0 0 0 0 0 0 0 0 0 0 0 0 0 0 0 0 0 0 0 0 0 0 0 0 0 0 0 0 0 0 0 0 0 0 0 0 0 0 0 0 0 0 0 0 0 0 0 0 0 0 0 0 0 0 0 0 0 0 0 0 0 0 0 0 0 0 0 0 0 0 0 0 0 0 0 0 0 0 0 0 0 0 0 0 0 0 0 0 0 0 0 0 0 0 0 0 0 0 0 0 0 0 0 
0 0 0 0 0 0 0 0 0 0 0 0 0 0 0 0 0 0 0 0 0 0 0 0 0 0 0 0 0 0 0 0 0 0 0 0 0 0 0 0 0 0 0 0 0 0 0 0 0 0 0 0 0 0 0 0 0 0 0 0 0 0 0 0 0 0 0 0 0 0 0 0 0 0 0 0 0 0 0 0 0 0 0 0 0 0 0 0 0 0 0 0 0 0 0 0 0 0 0 0 0 0 0 0 0 0 0 0 0 0 0 0 0 0 0 0 0 0 0 0 0 0 0 0 0 0 0 0 0 0 0 0 0 0 0 0 0 0 0 0 0 0 0 0 0 0 0 0 0 0 0 0 0 0 0 0 0 0 0 0 0 0 0 0 0 0 0 0 0 0 0 0 0 0 0 0 0 0 0 0 0 0 0 0 0 0 0 0 0 0 0 0 0 0 0 0 0 0 0 0 0 0 0 0 0 0 0 0 0 0 0 0 0 0 0 0 0 0 0 0 0 0 0 0 0 0 0 0 0 0 0 0 0 0 0 0 0 0 0 0 0 0 0 0 0 0 0 0 0 0 0 0 0 0 0 0 0 0 0 0 0 0 0 0 0 0 0 0 0 0 0 0 0 0 0 0 0 0 0 0 0 0 0 0 0 0 0 0 0 0 0 0 0 0 0 0 0 0 0 0 0 0 0 0 0 0 0 0 0 0 0 0 0 0 0 0 0 0 0 0 0 0 0 0 0 0 0 0 0 0 0 0 0 0 0 0 0 0 0 0 0 0 0 0 0 0 0 0 0 0 0 0 0 0 0 0 0 0 0 0 0 0 0 0 0 0 0 0 0 0 0 0 0 0 0 0 0 0 0 0 0 0 0 0 0 0 0 0 0 0 0 0 0 0 0 0 0 0 0 0 0 0 0 0 0 0 0 0 0 0 0 0 0 0 0 0 0 0 0 0 0 0 0 0 0 0 0 0 0 0 0 0 0 0 0 0 0 0 0 0 0 0 0 0 0 0 0 0 0 0 0 0 0 0 0 0 0 0 0 0 0 0 0 0 0 0 0 0 0 0 0 0 0 0 0 0 0 0 0 0 0 0 0 0 0 0 0 0 0 0 0 0 0 0 0 0 0 0 0 0 0 0 0 0 0 0 0 0 0 0 0 0 0 0 0 0 0 0 0 0 0 0 0 0 0 0 0 0 0 0 0 0 0 0 0 0 0 0 0 0 0 0 0 0 0 0 0 0 0 0 0 0 0 0 0 0 0 0 0 0 0 0 0 0 0 0 0 0 0 0 0 0 0 0 0 0 0 0 0 0 0 0 0 0 0 0 0 0 0 0 0 0 0 0 0 0 0 0 0 0 0 0 0 0 0 0 0 0 0 0 0 0 0 0 0 0 0 0 0 0 0 0 0 0 0 0 0 0 0 0 0 0 0 0 0 0 0 0 0 0 0 0 0 0 0 0 0 0 0 0 0 0 0 0 0 0 0 0 0 0 0 0 0 0 0 0 0 0 0 0 0 0 0 0 0 0 0 0 0 0 0 0 0 0 0 0 0 0 0 0 0 0 0 0 0 0 0 0 0 0 0 0 0 0 0 0 0 0 0 0 0 0 0 0 0 0 0 0 0 0 0 0 0 0 0 0 0 0 0 0 0 0 0 0 0 0 0 0 0 0 0 0 0 0 0 0 0 0 0 0 0 0 0 0 0 0 0 0 0 0 0 0 0 0 0 0 0 0 0 0 0 0 0 0 0 0 0 0 0 0 0 0 0 0 0 0 0 0 0 0 0 0 0 0 0 0 0 0 0 0 0 0 0 0 0 0 0 0 0 0 0 0 0 0 0 0 0 0 0 0 0 0 0 0 0 0 0 0 0 0 0 0 0 0 0 0 0 0 0 0 0 0 0 0 0 0 0 0 0 0 0 0 0 0 0 0 0 0 0 0 0 0 0 0 0 0 0 0 0 0 0 0 0 0 0 0 0 0 0 0 0 0 0 0 0 0 0 0 0 0 0 0 0 0 0 0 0 0 0 0 0 0 0 0 0 0 0 0 0 0 0 0 0 0 0 0 0 0 0 0 0 0 0 0 0 0 0 0 0 0 0 0 0 0 0 0 0 0 0 0 0 0 0 0 0 0 0 0 0 0 0 0 0 0 0 0 0 0 0 0 
0 0 0 0 0 0 0 0 0 0 0 0 0 0 0 0 0 0 0 0 0 0 0 0 0 0 0 0 0 0 0 0 0 0 0 0 0 0 0 0 0 0 0 0 0 0 0 0 0 0 0 0 0 0 0 0 0 0 0 0 0 0 0 0 0 0 0 0 0 0 0 0 0 0 0 0 0 0 0 0 0 0 0 0 0 0 0 0 0 0 0 0 0 0 0 0 0 0 0 0 0 0 0 0 0 0 0 0 0 0 0 0 0 0 0 0 0 0 0 0 0 0 0 0 0 0 0 0 0 0 0 0 0 0 0 0 0 0 0 0 0 0 0 0 0 0 0 0 0 0 0 0 0 0 0 0 0 0 0 0 0 0 0 0 0 0 0 0 0 0 0 0 0 0 0 0 0 0 0 0 0 0 0 0 0 0 0 0 0 0 0 0 0 0 0 0 0 0 0 0 0 0 0 0 0 0 0 0 0 0 0 0 0 0 0 0 0 0 0 0 0 0 0 0 0 0 0 0 0 0 0 0 0 0 0 0 0 0 0 0 0 0 0 0 0 0 0 0 0 0 0 0 0 0 0 0 0 0 0 0 0 0 0 0 0 0 0 0 0 0 0 0 0 0 0 0 0 0 0 0 0 0 0 0 0 0 0 0 0 0 0 0 0 0 0 0 0 0 0 0 0 0 0 0 0 0 0 0 0 0 0 0 0 0 0 0 0 0 0 0 0 0 0 0 0 0 0 0 0 0 0 0 0 0 0 0 0 0 0 0 0 0 0 0 0 0 0 0 0 0 0 0 0 0 0 0 0 0 0 0 0 0 0 0 0 0 0 0 0 0 0 0 0 0 0 0 0 0 0 0 0 0 0 0 0 0 0 0 0 0 0 0 0 0 0 0 0 0 0 0 0 0 0 0 0 0 0 0 0 0 0 0 0 0 0 0 0 0 0 0 0 0 0 0 0 0 0 0 0 0 0 0 0 0 0 0 0 0 0 0 0 0 0 0 0 0 0 0 0 0 0 0 0 0 0 0 0 0 0 0 0 0 0 0 0 0 0 0 0 0 0 0 0 0 0 0 0 0 0 0 0 0 0 0 0 0 0 0 0 0 0 0 0 0 0 0 0 0 0 0 0 0 0 0 0 0 0 0 0 0 0 0 0 0 0 0 0 0 0 0 0 0 0 0 0 0 0 0 0 0 0 0 0 0 0 0 0 0 0 0 0 0 0 0 0 0 0 0 0 0 0 0 0 0 0 0 0 0 0 0 0 0 0 0 0 0 0 0 0 0 0 0 0 0 0 0 0 0 0 0 0 0 0 0 0 0 0 0 0 0 0 0 0 0 0 0 0 0 0 0 0 0 0 0 0 0 0 0 0 0 0 0 0 0 0 0 0 0 0 0 0 0 0 0 0 0 0 0 0 0 0 0 0 0 0 0 0 0 0 0 0 0 0 0 0 0 0 0 0 0 0 0 0 0 0 0 0 0 0 0 0 0 0 0 0 0 0 0 0 0 0 0 0 0 0 0 0 0 0 0 0 0 0 0 0 0 0 0 0 0 0 0 0 0 0 0 0 0 0 0 0 0 0 0 0 0 0 0 0 0 0 0 0 0 0 0 0 0 0 0 0 0 0 0 0 0 0 0 0 0 0 0 0 0 0 0 0 0 0 0 0 0 0 0 0 0 0 0 0 0 0 0 0 0 0 0 0 0 0 0 0 0 0 0 0 0 0 0 0 0 0 0 0 0 0 0 0 0 0 0 0 0 0 0 0 0 0 0 0 0 0 0 0 0 0 0 0 0 0 0 0 0 0 0 0 0 0 0 0 0 0 0 0 0 0 0 0 0 0 0 0 0 0 0 0 0 0 0 0 0 0 0 0 0 0 0 0 0 0 0 0 0 0 0 0 0 0 0 0 0 0 0 0 0 0 0 0 0 0 0 0 0 0 0 0 0 0 0 0 0 0 0 0 0 0 0 0 0 0 0 0 0 0 0 0 0 0 0 0 0 0 0 0 0 0 0 0 0 0 0 0 0 0 0 0 0 0 0 0 0 0 0 0 0 0 0 0 0 0 0 0 0 0 0 0 0 0 0 0 0 0 0 0 0 0 0 0 0 0 0 0 0 0 0 0 0 0 0 0 0 0 0 0 0 0 0 0 0 0 0 
0 0 0 0 0 0 0 0 0 0 0 0 0 0 0 0 0 0 0 0 0 0 0 0 0 0 0 0 0 0 0 0 0 0 0 0 0 0 0 0 0 0 0 0 0 0 0 0 0 0 0 0 0 0 0 0 0 0 0 0 0 0 0 0 0 0 0 0 0 0 0 0 0 0 0 0 0 0 0 0 0 0 0 0 0 0 0 0 0 0 0 0 0 0 0 0 0 0 0 0 0 0 0 0 0 0 0 0 0 0 0 0 0 0 0 0 0 0 0 0 0 0 0 0 0 0 0 0 0 0 0 0 0 0 0 0 0 0 0 0 0 0 0 0 0 0 0 0 0 0 0 0 0 0 0 0 0 0 0 0 0 0 0 0 0 0 0 0 0 0 0 0 0 0 0 0 0 0 0 0 0 0 0 0 0 0 0 0 0 0 0 0 0 0 0 0 0 0 0 0 0 0 0 0 0 0 0 0 0 0 0 0 0 0 0 0 0 0 0 0 0 0 0 0 0 0 0 0 0 0 0 0 0 0 0 0 0 0 0 0 0 0 0 0 0 0 0 0 0 0 0 0 0 0 0 0 0 0 0 0 0 0 0 0 0 0 0 0 0 0 0 0 0 0 0 0 0 0 0 0 0 0 0 0 0 0 0 0 0 0 0 0 0 0 0 0 0 0 0 0 0 0 0 0 0 0 0 0 0 0 0 0 0 0 0 0 0 0 0 0 0 0 0 0 0 0 0 0 0 0 0 0 0 0 0 0 0 0 0 0 0 0 0 0 0 0 0 0 0 0 0 0 0 0 0 0 0 0 0 0 0 0 0 0 0 0 0 0 0 0 0 0 0 0 0 0 0 0 0 0 0 0 0 0 0 0 0 0 0 0 0 0 0 0 0 0 0 0 0 0 0 0 0 0 0 0 0 0 0 0 0 0 0 0 0 0 0 0 0 0 0 0 0 0 0 0 0 0 0 0 0 0 0 0 0 0 0 0 0 0 0 0 0 0 0 0 0 0 0 0 0 0 0 0 0 0 0 0 0 0 0 0 0 0 0 0 0 0 0 0 0 0 0 0 0 0 0 0 0 0 0 0 0 0 0 0 0 0 0 0 0 0 0 0 0 0 0 0 0 0 0 0 0 0 0 0 0 0 0 0 0 0 0 0 0 0 0 0 0 0 0 0 0 0 0 0 0 0 0 0 0 0 0 0 0 0 0 0 0 0 0 0 0 0 0 0 0 0 0 0 0 0 0 0 0 0 0 0 0 0 0 0 0 0 0 0 0 0 0 0 0 0 0 0 0 0 0 0 0 0 0 0 0 0 0 0 0 0 0 0 0 0 0 0 0 0 0 0 0 0 0 0 0 0 0 0 0 0 0 0 0 0 0 0 0 0 0 0 0 0 0 0 0 0 0 0 0 0 0 0 0 0 0 0 0 0 0 0 0 0 0 0 0 0 0 0 0 0 0 0 0 0 0 0 0 0 0 0 0 0 0 0 0 0 0 0 0 0 0 0 0 0 0 0 0 0 0 0 0 0 0 0 0 0 0 0 0 0 0 0 0 0 0 0 0 0 0 0 0 0 0 0 0 0 0 0 0 0 0 0 0 0 0 0 0 0 0 0 0 0 0 0 0 0 0 0 0 0 0 0 0 0 0 0 0 0 0 0 0 0 0 0 0 0 0 0 0 0 0 0 0 0 0 0 0 0 0 0 0 0 0 0 0 0 0 0 0 0 0 0 0 0 0 0 0 0 0 0 0 0 0 0 0 0 0 0 0 0 0 0 0 0 0 0 0 0 0 0 0 0 0 0 0 0 0 0 0 0 0 0 0 0 0 0 0 0 0 0 0 0 0 0 0 0 0 0 0 0 0 0 0 0 0 0 0 0 0 0 0 0 0 0 0 0 0 0 0 0 0 0 0 0 0 0 0 0 0 0 0 0 0 0 0 0 0 0 0 0 0 0 0 0 0 0 0 0 0 0 0 0 0 0 0 0 0 0 0 0 0 0 0 0 0 0 0 0 0 0 0 0 0 0 0 0 0 0 0 0 0 0 0 0 0 0 0 0 0 0 0 0 0 0 0 0 0 0 0 0 0 0 0 0 0 0 0 0 0 0 0 0 0 0 0 0 0 0 0 0 0 0 0 0 0 0 0 0 0 0 0 0 
0 0 0 0 0 0 0 0 0 0 0 0 0 0 0 0 0 0 0 0 0 0 0 0 0 0 0 0 0 0 0 0 0 0 0 0 0 0 0 0 0 0 0 0 0 0 0 0 0 0 0 0 0 0 0 0 0 0 0 0 0 0 0 0 0 0 0 0 0 0 0 0 0 0 0 0 0 0 0 0 0 0 0 0 0 0 0 0 0 0 0 0 0 0 0 0 0 0 0 0 0 0 0 0 0 0 0 0 0 0 0 0 0 0 0 0 0 0 0 0 0 0 0 0 0 0 0 0 0 0 0 0 0 0 0 0 0 0 0 0 0 0 0 0 0 0 0 0 0 0 0 0 0 0 0 0 0 0 0 0 0 0 0 0 0 0 0 0 0 0 0 0 0 0 0 0 0 0 0 0 0 0 0 0 0 0 0 0 0 0 0 0 0 0 0 0 0 0 0 0 0 0 0 0 0 0 0 0 0 0 0 0 0 0 0 0 0 0 0 0 0 0 0 0 0 0 0 0 0 0 0 0 0 0 0 0 0 0 0 0 0 0 0 0 0 0 0 0 0 0 0 0 0 0 0 0 0 0 0 0 0 0 0 0 0 0 0 0 0 0 0 0 0 0 0 0 0 0 0 0 0 0 0 0 0 0 0 0 0 0 0 0 0 0 0 0 0 0 0 0 0 0 0 0 0 0 0 0 0 0 0 0 0 0 0 0 0 0 0 0 0 0 0 0 0 0 0 0 0 0 0 0 0 0 0 0 0 0 0 0 0 0 0 0 0 0 0 0 0 0 0 0 0 0 0 0 0 0 0 0 0 0 0 0 0 0 0 0 0 0 0 0 0 0 0 0 0 0 0 0 0 0 0 0 0 0 0 0 0 0 0 0 0 0 0 0 0 0 0 0 0 0 0 0 0 0 0 0 0 0 0 0 0 0 0 0 0 0 0 0 0 0 0 0 0 0 0 0 0 0 0 0 0 0 0 0 0 0 0 0 0 0 0 0 0 0 0 0 0 0 0 0 0 0 0 0 0 0 0 0 0 0 0 0 0 0 0 0 0 0 0 0 0 0 0 0 0 0 0 0 0 0 0 0 0 0 0 0 0 0 0 0 0 0 0 0 0 0 0 0 0 0 0 0 0 0 0 0 0 0 0 0 0 0 0 0 0 0 0 0 0 0 0 0 0 0 0 0 0 0 0 0 0 0 0 0 0 0 0 0 0 0 0 0 0 0 0 0 0 0 0 0 0 0 0 0 0 0 0 0 0 0 0 0 0 0 0 0 0 0 0 0 0 0 0 0 0 0 0 0 0 0 0 0 0 0 0 0 0 0 0 0 0 0 0 0 0 0 0 0 0 0 0 0 0 0 0 0 0 0 0 0 0 0 0 0 0 0 0 0 0 0 0 0 0 0 0 0 0 0 0 0 0 0 0 0 0 0 0 0 0 0 0 0 0 0 0 0 0 0 0 0 0 0 0 0 0 0 0 0 0 0 0 0 0 0 0 0 0 0 0 0 0 0 0 0 0 0 0 0 0 0 0 0 0 0 0 0 0 0 0 0 0 0 0 0 0 0 0 0 0 0 0 0 0 0 0 0 0 0 0 0 0 0 0 0 0 0 0 0 0 0 0 0 0 0 0 0 0 0 0 0 0 0 0 0 0 0 0 0 0 0 0 0 0 0 0 0 0 0 0 0 0 0 0 0 0 0 0 0 0 0 0 0 0 0 0 0 0 0 0 0 0 0 0 0 0 0 0 0 0 0 0 0 0 0 0 0 0 0 0 0 0 0 0 0 0 0 0 0 0 0 0 0 0 0 0 0 0 0 0 0 0 0 0 0 0 0 0 0 0 0 0 0 0 0 0 0 0 0 0 0 0 0 0 0 0 0 0 0 0 0 0 0 0 0 0 0 0 0 0 0 0 0 0 0 0 0 0 0 0 0 0 0 0 0 0 0 0 0 0 0 0 0 0 0 0 0 0 0 0 0 0 0 0 0 0 0 0 0 0 0 0 0 0 0 0 0 0 0 0 0 0 0 0 0 0 0 0 0 0 0 0 0 0 0 0 0 0 0 0 0 0 0 0 0 0 0 0 0 0 0 0 0 0 0 0 0 0 0 0 0 0 0 0 0 0 0 0 0 0 0 0 0 0 0 0 0 0 0 
0 0 0 0 0 0 0 0 0 0 0 0 0 0 0 0 0 0 0 0 0 0 0 0 0 0 0 0 0 0 255 255 255 255 255 255 255 255 255 255 255 255 255 255 255 255 255 255 255 255 255 255 255 255 0 0 0 0 0 0 0 0 0 0 0 0 0 0 0 0 0 0 0 0 0 0 0 0 0 0 0 0 0 0 0 0 0 0 0 0 0 0 0 0 0 0 0 0 0 0 0 0 0 0 0 0 0 0 0 0 0 0 0 0 0 0 0 0 0 0 0 0 0 0 0 0 0 0 0 0 0 0 0 0 0 0 0 0 255 255 255 255 255 255 0 0 0 0 0 0 0 0 0 0 0 0 0 0 0 0 0 0 0 0 0 0 0 0 0 0 0 0 0 0 0 0 0 0 0 0 0 0 0 0 0 0 0 0 0 0 0 0 0 0 0 0 0 0 0 0 0 0 0 0 0 0 0 0 0 0 0 0 0 0 0 0 0 0 0 0 0 0 0 0 0 0 0 0 0 0 0 0 0 0 0 0 0 0 0 0 0 0 0 0 0 0 0 0 0 0 0 0 255 255 255 255 255 255 255 255 255 255 255 255 255 255 255 255 255 255 0 0 0 0 0 0 0 0 0 0 0 0 0 0 0 0 0 0 255 255 255 255 255 255 255 255 255 255 255 255 255 255 255 255 255 255 0 0 0 0 0 0 0 0 0 0 0 0 0 0 0 0 0 0 0 0 0 0 0 0 0 0 0 0 0 0 0 0 0 0 0 0 0 0 0 0 0 0 0 0 0 0 0 0 0 0 0 0 0 0 0 0 0 0 0 0 0 0 0 0 0 0 255 255 255 255 255 255 0 0 0 0 0 0 0 0 0 0 0 0 255 255 255 255 255 255 0 0 0 0 0 0 0 0 0 0 0 0 0 0 0 0 0 0 255 255 255 255 255 255 0 0 0 0 0 0 0 0 0 0 0 0 0 0 0 0 0 0 0 0 0 0 0 0 0 0 0 0 0 0 0 0 0 0 0 0 0 0 0 0 0 0 0 0 0 0 0 0 0 0 0 0 0 0 0 0 0 0 0 0 0 0 0 0 0 0 0 0 0 0 0 0 0 0 0 0 0 0 0 0 0 0 0 0 0 0 0 0 0 0 0 0 0 0 0 0 0 0 0 0 0 0 0 0 0 0 0 0 0 0 0 0 0 0 0 0 0 0 0 0 0 0 0 0 0 0 0 0 0 0 0 0 0 0 0 0 0 0 0 0 0 0 0 0 0 0 0 0 0 0 0 0 0 0 0 0 0 0 0 0 0 0 0 0 0 0 0 0 0 0 0 0 0 0 0 0 0 0 0 0 0 0 0 0 0 0 0 0 0 0 0 0 0 0 0 0 0 0 0 0 0 0 0 0 0 0 0 0 0 0 0 0 0 0 0 0 0 0 0 0 0 0 0 0 0 0 0 0 0 0 0 0 0 0 0 0 0 0 0 0 0 0 0 0 0 0 0 0 0 0 0 0 0 0 0 0 0 0 0 0 0 0 0 0 0 0 0 0 0 0 0 0 0 0 0 0 0 0 0 0 0 0 0 0 0 0 0 0 0 0 0 0 0 0 0 0 0 0 0 0 0 0 0 0 0 0 0 0 0 0 0 0 0 0 0 0 0 0 0 0 0 0 0 0 0 0 0 0 0 0 0 0 0 0 0 0 0 0 0 0 0 0 0 0 0 0 0 0 0 0 0 0 0 0 0 0 0 0 0 0 0 0 0 0 0 0 0 0 0 0 0 0 0 0 0 0 0 0 0 0 0 0 0 0 0 0 0 0 0 0 0 0 0 0 0 0 0 0 0 0 0 0 0 0 0 0 0 0 0 0 0 0 0 0 0 0 0 0 0 0 0 0 0 0 0 0 0 0 0 0 0 0 0 0 0 0 0 0 0 0 0 0 0 0 0 0 0 0 0 0 0 0 0 0 0 0 0 0 0 0 0 0 0 0 0 0 0 0 0 0 0 0 0 0 0 0 0 0 0 0 0 0 0 0 0 0 0 0 0 0 0 0 0 0 0 0 0 0 0 0 0 0 0 0 0 0 0 0 0 0 0 0 0 0 0 0 0 0 0 0 0 0 0 0 0 0 0 0 0 0 0 0 0 0 0 0 0 0 0 0 
0 0 0 0 0 0 0 0 0 0 0 0 0 0 0 0 0 0 0 0 0 0 0 0 0 0 0 0 0 0 255 255 255 255 255 255 255 255 255 255 255 255 255 255 255 255 255 255 255 255 255 255 255 255 0 0 0 0 0 0 0 0 0 0 0 0 0 0 0 0 0 0 0 0 0 0 0 0 0 0 0 0 0 0 0 0 0 0 0 0 0 0 0 0 0 0 0 0 0 0 0 0 0 0 0 0 0 0 0 0 0 0 0 0 0 0 0 0 0 0 0 0 0 0 0 0 0 0 0 0 0 0 0 0 0 0 0 0 255 255 255 255 255 255 0 0 0 0 0 0 0 0 0 0 0 0 0 0 0 0 0 0 0 0 0 0 0 0 0 0 0 0 0 0 0 0 0 0 0 0 0 0 0 0 0 0 0 0 0 0 0 0 0 0 0 0 0 0 0 0 0 0 0 0 0 0 0 0 0 0 0 0 0 0 0 0 0 0 0 0 0 0 0 0 0 0 0 0 0 0 0 0 0 0 0 0 0 0 0 0 0 0 0 0 0 0 0 0 0 0 0 0 255 255 255 255 255 255 255 255 255 255 255 255 255 255 255 255 255 255 0 0 0 0 0 0 0 0 0 0 0 0 0 0 0 0 0 0 255 255 255 255 255 255 255 255 255 255 255 255 255 255 255 255 255 255 0 0 0 0 0 0 0 0 0 0 0 0 0 0 0 0 0 0 0 0 0 0 0 0 0 0 0 0 0 0 0 0 0 0 0 0 0 0 0 0 0 0 0 0 0 0 0 0 0 0 0 0 0 0 0 0 0 0 0 0 0 0 0 0 0 0 255 255 255 255 255 255 0 0 0 0 0 0 0 0 0 0 0 0 255 255 255 255 255 255 0 0 0 0 0 0 0 0 0 0 0 0 0 0 0 0 0 0 255 255 255 255 255 255 0 0 0 0 0 0 0 0 0 0 0 0 0 0 0 0 0 0 0 0 0 0 0 0 0 0 0 0 0 0 0 0 0 0 0 0 0 0 0 0 0 0 0 0 0 0 0 0 0 0 0 0 0 0 0 0 0 0 0 0 0 0 0 0 0 0 0 0 0 0 0 0 0 0 0 0 0 0 0 0 0 0 0 0 0 0 0 0 0 0 0 0 0 0 0 0 0 0 0 0 0 0 0 0 0 0 0 0 0 0 0 0 0 0 0 0 0 0 0 0 0 0 0 0 0 0 0 0 0 0 0 0 0 0 0 0 0 0 0 0 0 0 0 0 0 0 0 0 0 0 0 0 0 0 0 0 0 0 0 0 0 0 0 0 0 0 0 0 0 0 0 0 0 0 0 0 0 0 0 0 0 0 0 0 0 0 0 0 0 0 0 0 0 0 0 0 0 0 0 0 0 0 0 0 0 0 0 0 0 0 0 0 0 0 0 0 0 0 0 0 0 0 0 0 0 0 0 0 0 0 0 0 0 0 0 0 0 0 0 0 0 0 0 0 0 0 0 0 0 0 0 0 0 0 0 0 0 0 0 0 0 0 0 0 0 0 0 0 0 0 0 0 0 0 0 0 0 0 0 0 0 0 0 0 0 0 0 0 0 0 0 0 0 0 0 0 0 0 0 0 0 0 0 0 0 0 0 0 0 0 0 0 0 0 0 0 0 0 0 0 0 0 0 0 0 0 0 0 0 0 0 0 0 0 0 0 0 0 0 0 0 0 0 0 0 0 0 0 0 0 0 0 0 0 0 0 0 0 0 0 0 0 0 0 0 0 0 0 0 0 0 0 0 0 0 0 0 0 0 0 0 0 0 0 0 0 0 0 0 0 0 0 0 0 0 0 0 0 0 0 0 0 0 0 0 0 0 0 0 0 0 0 0 0 0 0 0 0 0 0 0 0 0 0 0 0 0 0 0 0 0 0 0 0 0 0 0 0 0 0 0 0 0 0 0 0 0 0 0 0 0 0 0 0 0 0 0 0 0 0 0 0 0 0 0 0 0 0 0 0 0 0 0 0 0 0 0 0 0 0 0 0 0 0 0 0 0 0 0 0 0 0 0 0 0 0 0 0 0 0 0 0 0 0 0 0 0 0 0 0 0 0 0 0 0 0 0 0 0 0 0 0 0 0 0 0 0 0 0 0 0 0 0 0 0 0 0 0 0 0 
0 0 0 0 0 0 0 0 0 0 0 0 0 0 0 0 0 0 0 0 0 0 0 0 0 0 0 0 0 0 255 255 255 255 255 255 0 0 0 0 0 0 0 0 0 0 0 0 0 0 0 0 0 0 255 255 255 255 255 255 0 0 0 0 0 0 0 0 0 0 0 0 255 255 255 255 255 255 0 0 0 0 0 0 255 255 255 255 255 255 255 255 255 255 255 255 0 0 0 0 0 0 0 0 0 0 0 0 255 255 255 255 255 255 255 255 255 255 255 255 255 255 255 255 255 255 0 0 0 0 0 0 0 0 0 0 0 0 255 255 255 255 255 255 0 0 0 0 0 0 0 0 0 0 0 0 0 0 0 0 0 0 0 0 0 0 0 0 0 0 0 0 0 0 0 0 0 0 0 0 255 255 255 255 255 255 255 255 255 255 255 255 0 0 0 0 0 0 0 0 0 0 0 0 0 0 0 0 0 0 0 0 0 0 0 0 0 0 0 0 0 0 0 0 0 0 0 0 0 0 0 0 0 0 0 0 0 0 0 0 0 0 0 0 0 0 255 255 255 255 255 255 0 0 0 0 0 0 0 0 0 0 0 0 0 0 0 0 0 0 255 255 255 255 255 255 0 0 0 0 0 0 255 255 255 255 255 255 0 0 0 0 0 0 0 0 0 0 0 0 0 0 0 0 0 0 255 255 255 255 255 255 0 0 0 0 0 0 0 0 0 0 0 0 0 0 0 0 0 0 0 0 0 0 0 0 0 0 0 0 0 0 0 0 0 0 0 0 0 0 0 0 0 0 0 0 0 0 0 0 0 0 0 0 0 0 255 255 255 255 255 255 255 255 255 255 255 255 0 0 0 0 0 0 0 0 0 0 0 0 0 0 0 0 0 0 255 255 255 255 255 255 0 0 0 0 0 0 255 255 255 255 255 255 0 0 0 0 0 0 0 0 0 0 0 0 0 0 0 0 0 0 0 0 0 0 0 0 0 0 0 0 0 0 0 0 0 0 0 0 0 0 0 0 0 0 0 0 0 0 0 0 0 0 0 0 0 0 0 0 0 0 0 0 0 0 0 0 0 0 0 0 0 0 0 0 0 0 0 0 0 0 0 0 0 0 0 0 0 0 0 0 0 0 0 0 0 0 0 0 0 0 0 0 0 0 0 0 0 0 0 0 0 0 0 0 0 0 0 0 0 0 0 0 0 0 0 0 0 0 0 0 0 0 0 0 0 0 0 0 0 0 0 0 0 0 0 0 0 0 0 0 0 0 0 0 0 0 0 0 0 0 0 0 0 0 0 0 0 0 0 0 0 0 0 0 0 0 0 0 0 0 0 0 0 0 0 0 0 0 0 0 0 0 0 0 0 0 0 0 0 0 0 0 0 0 0 0 0 0 0 0 0 0 0 0 0 0 0 0 0 0 0 0 0 0 0 0 0 0 0 0 0 0 0 0 0 0 0 0 0 0 0 0 0 0 0 0 0 0 0 0 0 0 0 0 0 0 0 0 0 0 0 0 0 0 0 0 0 0 0 0 0 0 0 0 0 0 0 0 0 0 0 0 0 0 0 0 0 0 0 0 0 0 0 0 0 0 0 0 0 0 0 0 0 0 0 0 0 0 0 0 0 0 0 0 0 0 0 0 0 0 0 0 0 0 0 0 0 0 0 0 0 0 0 0 0 0 0 0 0 0 0 0 0 0 0 0 0 0 0 0 0 0 0 0 0 0 0 0 0 0 0 0 0 0 0 0 0 0 0 0 0 0 0 0 0 0 0 0 0 0 0 0 0 0 0 0 0 0 0 0 0 0 0 0 0 0 0 0 0 0 0 0 0 0 0 0 0 0 0 0 0 0 0 0 0 0 0 0 0 0 0 0 0 0 0 0 0 0 0 0 0 0 0 0 0 0 0 0 0 0 0 0 0 0 0 0 0 0 0 0 0 0 0 0 0 0 0 0 0 0 0 0 0 0 0 0 0 0 0 0 0 0 0 0 0 0 0 0 0 0 0 0 0 0 0 0 0 0 0 0 0 0 0 0 0 0 0 0 0 0 0 0 0 0 0 0 0 0 0 0 0 0 0 0 0 0 0 0 0 0 0 0 0 0 0 0 0 0 0 0 0 0 0 0 0 0 0 0 0 0 0 0 0 0 0 0 0 0 
0 0 0 0 0 0 0 0 0 0 0 0 0 0 0 0 0 0 0 0 0 0 0 0 0 0 0 0 0 0 255 255 255 255 255 255 0 0 0 0 0 0 0 0 0 0 0 0 0 0 0 0 0 0 255 255 255 255 255 255 0 0 0 0 0 0 0 0 0 0 0 0 255 255 255 255 255 255 0 0 0 0 0 0 255 255 255 255 255 255 255 255 255 255 255 255 0 0 0 0 0 0 0 0 0 0 0 0 255 255 255 255 255 255 255 255 255 255 255 255 255 255 255 255 255 255 0 0 0 0 0 0 0 0 0 0 0 0 255 255 255 255 255 255 0 0 0 0 0 0 0 0 0 0 0 0 0 0 0 0 0 0 0 0 0 0 0 0 0 0 0 0 0 0 0 0 0 0 0 0 255 255 255 255 255 255 255 255 255 255 255 255 0 0 0 0 0 0 0 0 0 0 0 0 0 0 0 0 0 0 0 0 0 0 0 0 0 0 0 0 0 0 0 0 0 0 0 0 0 0 0 0 0 0 0 0 0 0 0 0 0 0 0 0 0 0 255 255 255 255 255 255 0 0 0 0 0 0 0 0 0 0 0 0 0 0 0 0 0 0 255 255 255 255 255 255 0 0 0 0 0 0 255 255 255 255 255 255 0 0 0 0 0 0 0 0 0 0 0 0 0 0 0 0 0 0 255 255 255 255 255 255 0 0 0 0 0 0 0 0 0 0 0 0 0 0 0 0 0 0 0 0 0 0 0 0 0 0 0 0 0 0 0 0 0 0 0 0 0 0 0 0 0 0 0 0 0 0 0 0 0 0 0 0 0 0 255 255 255 255 255 255 255 255 255 255 255 255 0 0 0 0 0 0 0 0 0 0 0 0 0 0 0 0 0 0 255 255 255 255 255 255 0 0 0 0 0 0 255 255 255 255 255 255 0 0 0 0 0 0 0 0 0 0 0 0 0 0 0 0 0 0 0 0 0 0 0 0 0 0 0 0 0 0 0 0 0 0 0 0 0 0 0 0 0 0 0 0 0 0 0 0 0 0 0 0 0 0 0 0 0 0 0 0 0 0 0 0 0 0 0 0 0 0 0 0 0 0 0 0 0 0 0 0 0 0 0 0 0 0 0 0 0 0 0 0 0 0 0 0 0 0 0 0 0 0 0 0 0 0 0 0 0 0 0 0 0 0 0 0 0 0 0 0 0 0 0 0 0 0 0 0 0 0 0 0 0 0 0 0 0 0 0 0 0 0 0 0 0 0 0 0 0 0 0 0 0 0 0 0 0 0 0 0 0 0 0 0 0 0 0 0 0 0 0 0 0 0 0 0 0 0 0 0 0 0 0 0 0 0 0 0 0 0 0 0 0 0 0 0 0 0 0 0 0 0 0 0 0 0 0 0 0 0 0 0 0 0 0 0 0 0 0 0 0 0 0 0 0 0 0 0 0 0 0 0 0 0 0 0 0 0 0 0 0 0 0 0 0 0 0 0 0 0 0 0 0 0 0 0 0 0 0 0 0 0 0 0 0 0 0 0 0 0 0 0 0 0 0 0 0 0 0 0 0 0 0 0 0 0 0 0 0 0 0 0 0 0 0 0 0 0 0 0 0 0 0 0 0 0 0 0 0 0 0 0 0 0 0 0 0 0 0 0 0 0 0 0 0 0 0 0 0 0 0 0 0 0 0 0 0 0 0 0 0 0 0 0 0 0 0 0 0 0 0 0 0 0 0 0 0 0 0 0 0 0 0 0 0 0 0 0 0 0 0 0 0 0 0 0 0 0 0 0 0 0 0 0 0 0 0 0 0 0 0 0 0 0 0 0 0 0 0 0 0 0 0 0 0 0 0 0 0 0 0 0 0 0 0 0 0 0 0 0 0 0 0 0 0 0 0 0 0 0 0 0 0 0 0 0 0 0 0 0 0 0 0 0 0 0 0 0 0 0 0 0 0 0 0 0 0 0 0 0 0 0 0 0 0 0 0 0 0 0 0 0 0 0 0 0 0 0 0 0 0 0 0 0 0 0 0 0 0 0 0 0 0 0 0 0 0 0 0 0 0 0 0 0 0 0 0 0 0 0 0 0 0 0 0 0 0 0 0 0 0 0 0 0 0 0 0 0 0 0 0 0 0 0 0 0 0 0 0 0 0 0 0 0 0 0 
0 0 0 0 0 0 0 0 0 0 0 0 0 0 0 0 0 0 0 0 0 0 0 0 0 0 0 0 0 0 255 255 255 255 255 255 0 0 0 0 0 0 0 0 0 0 0 0 0 0 0 0 0 0 255 255 255 255 255 255 0 0 0 0 0 0 0 0 0 0 0 0 255 255 255 255 255 255 255 255 255 255 255 255 0 0 0 0 0 0 0 0 0 0 0 0 0 0 0 0 0 0 255 255 255 255 255 255 0 0 0 0 0 0 0 0 0 0 0 0 0 0 0 0 0 0 255 255 255 255 255 255 0 0 0 0 0 0 255 255 255 255 255 255 255 255 255 255 255 255 255 255 255 255 255 255 255 255 255 255 255 255 0 0 0 0 0 0 0 0 0 0 0 0 0 0 0 0 0 0 255 255 255 255 255 255 255 255 255 255 255 255 0 0 0 0 0 0 0 0 0 0 0 0 0 0 0 0 0 0 0 0 0 0 0 0 0 0 0 0 0 0 0 0 0 0 0 0 0 0 0 0 0 0 0 0 0 0 0 0 0 0 0 0 0 0 255 255 255 255 255 255 0 0 0 0 0 0 0 0 0 0 0 0 0 0 0 0 0 0 255 255 255 255 255 255 0 0 0 0 0 0 255 255 255 255 255 255 0 0 0 0 0 0 0 0 0 0 0 0 0 0 0 0 0 0 255 255 255 255 255 255 0 0 0 0 0 0 0 0 0 0 0 0 0 0 0 0 0 0 0 0 0 0 0 0 0 0 0 0 0 0 0 0 0 0 0 0 0 0 0 0 0 0 0 0 0 0 0 0 255 255 255 255 255 255 0 0 0 0 0 0 255 255 255 255 255 255 0 0 0 0 0 0 0 0 0 0 0 0 0 0 0 0 0 0 0 0 0 0 0 0 255 255 255 255 255 255 0 0 0 0 0 0 0 0 0 0 0 0 0 0 0 0 0 0 0 0 0 0 0 0 0 0 0 0 0 0 0 0 0 0 0 0 0 0 0 0 0 0 0 0 0 0 0 0 0 0 0 0 0 0 0 0 0 0 0 0 0 0 0 0 0 0 0 0 0 0 0 0 0 0 0 0 0 0 0 0 0 0 0 0 0 0 0 0 0 0 0 0 0 0 0 0 0 0 0 0 0 0 0 0 0 0 0 0 0 0 0 0 0 0 0 0 0 0 0 0 0 0 0 0 0 0 0 0 0 0 0 0 0 0 0 0 0 0 0 0 0 0 0 0 0 0 0 0 0 0 0 0 0 0 0 0 0 0 0 0 0 0 0 0 0 0 0 0 0 0 0 0 0 0 0 0 0 0 0 0 0 0 0 0 0 0 0 0 0 0 0 0 0 0 0 0 0 0 0 0 0 0 0 0 0 0 0 0 0 0 0 0 0 0 0 0 0 0 0 0 0 0 0 0 0 0 0 0 0 0 0 0 0 0 0 0 0 0 0 0 0 0 0 0 0 0 0 0 0 0 0 0 0 0 0 0 0 0 0 0 0 0 0 0 0 0 0 0 0 0 0 0 0 0 0 0 0 0 0 0 0 0 0 0 0 0 0 0 0 0 0 0 0 0 0 0 0 0 0 0 0 0 0 0 0 0 0 0 0 0 0 0 0 0 0 0 0 0 0 0 0 0 0 0 0 0 0 0 0 0 0 0 0 0 0 0 0 0 0 0 0 0 0 0 0 0 0 0 0 0 0 0 0 0 0 0 0 0 0 0 0 0 0 0 0 0 0 0 0 0 0 0 0 0 0 0 0 0 0 0 0 0 0 0 0 0 0 0 0 0 0 0 0 0 0 0 0 0 0 0 0 0 0 0 0 0 0 0 0 0 0 0 0 0 0 0 0 0 0 0 0 0 0 0 0 0 0 0 0 0 0 0 0 0 0 0 0 0 0 0 0 0 0 0 0 0 0 0 0 0 0 0 0 0 0 0 0 0 0 0 0 0 0 0 0 0 0 0 0 0 0 0 0 0 0 0 0 0 0 0 0 0 0 0 0 0 0 0 0 0 0 0 0 0 0 0 0 0 0 0 0 0 0 0 0 0 0 0 0 0 0 0 0 0 0 0 0 0 0 0 0 0 0 0 0 0 0 0 0 0 0 0 0 0 0 0 0 0 0 0 0 0 0 0 0 0 0 0 0 0 0 0 
0 0 0 0 0 0 0 0 0 0 0 0 0 0 0 0 0 0 0 0 0 0 0 0 0 0 0 0 0 0 255 255 255 255 255 255 0 0 0 0 0 0 0 0 0 0 0 0 0 0 0 0 0 0 255 255 255 255 255 255 0 0 0 0 0 0 0 0 0 0 0 0 255 255 255 255 255 255 255 255 255 255 255 255 0 0 0 0 0 0 0 0 0 0 0 0 0 0 0 0 0 0 255 255 255 255 255 255 0 0 0 0 0 0 0 0 0 0 0 0 0 0 0 0 0 0 255 255 255 255 255 255 0 0 0 0 0 0 255 255 255 255 255 255 255 255 255 255 255 255 255 255 255 255 255 255 255 255 255 255 255 255 0 0 0 0 0 0 0 0 0 0 0 0 0 0 0 0 0 0 255 255 255 255 255 255 255 255 255 255 255 255 0 0 0 0 0 0 0 0 0 0 0 0 0 0 0 0 0 0 0 0 0 0 0 0 0 0 0 0 0 0 0 0 0 0 0 0 0 0 0 0 0 0 0 0 0 0 0 0 0 0 0 0 0 0 255 255 255 255 255 255 0 0 0 0 0 0 0 0 0 0 0 0 0 0 0 0 0 0 255 255 255 255 255 255 0 0 0 0 0 0 255 255 255 255 255 255 0 0 0 0 0 0 0 0 0 0 0 0 0 0 0 0 0 0 255 255 255 255 255 255 0 0 0 0 0 0 0 0 0 0 0 0 0 0 0 0 0 0 0 0 0 0 0 0 0 0 0 0 0 0 0 0 0 0 0 0 0 0 0 0 0 0 0 0 0 0 0 0 255 255 255 255 255 255 0 0 0 0 0 0 255 255 255 255 255 255 0 0 0 0 0 0 0 0 0 0 0 0 0 0 0 0 0 0 0 0 0 0 0 0 255 255 255 255 255 255 0 0 0 0 0 0 0 0 0 0 0 0 0 0 0 0 0 0 0 0 0 0 0 0 0 0 0 0 0 0 0 0 0 0 0 0 0 0 0 0 0 0 0 0 0 0 0 0 0 0 0 0 0 0 0 0 0 0 0 0 0 0 0 0 0 0 0 0 0 0 0 0 0 0 0 0 0 0 0 0 0 0 0 0 0 0 0 0 0 0 0 0 0 0 0 0 0 0 0 0 0 0 0 0 0 0 0 0 0 0 0 0 0 0 0 0 0 0 0 0 0 0 0 0 0 0 0 0 0 0 0 0 0 0 0 0 0 0 0 0 0 0 0 0 0 0 0 0 0 0 0 0 0 0 0 0 0 0 0 0 0 0 0 0 0 0 0 0 0 0 0 0 0 0 0 0 0 0 0 0 0 0 0 0 0 0 0 0 0 0 0 0 0 0 0 0 0 0 0 0 0 0 0 0 0 0 0 0 0 0 0 0 0 0 0 0 0 0 0 0 0 0 0 0 0 0 0 0 0 0 0 0 0 0 0 0 0 0 0 0 0 0 0 0 0 0 0 0 0 0 0 0 0 0 0 0 0 0 0 0 0 0 0 0 0 0 0 0 0 0 0 0 0 0 0 0 0 0 0 0 0 0 0 0 0 0 0 0 0 0 0 0 0 0 0 0 0 0 0 0 0 0 0 0 0 0 0 0 0 0 0 0 0 0 0 0 0 0 0 0 0 0 0 0 0 0 0 0 0 0 0 0 0 0 0 0 0 0 0 0 0 0 0 0 0 0 0 0 0 0 0 0 0 0 0 0 0 0 0 0 0 0 0 0 0 0 0 0 0 0 0 0 0 0 0 0 0 0 0 0 0 0 0 0 0 0 0 0 0 0 0 0 0 0 0 0 0 0 0 0 0 0 0 0 0 0 0 0 0 0 0 0 0 0 0 0 0 0 0 0 0 0 0 0 0 0 0 0 0 0 0 0 0 0 0 0 0 0 0 0 0 0 0 0 0 0 0 0 0 0 0 0 0 0 0 0 0 0 0 0 0 0 0 0 0 0 0 0 0 0 0 0 0 0 0 0 0 0 0 0 0 0 0 0 0 0 0 0 0 0 0 0 0 0 0 0 0 0 0 0 0 0 0 0 0 0 0 0 0 0 0 0 0 0 0 0 0 0 0 0 0 0 0 0 0 0 0 0 0 0 0 0 0 0 0 0 0 0 0 0 0 0 0 0 0 0 0 0 0 0 0 0 
0 0 0 0 0 0 0 0 0 0 0 0 0 0 0 0 0 0 0 0 0 0 0 0 0 0 0 0 0 0 255 255 255 255 255 255 255 255 255 255 255 255 255 255 255 255 255 255 255 255 255 255 255 255 0 0 0 0 0 0 0 0 0 0 0 0 255 255 255 255 255 255 0 0 0 0 0 0 0 0 0 0 0 0 0 0 0 0 0 0 0 0 0 0 0 0 0 0 0 0 0 0 255 255 255 255 255 255 0 0 0 0 0 0 0 0 0 0 0 0 0 0 0 0 0 0 255 255 255 255 255 255 0 0 0 0 0 0 255 255 255 255 255 255 0 0 0 0 0 0 0 0 0 0 0 0 0 0 0 0 0 0 255 255 255 255 255 255 0 0 0 0 0 0 0 0 0 0 0 0 0 0 0 0 0 0 0 0 0 0 0 0 0 0 0 0 0 0 0 0 0 0 0 0 0 0 0 0 0 0 0 0 0 0 0 0 0 0 0 0 0 0 0 0 0 0 0 0 0 0 0 0 0 0 0 0 0 0 0 0 0 0 0 0 0 0 0 0 0 0 0 0 255 255 255 255 255 255 255 255 255 255 255 255 255 255 255 255 255 255 255 255 255 255 255 255 0 0 0 0 0 0 0 0 0 0 0 0 255 255 255 255 255 255 255 255 255 255 255 255 255 255 255 255 255 255 0 0 0 0 0 0 0 0 0 0 0 0 0 0 0 0 0 0 0 0 0 0 0 0 0 0 0 0 0 0 0 0 0 0 0 0 0 0 0 0 0 0 0 0 0 0 0 0 255 255 255 255 255 255 0 0 0 0 0 0 0 0 0 0 0 0 255 255 255 255 255 255 0 0 0 0 0 0 0 0 0 0 0 0 0 0 0 0 0 0 255 255 255 255 255 255 0 0 0 0 0 0 0 0 0 0 0 0 0 0 0 0 0 0 0 0 0 0 0 0 0 0 0 0 0 0 0 0 0 0 0 0 0 0 0 0 0 0 0 0 0 0 0 0 0 0 0 0 0 0 0 0 0 0 0 0 0 0 0 0 0 0 0 0 0 0 0 0 0 0 0 0 0 0 0 0 0 0 0 0 0 0 0 0 0 0 0 0 0 0 0 0 0 0 0 0 0 0 0 0 0 0 0 0 0 0 0 0 0 0 0 0 0 0 0 0 0 0 0 0 0 0 0 0 0 0 0 0 0 0 0 0 0 0 0 0 0 0 0 0 0 0 0 0 0 0 0 0 0 0 0 0 0 0 0 0 0 0 0 0 0 0 0 0 0 0 0 0 0 0 0 0 0 0 0 0 0 0 0 0 0 0 0 0 0 0 0 0 0 0 0 0 0 0 0 0 0 0 0 0 0 0 0 0 0 0 0 0 0 0 0 0 0 0 0 0 0 0 0 0 0 0 0 0 0 0 0 0 0 0 0 0 0 0 0 0 0 0 0 0 0 0 0 0 0 0 0 0 0 0 0 0 0 0 0 0 0 0 0 0 0 0 0 0 0 0 0 0 0 0 0 0 0 0 0 0 0 0 0 0 0 0 0 0 0 0 0 0 0 0 0 0 0 0 0 0 0 0 0 0 0 0 0 0 0 0 0 0 0 0 0 0 0 0 0 0 0 0 0 0 0 0 0 0 0 0 0 0 0 0 0 0 0 0 0 0 0 0 0 0 0 0 0 0 0 0 0 0 0 0 0 0 0 0 0 0 0 0 0 0 0 0 0 0 0 0 0 0 0 0 0 0 0 0 0 0 0 0 0 0 0 0 0 0 0 0 0 0 0 0 0 0 0 0 0 0 0 0 0 0 0 0 0 0 0 0 0 0 0 0 0 0 0 0 0 0 0 0 0 0 0 0 0 0 0 0 0 0 0 0 0 0 0 0 0 0 0 0 0 0 0 0 0 0 0 0 0 0 0 0 0 0 0 0 0 0 0 0 0 0 0 0 0 0 0 0 0 0 0 0 0 0 0 0 0 0 0 0 0 0 0 0 0 0 0 0 0 0 0 0 0 0 0 0 0 0 0 0 0 0 0 0 0 0 0 0 0 0 0 0 0 0 0 0 0 0 0 0 0 0 0 0 0 0 0 0 0 0 0 0 0 0 0 0 0 0 0 0 0 0 0 0 0 0 0 0 0 0 0 0 0 0 0 0 
0 0 0 0 0 0 0 0 0 0 0 0 0 0 0 0 0 0 0 0 0 0 0 0 0 0 0 0 0 0 255 255 255 255 255 255 255 255 255 255 255 255 255 255 255 255 255 255 255 255 255 255 255 255 0 0 0 0 0 0 0 0 0 0 0 0 255 255 255 255 255 255 0 0 0 0 0 0 0 0 0 0 0 0 0 0 0 0 0 0 0 0 0 0 0 0 0 0 0 0 0 0 255 255 255 255 255 255 0 0 0 0 0 0 0 0 0 0 0 0 0 0 0 0 0 0 255 255 255 255 255 255 0 0 0 0 0 0 255 255 255 255 255 255 0 0 0 0 0 0 0 0 0 0 0 0 0 0 0 0 0 0 255 255 255 255 255 255 0 0 0 0 0 0 0 0 0 0 0 0 0 0 0 0 0 0 0 0 0 0 0 0 0 0 0 0 0 0 0 0 0 0 0 0 0 0 0 0 0 0 0 0 0 0 0 0 0 0 0 0 0 0 0 0 0 0 0 0 0 0 0 0 0 0 0 0 0 0 0 0 0 0 0 0 0 0 0 0 0 0 0 0 255 255 255 255 255 255 255 255 255 255 255 255 255 255 255 255 255 255 255 255 255 255 255 255 0 0 0 0 0 0 0 0 0 0 0 0 255 255 255 255 255 255 255 255 255 255 255 255 255 255 255 255 255 255 0 0 0 0 0 0 0 0 0 0 0 0 0 0 0 0 0 0 0 0 0 0 0 0 0 0 0 0 0 0 0 0 0 0 0 0 0 0 0 0 0 0 0 0 0 0 0 0 255 255 255 255 255 255 0 0 0 0 0 0 0 0 0 0 0 0 255 255 255 255 255 255 0 0 0 0 0 0 0 0 0 0 0 0 0 0 0 0 0 0 255 255 255 255 255 255 0 0 0 0 0 0 0 0 0 0 0 0 0 0 0 0 0 0 0 0 0 0 0 0 0 0 0 0 0 0 0 0 0 0 0 0 0 0 0 0 0 0 0 0 0 0 0 0 0 0 0 0 0 0 0 0 0 0 0 0 0 0 0 0 0 0 0 0 0 0 0 0 0 0 0 0 0 0 0 0 0 0 0 0 0 0 0 0 0 0 0 0 0 0 0 0 0 0 0 0 0 0 0 0 0 0 0 0 0 0 0 0 0 0 0 0 0 0 0 0 0 0 0 0 0 0 0 0 0 0 0 0 0 0 0 0 0 0 0 0 0 0 0 0 0 0 0 0 0 0 0 0 0 0 0 0 0 0 0 0 0 0 0 0 0 0 0 0 0 0 0 0 0 0 0 0 0 0 0 0 0 0 0 0 0 0 0 0 0 0 0 0 0 0 0 0 0 0 0 0 0 0 0 0 0 0 0 0 0 0 0 0 0 0 0 0 0 0 0 0 0 0 0 0 0 0 0 0 0 0 0 0 0 0 0 0 0 0 0 0 0 0 0 0 0 0 0 0 0 0 0 0 0 0 0 0 0 0 0 0 0 0 0 0 0 0 0 0 0 0 0 0 0 0 0 0 0 0 0 0 0 0 0 0 0 0 0 0 0 0 0 0 0 0 0 0 0 0 0 0 0 0 0 0 0 0 0 0 0 0 0 0 0 0 0 0 0 0 0 0 0 0 0 0 0 0 0 0 0 0 0 0 0 0 0 0 0 0 0 0 0 0 0 0 0 0 0 0 0 0 0 0 0 0 0 0 0 0 0 0 0 0 0 0 0 0 0 0 0 0 0 0 0 0 0 0 0 0 0 0 0 0 0 0 0 0 0 0 0 0 0 0 0 0 0 0 0 0 0 0 0 0 0 0 0 0 0 0 0 0 0 0 0 0 0 0 0 0 0 0 0 0 0 0 0 0 0 0 0 0 0 0 0 0 0 0 0 0 0 0 0 0 0 0 0 0 0 0 0 0 0 0 0 0 0 0 0 0 0 0 0 0 0 0 0 0 0 0 0 0 0 0 0 0 0 0 0 0 0 0 0 0 0 0 0 0 0 0 0 0 0 0 0 0 0 0 0 0 0 0 0 0 0 0 0 0 0 0 0 0 0 0 0 0 0 0 0 0 0 0 0 0 0 0 0 0 0 0 0 0 0 0 0 0 0 0 0 0 0 0 0 0 0 0 0 0 0 0 0 0 0 0 0 0 0 0 0 0 
0 0 0 0 0 0 0 0 0 0 0 0 0 0 0 0 0 0 0 0 0 0 0 0 0 0 0 0 0 0 255 255 255 255 255 255 0 0 0 0 0 0 0 0 0 0 0 0 0 0 0 0 0 0 0 0 0 0 0 0 0 0 0 0 0 0 255 255 255 255 255 255 0 0 0 0 0 0 0 0 0 0 0 0 0 0 0 0 0 0 0 0 0 0 0 0 0 0 0 0 0 0 255 255 255 255 255 255 0 0 0 0 0 0 0 0 0 0 0 0 0 0 0 0 0 0 255 255 255 255 255 255 0 0 0 0 0 0 255 255 255 255 255 255 0 0 0 0 0 0 0 0 0 0 0 0 0 0 0 0 0 0 255 255 255 255 255 255 0 0 0 0 0 0 0 0 0 0 0 0 255 255 255 255 255 255 255 255 255 255 255 255 0 0 0 0 0 0 0 0 0 0 0 0 0 0 0 0 0 0 0 0 0 0 0 0 0 0 0 0 0 0 0 0 0 0 0 0 0 0 0 0 0 0 0 0 0 0 0 0 0 0 0 0 0 0 0 0 0 0 0 0 0 0 0 0 0 0 0 0 0 0 0 0 0 0 0 0 0 0 255 255 255 255 255 255 0 0 0 0 0 0 255 255 255 255 255 255 0 0 0 0 0 0 0 0 0 0 0 0 0 0 0 0 0 0 255 255 255 255 255 255 0 0 0 0 0 0 0 0 0 0 0 0 0 0 0 0 0 0 0 0 0 0 0 0 0 0 0 0 0 0 0 0 0 0 0 0 0 0 0 0 0 0 255 255 255 255 255 255 255 255 255 255 255 255 255 255 255 255 255 255 255 255 255 255 255 255 255 255 255 255 255 255 0 0 0 0 0 0 255 255 255 255 255 255 0 0 0 0 0 0 255 255 255 255 255 255 0 0 0 0 0 0 0 0 0 0 0 0 0 0 0 0 0 0 0 0 0 0 0 0 0 0 0 0 0 0 0 0 0 0 0 0 0 0 0 0 0 0 0 0 0 0 0 0 0 0 0 0 0 0 0 0 0 0 0 0 0 0 0 0 0 0 0 0 0 0 0 0 0 0 0 0 0 0 0 0 0 0 0 0 0 0 0 0 0 0 0 0 0 0 0 0 0 0 0 0 0 0 0 0 0 0 0 0 0 0 0 0 0 0 0 0 0 0 0 0 0 0 0 0 0 0 0 0 0 0 0 0 0 0 0 0 0 0 0 0 0 0 0 0 0 0 0 0 0 0 0 0 0 0 0 0 0 0 0 0 0 0 0 0 0 0 0 0 0 0 0 0 0 0 0 0 0 0 0 0 0 0 0 0 0 0 0 0 0 0 0 0 0 0 0 0 0 0 0 0 0 0 0 0 0 0 0 0 0 0 0 0 0 0 0 0 0 0 0 0 0 0 0 0 0 0 0 0 0 0 0 0 0 0 0 0 0 0 0 0 0 0 0 0 0 0 0 0 0 0 0 0 0 0 0 0 0 0 0 0 0 0 0 0 0 0 0 0 0 0 0 0 0 0 0 0 0 0 0 0 0 0 0 0 0 0 0 0 0 0 0 0 0 0 0 0 0 0 0 0 0 0 0 0 0 0 0 0 0 0 0 0 0 0 0 0 0 0 0 0 0 0 0 0 0 0 0 0 0 0 0 0 0 0 0 0 0 0 0 0 0 0 0 0 0 0 0 0 0 0 0 0 0 0 0 0 0 0 0 0 0 0 0 0 0 0 0 0 0 0 0 0 0 0 0 0 0 0 0 0 0 0 0 0 0 0 0 0 0 0 0 0 0 0 0 0 0 0 0 0 0 0 0 0 0 0 0 0 0 0 0 0 0 0 0 0 0 0 0 0 0 0 0 0 0 0 0 0 0 0 0 0 0 0 0 0 0 0 0 0 0 0 0 0 0 0 0 0 0 0 0 0 0 0 0 0 0 0 0 0 0 0 0 0 0 0 0 0 0 0 0 0 0 0 0 0 0 0 0 0 0 0 0 0 0 0 0 0 0 0 0 0 0 0 0 0 0 0 0 0 0 0 0 0 0 0 0 0 0 0 0 0 0 0 0 0 0 0 0 0 0 0 0 0 0 0 0 0 0 0 0 0 0 0 0 0 0 0 0 0 0 0 0 0 0 0 0 0 0 0 0 0 
0 0 0 0 0 0 0 0 0 0 0 0 0 0 0 0 0 0 0 0 0 0 0 0 0 0 0 0 0 0 255 255 255 255 255 255 0 0 0 0 0 0 0 0 0 0 0 0 0 0 0 0 0 0 0 0 0 0 0 0 0 0 0 0 0 0 255 255 255 255 255 255 0 0 0 0 0 0 0 0 0 0 0 0 0 0 0 0 0 0 0 0 0 0 0 0 0 0 0 0 0 0 255 255 255 255 255 255 0 0 0 0 0 0 0 0 0 0 0 0 0 0 0 0 0 0 255 255 255 255 255 255 0 0 0 0 0 0 255 255 255 255 255 255 0 0 0 0 0 0 0 0 0 0 0 0 0 0 0 0 0 0 255 255 255 255 255 255 0 0 0 0 0 0 0 0 0 0 0 0 255 255 255 255 255 255 255 255 255 255 255 255 0 0 0 0 0 0 0 0 0 0 0 0 0 0 0 0 0 0 0 0 0 0 0 0 0 0 0 0 0 0 0 0 0 0 0 0 0 0 0 0 0 0 0 0 0 0 0 0 0 0 0 0 0 0 0 0 0 0 0 0 0 0 0 0 0 0 0 0 0 0 0 0 0 0 0 0 0 0 255 255 255 255 255 255 0 0 0 0 0 0 255 255 255 255 255 255 0 0 0 0 0 0 0 0 0 0 0 0 0 0 0 0 0 0 255 255 255 255 255 255 0 0 0 0 0 0 0 0 0 0 0 0 0 0 0 0 0 0 0 0 0 0 0 0 0 0 0 0 0 0 0 0 0 0 0 0 0 0 0 0 0 0 255 255 255 255 255 255 255 255 255 255 255 255 255 255 255 255 255 255 255 255 255 255 255 255 255 255 255 255 255 255 0 0 0 0 0 0 255 255 255 255 255 255 0 0 0 0 0 0 255 255 255 255 255 255 0 0 0 0 0 0 0 0 0 0 0 0 0 0 0 0 0 0 0 0 0 0 0 0 0 0 0 0 0 0 0 0 0 0 0 0 0 0 0 0 0 0 0 0 0 0 0 0 0 0 0 0 0 0 0 0 0 0 0 0 0 0 0 0 0 0 0 0 0 0 0 0 0 0 0 0 0 0 0 0 0 0 0 0 0 0 0 0 0 0 0 0 0 0 0 0 0 0 0 0 0 0 0 0 0 0 0 0 0 0 0 0 0 0 0 0 0 0 0 0 0 0 0 0 0 0 0 0 0 0 0 0 0 0 0 0 0 0 0 0 0 0 0 0 0 0 0 0 0 0 0 0 0 0 0 0 0 0 0 0 0 0 0 0 0 0 0 0 0 0 0 0 0 0 0 0 0 0 0 0 0 0 0 0 0 0 0 0 0 0 0 0 0 0 0 0 0 0 0 0 0 0 0 0 0 0 0 0 0 0 0 0 0 0 0 0 0 0 0 0 0 0 0 0 0 0 0 0 0 0 0 0 0 0 0 0 0 0 0 0 0 0 0 0 0 0 0 0 0 0 0 0 0 0 0 0 0 0 0 0 0 0 0 0 0 0 0 0 0 0 0 0 0 0 0 0 0 0 0 0 0 0 0 0 0 0 0 0 0 0 0 0 0 0 0 0 0 0 0 0 0 0 0 0 0 0 0 0 0 0 0 0 0 0 0 0 0 0 0 0 0 0 0 0 0 0 0 0 0 0 0 0 0 0 0 0 0 0 0 0 0 0 0 0 0 0 0 0 0 0 0 0 0 0 0 0 0 0 0 0 0 0 0 0 0 0 0 0 0 0 0 0 0 0 0 0 0 0 0 0 0 0 0 0 0 0 0 0 0 0 0 0 0 0 0 0 0 0 0 0 0 0 0 0 0 0 0 0 0 0 0 0 0 0 0 0 0 0 0 0 0 0 0 0 0 0 0 0 0 0 0 0 0 0 0 0 0 0 0 0 0 0 0 0 0 0 0 0 0 0 0 0 0 0 0 0 0 0 0 0 0 0 0 0 0 0 0 0 0 0 0 0 0 0 0 0 0 0 0 0 0 0 0 0 0 0 0 0 0 0 0 0 0 0 0 0 0 0 0 0 0 0 0 0 0 0 0 0 0 0 0 0 0 0 0 0 0 0 0 0 0 0 0 0 0 0 0 0 0 0 0 0 0 0 0 0 0 0 0 0 0 0 0 0 0 0 0 0 0 0 0 0 
0 0 0 0 0 0 0 0 0 0 0 0 0 0 0 0 0 0 0 0 0 0 0 0 0 0 0 0 0 0 255 255 255 255 255 255 0 0 0 0 0 0 0 0 0 0 0 0 0 0 0 0 0 0 0 0 0 0 0 0 0 0 0 0 0 0 255 255 255 255 255 255 0 0 0 0 0 0 0 0 0 0 0 0 0 0 0 0 0 0 0 0 0 0 0 0 0 0 0 0 0 0 255 255 255 255 255 255 0 0 0 0 0 0 0 0 0 0 0 0 0 0 0 0 0 0 255 255 255 255 255 255 0 0 0 0 0 0 255 255 255 255 255 255 0 0 0 0 0 0 0 0 0 0 0 0 0 0 0 0 0 0 255 255 255 255 255 255 0 0 0 0 0 0 0 0 0 0 0 0 255 255 255 255 255 255 255 255 255 255 255 255 0 0 0 0 0 0 0 0 0 0 0 0 0 0 0 0 0 0 0 0 0 0 0 0 0 0 0 0 0 0 0 0 0 0 0 0 0 0 0 0 0 0 0 0 0 0 0 0 0 0 0 0 0 0 0 0 0 0 0 0 0 0 0 0 0 0 0 0 0 0 0 0 255 255 255 255 255 255 0 0 0 0 0 0 0 0 0 0 0 0 255 255 255 255 255 255 0 0 0 0 0 0 0 0 0 0 0 0 0 0 0 0 0 0 255 255 255 255 255 255 0 0 0 0 0 0 0 0 0 0 0 0 255 255 255 255 255 255 255 255 255 255 255 255 0 0 0 0 0 0 0 0 0 0 0 0 0 0 0 0 0 0 0 0 0 0 0 0 0 0 0 0 0 0 0 0 0 0 0 0 255 255 255 255 255 255 0 0 0 0 0 0 0 0 0 0 0 0 0 0 0 0 0 0 0 0 0 0 0 0 0 0 0 0 0 0 0 0 0 0 0 0 0 0 0 0 0 0 0 0 0 0 0 0 0 0 0 0 0 0 0 0 0 0 0 0 0 0 0 0 0 0 0 0 0 0 0 0 0 0 0 0 0 0 0 0 0 0 0 0 0 0 0 0 0 0 0 0 0 0 0 0 0 0 0 0 0 0 0 0 0 0 0 0 0 0 0 0 0 0 0 0 0 0 0 0 0 0 0 0 0 0 0 0 0 0 0 0 0 0 0 0 0 0 0 0 0 0 0 0 0 0 0 0 0 0 0 0 0 0 0 0 0 0 0 0 0 0 0 0 0 0 0 0 0 0 0 0 0 0 0 0 0 0 0 0 0 0 0 0 0 0 0 0 0 0 0 0 0 0 0 0 0 0 0 0 0 0 0 0 0 0 0 0 0 0 0 0 0 0 0 0 0 0 0 0 0 0 0 0 0 0 0 0 0 0 0 0 0 0 0 0 0 0 0 0 0 0 0 0 0 0 0 0 0 0 0 0 0 0 0 0 0 0 0 0 0 0 0 0 0 0 0 0 0 0 0 0 0 0 0 0 0 0 0 0 0 0 0 0 0 0 0 0 0 0 0 0 0 0 0 0 0 0 0 0 0 0 0 0 0 0 0 0 0 0 0 0 0 0 0 0 0 0 0 0 0 0 0 0 0 0 0 0 0 0 0 0 0 0 0 0 0 0 0 0 0 0 0 0 0 0 0 0 0 0 0 0 0 0 0 0 0 0 0 0 0 0 0 0 0 0 0 0 0 0 0 0 0 0 0 0 0 0 0 0 0 0 0 0 0 0 0 0 0 0 0 0 0 0 0 0 0 0 0 0 0 0 0 0 0 0 0 0 0 0 0 0 0 0 0 0 0 0 0 0 0 0 0 0 0 0 0 0 0 0 0 0 0 0 0 0 0 0 0 0 0 0 0 0 0 0 0 0 0 0 0 0 0 0 0 0 0 0 0 0 0 0 0 0 0 0 0 0 0 0 0 0 0 0 0 0 0 0 0 0 0 0 0 0 0 0 0 0 0 0 0 0 0 0 0 0 0 0 0 0 0 0 0 0 0 0 0 0 0 0 0 0 0 0 0 0 0 0 0 0 0 0 0 0 0 0 0 0 0 0 0 0 0 0 0 0 0 0 0 0 0 0 0 0 0 0 0 0 0 0 0 0 0 0 0 0 0 0 0 0 0 0 0 0 0 0 0 0 0 0 0 0 0 0 0 0 0 0 0 0 0 0 
0 0 0 0 0 0 0 0 0 0 0 0 0 0 0 0 0 0 0 0 0 0 0 0 0 0 0 0 0 0 255 255 255 255 255 255 0 0 0 0 0 0 0 0 0 0 0 0 0 0 0 0 0 0 0 0 0 0 0 0 0 0 0 0 0 0 255 255 255 255 255 255 0 0 0 0 0 0 0 0 0 0 0 0 0 0 0 0 0 0 0 0 0 0 0 0 0 0 0 0 0 0 255 255 255 255 255 255 0 0 0 0 0 0 0 0 0 0 0 0 0 0 0 0 0 0 255 255 255 255 255 255 0 0 0 0 0 0 255 255 255 255 255 255 0 0 0 0 0 0 0 0 0 0 0 0 0 0 0 0 0 0 255 255 255 255 255 255 0 0 0 0 0 0 0 0 0 0 0 0 255 255 255 255 255 255 255 255 255 255 255 255 0 0 0 0 0 0 0 0 0 0 0 0 0 0 0 0 0 0 0 0 0 0 0 0 0 0 0 0 0 0 0 0 0 0 0 0 0 0 0 0 0 0 0 0 0 0 0 0 0 0 0 0 0 0 0 0 0 0 0 0 0 0 0 0 0 0 0 0 0 0 0 0 255 255 255 255 255 255 0 0 0 0 0 0 0 0 0 0 0 0 255 255 255 255 255 255 0 0 0 0 0 0 0 0 0 0 0 0 0 0 0 0 0 0 255 255 255 255 255 255 0 0 0 0 0 0 0 0 0 0 0 0 255 255 255 255 255 255 255 255 255 255 255 255 0 0 0 0 0 0 0 0 0 0 0 0 0 0 0 0 0 0 0 0 0 0 0 0 0 0 0 0 0 0 0 0 0 0 0 0 255 255 255 255 255 255 0 0 0 0 0 0 0 0 0 0 0 0 0 0 0 0 0 0 0 0 0 0 0 0 0 0 0 0 0 0 0 0 0 0 0 0 0 0 0 0 0 0 0 0 0 0 0 0 0 0 0 0 0 0 0 0 0 0 0 0 0 0 0 0 0 0 0 0 0 0 0 0 0 0 0 0 0 0 0 0 0 0 0 0 0 0 0 0 0 0 0 0 0 0 0 0 0 0 0 0 0 0 0 0 0 0 0 0 0 0 0 0 0 0 0 0 0 0 0 0 0 0 0 0 0 0 0 0 0 0 0 0 0 0 0 0 0 0 0 0 0 0 0 0 0 0 0 0 0 0 0 0 0 0 0 0 0 0 0 0 0 0 0 0 0 0 0 0 0 0 0 0 0 0 0 0 0 0 0 0 0 0 0 0 0 0 0 0 0 0 0 0 0 0 0 0 0 0 0 0 0 0 0 0 0 0 0 0 0 0 0 0 0 0 0 0 0 0 0 0 0 0 0 0 0 0 0 0 0 0 0 0 0 0 0 0 0 0 0 0 0 0 0 0 0 0 0 0 0 0 0 0 0 0 0 0 0 0 0 0 0 0 0 0 0 0 0 0 0 0 0 0 0 0 0 0 0 0 0 0 0 0 0 0 0 0 0 0 0 0 0 0 0 0 0 0 0 0 0 0 0 0 0 0 0 0 0 0 0 0 0 0 0 0 0 0 0 0 0 0 0 0 0 0 0 0 0 0 0 0 0 0 0 0 0 0 0 0 0 0 0 0 0 0 0 0 0 0 0 0 0 0 0 0 0 0 0 0 0 0 0 0 0 0 0 0 0 0 0 0 0 0 0 0 0 0 0 0 0 0 0 0 0 0 0 0 0 0 0 0 0 0 0 0 0 0 0 0 0 0 0 0 0 0 0 0 0 0 0 0 0 0 0 0 0 0 0 0 0 0 0 0 0 0 0 0 0 0 0 0 0 0 0 0 0 0 0 0 0 0 0 0 0 0 0 0 0 0 0 0 0 0 0 0 0 0 0 0 0 0 0 0 0 0 0 0 0 0 0 0 0 0 0 0 0 0 0 0 0 0 0 0 0 0 0 0 0 0 0 0 0 0 0 0 0 0 0 0 0 0 0 0 0 0 0 0 0 0 0 0 0 0 0 0 0 0 0 0 0 0 0 0 0 0 0 0 0 0 0 0 0 0 0 0 0 0 0 0 0 0 0 0 0 0 0 0 0 0 0 0 0 0 0 0 0 0 0 0 0 0 0 0 0 0 0 0 0 0 0 0 0 0 0 0 0 0 0 0 0 0 0 0 
0 0 0 0 0 0 0 0 0 0 0 0 0 0 0 0 0 0 0 0 0 0 0 0 0 0 0 0 0 0 255 255 255 255 255 255 0 0 0 0 0 0 0 0 0 0 0 0 0 0 0 0 0 0 0 0 0 0 0 0 0 0 0 0 0 0 255 255 255 255 255 255 0 0 0 0 0 0 0 0 0 0 0 0 0 0 0 0 0 0 0 0 0 0 0 0 0 0 0 0 0 0 0 0 0 0 0 0 255 255 255 255 255 255 255 255 255 255 255 255 255 255 255 255 255 255 0 0 0 0 0 0 0 0 0 0 0 0 255 255 255 255 255 255 255 255 255 255 255 255 255 255 255 255 255 255 255 255 255 255 255 255 0 0 0 0 0 0 0 0 0 0 0 0 0 0 0 0 0 0 0 0 0 0 0 0 0 0 0 0 0 0 0 0 0 0 0 0 0 0 0 0 0 0 0 0 0 0 0 0 0 0 0 0 0 0 0 0 0 0 0 0 0 0 0 0 0 0 0 0 0 0 0 0 0 0 0 0 0 0 0 0 0 0 0 0 0 0 0 0 0 0 255 255 255 255 255 255 255 255 255 255 255 255 0 0 0 0 0 0 0 0 0 0 0 0 0 0 0 0 0 0 0 0 0 0 0 0 255 255 255 255 255 255 255 255 255 255 255 255 255 255 255 255 255 255 0 0 0 0 0 0 0 0 0 0 0 0 0 0 0 0 0 0 255 255 255 255 255 255 255 255 255 255 255 255 0 0 0 0 0 0 0 0 0 0 0 0 0 0 0 0 0 0 0 0 0 0 0 0 0 0 0 0 0 0 0 0 0 0 0 0 255 255 255 255 255 255 0 0 0 0 0 0 0 0 0 0 0 0 0 0 0 0 0 0 0 0 0 0 0 0 0 0 0 0 0 0 0 0 0 0 0 0 0 0 0 0 0 0 0 0 0 0 0 0 0 0 0 0 0 0 0 0 0 0 0 0 0 0 0 0 0 0 0 0 0 0 0 0 0 0 0 0 0 0 0 0 0 0 0 0 0 0 0 0 0 0 0 0 0 0 0 0 0 0 0 0 0 0 0 0 0 0 0 0 0 0 0 0 0 0 0 0 0 0 0 0 0 0 0 0 0 0 0 0 0 0 0 0 0 0 0 0 0 0 0 0 0 0 0 0 0 0 0 0 0 0 0 0 0 0 0 0 0 0 0 0 0 0 0 0 0 0 0 0 0 0 0 0 0 0 0 0 0 0 0 0 0 0 0 0 0 0 0 0 0 0 0 0 0 0 0 0 0 0 0 0 0 0 0 0 0 0 0 0 0 0 0 0 0 0 0 0 0 0 0 0 0 0 0 0 0 0 0 0 0 0 0 0 0 0 0 0 0 0 0 0 0 0 0 0 0 0 0 0 0 0 0 0 0 0 0 0 0 0 0 0 0 0 0 0 0 0 0 0 0 0 0 0 0 0 0 0 0 0 0 0 0 0 0 0 0 0 0 0 0 0 0 0 0 0 0 0 0 0 0 0 0 0 0 0 0 0 0 0 0 0 0 0 0 0 0 0 0 0 0 0 0 0 0 0 0 0 0 0 0 0 0 0 0 0 0 0 0 0 0 0 0 0 0 0 0 0 0 0 0 0 0 0 0 0 0 0 0 0 0 0 0 0 0 0 0 0 0 0 0 0 0 0 0 0 0 0 0 0 0 0 0 0 0 0 0 0 0 0 0 0 0 0 0 0 0 0 0 0 0 0 0 0 0 0 0 0 0 0 0 0 0 0 0 0 0 0 0 0 0 0 0 0 0 0 0 0 0 0 0 0 0 0 0 0 0 0 0 0 0 0 0 0 0 0 0 0 0 0 0 0 0 0 0 0 0 0 0 0 0 0 0 0 0 0 0 0 0 0 0 0 0 0 0 0 0 0 0 0 0 0 0 0 0 0 0 0 0 0 0 0 0 0 0 0 0 0 0 0 0 0 0 0 0 0 0 0 0 0 0 0 0 0 0 0 0 0 0 0 0 0 0 0 0 0 0 0 0 0 0 0 0 0 0 0 0 0 0 0 0 0 0 0 0 0 0 0 0 0 0 0 0 0 0 0 0 0 0 0 0 0 0 0 0 0 0 0 0 0 0 0 0 0 0 0 0 0 0 0 0 0 0 0 
0 0 0 0 0 0 0 0 0 0 0 0 0 0 0 0 0 0 0 0 0 0 0 0 0 0 0 0 0 0 255 255 255 255 255 255 0 0 0 0 0 0 0 0 0 0 0 0 0 0 0 0 0 0 0 0 0 0 0 0 0 0 0 0 0 0 255 255 255 255 255 255 0 0 0 0 0 0 0 0 0 0 0 0 0 0 0 0 0 0 0 0 0 0 0 0 0 0 0 0 0 0 0 0 0 0 0 0 255 255 255 255 255 255 255 255 255 255 255 255 255 255 255 255 255 255 0 0 0 0 0 0 0 0 0 0 0 0 255 255 255 255 255 255 255 255 255 255 255 255 255 255 255 255 255 255 255 255 255 255 255 255 0 0 0 0 0 0 0 0 0 0 0 0 0 0 0 0 0 0 0 0 0 0 0 0 0 0 0 0 0 0 0 0 0 0 0 0 0 0 0 0 0 0 0 0 0 0 0 0 0 0 0 0 0 0 0 0 0 0 0 0 0 0 0 0 0 0 0 0 0 0 0 0 0 0 0 0 0 0 0 0 0 0 0 0 0 0 0 0 0 0 255 255 255 255 255 255 255 255 255 255 255 255 0 0 0 0 0 0 0 0 0 0 0 0 0 0 0 0 0 0 0 0 0 0 0 0 255 255 255 255 255 255 255 255 255 255 255 255 255 255 255 255 255 255 0 0 0 0 0 0 0 0 0 0 0 0 0 0 0 0 0 0 255 255 255 255 255 255 255 255 255 255 255 255 0 0 0 0 0 0 0 0 0 0 0 0 0 0 0 0 0 0 0 0 0 0 0 0 0 0 0 0 0 0 0 0 0 0 0 0 255 255 255 255 255 255 0 0 0 0 0 0 0 0 0 0 0 0 0 0 0 0 0 0 0 0 0 0 0 0 0 0 0 0 0 0 0 0 0 0 0 0 0 0 0 0 0 0 0 0 0 0 0 0 0 0 0 0 0 0 0 0 0 0 0 0 0 0 0 0 0 0 0 0 0 0 0 0 0 0 0 0 0 0 0 0 0 0 0 0 0 0 0 0 0 0 0 0 0 0 0 0 0 0 0 0 0 0 0 0 0 0 0 0 0 0 0 0 0 0 0 0 0 0 0 0 0 0 0 0 0 0 0 0 0 0 0 0 0 0 0 0 0 0 0 0 0 0 0 0 0 0 0 0 0 0 0 0 0 0 0 0 0 0 0 0 0 0 0 0 0 0 0 0 0 0 0 0 0 0 0 0 0 0 0 0 0 0 0 0 0 0 0 0 0 0 0 0 0 0 0 0 0 0 0 0 0 0 0 0 0 0 0 0 0 0 0 0 0 0 0 0 0 0 0 0 0 0 0 0 0 0 0 0 0 0 0 0 0 0 0 0 0 0 0 0 0 0 0 0 0 0 0 0 0 0 0 0 0 0 0 0 0 0 0 0 0 0 0 0 0 0 0 0 0 0 0 0 0 0 0 0 0 0 0 0 0 0 0 0 0 0 0 0 0 0 0 0 0 0 0 0 0 0 0 0 0 0 0 0 0 0 0 0 0 0 0 0 0 0 0 0 0 0 0 0 0 0 0 0 0 0 0 0 0 0 0 0 0 0 0 0 0 0 0 0 0 0 0 0 0 0 0 0 0 0 0 0 0 0 0 0 0 0 0 0 0 0 0 0 0 0 0 0 0 0 0 0 0 0 0 0 0 0 0 0 0 0 0 0 0 0 0 0 0 0 0 0 0 0 0 0 0 0 0 0 0 0 0 0 0 0 0 0 0 0 0 0 0 0 0 0 0 0 0 0 0 0 0 0 0 0 0 0 0 0 0 0 0 0 0 0 0 0 0 0 0 0 0 0 0 0 0 0 0 0 0 0 0 0 0 0 0 0 0 0 0 0 0 0 0 0 0 0 0 0 0 0 0 0 0 0 0 0 0 0 0 0 0 0 0 0 0 0 0 0 0 0 0 0 0 0 0 0 0 0 0 0 0 0 0 0 0 0 0 0 0 0 0 0 0 0 0 0 0 0 0 0 0 0 0 0 0 0 0 0 0 0 0 0 0 0 0 0 0 0 0 0 0 0 0 0 0 0 0 0 0 0 0 0 0 0 0 0 0 0 0 0 0 0 0 0 0 0 0 0 0 0 0 0 0 0 0 0 0 0 0 0 
0 0 0 0 0 0 0 0 0 0 0 0 0 0 0 0 0 0 0 0 0 0 0 0 0 0 0 0 0 0 0 0 0 0 0 0 0 0 0 0 0 0 0 0 0 0 0 0 0 0 0 0 0 0 0 0 0 0 0 0 0 0 0 0 0 0 0 0 0 0 0 0 0 0 0 0 0 0 0 0 0 0 0 0 0 0 0 0 0 0 0 0 0 0 0 0 0 0 0 0 0 0 0 0 0 0 0 0 0 0 0 0 0 0 0 0 0 0 0 0 0 0 0 0 0 0 0 0 0 0 0 0 0 0 0 0 0 0 0 0 0 0 0 0 0 0 0 0 0 0 0 0 0 0 0 0 0 0 0 0 0 0 0 0 0 0 0 0 0 0 0 0 0 0 0 0 0 0 0 0 0 0 0 0 0 0 0 0 0 0 0 0 0 0 0 0 0 0 0 0 0 0 0 0 0 0 0 0 0 0 0 0 0 0 0 0 0 0 0 0 0 0 0 0 0 0 0 0 0 0 0 0 0 0 0 0 0 0 0 0 0 0 0 0 0 0 0 0 0 0 0 0 0 0 0 0 0 0 0 0 0 0 0 0 0 0 0 0 0 0 0 0 0 0 0 0 0 0 0 0 0 0 0 0 0 0 0 0 0 0 0 0 0 0 0 0 0 0 0 0 0 0 0 0 0 0 0 0 0 0 0 0 0 0 0 0 0 0 0 0 0 0 0 0 0 0 0 0 0 0 0 0 0 0 0 0 0 0 0 0 0 0 0 0 0 0 0 0 0 0 0 0 0 0 0 0 0 0 0 0 0 0 0 0 0 0 0 0 0 0 0 0 0 0 0 0 0 0 0 0 0 0 0 0 0 0 0 0 0 0 0 0 0 0 0 0 0 0 0 0 0 0 0 0 0 0 0 0 0 0 0 0 0 0 0 0 0 0 0 0 0 0 0 0 0 0 0 0 0 0 0 0 0 0 0 0 0 0 0 0 0 0 0 0 0 0 0 0 0 0 0 0 0 0 0 0 0 0 0 0 0 0 0 0 0 0 0 0 0 0 0 0 0 0 0 0 0 0 0 0 0 0 0 0 0 0 0 0 0 0 0 0 0 0 0 0 0 0 0 0 0 0 0 0 0 0 0 0 0 0 0 0 0 0 0 0 0 0 0 0 0 0 0 0 0 0 0 0 0 0 0 0 0 0 0 0 0 0 0 0 0 0 0 0 0 0 0 0 0 0 0 0 0 0 0 0 0 0 0 0 0 0 0 0 0 0 0 0 0 0 0 0 0 0 0 0 0 0 0 0 0 0 0 0 0 0 0 0 0 0 0 0 0 0 0 0 0 0 0 0 0 0 0 0 0 0 0 0 0 0 0 0 0 0 0 0 0 0 0 0 0 0 0 0 0 0 0 0 0 0 0 0 0 0 0 0 0 0 0 0 0 0 0 0 0 0 0 0 0 0 0 0 0 0 0 0 0 0 0 0 0 0 0 0 0 0 0 0 0 0 0 0 0 0 0 0 0 0 0 0 0 0 0 0 0 0 0 0 0 0 0 0 0 0 0 0 0 0 0 0 0 0 0 0 0 0 0 0 0 0 0 0 0 0 0 0 0 0 0 0 0 0 0 0 0 0 0 0 0 0 0 0 0 0 0 0 0 0 0 0 0 0 0 0 0 0 0 0 0 0 0 0 0 0 0 0 0 0 0 0 0 0 0 0 0 0 0 0 0 0 0 0 0 0 0 0 0 0 0 0 0 0 0 0 0 0 0 0 0 0 0 0 0 0 0 0 0 0 0 0 0 0 0 0 0 0 0 0 0 0 0 0 0 0 0 0 0 0 0 0 0 0 0 0 0 0 0 0 0 0 0 0 0 0 0 0 0 0 0 0 0 0 0 0 0 0 0 0 0 0 0 0 0 0 0 0 0 0 0 0 0 0 0 0 0 0 0 0 0 0 0 0 0 0 0 0 0 0 0 0 0 0 0 0 0 0 0 0 0 0 0 0 0 0 0 0 0 0 0 0 0 0 0 0 0 0 0 0 0 0 0 0 0 0 0 0 0 0 0 0 0 0 0 0 0 0 0 0 0 0 0 0 0 0 0 0 0 0 0 0 0 0 0 0 0 0 0 0 0 0 0 0 0 0 0 0 0 0 0 0 
0 0 0 0 0 0 0 0 0 0 0 0 0 0 0 0 0 0 0 0 0 0 0 0 0 0 0 0 0 0 0 0 0 0 0 0 0 0 0 0 0 0 0 0 0 0 0 0 0 0 0 0 0 0 0 0 0 0 0 0 0 0 0 0 0 0 0 0 0 0 0 0 0 0 0 0 0 0 0 0 0 0 0 0 0 0 0 0 0 0 0 0 0 0 0 0 0 0 0 0 0 0 0 0 0 0 0 0 0 0 0 0 0 0 0 0 0 0 0 0 0 0 0 0 0 0 0 0 0 0 0 0 0 0 0 0 0 0 0 0 0 0 0 0 0 0 0 0 0 0 0 0 0 0 0 0 0 0 0 0 0 0 0 0 0 0 0 0 0 0 0 0 0 0 0 0 0 0 0 0 0 0 0 0 0 0 0 0 0 0 0 0 0 0 0 0 0 0 0 0 0 0 0 0 0 0 0 0 0 0 0 0 0 0 0 0 0 0 0 0 0 0 0 0 0 0 0 0 0 0 0 0 0 0 0 0 0 0 0 0 0 0 0 0 0 0 0 0 0 0 0 0 0 0 0 0 0 0 0 0 0 0 0 0 0 0 0 0 0 0 0 0 0 0 0 0 0 0 0 0 0 0 0 0 0 0 0 0 0 0 0 0 0 0 0 0 0 0 0 0 0 0 0 0 0 0 0 0 0 0 0 0 0 0 0 0 0 0 0 0 0 0 0 0 0 0 0 0 0 0 0 0 0 0 0 0 0 0 0 0 0 0 0 0 0 0 0 0 0 0 0 0 0 0 0 0 0 0 0 0 0 0 0 0 0 0 0 0 0 0 0 0 0 0 0 0 0 0 0 0 0 0 0 0 0 0 0 0 0 0 0 0 0 0 0 0 0 0 0 0 0 0 0 0 0 0 0 0 0 0 0 0 0 0 0 0 0 0 0 0 0 0 0 0 0 0 0 0 0 0 0 0 0 0 0 0 0 0 0 0 0 0 0 0 0 0 0 0 0 0 0 0 0 0 0 0 0 0 0 0 0 0 0 0 0 0 0 0 0 0 0 0 0 0 0 0 0 0 0 0 0 0 0 0 0 0 0 0 0 0 0 0 0 0 0 0 0 0 0 0 0 0 0 0 0 0 0 0 0 0 0 0 0 0 0 0 0 0 0 0 0 0 0 0 0 0 0 0 0 0 0 0 0 0 0 0 0 0 0 0 0 0 0 0 0 0 0 0 0 0 0 0 0 0 0 0 0 0 0 0 0 0 0 0 0 0 0 0 0 0 0 0 0 0 0 0 0 0 0 0 0 0 0 0 0 0 0 0 0 0 0 0 0 0 0 0 0 0 0 0 0 0 0 0 0 0 0 0 0 0 0 0 0 0 0 0 0 0 0 0 0 0 0 0 0 0 0 0 0 0 0 0 0 0 0 0 0 0 0 0 0 0 0 0 0 0 0 0 0 0 0 0 0 0 0 0 0 0 0 0 0 0 0 0 0 0 0 0 0 0 0 0 0 0 0 0 0 0 0 0 0 0 0 0 0 0 0 0 0 0 0 0 0 0 0 0 0 0 0 0 0 0 0 0 0 0 0 0 0 0 0 0 0 0 0 0 0 0 0 0 0 0 0 0 0 0 0 0 0 0 0 0 0 0 0 0 0 0 0 0 0 0 0 0 0 0 0 0 0 0 0 0 0 0 0 0 0 0 0 0 0 0 0 0 0 0 0 0 0 0 0 0 0 0 0 0 0 0 0 0 0 0 0 0 0 0 0 0 0 0 0 0 0 0 0 0 0 0 0 0 0 0 0 0 0 0 0 0 0 0 0 0 0 0 0 0 0 0 0 0 0 0 0 0 0 0 0 0 0 0 0 0 0 0 0 0 0 0 0 0 0 0 0 0 0 0 0 0 0 0 0 0 0 0 0 0 0 0 0 0 0 0 0 0 0 0 0 0 0 0 0 0 0 0 0 0 0 0 0 0 0 0 0 0 0 0 0 0 0 0 0 0 0 0 0 0 0 0 0 0 0 0 0 0 0 0 0 0 0 0 0 0 0 0 0 0 0 0 0 0 0 0 0 0 0 0 0 0 0 0 0 0 0 0 0 0 0 0 0 0 0 0 0 0 0 0 0 0 0 0 0 0 0 0 0 0 0 0 0 0 
0 0 0 0 0 0 0 0 0 0 0 0 0 0 0 0 0 0 0 0 0 0 0 0 0 0 0 0 0 0 0 0 0 0 0 0 0 0 0 0 0 0 0 0 0 0 0 0 0 0 0 0 0 0 0 0 0 0 0 0 0 0 0 0 0 0 0 0 0 0 0 0 0 0 0 0 0 0 0 0 0 0 0 0 0 0 0 0 0 0 0 0 0 0 0 0 0 0 0 0 0 0 0 0 0 0 0 0 0 0 0 0 0 0 0 0 0 0 0 0 0 0 0 0 0 0 0 0 0 0 0 0 0 0 0 0 0 0 0 0 0 0 0 0 0 0 0 0 0 0 0 0 0 0 0 0 0 0 0 0 0 0 0 0 0 0 0 0 0 0 0 0 0 0 0 0 0 0 0 0 0 0 0 0 0 0 0 0 0 0 0 0 0 0 0 0 0 0 0 0 0 0 0 0 0 0 0 0 0 0 0 0 0 0 0 0 0 0 0 0 0 0 0 0 0 0 0 0 0 0 0 0 0 0 0 0 0 0 0 0 0 0 0 0 0 0 0 0 0 0 0 0 0 0 0 0 0 0 0 0 0 0 0 0 0 0 0 0 0 0 0 0 0 0 0 0 0 0 0 0 0 0 0 0 0 0 0 0 0 0 0 0 0 0 0 0 0 0 0 0 0 0 0 0 0 0 0 0 0 0 0 0 0 0 0 0 0 0 0 0 0 0 0 0 0 0 0 0 0 0 0 0 0 0 0 0 0 0 0 0 0 0 0 0 0 0 0 0 0 0 0 0 0 0 0 0 0 0 0 0 0 0 0 0 0 0 0 0 0 0 0 0 0 0 0 0 0 0 0 0 0 0 0 0 0 0 0 0 0 0 0 0 0 0 0 0 0 0 0 0 0 0 0 0 0 0 0 0 0 0 0 0 0 0 0 0 0 0 0 0 0 0 0 0 0 0 0 0 0 0 0 0 0 0 0 0 0 0 0 0 0 0 0 0 0 0 0 0 0 0 0 0 0 0 0 0 0 0 0 0 0 0 0 0 0 0 0 0 0 0 0 0 0 0 0 0 0 0 0 0 0 0 0 0 0 0 0 0 0 0 0 0 0 0 0 0 0 0 0 0 0 0 0 0 0 0 0 0 0 0 0 0 0 0 0 0 0 0 0 0 0 0 0 0 0 0 0 0 0 0 0 0 0 0 0 0 0 0 0 0 0 0 0 0 0 0 0 0 0 0 0 0 0 0 0 0 0 0 0 0 0 0 0 0 0 0 0 0 0 0 0 0 0 0 0 0 0 0 0 0 0 0 0 0 0 0 0 0 0 0 0 0 0 0 0 0 0 0 0 0 0 0 0 0 0 0 0 0 0 0 0 0 0 0 0 0 0 0 0 0 0 0 0 0 0 0 0 0 0 0 0 0 0 0 0 0 0 0 0 0 0 0 0 0 0 0 0 0 0 0 0 0 0 0 0 0 0 0 0 0 0 0 0 0 0 0 0 0 0 0 0 0 0 0 0 0 0 0 0 0 0 0 0 0 0 0 0 0 0 0 0 0 0 0 0 0 0 0 0 0 0 0 0 0 0 0 0 0 0 0 0 0 0 0 0 0 0 0 0 0 0 0 0 0 0 0 0 0 0 0 0 0 0 0 0 0 0 0 0 0 0 0 0 0 0 0 0 0 0 0 0 0 0 0 0 0 0 0 0 0 0 0 0 0 0 0 0 0 0 0 0 0 0 0 0 0 0 0 0 0 0 0 0 0 0 0 0 0 0 0 0 0 0 0 0 0 0 0 0 0 0 0 0 0 0 0 0 0 0 0 0 0 0 0 0 0 0 0 0 0 0 0 0 0 0 0 0 0 0 0 0 0 0 0 0 0 0 0 0 0 0 0 0 0 0 0 0 0 0 0 0 0 0 0 0 0 0 0 0 0 0 0 0 0 0 0 0 0 0 0 0 0 0 0 0 0 0 0 0 0 0 0 0 0 0 0 0 0 0 0 0 0 0 0 0 0 0 0 0 0 0 0 0 0 0 0 0 0 0 0 0 0 0 0 0 0 0 0 0 0 0 0 0 0 0 0 0 0 0 0 0 0 0 0 0 0 0 0 0 0 0 0 0 0 0 0 0 0 0 0 0 0 0 0 0 0 0 0 0 0 
0 0 0 0 0 0 0 0 0 0 0 0 0 0 0 0 0 0 0 0 0 0 0 0 0 0 0 0 0 0 0 0 0 0 0 0 0 0 0 0 0 0 0 0 0 0 0 0 0 0 0 0 0 0 0 0 0 0 0 0 0 0 0 0 0 0 0 0 0 0 0 0 0 0 0 0 0 0 0 0 0 0 0 0 0 0 0 0 0 0 0 0 0 0 0 0 0 0 0 0 0 0 0 0 0 0 0 0 0 0 0 0 0 0 0 0 0 0 0 0 0 0 0 0 0 0 0 0 0 0 0 0 0 0 0 0 0 0 0 0 0 0 0 0 0 0 0 0 0 0 0 0 0 0 0 0 0 0 0 0 0 0 0 0 0 0 0 0 0 0 0 0 0 0 0 0 0 0 0 0 0 0 0 0 0 0 0 0 0 0 0 0 0 0 0 0 0 0 0 0 0 0 0 0 0 0 0 0 0 0 0 0 0 0 0 0 0 0 0 0 0 0 0 0 0 0 0 0 0 0 0 0 0 0 0 0 0 0 0 0 0 0 0 0 0 0 0 0 0 0 0 0 0 0 0 0 0 0 0 0 0 0 0 0 0 0 0 0 0 0 0 0 0 0 0 0 0 0 0 0 0 0 0 0 0 0 0 0 0 0 0 0 0 0 0 0 0 0 0 0 0 0 0 0 0 0 0 0 0 0 0 0 0 0 0 0 0 0 0 0 0 0 0 0 0 0 0 0 0 0 0 0 0 0 0 0 0 0 0 0 0 0 0 0 0 0 0 0 0 0 0 0 0 0 0 0 0 0 0 0 0 0 0 0 0 0 0 0 0 0 0 0 0 0 0 0 0 0 0 0 0 0 0 0 0 0 0 0 0 0 0 0 0 0 0 0 0 0 0 0 0 0 0 0 0 0 0 0 0 0 0 0 0 0 0 0 0 0 0 0 0 0 0 0 0 0 0 0 0 0 0 0 0 0 0 0 0 0 0 0 0 0 0 0 0 0 0 0 0 0 0 0 0 0 0 0 0 0 0 0 0 0 0 0 0 0 0 0 0 0 0 0 0 0 0 0 0 0 0 0 0 0 0 0 0 0 0 0 0 0 0 0 0 0 0 0 0 0 0 0 0 0 0 0 0 0 0 0 0 0 0 0 0 0 0 0 0 0 0 0 0 0 0 0 0 0 0 0 0 0 0 0 0 0 0 0 0 0 0 0 0 0 0 0 0 0 0 0 0 0 0 0 0 0 0 0 0 0 0 0 0 0 0 0 0 0 0 0 0 0 0 0 0 0 0 0 0 0 0 0 0 0 0 0 0 0 0 0 0 0 0 0 0 0 0 0 0 0 0 0 0 0 0 0 0 0 0 0 0 0 0 0 0 0 0 0 0 0 0 0 0 0 0 0 0 0 0 0 0 0 0 0 0 0 0 0 0 0 0 0 0 0 0 0 0 0 0 0 0 0 0 0 0 0 0 0 0 0 0 0 0 0 0 0 0 0 0 0 0 0 0 0 0 0 0 0 0 0 0 0 0 0 0 0 0 0 0 0 0 0 0 0 0 0 0 0 0 0 0 0 0 0 0 0 0 0 0 0 0 0 0 0 0 0 0 0 0 0 0 0 0 0 0 0 0 0 0 0 0 0 0 0 0 0 0 0 0 0 0 0 0 0 0 0 0 0 0 0 0 0 0 0 0 0 0 0 0 0 0 0 0 0 0 0 0 0 0 0 0 0 0 0 0 0 0 0 0 0 0 0 0 0 0 0 0 0 0 0 0 0 0 0 0 0 0 0 0 0 0 0 0 0 0 0 0 0 0 0 0 0 0 0 0 0 0 0 0 0 0 0 0 0 0 0 0 0 0 0 0 0 0 0 0 0 0 0 0 0 0 0 0 0 0 0 0 0 0 0 0 0 0 0 0 0 0 0 0 0 0 0 0 0 0 0 0 0 0 0 0 0 0 0 0 0 0 0 0 0 0 0 0 0 0 0 0 0 0 0 0 0 0 0 0 0 0 0 0 0 0 0 0 0 0 0 0 0 0 0 0 0 0 0 0 0 0 0 0 0 0 0 0 0 0 0 0 0 0 0 0 0 0 0 0 0 0 0 0 0 0 0 0 0 0 0 0 0 0 0 0 0 0 0 0 0 0 0 0 0 0 0 
0 0 0 0 0 0 0 0 0 0 0 0 0 0 0 0 0 0 0 0 0 0 0 0 0 0 0 0 0 0 0 0 0 0 0 0 0 0 0 0 0 0 0 0 0 0 0 0 0 0 0 0 0 0 0 0 0 0 0 0 0 0 0 0 0 0 0 0 0 0 0 0 0 0 0 0 0 0 0 0 0 0 0 0 0 0 0 0 0 0 0 0 0 0 0 0 0 0 0 0 0 0 0 0 0 0 0 0 0 0 0 0 0 0 0 0 0 0 0 0 0 0 0 0 0 0 0 0 0 0 0 0 0 0 0 0 0 0 0 0 0 0 0 0 0 0 0 0 0 0 0 0 0 0 0 0 0 0 0 0 0 0 0 0 0 0 0 0 0 0 0 0 0 0 0 0 0 0 0 0 0 0 0 0 0 0 0 0 0 0 0 0 0 0 0 0 0 0 0 0 0 0 0 0 0 0 0 0 0 0 0 0 0 0 0 0 0 0 0 0 0 0 0 0 0 0 0 0 0 0 0 0 0 0 0 0 0 0 0 0 0 0 0 0 0 0 0 0 0 0 0 0 0 0 0 0 0 0 0 0 0 0 0 0 0 0 0 0 0 0 0 0 0 0 0 0 0 0 0 0 0 0 0 0 0 0 0 0 0 0 0 0 0 0 0 0 0 0 0 0 0 0 0 0 0 0 0 0 0 0 0 0 0 0 0 0 0 0 0 0 0 0 0 0 0 0 0 0 0 0 0 0 0 0 0 0 0 0 0 0 0 0 0 0 0 0 0 0 0 0 0 0 0 0 0 0 0 0 0 0 0 0 0 0 0 0 0 0 0 0 0 0 0 0 0 0 0 0 0 0 0 0 0 0 0 0 0 0 0 0 0 0 0 0 0 0 0 0 0 0 0 0 0 0 0 0 0 0 0 0 0 0 0 0 0 0 0 0 0 0 0 0 0 0 0 0 0 0 0 0 0 0 0 0 0 0 0 0 0 0 0 0 0 0 0 0 0 0 0 0 0 0 0 0 0 0 0 0 0 0 0 0 0 0 0 0 0 0 0 0 0 0 0 0 0 0 0 0 0 0 0 0 0 0 0 0 0 0 0 0 0 0 0 0 0 0 0 0 0 0 0 0 0 0 0 0 0 0 0 0 0 0 0 0 0 0 0 0 0 0 0 0 0 0 0 0 0 0 0 0 0 0 0 0 0 0 0 0 0 0 0 0 0 0 0 0 0 0 0 0 0 0 0 0 0 0 0 0 0 0 0 0 0 0 0 0 0 0 0 0 0 0 0 0 0 0 0 0 0 0 0 0 0 0 0 0 0 0 0 0 0 0 0 0 0 0 0 0 0 0 0 0 0 0 0 0 0 0 0 0 0 0 0 0 0 0 0 0 0 0 0 0 0 0 0 0 0 0 0 0 0 0 0 0 0 0 0 0 0 0 0 0 0 0 0 0 0 0 0 0 0 0 0 0 0 0 0 0 0 0 0 0 0 0 0 0 0 0 0 0 0 0 0 0 0 0 0 0 0 0 0 0 0 0 0 0 0 0 0 0 0 0 0 0 0 0 0 0 0 0 0 0 0 0 0 0 0 0 0 0 0 0 0 0 0 0 0 0 0 0 0 0 0 0 0 0 0 0 0 0 0 0 0 0 0 0 0 0 0 0 0 0 0 0 0 0 0 0 0 0 0 0 0 0 0 0 0 0 0 0 0 0 0 0 0 0 0 0 0 0 0 0 0 0 0 0 0 0 0 0 0 0 0 0 0 0 0 0 0 0 0 0 0 0 0 0 0 0 0 0 0 0 0 0 0 0 0 0 0 0 0 0 0 0 0 0 0 0 0 0 0 0 0 0 0 0 0 0 0 0 0 0 0 0 0 0 0 0 0 0 0 0 0 0 0 0 0 0 0 0 0 0 0 0 0 0 0 0 0 0 0 0 0 0 0 0 0 0 0 0 0 0 0 0 0 0 0 0 0 0 0 0 0 0 0 0 0 0 0 0 0 0 0 0 0 0 0 0 0 0 0 0 0 0 0 0 0 0 0 0 0 0 0 0 0 0 0 0 0 0 0 0 0 0 0 0 0 0 0 0 0 0 0 0 0 0 0 0 0 0 0 0 0 0 0 0 0 0 0 0 0 0 0 0 0 0 0 0 0 0 
0 0 0 0 0 0 0 0 0 0 0 0 0 0 0 0 0 0 0 0 0 0 0 0 0 0 0 0 0 0 0 0 0 0 0 0 0 0 0 0 0 0 0 0 0 0 0 0 0 0 0 0 0 0 0 0 0 0 0 0 0 0 0 0 0 0 0 0 0 0 0 0 0 0 0 0 0 0 0 0 0 0 0 0 0 0 0 0 0 0 0 0 0 0 0 0 0 0 0 0 0 0 0 0 0 0 0 0 0 0 0 0 0 0 0 0 0 0 0 0 0 0 0 0 0 0 0 0 0 0 0 0 0 0 0 0 0 0 0 0 0 0 0 0 0 0 0 0 0 0 0 0 0 0 0 0 0 0 0 0 0 0 0 0 0 0 0 0 0 0 0 0 0 0 0 0 0 0 0 0 0 0 0 0 0 0 0 0 0 0 0 0 0 0 0 0 0 0 0 0 0 0 0 0 0 0 0 0 0 0 0 0 0 0 0 0 0 0 0 0 0 0 0 0 0 0 0 0 0 0 0 0 0 0 0 0 0 0 0 0 0 0 0 0 0 0 0 0 0 0 0 0 0 0 0 0 0 0 0 0 0 0 0 0 0 0 0 0 0 0 0 0 0 0 0 0 0 0 0 0 0 0 0 0 0 0 0 0 0 0 0 0 0 0 0 0 0 0 0 0 0 0 0 0 0 0 0 0 0 0 0 0 0 0 0 0 0 0 0 0 0 0 0 0 0 0 0 0 0 0 0 0 0 0 0 0 0 0 0 0 0 0 0 0 0 0 0 0 0 0 0 0 0 0 0 0 0 0 0 0 0 0 0 0 0 0 0 0 0 0 0 0 0 0 0 0 0 0 0 0 0 0 0 0 0 0 0 0 0 0 0 0 0 0 0 0 0 0 0 0 0 0 0 0 0 0 0 0 0 0 0 0 0 0 0 0 0 0 0 0 0 0 0 0 0 0 0 0 0 0 0 0 0 0 0 0 0 0 0 0 0 0 0 0 0 0 0 0 0 0 0 0 0 0 0 0 0 0 0 0 0 0 0 0 0 0 0 0 0 0 0 0 0 0 0 0 0 0 0 0 0 0 0 0 0 0 0 0 0 0 0 0 0 0 0 0 0 0 0 0 0 0 0 0 0 0 0 0 0 0 0 0 0 0 0 0 0 0 0 0 0 0 0 0 0 0 0 0 0 0 0 0 0 0 0 0 0 0 0 0 0 0 0 0 0 0 0 0 0 0 0 0 0 0 0 0 0 0 0 0 0 0 0 0 0 0 0 0 0 0 0 0 0 0 0 0 0 0 0 0 0 0 0 0 0 0 0 0 0 0 0 0 0 0 0 0 0 0 0 0 0 0 0 0 0 0 0 0 0 0 0 0 0 0 0 0 0 0 0 0 0 0 0 0 0 0 0 0 0 0 0 0 0 0 0 0 0 0 0 0 0 0 0 0 0 0 0 0 0 0 0 0 0 0 0 0 0 0 0 0 0 0 0 0 0 0 0 0 0 0 0 0 0 0 0 0 0 0 0 0 0 0 0 0 0 0 0 0 0 0 0 0 0 0 0 0 0 0 0 0 0 0 0 0 0 0 0 0 0 0 0 0 0 0 0 0 0 0 0 0 0 0 0 0 0 0 0 0 0 0 0 0 0 0 0 0 0 0 0 0 0 0 0 0 0 0 0 0 0 0 0 0 0 0 0 0 0 0 0 0 0 0 0 0 0 0 0 0 0 0 0 0 0 0 0 0 0 0 0 0 0 0 0 0 0 0 0 0 0 0 0 0 0 0 0 0 0 0 0 0 0 0 0 0 0 0 0 0 0 0 0 0 0 0 0 0 0 0 0 0 0 0 0 0 0 0 0 0 0 0 0 0 0 0 0 0 0 0 0 0 0 0 0 0 0 0 0 0 0 0 0 0 0 0 0 0 0 0 0 0 0 0 0 0 0 0 0 0 0 0 0 0 0 0 0 0 0 0 0 0 0 0 0 0 0 0 0 0 0 0 0 0 0 0 0 0 0 0 0 0 0 0 0 0 0 0 0 0 0 0 0 0 0 0 0 0 0 0 0 0 0 0 0 0 0 0 0 0 0 0 0 0 0 0 0 0 0 0 0 0 0 0 0 0 0 0 0 0 0 0 0 0 0 0 0 0 0 0 0 0 
0 0 0 0 0 0 0 0 0 0 0 0 0 0 0 0 0 0 0 0 0 0 0 0 0 0 0 0 0 0 0 0 0 0 0 0 0 0 0 0 0 0 0 0 0 0 0 0 0 0 0 0 0 0 0 0 0 0 0 0 0 0 0 0 0 0 0 0 0 0 0 0 0 0 0 0 0 0 0 0 0 0 0 0 0 0 0 0 0 0 0 0 0 0 0 0 0 0 0 0 0 0 0 0 0 0 0 0 0 0 0 0 0 0 0 0 0 0 0 0 0 0 0 0 0 0 0 0 0 0 0 0 0 0 0 0 0 0 0 0 0 0 0 0 0 0 0 0 0 0 0 0 0 0 0 0 0 0 0 0 0 0 0 0 0 0 0 0 0 0 0 0 0 0 0 0 0 0 0 0 0 0 0 0 0 0 0 0 0 0 0 0 0 0 0 0 0 0 0 0 0 0 0 0 0 0 0 0 0 0 0 0 0 0 0 0 0 0 0 0 0 0 0 0 0 0 0 0 0 0 0 0 0 0 0 0 0 0 0 0 0 0 0 0 0 0 0 0 0 0 0 0 0 0 0 0 0 0 0 0 0 0 0 0 0 0 0 0 0 0 0 0 0 0 0 0 0 0 0 0 0 0 0 0 0 0 0 0 0 0 0 0 0 0 0 0 0 0 0 0 0 0 0 0 0 0 0 0 0 0 0 0 0 0 0 0 0 0 0 0 0 0 0 0 0 0 0 0 0 0 0 0 0 0 0 0 0 0 0 0 0 0 0 0 0 0 0 0 0 0 0 0 0 0 0 0 0 0 0 0 0 0 0 0 0 0 0 0 0 0 0 0 0 0 0 0 0 0 0 0 0 0 0 0 0 0 0 0 0 0 0 0 0 0 0 0 0 0 0 0 0 0 0 0 0 0 0 0 0 0 0 0 0 0 0 0 0 0 0 0 0 0 0 0 0 0 0 0 0 0 0 0 0 0 0 0 0 0 0 0 0 0 0 0 0 0 0 0 0 0 0 0 0 0 0 0 0 0 0 0 0 0 0 0 0 0 0 0 0 0 0 0 0 0 0 0 0 0 0 0 0 0 0 0 0 0 0 0 0 0 0 0 0 0 0 0 0 0 0 0 0 0 0 0 0 0 0 0 0 0 0 0 0 0 0 0 0 0 0 0 0 0 0 0 0 0 0 0 0 0 0 0 0 0 0 0 0 0 0 0 0 0 0 0 0 0 0 0 0 0 0 0 0 0 0 0 0 0 0 0 0 0 0 0 0 0 0 0 0 0 0 0 0 0 0 0 0 0 0 0 0 0 0 0 0 0 0 0 0 0 0 0 0 0 0 0 0 0 0 0 0 0 0 0 0 0 0 0 0 0 0 0 0 0 0 0 0 0 0 0 0 0 0 0 0 0 0 0 0 0 0 0 0 0 0 0 0 0 0 0 0 0 0 0 0 0 0 0 0 0 0 0 0 0 0 0 0 0 0 0 0 0 0 0 0 0 0 0 0 0 0 0 0 0 0 0 0 0 0 0 0 0 0 0 0 0 0 0 0 0 0 0 0 0 0 0 0 0 0 0 0 0 0 0 0 0 0 0 0 0 0 0 0 0 0 0 0 0 0 0 0 0 0 0 0 0 0 0 0 0 0 0 0 0 0 0 0 0 0 0 0 0 0 0 0 0 0 0 0 0 0 0 0 0 0 0 0 0 0 0 0 0 0 0 0 0 0 0 0 0 0 0 0 0 0 0 0 0 0 0 0 0 0 0 0 0 0 0 0 0 0 0 0 0 0 0 0 0 0 0 0 0 0 0 0 0 0 0 0 0 0 0 0 0 0 0 0 0 0 0 0 0 0 0 0 0 0 0 0 0 0 0 0 0 0 0 0 0 0 0 0 0 0 0 0 0 0 0 0 0 0 0 0 0 0 0 0 0 0 0 0 0 0 0 0 0 0 0 0 0 0 0 0 0 0 0 0 0 0 0 0 0 0 0 0 0 0 0 0 0 0 0 0 0 0 0 0 0 0 0 0 0 0 0 0 0 0 0 0 0 0 0 0 0 0 0 0 0 0 0 0 0 0 0 0 0 0 0 0 0 0 0 0 0 0 0 0 0 0 0 0 0 0 0 0 0 0 0 0 0 0 0 0 0 0 0 0 0 0 0 
0 0 0 0 0 0 0 0 0 0 0 0 0 0 0 0 0 0 0 0 0 0 0 0 0 0 0 0 0 0 0 0 0 0 0 0 0 0 0 0 0 0 0 0 0 0 0 0 0 0 0 0 0 0 0 0 0 0 0 0 0 0 0 0 0 0 0 0 0 0 0 0 0 0 0 0 0 0 0 0 0 0 0 0 0 0 0 0 0 0 0 0 0 0 0 0 0 0 0 0 0 0 0 0 0 0 0 0 0 0 0 0 0 0 0 0 0 0 0 0 0 0 0 0 0 0 0 0 0 0 0 0 0 0 0 0 0 0 0 0 0 0 0 0 0 0 0 0 0 0 0 0 0 0 0 0 0 0 0 0 0 0 0 0 0 0 0 0 0 0 0 0 0 0 0 0 0 0 0 0 0 0 0 0 0 0 0 0 0 0 0 0 0 0 0 0 0 0 0 0 0 0 0 0 0 0 0 0 0 0 0 0 0 0 0 0 0 0 0 0 0 0 0 0 0 0 0 0 0 0 0 0 0 0 0 0 0 0 0 0 0 0 0 0 0 0 0 0 0 0 0 0 0 0 0 0 0 0 0 0 0 0 0 0 0 0 0 0 0 0 0 0 0 0 0 0 0 0 0 0 0 0 0 0 0 0 0 0 0 0 0 0 0 0 0 0 0 0 0 0 0 0 0 0 0 0 0 0 0 0 0 0 0 0 0 0 0 0 0 0 0 0 0 0 0 0 0 0 0 0 0 0 0 0 0 0 0 0 0 0 0 0 0 0 0 0 0 0 0 0 0 0 0 0 0 0 0 0 0 0 0 0 0 0 0 0 0 0 0 0 0 0 0 0 0 0 0 0 0 0 0 0 0 0 0 0 0 0 0 0 0 0 0 0 0 0 0 0 0 0 0 0 0 0 0 0 0 0 0 0 0 0 0 0 0 0 0 0 0 0 0 0 0 0 0 0 0 0 0 0 0 0 0 0 0 0 0 0 0 0 0 0 0 0 0 0 0 0 0 0 0 0 0 0 0 0 0 0 0 0 0 0 0 0 0 0 0 0 0 0 0 0 0 0 0 0 0 0 0 0 0 0 0 0 0 0 0 0 0 0 0 0 0 0 0 0 0 0 0 0 0 0 0 0 0 0 0 0 0 0 0 0 0 0 0 0 0 0 0 0 0 0 0 0 0 0 0 0 0 0 0 0 0 0 0 0 0 0 0 0 0 0 0 0 0 0 0 0 0 0 0 0 0 0 0 0 0 0 0 0 0 0 0 0 0 0 0 0 0 0 0 0 0 0 0 0 0 0 0 0 0 0 0 0 0 0 0 0 0 0 0 0 0 0 0 0 0 0 0 0 0 0 0 0 0 0 0 0 0 0 0 0 0 0 0 0 0 0 0 0 0 0 0 0 0 0 0 0 0 0 0 0 0 0 0 0 0 0 0 0 0 0 0 0 0 0 0 0 0 0 0 0 0 0 0 0 0 0 0 0 0 0 0 0 0 0 0 0 0 0 0 0 0 0 0 0 0 0 0 0 0 0 0 0 0 0 0 0 0 0 0 0 0 0 0 0 0 0 0 0 0 0 0 0 0 0 0 0 0 0 0 0 0 0 0 0 0 0 0 0 0 0 0 0 0 0 0 0 0 0 0 0 0 0 0 0 0 0 0 0 0 0 0 0 0 0 0 0 0 0 0 0 0 0 0 0 0 0 0 0 0 0 0 0 0 0 0 0 0 0 0 0 0 0 0 0 0 0 0 0 0 0 0 0 0 0 0 0 0 0 0 0 0 0 0 0 0 0 0 0 0 0 0 0 0 0 0 0 0 0 0 0 0 0 0 0 0 0 0 0 0 0 0 0 0 0 0 0 0 0 0 0 0 0 0 0 0 0 0 0 0 0 0 0 0 0 0 0 0 0 0 0 0 0 0 0 0 0 0 0 0 0 0 0 0 0 0 0 0 0 0 0 0 0 0 0 0 0 0 0 0 0 0 0 0 0 0 0 0 0 0 0 0 0 0 0 0 0 0 0 0 0 0 0 0 0 0 0 0 0 0 0 0 0 0 0 0 0 0 0 0 0 0 0 0 0 0 0 0 0 0 0 0 0 0 0 0 0 0 0 0 0 0 0 0 0 0 0 0 0 0 0 0 0 0 0 0 0 0 0 
0 0 0 0 0 0 0 0 0 0 0 0 0 0 0 0 0 0 0 0 0 0 0 0 0 0 0 0 0 0 0 0 0 0 0 0 0 0 0 0 0 0 0 0 0 0 0 0 0 0 0 0 0 0 0 0 0 0 0 0 0 0 0 0 0 0 0 0 0 0 0 0 0 0 0 0 0 0 0 0 0 0 0 0 0 0 0 0 0 0 0 0 0 0 0 0 0 0 0 0 0 0 0 0 0 0 0 0 0 0 0 0 0 0 0 0 0 0 0 0 0 0 0 0 0 0 0 0 0 0 0 0 0 0 0 0 0 0 0 0 0 0 0 0 0 0 0 0 0 0 0 0 0 0 0 0 0 0 0 0 0 0 0 0 0 0 0 0 0 0 0 0 0 0 0 0 0 0 0 0 0 0 0 0 0 0 0 0 0 0 0 0 0 0 0 0 0 0 0 0 0 0 0 0 0 0 0 0 0 0 0 0 0 0 0 0 0 0 0 0 0 0 0 0 0 0 0 0 0 0 0 0 0 0 0 0 0 0 0 0 0 0 0 0 0 0 0 0 0 0 0 0 0 0 0 0 0 0 0 0 0 0 0 0 0 0 0 0 0 0 0 0 0 0 0 0 0 0 0 0 0 0 0 0 0 0 0 0 0 0 0 0 0 0 0 0 0 0 0 0 0 0 0 0 0 0 0 0 0 0 0 0 0 0 0 0 0 0 0 0 0 0 0 0 0 0 0 0 0 0 0 0 0 0 0 0 0 0 0 0 0 0 0 0 0 0 0 0 0 0 0 0 0 0 0 0 0 0 0 0 0 0 0 0 0 0 0 0 0 0 0 0 0 0 0 0 0 0 0 0 0 0 0 0 0 0 0 0 0 0 0 0 0 0 0 0 0 0 0 0 0 0 0 0 0 0 0 0 0 0 0 0 0 0 0 0 0 0 0 0 0 0 0 0 0 0 0 0 0 0 0 0 0 0 0 0 0 0 0 0 0 0 0 0 0 0 0 0 0 0 0 0 0 0 0 0 0 0 0 0 0 0 0 0 0 0 0 0 0 0 0 0 0 0 0 0 0 0 0 0 0 0 0 0 0 0 0 0 0 0 0 0 0 0 0 0 0 0 0 0 0 0 0 0 0 0 0 0 0 0 0 0 0 0 0 0 0 0 0 0 0 0 0 0 0 0 0 0 0 0 0 0 0 0 0 0 0 0 0 0 0 0 0 0 0 0 0 0 0 0 0 0 0 0 0 0 0 0 0 0 0 0 0 0 0 0 0 0 0 0 0 0 0 0 0 0 0 0 0 0 0 0 0 0 0 0 0 0 0 0 0 0 0 0 0 0 0 0 0 0 0 0 0 0 0 0 0 0 0 0 0 0 0 0 0 0 0 0 0 0 0 0 0 0 0 0 0 0 0 0 0 0 0 0 0 0 0 0 0 0 0 0 0 0 0 0 0 0 0 0 0 0 0 0 0 0 0 0 0 0 0 0 0 0 0 0 0 0 0 0 0 0 0 0 0 0 0 0 0 0 0 0 0 0 0 0 0 0 0 0 0 0 0 0 0 0 0 0 0 0 0 0 0 0 0 0 0 0 0 0 0 0 0 0 0 0 0 0 0 0 0 0 0 0 0 0 0 0 0 0 0 0 0 0 0 0 0 0 0 0 0 0 0 0 0 0 0 0 0 0 0 0 0 0 0 0 0 0 0 0 0 0 0 0 0 0 0 0 0 0 0 0 0 0 0 0 0 0 0 0 0 0 0 0 0 0 0 0 0 0 0 0 0 0 0 0 0 0 0 0 0 0 0 0 0 0 0 0 0 0 0 0 0 0 0 0 0 0 0 0 0 0 0 0 0 0 0 0 0 0 0 0 0 0 0 0 0 0 0 0 0 0 0 0 0 0 0 0 0 0 0 0 0 0 0 0 0 0 0 0 0 0 0 0 0 0 0 0 0 0 0 0 0 0 0 0 0 0 0 0 0 0 0 0 0 0 0 0 0 0 0 0 0 0 0 0 0 0 0 0 0 0 0 0 0 0 0 0 0 0 0 0 0 0 0 0 0 0 0 0 0 0 0 0 0 0 0 0 0 0 0 0 0 0 0 0 0 0 0 0 0 0 0 0 0 0 0 0 0 0 0 0 0 0 0 0 0 0 0 0 
0 0 0 0 0 0 0 0 0 0 0 0 0 0 0 0 0 0 0 0 0 0 0 0 0 0 0 0 0 0 0 0 0 0 0 0 0 0 0 0 0 0 0 0 0 0 0 0 0 0 0 0 0 0 0 0 0 0 0 0 0 0 0 0 0 0 0 0 0 0 0 0 0 0 0 0 0 0 0 0 0 0 0 0 0 0 0 0 0 0 0 0 0 0 0 0 0 0 0 0 0 0 0 0 0 0 0 0 0 0 0 0 0 0 0 0 0 0 0 0 0 0 0 0 0 0 0 0 0 0 0 0 0 0 0 0 0 0 0 0 0 0 0 0 0 0 0 0 0 0 0 0 0 0 0 0 0 0 0 0 0 0 0 0 0 0 0 0 0 0 0 0 0 0 0 0 0 0 0 0 0 0 0 0 0 0 0 0 0 0 0 0 0 0 0 0 0 0 0 0 0 0 0 0 0 0 0 0 0 0 0 0 0 0 0 0 0 0 0 0 0 0 0 0 0 0 0 0 0 0 0 0 0 0 0 0 0 0 0 0 0 0 0 0 0 0 0 0 0 0 0 0 0 0 0 0 0 0 0 0 0 0 0 0 0 0 0 0 0 0 0 0 0 0 0 0 0 0 0 0 0 0 0 0 0 0 0 0 0 0 0 0 0 0 0 0 0 0 0 0 0 0 0 0 0 0 0 0 0 0 0 0 0 0 0 0 0 0 0 0 0 0 0 0 0 0 0 0 0 0 0 0 0 0 0 0 0 0 0 0 0 0 0 0 0 0 0 0 0 0 0 0 0 0 0 0 0 0 0 0 0 0 0 0 0 0 0 0 0 0 0 0 0 0 0 0 0 0 0 0 0 0 0 0 0 0 0 0 0 0 0 0 0 0 0 0 0 0 0 0 0 0 0 0 0 0 0 0 0 0 0 0 0 0 0 0 0 0 0 0 0 0 0 0 0 0 0 0 0 0 0 0 0 0 0 0 0 0 0 0 0 0 0 0 0 0 0 0 0 0 0 0 0 0 0 0 0 0 0 0 0 0 0 0 0 0 0 0 0 0 0 0 0 0 0 0 0 0 0 0 0 0 0 0 0 0 0 0 0 0 0 0 0 0 0 0 0 0 0 0 0 0 0 0 0 0 0 0 0 0 0 0 0 0 0 0 0 0 0 0 0 0 0 0 0 0 0 0 0 0 0 0 0 0 0 0 0 0 0 0 0 0 0 0 0 0 0 0 0 0 0 0 0 0 0 0 0 0 0 0 0 0 0 0 0 0 0 0 0 0 0 0 0 0 0 0 0 0 0 0 0 0 0 0 0 0 0 0 0 0 0 0 0 0 0 0 0 0 0 0 0 0 0 0 0 0 0 0 0 0 0 0 0 0 0 0 0 0 0 0 0 0 0 0 0 0 0 0 0 0 0 0 0 0 0 0 0 0 0 0 0 0 0 0 0 0 0 0 0 0 0 0 0 0 0 0 0 0 0 0 0 0 0 0 0 0 0 0 0 0 0 0 0 0 0 0 0 0 0 0 0 0 0 0 0 0 0 0 0 0 0 0 0 0 0 0 0 0 0 0 0 0 0 0 0 0 0 0 0 0 0 0 0 0 0 0 0 0 0 0 0 0 0 0 0 0 0 0 0 0 0 0 0 0 0 0 0 0 0 0 0 0 0 0 0 0 0 0 0 0 0 0 0 0 0 0 0 0 0 0 0 0 0 0 0 0 0 0 0 0 0 0 0 0 0 0 0 0 0 0 0 0 0 0 0 0 0 0 0 0 0 0 0 0 0 0 0 0 0 0 0 0 0 0 0 0 0 0 0 0 0 0 0 0 0 0 0 0 0 0 0 0 0 0 0 0 0 0 0 0 0 0 0 0 0 0 0 0 0 0 0 0 0 0 0 0 0 0 0 0 0 0 0 0 0 0 0 0 0 0 0 0 0 0 0 0 0 0 0 0 0 0 0 0 0 0 0 0 0 0 0 0 0 0 0 0 0 0 0 0 0 0 0 0 0 0 0 0 0 0 0 0 0 0 0 0 0 0 0 0 0 0 0 0 0 0 0 0 0 0 0 0 0 0 0 0 0 0 0 0 0 0 0 0 0 0 0 0 0 0 0 0 0 0 0 0 0 0 0 0 0 0 0 0 0 0 0 0 0 0 
0 0 0 0 0 0 0 0 0 0 0 0 0 0 0 0 0 0 0 0 0 0 0 0 0 0 0 0 0 0 0 0 0 0 0 0 0 0 0 0 0 0 0 0 0 0 0 0 0 0 0 0 0 0 0 0 0 0 0 0 0 0 0 0 0 0 0 0 0 0 0 0 0 0 0 0 0 0 0 0 0 0 0 0 0 0 0 0 0 0 0 0 0 0 0 0 0 0 0 0 0 0 0 0 0 0 0 0 0 0 0 0 0 0 0 0 0 0 0 0 0 0 0 0 0 0 0 0 0 0 0 0 0 0 0 0 0 0 0 0 0 0 0 0 0 0 0 0 0 0 0 0 0 0 0 0 0 0 0 0 0 0 0 0 0 0 0 0 0 0 0 0 0 0 0 0 0 0 0 0 0 0 0 0 0 0 0 0 0 0 0 0 0 0 0 0 0 0 0 0 0 0 0 0 0 0 0 0 0 0 0 0 0 0 0 0 0 0 0 0 0 0 0 0 0 0 0 0 0 0 0 0 0 0 0 0 0 0 0 0 0 0 0 0 0 0 0 0 0 0 0 0 0 0 0 0 0 0 0 0 0 0 0 0 0 0 0 0 0 0 0 0 0 0 0 0 0 0 0 0 0 0 0 0 0 0 0 0 0 0 0 0 0 0 0 0 0 0 0 0 0 0 0 0 0 0 0 0 0 0 0 0 0 0 0 0 0 0 0 0 0 0 0 0 0 0 0 0 0 0 0 0 0 0 0 0 0 0 0 0 0 0 0 0 0 0 0 0 0 0 0 0 0 0 0 0 0 0 0 0 0 0 0 0 0 0 0 0 0 0 0 0 0 0 0 0 0 0 0 0 0 0 0 0 0 0 0 0 0 0 0 0 0 0 0 0 0 0 0 0 0 0 0 0 0 0 0 0 0 0 0 0 0 0 0 0 0 0 0 0 0 0 0 0 0 0 0 0 0 0 0 0 0 0 0 0 0 0 0 0 0 0 0 0 0 0 0 0 0 0 0 0 0 0 0 0 0 0 0 0 0 0 0 0 0 0 0 0 0 0 0 0 0 0 0 0 0 0 0 0 0 0 0 0 0 0 0 0 0 0 0 0 0 0 0 0 0 0 0 0 0 0 0 0 0 0 0 0 0 0 0 0 0 0 0 0 0 0 0 0 0 0 0 0 0 0 0 0 0 0 0 0 0 0 0 0 0 0 0 0 0 0 0 0 0 0 0 0 0 0 0 0 0 0 0 0 0 0 0 0 0 0 0 0 0 0 0 0 0 0 0 0 0 0 0 0 0 0 0 0 0 0 0 0 0 0 0 0 0 0 0 0 0 0 0 0 0 0 0 0 0 0 0 0 0 0 0 0 0 0 0 0 0 0 0 0 0 0 0 0 0 0 0 0 0 0 0 0 0 0 0 0 0 0 0 0 0 0 0 0 0 0 0 0 0 0 0 0 0 0 0 0 0 0 0 0 0 0 0 0 0 0 0 0 0 0 0 0 0 0 0 0 0 0 0 0 0 0 0 0 0 0 0 0 0 0 0 0 0 0 0 0 0 0 0 0 0 0 0 0 0 0 0 0 0 0 0 0 0 0 0 0 0 0 0 0 0 0 0 0 0 0 0 0 0 0 0 0 0 0 0 0 0 0 0 0 0 0 0 0 0 0 0 0 0 0 0 0 0 0 0 0 0 0 0 0 0 0 0 0 0 0 0 0 0 0 0 0 0 0 0 0 0 0 0 0 0 0 0 0 0 0 0 0 0 0 0 0 0 0 0 0 0 0 0 0 0 0 0 0 0 0 0 0 0 0 0 0 0 0 0 0 0 0 0 0 0 0 0 0 0 0 0 0 0 0 0 0 0 0 0 0 0 0 0 0 0 0 0 0 0 0 0 0 0 0 0 0 0 0 0 0 0 0 0 0 0 0 0 0 0 0 0 0 0 0 0 0 0 0 0 0 0 0 0 0 0 0 0 0 0 0 0 0 0 0 0 0 0 0 0 0 0 0 0 0 0 0 0 0 0 0 0 0 0 0 0 0 0 0 0 0 0 0 0 0 0 0 0 0 0 0 0 0 0 0 0 0 0 0 0 0 0 0 0 0 0 0 0 0 0 0 0 0 0 0 0 0 0 0 0 0 0 0 0 0 0 0 0 0 
0 0 0 0 0 0 0 0 0 0 0 0 0 0 0 0 0 0 0 0 0 0 0 0 0 0 0 0 0 0 0 0 0 0 0 0 0 0 0 0 0 0 0 0 0 0 0 0 0 0 0 0 0 0 0 0 0 0 0 0 0 0 0 0 0 0 0 0 0 0 0 0 0 0 0 0 0 0 0 0 0 0 0 0 0 0 0 0 0 0 0 0 0 0 0 0 0 0 0 0 0 0 0 0 0 0 0 0 0 0 0 0 0 0 0 0 0 0 0 0 0 0 0 0 0 0 0 0 0 0 0 0 0 0 0 0 0 0 0 0 0 0 0 0 0 0 0 0 0 0 0 0 0 0 0 0 0 0 0 0 0 0 0 0 0 0 0 0 0 0 0 0 0 0 0 0 0 0 0 0 0 0 0 0 0 0 0 0 0 0 0 0 0 0 0 0 0 0 0 0 0 0 0 0 0 0 0 0 0 0 0 0 0 0 0 0 0 0 0 0 0 0 0 0 0 0 0 0 0 0 0 0 0 0 0 0 0 0 0 0 0 0 0 0 0 0 0 0 0 0 0 0 0 0 0 0 0 0 0 0 0 0 0 0 0 0 0 0 0 0 0 0 0 0 0 0 0 0 0 0 0 0 0 0 0 0 0 0 0 0 0 0 0 0 0 0 0 0 0 0 0 0 0 0 0 0 0 0 0 0 0 0 0 0 0 0 0 0 0 0 0 0 0 0 0 0 0 0 0 0 0 0 0 0 0 0 0 0 0 0 0 0 0 0 0 0 0 0 0 0 0 0 0 0 0 0 0 0 0 0 0 0 0 0 0 0 0 0 0 0 0 0 0 0 0 0 0 0 0 0 0 0 0 0 0 0 0 0 0 0 0 0 0 0 0 0 0 0 0 0 0 0 0 0 0 0 0 0 0 0 0 0 0 0 0 0 0 0 0 0 0 0 0 0 0 0 0 0 0 0 0 0 0 0 0 0 0 0 0 0 0 0 0 0 0 0 0 0 0 0 0 0 0 0 0 0 0 0 0 0 0 0 0 0 0 0 0 0 0 0 0 0 0 0 0 0 0 0 0 0 0 0 0 0 0 0 0 0 0 0 0 0 0 0 0 0 0 0 0 0 0 0 0 0 0 0 0 0 0 0 0 0 0 0 0 0 0 0 0 0 0 0 0 0 0 0 0 0 0 0 0 0 0 0 0 0 0 0 0 0 0 0 0 0 0 0 0 0 0 0 0 0 0 0 0 0 0 0 0 0 0 0 0 0 0 0 0 0 0 0 0 0 0 0 0 0 0 0 0 0 0 0 0 0 0 0 0 0 0 0 0 0 0 0 0 0 0 0 0 0 0 0 0 0 0 0 0 0 0 0 0 0 0 0 0 0 0 0 0 0 0 0 0 0 0 0 0 0 0 0 0 0 0 0 0 0 0 0 0 0 0 0 0 0 0 0 0 0 0 0 0 0 0 0 0 0 0 0 0 0 0 0 0 0 0 0 0 0 0 0 0 0 0 0 0 0 0 0 0 0 0 0 0 0 0 0 0 0 0 0 0 0 0 0 0 0 0 0 0 0 0 0 0 0 0 0 0 0 0 0 0 0 0 0 0 0 0 0 0 0 0 0 0 0 0 0 0 0 0 0 0 0 0 0 0 0 0 0 0 0 0 0 0 0 0 0 0 0 0 0 0 0 0 0 0 0 0 0 0 0 0 0 0 0 0 0 0 0 0 0 0 0 0 0 0 0 0 0 0 0 0 0 0 0 0 0 0 0 0 0 0 0 0 0 0 0 0 0 0 0 0 0 0 0 0 0 0 0 0 0 0 0 0 0 0 0 0 0 0 0 0 0 0 0 0 0 0 0 0 0 0 0 0 0 0 0 0 0 0 0 0 0 0 0 0 0 0 0 0 0 0 0 0 0 0 0 0 0 0 0 0 0 0 0 0 0 0 0 0 0 0 0 0 0 0 0 0 0 0 0 0 0 0 0 0 0 0 0 0 0 0 0 0 0 0 0 0 0 0 0 0 0 0 0 0 0 0 0 0 0 0 0 0 0 0 0 0 0 0 0 0 0 0 0 0 0 0 0 0 0 0 0 0 0 0 0 0 0 0 0 0 0 0 0 0 0 0 0 0 0 0 0 0 0 0 0 0 0 0 0 
0 0 0 0 0 0 0 0 0 0 0 0 0 0 0 0 0 0 0 0 0 0 0 0 0 0 0 0 0 0 0 0 0 0 0 0 0 0 0 0 0 0 0 0 0 0 0 0 0 0 0 0 0 0 0 0 0 0 0 0 0 0 0 0 0 0 0 0 0 0 0 0 0 0 0 0 0 0 0 0 0 0 0 0 0 0 0 0 0 0 0 0 0 0 0 0 0 0 0 0 0 0 0 0 0 0 0 0 0 0 0 0 0 0 0 0 0 0 0 0 0 0 0 0 0 0 0 0 0 0 0 0 0 0 0 0 0 0 0 0 0 0 0 0 0 0 0 0 0 0 0 0 0 0 0 0 0 0 0 0 0 0 0 0 0 0 0 0 0 0 0 0 0 0 0 0 0 0 0 0 0 0 0 0 0 0 0 0 0 0 0 0 0 0 0 0 0 0 0 0 0 0 0 0 0 0 0 0 0 0 0 0 0 0 0 0 0 0 0 0 0 0 0 0 0 0 0 0 0 0 0 0 0 0 0 0 0 0 0 0 0 0 0 0 0 0 0 0 0 0 0 0 0 0 0 0 0 0 0 0 0 0 0 0 0 0 0 0 0 0 0 0 0 0 0 0 0 0 0 0 0 0 0 0 0 0 0 0 0 0 0 0 0 0 0 0 0 0 0 0 0 0 0 0 0 0 0 0 0 0 0 0 0 0 0 0 0 0 0 0 0 0 0 0 0 0 0 0 0 0 0 0 0 0 0 0 0 0 0 0 0 0 0 0 0 0 0 0 0 0 0 0 0 0 0 0 0 0 0 0 0 0 0 0 0 0 0 0 0 0 0 0 0 0 0 0 0 0 0 0 0 0 0 0 0 0 0 0 0 0 0 0 0 0 0 0 0 0 0 0 0 0 0 0 0 0 0 0 0 0 0 0 0 0 0 0 0 0 0 0 0 0 0 0 0 0 0 0 0 0 0 0 0 0 0 0 0 0 0 0 0 0 0 0 0 0 0 0 0 0 0 0 0 0 0 0 0 0 0 0 0 0 0 0 0 0 0 0 0 0 0 0 0 0 0 0 0 0 0 0 0 0 0 0 0 0 0 0 0 0 0 0 0 0 0 0 0 0 0 0 0 0 0 0 0 0 0 0 0 0 0 0 0 0 0 0 0 0 0 0 0 0 0 0 0 0 0 0 0 0 0 0 0 0 0 0 0 0 0 0 0 0 0 0 0 0 0 0 0 0 0 0 0 0 0 0 0 0 0 0 0 0 0 0 0 0 0 0 0 0 0 0 0 0 0 0 0 0 0 0 0 0 0 0 0 0 0 0 0 0 0 0 0 0 0 0 0 0 0 0 0 0 0 0 0 0 0 0 0 0 0 0 0 0 0 0 0 0 0 0 0 0 0 0 0 0 0 0 0 0 0 0 0 0 0 0 0 0 0 0 0 0 0 0 0 0 0 0 0 0 0 0 0 0 0 0 0 0 0 0 0 0 0 0 0 0 0 0 0 0 0 0 0 0 0 0 0 0 0 0 0 0 0 0 0 0 0 0 0 0 0 0 0 0 0 0 0 0 0 0 0 0 0 0 0 0 0 0 0 0 0 0 0 0 0 0 0 0 0 0 0 0 0 0 0 0 0 0 0 0 0 0 0 0 0 0 0 0 0 0 0 0 0 0 0 0 0 0 0 0 0 0 0 0 0 0 0 0 0 0 0 0 0 0 0 0 0 0 0 0 0 0 0 0 0 0 0 0 0 0 0 0 0 0 0 0 0 0 0 0 0 0 0 0 0 0 0 0 0 0 0 0 0 0 0 0 0 0 0 0 0 0 0 0 0 0 0 0 0 0 0 0 0 0 0 0 0 0 0 0 0 0 0 0 0 0 0 0 0 0 0 0 0 0 0 0 0 0 0 0 0 0 0 0 0 0 0 0 0 0 0 0 0 0 0 0 0 0 0 0 0 0 0 0 0 0 0 0 0 0 0 0 0 0 0 0 0 0 0 0 0 0 0 0 0 0 0 0 0 0 0 0 0 0 0 0 0 0 0 0 0 0 0 0 0 0 0 0 0 0 0 0 0 0 0 0 0 0 0 0 0 0 0 0 0 0 0 0 0 0 0 0 0 0 0 0 0 0 0 0 0 0 0 0 0 0 0 0 0 0 
0 0 0 0 0 0 0 0 0 0 0 0 0 0 0 0 0 0 0 0 0 0 0 0 0 0 0 0 0 0 0 0 0 0 0 0 0 0 0 0 0 0 0 0 0 0 0 0 0 0 0 0 0 0 0 0 0 0 0 0 0 0 0 0 0 0 0 0 0 0 0 0 0 0 0 0 0 0 0 0 0 0 0 0 0 0 0 0 0 0 0 0 0 0 0 0 0 0 0 0 0 0 0 0 0 0 0 0 0 0 0 0 0 0 0 0 0 0 0 0 0 0 0 0 0 0 0 0 0 0 0 0 0 0 0 0 0 0 0 0 0 0 0 0 0 0 0 0 0 0 0 0 0 0 0 0 0 0 0 0 0 0 0 0 0 0 0 0 0 0 0 0 0 0 0 0 0 0 0 0 0 0 0 0 0 0 0 0 0 0 0 0 0 0 0 0 0 0 0 0 0 0 0 0 0 0 0 0 0 0 0 0 0 0 0 0 0 0 0 0 0 0 0 0 0 0 0 0 0 0 0 0 0 0 0 0 0 0 0 0 0 0 0 0 0 0 0 0 0 0 0 0 0 0 0 0 0 0 0 0 0 0 0 0 0 0 0 0 0 0 0 0 0 0 0 0 0 0 0 0 0 0 0 0 0 0 0 0 0 0 0 0 0 0 0 0 0 0 0 0 0 0 0 0 0 0 0 0 0 0 0 0 0 0 0 0 0 0 0 0 0 0 0 0 0 0 0 0 0 0 0 0 0 0 0 0 0 0 0 0 0 0 0 0 0 0 0 0 0 0 0 0 0 0 0 0 0 0 0 0 0 0 0 0 0 0 0 0 0 0 0 0 0 0 0 0 0 0 0 0 0 0 0 0 0 0 0 0 0 0 0 0 0 0 0 0 0 0 0 0 0 0 0 0 0 0 0 0 0 0 0 0 0 0 0 0 0 0 0 0 0 0 0 0 0 0 0 0 0 0 0 0 0 0 0 0 0 0 0 0 0 0 0 0 0 0 0 0 0 0 0 0 0 0 0 0 0 0 0 0 0 0 0 0 0 0 0 0 0 0 0 0 0 0 0 0 0 0 0 0 0 0 0 0 0 0 0 0 0 0 0 0 0 0 0 0 0 0 0 0 0 0 0 0 0 0 0 0 0 0 0 0 0 0 0 0 0 0 0 0 0 0 0 0 0 0 0 0 0 0 0 0 0 0 0 0 0 0 0 0 0 0 0 0 0 0 0 0 0 0 0 0 0 0 0 0 0 0 0 0 0 0 0 0 0 0 0 0 0 0 0 0 0 0 0 0 0 0 0 0 0 0 0 0 0 0 0 0 0 0 0 0 0 0 0 0 0 0 0 0 0 0 0 0 0 0 0 0 0 0 0 0 0 0 0 0 0 0 0 0 0 0 0 0 0 0 0 0 0 0 0 0 0 0 0 0 0 0 0 0 0 0 0 0 0 0 0 0 0 0 0 0 0 0 0 0 0 0 0 0 0 0 0 0 0 0 0 0 0 0 0 0 0 0 0 0 0 0 0 0 0 0 0 0 0 0 0 0 0 0 0 0 0 0 0 0 0 0 0 0 0 0 0 0 0 0 0 0 0 0 0 0 0 0 0 0 0 0 0 0 0 0 0 0 0 0 0 0 0 0 0 0 0 0 0 0 0 0 0 0 0 0 0 0 0 0 0 0 0 0 0 0 0 0 0 0 0 0 0 0 0 0 0 0 0 0 0 0 0 0 0 0 0 0 0 0 0 0 0 0 0 0 0 0 0 0 0 0 0 0 0 0 0 0 0 0 0 0 0 0 0 0 0 0 0 0 0 0 0 0 0 0 0 0 0 0 0 0 0 0 0 0 0 0 0 0 0 0 0 0 0 0 0 0 0 0 0 0 0 0 0 0 0 0 0 0 0 0 0 0 0 0 0 0 0 0 0 0 0 0 0 0 0 0 0 0 0 0 0 0 0 0 0 0 0 0 0 0 0 0 0 0 0 0 0 0 0 0 0 0 0 0 0 0 0 0 0 0 0 0 0 0 0 0 0 0 0 0 0 0 0 0 0 0 0 0 0 0 0 0 0 0 0 0 0 0 0 0 0 0 0 0 0 0 0 0 0 0 0 0 0 0 0 0 0 0 0 0 0 0 0 0 0 0 0 0 0 0 0 0 
